Afshin1997/kuka_rl_ros2/src/catch_and_throw/output_files/tm/idealpd5/tm_received_joint_target_np.csv
joint_0,joint_1,joint_2,joint_3,joint_4,joint_5,joint_6
0.824494,0.000121465,1.38141,1.17427,1.65559,-0.842365,1.57472
0.848852,0.010547,1.33414,1.29069,1.56805,-0.912951,1.5583
0.856439,-0.0386375,1.38643,1.28351,1.63194,-0.851281,1.5548
0.715051,0.0486355,1.2991,1.16947,1.55708,-0.957247,1.60623
0.845025,-0.0578401,1.30667,1.17154,1.53209,-0.972643,1.53468
0.845064,-0.0577805,1.30774,1.17047,1.53253,-0.971163,1.53467
0.727003,-0.00265829,1.39286,1.19741,1.65598,-0.834507,1.54065
0.741821,0.00928072,1.39478,1.23768,1.65722,-0.830901,1.53509
0.714553,0.010397,1.39189,1.1688,1.654,-0.829896,1.56984
0.712106,-0.0243422,1.39597,1.15838,1.65438,-0.828983,1.5791
0.713769,-0.0369672,1.39946,1.15395,1.6562,-0.827557,1.58345
0.851415,-0.00199963,1.40586,1.17822,1.65171,-0.830531,1.53172
0.851399,0.00281733,1.40635,1.17715,1.64976,-0.831064,1.53735
0.720061,0.0316785,1.2904,1.15058,1.5587,-0.884503,1.60192
0.719647,0.0643862,1.34518,1.15388,1.62501,-0.847659,1.59102
0.831903,0.0657955,1.39986,1.23501,1.58621,-0.850341,1.58832
0.720198,0.057287,1.34593,1.14856,1.57227,-0.936918,1.59786
0.721419,0.0552644,1.34645,1.14631,1.59003,-0.93136,1.59652
0.860984,0.0462202,1.38677,1.27121,1.54621,-0.848012,1.5639
0.861711,0.0492414,1.37819,1.26929,1.54414,-0.854355,1.55936
0.862496,0.0512076,1.36308,1.26701,1.54372,-0.851012,1.55531
0.848759,-0.0759205,1.33637,1.23339,1.53931,-0.923761,1.52906
0.852914,0.0270962,1.32692,1.25705,1.5539,-0.896811,1.55672
0.854721,0.00599514,1.33497,1.25337,1.5661,-0.892182,1.55549
0.857057,-0.00202727,1.35982,1.25187,1.58695,-0.877577,1.55819
0.857175,-0.00971653,1.36971,1.2509,1.58632,-0.87109,1.55733
0.855437,-0.0114717,1.36052,1.25226,1.57954,-0.880476,1.55615
0.854164,-0.000782663,1.3665,1.25322,1.58286,-0.884728,1.55669
0.854437,0.00406255,1.38324,1.25286,1.59734,-0.878846,1.55599
0.855499,-0.0162918,1.39614,1.25249,1.59396,-0.862708,1.55004
0.85597,-0.0320804,1.39947,1.25512,1.57742,-0.853402,1.54406
0.854821,-0.029827,1.39774,1.25801,1.5758,-0.859953,1.54398
0.853489,-0.019732,1.39618,1.26052,1.57937,-0.87187,1.54567
0.852558,-0.0156387,1.39697,1.26298,1.57889,-0.876157,1.54525
0.850445,-0.0106358,1.39191,1.2669,1.57503,-0.888029,1.54555
0.847653,-0.00307054,1.38374,1.2712,1.56953,-0.898697,1.54558
0.84669,0.0182861,1.38082,1.27599,1.56157,-0.902296,1.54623
0.845755,0.0268646,1.38245,1.27963,1.56004,-0.903949,1.54604
0.845091,0.0229908,1.3849,1.28288,1.56055,-0.902767,1.5445
0.844311,0.0163324,1.38679,1.28643,1.55976,-0.901013,1.5425
0.848575,0.0423691,1.42426,1.27619,1.54337,-0.88674,1.53297
0.717955,0.0499154,1.34598,1.17532,1.54522,-0.924621,1.59064
0.71866,0.049942,1.3468,1.1793,1.54405,-0.925384,1.58973
0.719886,0.0499147,1.34767,1.18324,1.54278,-0.926545,1.58887
0.721414,0.0499944,1.34861,1.18725,1.54156,-0.927694,1.58796
0.72327,0.0502108,1.34955,1.19121,1.54034,-0.928724,1.58698
0.725462,0.0506212,1.35067,1.1947,1.5392,-0.929763,1.58641
0.727915,0.0511185,1.3516,1.1975,1.53788,-0.930973,1.58655
0.730619,0.0515175,1.35168,1.19959,1.536,-0.932583,1.58744
0.733715,0.0516511,1.35101,1.20098,1.5337,-0.935032,1.5889
0.737138,0.0516778,1.3498,1.20144,1.53136,-0.938071,1.59066
0.74081,0.0516158,1.34811,1.20109,1.52869,-0.941476,1.59254
0.744648,0.0516382,1.34618,1.20006,1.52596,-0.945056,1.5946
0.748534,0.0519541,1.344,1.19847,1.52315,-0.948677,1.59679
0.752298,0.0525945,1.34171,1.19654,1.52024,-0.952145,1.59904
0.755873,0.0533011,1.33952,1.19452,1.51721,-0.955513,1.60137
0.759291,0.0539393,1.33748,1.19225,1.51414,-0.958955,1.60372
0.76257,0.0545912,1.33558,1.18961,1.51114,-0.96245,1.60608
0.765565,0.0553891,1.33368,1.18692,1.50795,-0.96596,1.60849
0.768132,0.0564394,1.33151,1.18412,1.5048,-0.969434,1.61086
0.77033,0.057569,1.32932,1.18117,1.50164,-0.97302,1.61326
0.772147,0.0589463,1.32696,1.17804,1.49845,-0.976744,1.61565
0.773576,0.0605766,1.32458,1.17471,1.49526,-0.98057,1.61804
0.774634,0.0623395,1.32226,1.17119,1.4921,-0.984549,1.62043
0.775272,0.0643417,1.31989,1.16755,1.48902,-0.988511,1.62281
0.775505,0.0664376,1.31757,1.1639,1.48594,-0.992514,1.62521
0.775376,0.068691,1.31524,1.16027,1.48277,-0.996611,1.62763
0.774945,0.0710515,1.31303,1.15663,1.4796,-1.00083,1.63006
0.774157,0.0735237,1.3109,1.15297,1.47646,-1.00511,1.63249
0.772954,0.0761247,1.30871,1.14921,1.47341,-1.00937,1.63489
0.771359,0.0787138,1.30654,1.14536,1.47031,-1.01365,1.63729
0.769405,0.0813035,1.30436,1.14149,1.46726,-1.01796,1.63971
0.767143,0.0839508,1.30218,1.1376,1.46411,-1.02237,1.64215
0.764556,0.0868414,1.30003,1.13375,1.46094,-1.02679,1.64457
0.761632,0.0899482,1.298,1.12991,1.45784,-1.03112,1.647
0.758375,0.0932452,1.29599,1.12597,1.4547,-1.03543,1.64942
0.754848,0.0965386,1.29413,1.12207,1.45145,-1.03979,1.65186
0.75113,0.09985,1.29244,1.11828,1.44814,-1.04423,1.65432
0.747225,0.10325,1.29091,1.11455,1.44486,-1.04865,1.65674
0.743091,0.106634,1.2894,1.11086,1.44157,-1.05305,1.65916
0.738653,0.110079,1.28771,1.10712,1.43831,-1.0573,1.66153
0.73411,0.113371,1.28589,1.10335,1.43503,-1.06157,1.66394
0.856143,0.0167959,1.36694,1.18595,1.50367,-0.966455,1.59323
0.851539,0.0193909,1.36499,1.18227,1.49988,-0.97013,1.59536
0.846785,0.023129,1.36355,1.17724,1.49857,-0.974539,1.59827
0.841667,0.0268892,1.36187,1.17256,1.4972,-0.978797,1.6013
0.837131,0.0296052,1.35966,1.16915,1.49255,-0.982258,1.60339
0.714099,0.128062,1.26838,1.08213,1.4576,-1.00312,1.65196
0.710409,0.127629,1.26705,1.07856,1.44731,-1.00637,1.65533
0.705894,0.127024,1.26503,1.07634,1.43806,-1.00725,1.65807
0.701865,0.127133,1.26407,1.07518,1.43568,-1.0103,1.65722
0.697884,0.125286,1.26743,1.0743,1.43435,-1.01652,1.65622
0.694532,0.125589,1.27135,1.07382,1.4388,-1.01261,1.65398
0.69161,0.129006,1.27423,1.0737,1.44046,-1.00426,1.65039
0.68906,0.13333,1.27497,1.07326,1.44257,-0.997378,1.64619
0.686903,0.137123,1.27446,1.07219,1.44483,-0.992767,1.64387
0.685337,0.140973,1.27241,1.0704,1.4469,-0.989884,1.64191
0.684188,0.1428,1.27086,1.06774,1.44794,-0.988691,1.64274
0.683491,0.143715,1.26883,1.06446,1.44701,-0.988408,1.64339
0.683102,0.144973,1.26555,1.06068,1.44612,-0.988137,1.64393
0.682921,0.146354,1.26171,1.05661,1.44504,-0.987903,1.64445
0.682852,0.147801,1.25772,1.05247,1.44352,-0.987238,1.64506
0.682616,0.149519,1.25391,1.04848,1.44061,-0.985836,1.64516
0.682167,0.150746,1.25067,1.04488,1.43678,-0.98425,1.64477
0.681471,0.151727,1.24792,1.04172,1.43363,-0.982424,1.64446
0.680614,0.152585,1.24535,1.03869,1.43129,-0.980877,1.64486
0.679699,0.153368,1.24312,1.03571,1.42954,-0.9794,1.64546
0.678544,0.154464,1.24055,1.03265,1.42805,-0.977861,1.64572
0.677014,0.15587,1.23737,1.02926,1.42674,-0.977087,1.64582
0.675281,0.157408,1.23407,1.02555,1.42587,-0.976006,1.64587
0.804845,0.133325,1.3388,1.13798,1.46893,-0.956436,1.62484
0.802191,0.127442,1.33536,1.13539,1.46869,-0.95121,1.62231
0.799031,0.118524,1.33189,1.13212,1.46828,-0.948463,1.62002
0.79552,0.110814,1.32853,1.12837,1.46779,-0.947405,1.61782
0.792117,0.115196,1.32555,1.12393,1.46724,-0.94584,1.61676
0.789997,0.140731,1.324,1.11895,1.46581,-0.949619,1.62144
0.788443,0.167115,1.32373,1.11611,1.46533,-0.957577,1.62724
0.783987,0.177128,1.32211,1.12018,1.46671,-0.966874,1.62561
0.779243,0.182494,1.322,1.12077,1.4677,-0.981447,1.63066
0.776685,0.187587,1.32418,1.11924,1.46896,-0.995702,1.63684
0.772759,0.186362,1.32649,1.11778,1.47001,-0.989685,1.63935
0.769281,0.189915,1.32947,1.11582,1.47047,-0.996492,1.63882
0.766502,0.194,1.33289,1.1175,1.47062,-0.998805,1.64036
0.763984,0.19773,1.33619,1.1192,1.47002,-0.990669,1.64373
0.759829,0.184939,1.33871,1.11911,1.45869,-0.979551,1.6276
0.755147,0.153232,1.34103,1.11399,1.43122,-0.958795,1.61196
0.750167,0.114063,1.34335,1.10502,1.40432,-0.970514,1.60561
0.746528,0.0965493,1.34607,1.10329,1.40262,-0.96528,1.60085
0.744712,0.0934666,1.34777,1.10624,1.40974,-0.965653,1.60067
0.742785,0.0945527,1.34963,1.10767,1.41122,-0.96585,1.60099
0.741128,0.0995617,1.35279,1.10862,1.40968,-0.973167,1.60171
0.739634,0.111867,1.35892,1.11371,1.40677,-0.977648,1.60497
0.738756,0.135131,1.36164,1.11933,1.40992,-0.974796,1.60933
0.738327,0.164446,1.3642,1.12564,1.41358,-0.970694,1.61327
0.737428,0.171532,1.36699,1.132,1.41061,-0.968597,1.61335
0.736577,0.170915,1.36975,1.13839,1.40396,-0.970532,1.61193
0.735837,0.16663,1.37262,1.14337,1.39705,-0.977077,1.61027
0.735782,0.160131,1.37552,1.14745,1.39087,-0.986333,1.6088
0.736629,0.152933,1.37869,1.15004,1.38748,-0.993651,1.60711
0.738169,0.152069,1.38205,1.15191,1.38491,-0.998088,1.60589
0.739482,0.149385,1.3854,1.15327,1.3819,-1.00029,1.60509
0.740688,0.140783,1.38866,1.1551,1.37707,-1.00082,1.60353
0.74187,0.132258,1.39179,1.15779,1.37118,-1.00027,1.60137
0.743595,0.125642,1.39527,1.16106,1.36657,-0.99733,1.5975
0.745697,0.120561,1.39887,1.16619,1.36245,-0.993541,1.59244
0.747557,0.113952,1.4022,1.17177,1.35726,-0.985982,1.58665
0.750557,0.106612,1.4046,1.17573,1.35276,-0.965494,1.57983
0.754504,0.104001,1.40845,1.17869,1.34998,-0.953631,1.57627
0.758639,0.102543,1.41245,1.18153,1.34762,-0.9491,1.57406
0.76263,0.100646,1.41525,1.18446,1.34379,-0.946214,1.57185
0.766623,0.0996379,1.41791,1.188,1.33893,-0.947642,1.57021
0.770128,0.099537,1.42172,1.19182,1.33449,-0.954015,1.56925
0.772747,0.101977,1.42684,1.19445,1.33174,-0.97856,1.57172
0.775206,0.107743,1.4304,1.19548,1.33012,-1.00097,1.57754
0.779474,0.110132,1.43337,1.20029,1.32653,-1.00326,1.57827
0.783777,0.110459,1.43656,1.20603,1.32194,-1.00425,1.57686
0.787569,0.108538,1.44102,1.2094,1.31781,-1.00579,1.57369
0.7911,0.104391,1.44528,1.21065,1.31383,-1.00393,1.57009
0.794247,0.10032,1.44986,1.21035,1.3104,-1.00026,1.56551
0.797415,0.0926844,1.45401,1.20803,1.30542,-0.993382,1.55759
0.802571,0.0861868,1.45691,1.21097,1.29948,-0.97249,1.54996
0.807119,0.0811305,1.45972,1.21286,1.29481,-0.961656,1.54596
0.811389,0.0768651,1.46215,1.21189,1.29114,-0.95857,1.54306
0.814471,0.0745993,1.46649,1.21217,1.28846,-0.961734,1.54147
0.81624,0.0742745,1.47207,1.21331,1.28639,-0.970838,1.54127
0.817518,0.0747065,1.47718,1.21629,1.28291,-0.981504,1.54134
0.818922,0.0755229,1.48159,1.22154,1.27815,-0.993135,1.54199
0.822312,0.0785721,1.48615,1.22825,1.27614,-0.999315,1.54351
0.826928,0.0860704,1.49105,1.23713,1.27654,-0.997965,1.5445
0.767591,0.065664,1.49299,1.23993,1.34405,-0.992085,1.54199
0.823926,0.0707728,1.50279,1.24752,1.26918,-1.0166,1.53418
0.824187,0.0633728,1.50567,1.24677,1.26075,-1.01883,1.52984
0.827207,0.0591166,1.5084,1.24438,1.25431,-1.01937,1.5263
0.830689,0.0548842,1.51027,1.23795,1.2486,-1.0195,1.52294
0.833023,0.0519004,1.51302,1.23746,1.24434,-1.01531,1.5203
0.835331,0.0468449,1.51333,1.23204,1.23863,-1.00493,1.5169
0.837228,0.0409509,1.51346,1.22387,1.23142,-0.991457,1.51275
0.839732,0.0364494,1.51627,1.22063,1.22777,-0.988638,1.50897
0.842633,0.032801,1.52108,1.21718,1.22704,-0.980802,1.50612
0.843681,0.0297269,1.52618,1.21664,1.2263,-0.980652,1.5036
0.845324,0.0266383,1.53105,1.2175,1.22305,-0.981879,1.50102
0.846929,0.0239655,1.53541,1.22304,1.21686,-0.989314,1.49789
0.847828,0.0220606,1.54029,1.228,1.21208,-1.00023,1.49547
0.84863,0.0206531,1.54696,1.23501,1.20905,-1.0199,1.49334
0.849938,0.0198241,1.55299,1.24371,1.20602,-1.03498,1.49168
0.850362,0.0186044,1.55843,1.25459,1.20285,-1.04284,1.49012
0.85096,0.0165662,1.56206,1.26127,1.19656,-1.04349,1.48778
0.85207,0.0138847,1.56524,1.26299,1.19101,-1.04355,1.48474
0.853695,0.0103478,1.56778,1.25793,1.18582,-1.04342,1.48123
0.855851,0.00650002,1.56962,1.25041,1.18075,-1.04285,1.47743
0.857855,0.00168555,1.56885,1.23956,1.17233,-1.03621,1.47308
0.859731,-0.00301421,1.56778,1.23421,1.16554,-1.01942,1.46903
0.863274,-0.00680487,1.56896,1.23088,1.16146,-0.994295,1.46618
0.865452,-0.00990673,1.57245,1.22671,1.15968,-0.989519,1.46372
0.867301,-0.0130705,1.57695,1.22413,1.15859,-0.988437,1.46125
0.869251,-0.0163453,1.58191,1.22374,1.15689,-0.989003,1.4585
0.870334,-0.0189957,1.58488,1.22659,1.15096,-0.99417,1.45528
0.871017,-0.0212709,1.58813,1.23024,1.14343,-0.999997,1.45204
0.870714,-0.0227316,1.593,1.23447,1.13679,-1.01723,1.44938
0.870263,-0.0234252,1.59932,1.24098,1.13215,-1.04803,1.44793
0.869328,-0.0244068,1.6068,1.25274,1.13172,-1.05479,1.44678
0.870341,-0.0264714,1.6119,1.26387,1.12855,-1.05526,1.44473
0.871457,-0.0291822,1.61578,1.26752,1.12475,-1.05534,1.44214
0.872749,-0.0324311,1.6181,1.26432,1.12018,-1.05344,1.43899
0.874982,-0.0363234,1.61958,1.25458,1.11563,-1.05108,1.43548
0.878564,-0.0402757,1.62004,1.24248,1.1113,-1.04841,1.43242
0.882617,-0.0448044,1.61882,1.23263,1.10341,-1.03141,1.42843
0.886691,-0.0494616,1.61763,1.22836,1.09542,-1.0112,1.42359
0.889098,-0.0533506,1.61888,1.22567,1.09296,-0.998408,1.42016
0.890497,-0.0565178,1.62164,1.22432,1.09121,-0.998255,1.4175
0.892439,-0.0597121,1.62523,1.224,1.08975,-0.998493,1.41463
0.893827,-0.0621204,1.62918,1.22375,1.08763,-1.00063,1.4128
0.893473,-0.0640486,1.63333,1.22377,1.08513,-1.00315,1.41207
0.891526,-0.0652369,1.63822,1.22588,1.08129,-1.01653,1.41207
0.8919,-0.0664822,1.64483,1.23263,1.0816,-1.04483,1.4115
0.890689,-0.0677898,1.65288,1.24543,1.08777,-1.05351,1.40953
0.89137,-0.0693485,1.65857,1.25506,1.08947,-1.05507,1.40706
0.891371,-0.0718066,1.66206,1.25805,1.08683,-1.05559,1.40423
0.892466,-0.0752489,1.66327,1.25323,1.07715,-1.05553,1.40071
0.893699,-0.0795912,1.66264,1.24287,1.06564,-1.05414,1.39709
0.895647,-0.0838697,1.66121,1.2314,1.05756,-1.04913,1.39447
0.899961,-0.0877614,1.65937,1.22448,1.0513,-1.03514,1.39252
0.902457,-0.0914232,1.65762,1.22066,1.044,-1.01781,1.38964
0.904002,-0.094968,1.65797,1.21895,1.03839,-1.00762,1.38609
0.906254,-0.098419,1.65958,1.21731,1.0336,-0.999615,1.38273
0.909392,-0.101628,1.66295,1.2173,1.03324,-0.996436,1.37945
0.910466,-0.104404,1.66648,1.21678,1.03285,-0.997549,1.37761
0.910416,-0.10682,1.67078,1.21658,1.03594,-1.00221,1.37732
0.908962,-0.108876,1.67684,1.21843,1.04356,-1.01518,1.37831
0.906466,-0.111007,1.68501,1.22263,1.05154,-1.03241,1.37645
0.907246,-0.112791,1.69157,1.2274,1.05495,-1.04279,1.37364
0.907917,-0.114654,1.6965,1.23355,1.0494,-1.04927,1.37053
0.906124,-0.117268,1.69966,1.23546,1.03957,-1.05485,1.36733
0.906261,-0.120407,1.70131,1.23326,1.03332,-1.05452,1.36451
0.907629,-0.124143,1.70078,1.2268,1.02771,-1.04918,1.3618
0.906984,-0.128268,1.69994,1.21979,1.02499,-1.03973,1.35956
0.90738,-0.132265,1.69888,1.21519,1.01597,-1.02999,1.35719
0.909679,-0.136053,1.69578,1.21028,1.00507,-1.01745,1.35542
0.913301,-0.139324,1.69442,1.20764,0.99767,-1.00679,1.35353
0.916404,-0.142294,1.69571,1.2065,0.99575,-1.00193,1.35138
0.918412,-0.145246,1.69974,1.20615,0.997272,-0.998591,1.34931
0.919573,-0.148034,1.70424,1.20635,1.00221,-0.998853,1.34803
0.920678,-0.150794,1.71035,1.20774,1.01011,-1.00143,1.34625
0.921349,-0.153344,1.71651,1.20984,1.01698,-1.00635,1.34441
0.920431,-0.155766,1.72252,1.21392,1.01831,-1.0145,1.34119
0.920435,-0.15812,1.72618,1.21491,1.01552,-1.02042,1.33844
0.920881,-0.160063,1.72967,1.21639,1.00903,-1.02814,1.33652
0.919116,-0.162203,1.73321,1.21895,1.00164,-1.0327,1.33468
0.932387,-0.165286,1.75004,1.26209,0.935866,-1.07901,1.34365
0.933878,-0.163914,1.73979,1.24613,0.952381,-1.07337,1.33632
0.886572,-0.164721,1.72133,1.21336,1.05084,-0.979463,1.33138
0.968994,-0.185147,1.68148,1.21995,0.91917,-1.07993,1.31156
0.96931,-0.182574,1.69442,1.16637,0.916844,-1.09099,1.31445
0.96167,-0.156153,1.75518,1.26996,0.922295,-1.05485,1.32122
0.968294,-0.192623,1.68572,1.18692,0.91049,-1.08431,1.30815
0.892638,-0.133571,1.76717,1.17558,1.02417,-1.0254,1.3559
0.965582,-0.183521,1.74628,1.27911,0.938601,-1.05641,1.31784
0.906685,-0.179408,1.76542,1.1824,0.947803,-1.01829,1.29859
0.969529,-0.203248,1.76065,1.21066,0.924081,-1.08274,1.31343
0.922245,-0.199913,1.73406,1.22116,0.993292,-1.01263,1.30746
0.969499,-0.205675,1.77676,1.20709,0.910366,-1.08198,1.3078
0.953833,-0.208818,1.764,1.22839,0.929884,-1.06446,1.29631
0.948138,-0.210481,1.76855,1.21685,0.912366,-1.06408,1.29654
0.944942,-0.212749,1.7748,1.2087,0.903323,-1.0729,1.298
0.947023,-0.214798,1.7706,1.2255,0.902613,-1.0665,1.29494
0.970081,-0.216981,1.78745,1.19374,0.896412,-1.09558,1.29832
0.952158,-0.221231,1.75668,1.21655,0.962493,-1.08323,1.29096
0.983908,-0.224637,1.76976,1.22699,0.891198,-1.09814,1.29291
0.950423,-0.102192,1.79405,1.2302,0.973146,-1.0496,1.36304
0.899111,-0.103107,1.79822,1.23211,0.966008,-1.05596,1.36514
0.986967,-0.242185,1.70495,1.19623,0.864734,-1.1046,1.27332
0.883805,-0.114466,1.79993,1.20464,0.973038,-1.04174,1.35937
0.951868,-0.238857,1.76054,1.21827,0.96685,-1.03762,1.27412
0.974054,-0.24744,1.80379,1.19128,0.862016,-1.11378,1.29199
0.95746,-0.244917,1.76714,1.21088,0.969244,-1.03908,1.26779
0.962235,-0.248249,1.76231,1.207,0.969353,-1.02851,1.26825
0.992484,-0.246847,1.80106,1.16121,0.858697,-1.12818,1.27259
0.960236,-0.253362,1.77184,1.21181,0.96694,-1.03673,1.26931
0.950819,-0.255393,1.77423,1.20659,0.954658,-1.04575,1.26903
0.958982,-0.264739,1.82052,1.19226,0.843628,-1.12216,1.27486
0.942792,-0.259958,1.76718,1.19619,0.917076,-1.0641,1.27195
0.980737,-0.265181,1.82779,1.15793,0.880015,-1.13096,1.27597
0.943456,-0.264883,1.76383,1.19325,0.902448,-1.07539,1.27512
0.952551,-0.272007,1.82257,1.18902,0.869811,-1.11525,1.26858
0.951072,-0.255181,1.81202,1.21897,0.849049,-1.04839,1.2599
0.978997,-0.270242,1.82681,1.1536,0.934606,-1.13232,1.27693
0.949268,-0.274961,1.79273,1.20374,0.873902,-1.09956,1.26381
0.963127,-0.262588,1.81233,1.19597,0.864652,-1.03697,1.2513
0.964326,-0.28026,1.80516,1.20995,0.8919,-1.09854,1.25442
0.989341,-0.259427,1.82901,1.14608,0.874866,-1.147,1.2726
0.97004,-0.282295,1.80368,1.20328,0.868971,-1.10652,1.25155
0.962875,-0.287228,1.82221,1.18721,0.850172,-1.1224,1.25073
0.965873,-0.285512,1.7961,1.20029,0.899626,-1.08976,1.24921
0.946718,-0.204869,1.83728,1.16097,0.907123,-1.11517,1.30009
0.944536,-0.207506,1.8393,1.16042,0.906848,-1.11764,1.29823
0.975362,-0.298617,1.83593,1.17621,0.816685,-1.13749,1.24667
0.940947,-0.167483,1.85605,1.23837,0.908409,-1.07776,1.32124
1.01552,-0.308699,1.76958,1.15146,0.807607,-1.14886,1.22818
0.979684,-0.29793,1.80878,1.19407,0.921989,-1.05468,1.2316
0.986479,-0.305884,1.81524,1.20339,0.934006,-1.06526,1.23522
1.01839,-0.316788,1.77755,1.15047,0.80329,-1.15562,1.22469
0.997418,-0.31678,1.84721,1.14261,0.799874,-1.15509,1.23276
0.935502,-0.186452,1.8687,1.21258,0.875732,-1.11905,1.31312
1.02073,-0.323014,1.78836,1.14116,0.797934,-1.16332,1.22543
1.0167,-0.242261,1.85218,1.21516,0.841407,-1.12434,1.24098
0.947028,-0.251917,1.85128,1.12961,0.820006,-1.17887,1.26853
0.945214,-0.293964,1.86288,1.14859,0.83381,-1.12743,1.22967
1.0184,-0.3234,1.83978,1.24721,0.811649,-1.13799,1.22501
0.919229,-0.294778,1.79378,1.13091,0.909794,-1.06016,1.24051
1.0016,-0.335261,1.79264,1.1348,0.787978,-1.16885,1.22122
1.02894,-0.334423,1.80809,1.24419,0.798372,-1.13068,1.21644
1.02903,-0.33556,1.80708,1.24263,0.794937,-1.13445,1.21513
0.966567,-0.331445,1.84421,1.2068,0.892305,-1.11481,1.22096
0.991734,-0.333595,1.85251,1.1878,0.838383,-1.14529,1.21849
0.987843,-0.334731,1.85049,1.16893,0.826403,-1.16377,1.21936
0.962376,-0.327709,1.8282,1.16772,0.855921,-1.10978,1.22271
0.979231,-0.338277,1.84466,1.16419,0.804157,-1.14943,1.22159
0.986037,-0.341631,1.8712,1.16875,0.78697,-1.16517,1.21776
1.01736,-0.354034,1.79158,1.16511,0.766996,-1.18015,1.20371
1.01021,-0.333037,1.87114,1.12027,0.79389,-1.20319,1.21237
0.935741,-0.347407,1.79396,1.1305,0.879544,-1.18055,1.24338
1.01226,-0.348263,1.86797,1.19826,0.772951,-1.1732,1.20722
0.991874,-0.333354,1.84835,1.15697,0.807205,-1.10078,1.198
0.983973,-0.357009,1.87463,1.16331,0.763611,-1.17924,1.20233
0.979184,-0.237927,1.88485,1.16667,0.82916,-1.17329,1.26978
1.01189,-0.363933,1.85863,1.13409,0.754103,-1.18832,1.19666
1.00321,-0.342902,1.84939,1.14124,0.874813,-1.11056,1.21605
0.965948,-0.275261,1.87584,1.13377,0.859177,-1.15053,1.26017
1.01331,-0.374442,1.81332,1.13938,0.740925,-1.20174,1.18925
1.01541,-0.375592,1.81737,1.13838,0.73842,-1.20454,1.18804
1.01757,-0.376799,1.82097,1.13863,0.735963,-1.20719,1.18689
1.01871,-0.378517,1.82462,1.13943,0.733092,-1.20943,1.18634
0.980906,-0.377247,1.87986,1.18484,0.75858,-1.20434,1.18743
0.977547,-0.379431,1.88106,1.18151,0.75155,-1.21149,1.18683
0.964216,-0.374416,1.81507,1.13937,0.804723,-1.1354,1.19377
1.017,-0.377111,1.86022,1.18889,0.855055,-1.13414,1.18316
0.998071,-0.378115,1.85084,1.16106,0.84016,-1.14786,1.18702
0.994368,-0.381372,1.85625,1.16796,0.840194,-1.14519,1.18389
0.993801,-0.383621,1.85539,1.16238,0.839058,-1.14279,1.18226
0.994358,-0.382908,1.85292,1.15553,0.832485,-1.15268,1.18059
0.996982,-0.380961,1.84537,1.14375,0.825586,-1.16602,1.1815
1.00722,-0.381274,1.84541,1.15113,0.810028,-1.17995,1.18007
1.00032,-0.386039,1.84237,1.14873,0.781371,-1.20234,1.18496
0.992404,-0.390925,1.84094,1.15355,0.761031,-1.2121,1.18854
0.988692,-0.396611,1.83741,1.16455,0.756075,-1.21281,1.18977
0.987335,-0.402173,1.8342,1.1689,0.755265,-1.20818,1.18936
0.988418,-0.407082,1.83229,1.16729,0.756501,-1.20366,1.18585
0.990379,-0.410066,1.83277,1.15782,0.760933,-1.19591,1.18097
1.02909,-0.424422,1.83089,1.11568,0.701444,-1.23252,1.15514
0.997274,-0.412766,1.83909,1.14194,0.810955,-1.15461,1.17304
1.02734,-0.42872,1.84081,1.12138,0.7021,-1.23453,1.15256
0.998702,-0.409723,1.84059,1.1179,0.830422,-1.13298,1.17367
0.998416,-0.41002,1.84174,1.11688,0.829645,-1.13518,1.17339
0.986891,-0.411795,1.85103,1.1289,0.805711,-1.13945,1.15321
1.00549,-0.429973,1.89984,1.17029,0.729315,-1.2472,1.15784
1.03569,-0.440962,1.84137,1.13438,0.699991,-1.24127,1.14384
1.02446,-0.434534,1.88911,1.10903,0.69913,-1.25203,1.14325
0.978517,-0.311998,1.90354,1.17814,0.774691,-1.21038,1.22558
1.05343,-0.447371,1.81691,1.09919,0.695035,-1.25443,1.13862
0.947807,-0.324281,1.90357,1.1595,0.806666,-1.16738,1.22742
1.05008,-0.455345,1.80542,1.14969,0.691276,-1.24562,1.13261
0.950651,-0.406074,1.90291,1.111,0.796166,-1.16192,1.16267
1.03587,-0.458162,1.84046,1.13291,0.690348,-1.24384,1.13352
0.954704,-0.422719,1.88971,1.09568,0.797749,-1.17337,1.15391
1.04162,-0.465856,1.83562,1.12227,0.687154,-1.25129,1.13284
0.957274,-0.385545,1.89761,1.09983,0.789866,-1.19285,1.19123
0.992967,-0.337819,1.90713,1.17596,0.773066,-1.21642,1.2155
1.05961,-0.476205,1.82127,1.09671,0.679741,-1.26111,1.12826
1.03905,-0.477896,1.82665,1.11293,0.675842,-1.25642,1.12894
0.9968,-0.472851,1.87057,1.14017,0.753706,-1.25058,1.14243
0.964251,-0.395523,1.89677,1.09605,0.784659,-1.21141,1.19374
1.04438,-0.484859,1.81951,1.11192,0.669291,-1.26254,1.12564
1.02073,-0.476347,1.89001,1.14661,0.754898,-1.24614,1.12712
1.02655,-0.477128,1.88148,1.13904,0.782912,-1.20152,1.12955
1.01399,-0.482703,1.91537,1.13194,0.6773,-1.27073,1.12166
1.03026,-0.48336,1.90063,1.12527,0.721749,-1.26721,1.12368
1.01187,-0.463878,1.86268,1.10429,0.787031,-1.17567,1.13846
1.02097,-0.484272,1.89019,1.12283,0.758884,-1.24611,1.12498
1.01878,-0.488044,1.90473,1.12326,0.683691,-1.27174,1.11977
1.01254,-0.48942,1.89307,1.11233,0.692204,-1.27071,1.12225
1.00332,-0.490639,1.87275,1.10821,0.700547,-1.26112,1.13461
1.01642,-0.49194,1.88147,1.10435,0.699663,-1.26794,1.12754
1.00876,-0.485096,1.85244,1.10518,0.764362,-1.24523,1.13516
0.980635,-0.372395,1.92119,1.15334,0.743766,-1.24137,1.19462
1.05648,-0.508023,1.83432,1.07115,0.651881,-1.29373,1.10598
1.01426,-0.492651,1.85642,1.10152,0.760843,-1.25361,1.12634
1.01442,-0.496504,1.86111,1.1067,0.761619,-1.2328,1.12074
1.01472,-0.501176,1.86446,1.11114,0.762961,-1.22127,1.11306
1.01515,-0.504199,1.86775,1.11006,0.765441,-1.21443,1.10575
1.01791,-0.506646,1.86499,1.10704,0.765252,-1.20986,1.10301
1.02052,-0.508464,1.86889,1.1078,0.763136,-1.21199,1.1034
1.02362,-0.509416,1.87264,1.10361,0.760975,-1.21664,1.10628
1.02279,-0.509332,1.87198,1.09365,0.754028,-1.22344,1.11124
1.01728,-0.510857,1.865,1.08724,0.747753,-1.24014,1.11634
1.00792,-0.512419,1.85441,1.09125,0.727501,-1.27156,1.12651
0.999045,-0.514084,1.84973,1.10802,0.686739,-1.28453,1.13401
0.989379,-0.510423,1.85206,1.1366,0.671681,-1.28803,1.13346
0.988634,-0.510774,1.85244,1.13973,0.671394,-1.28712,1.13102
0.991207,-0.515372,1.85056,1.13462,0.675256,-1.28449,1.1297
0.999546,-0.520097,1.85037,1.117,0.691474,-1.27365,1.12782
1.01076,-0.521792,1.85899,1.09791,0.719971,-1.24459,1.11982
1.02432,-0.524449,1.8708,1.07973,0.729292,-1.22907,1.10283
1.03141,-0.52561,1.877,1.07133,0.742709,-1.21984,1.09363
1.03598,-0.526027,1.87848,1.0707,0.749082,-1.21369,1.08859
1.0396,-0.526117,1.87993,1.0708,0.750638,-1.2127,1.08703
1.04032,-0.527574,1.87995,1.07083,0.74905,-1.21996,1.08857
1.03938,-0.531666,1.87648,1.07682,0.745028,-1.23255,1.09148
1.0338,-0.533866,1.8718,1.08881,0.734183,-1.2515,1.09733
1.01994,-0.53116,1.85836,1.1207,0.716993,-1.27732,1.10474
1.00775,-0.53028,1.84686,1.12852,0.705688,-1.28857,1.11463
0.999653,-0.531318,1.84506,1.13435,0.678168,-1.29332,1.11383
0.995687,-0.53249,1.84734,1.13678,0.670364,-1.29235,1.11339
0.996123,-0.535659,1.84898,1.12886,0.674651,-1.2918,1.11512
0.998682,-0.540433,1.85211,1.11296,0.691024,-1.28425,1.11711
1.00246,-0.547825,1.85649,1.10015,0.703279,-1.2711,1.11464
1.01347,-0.554827,1.86299,1.07891,0.71267,-1.24713,1.09933
1.02042,-0.556662,1.86964,1.06631,0.726269,-1.2312,1.08997
1.02542,-0.557902,1.8709,1.06208,0.734531,-1.22399,1.08354
1.03062,-0.559842,1.8734,1.06222,0.740753,-1.21948,1.07743
1.03547,-0.563383,1.87163,1.06624,0.743451,-1.2175,1.07412
1.03697,-0.566636,1.86822,1.06702,0.743768,-1.22596,1.07456
1.03546,-0.57012,1.86472,1.0733,0.740387,-1.23588,1.07814
1.03036,-0.571089,1.85805,1.08929,0.731201,-1.25438,1.08388
1.01742,-0.566505,1.84546,1.12413,0.71827,-1.28186,1.08972
1.00624,-0.567373,1.83775,1.12614,0.691939,-1.2944,1.09517
0.996191,-0.56743,1.83861,1.12962,0.669388,-1.29744,1.0963
0.992094,-0.568318,1.84256,1.12837,0.66325,-1.29504,1.09952
0.991296,-0.574319,1.84222,1.11966,0.664934,-1.29345,1.10311
0.993265,-0.58107,1.84118,1.10088,0.673955,-1.28447,1.10488
1.0002,-0.585127,1.84352,1.07619,0.701793,-1.26312,1.10393
1.01139,-0.588691,1.84828,1.06287,0.712115,-1.23989,1.09281
1.01744,-0.590762,1.85688,1.0533,0.723312,-1.22822,1.08122
1.02547,-0.592177,1.86341,1.05095,0.730096,-1.2241,1.07085
1.03461,-0.593966,1.86582,1.05345,0.736299,-1.22057,1.0632
1.07047,-0.631495,1.80761,1.08187,0.630129,-1.31705,1.05137
1.03325,-0.602358,1.86861,1.05275,0.740109,-1.23842,1.05918
1.00205,-0.61705,1.90326,1.07762,0.644664,-1.31679,1.05159
0.996372,-0.616785,1.89658,1.07254,0.643766,-1.31336,1.05331
1.00506,-0.60849,1.85458,1.06153,0.711186,-1.3128,1.07647
1.00156,-0.617835,1.89599,1.07529,0.638945,-1.30453,1.05006
1.0038,-0.619741,1.88308,1.06579,0.65341,-1.31578,1.06076
1.02823,-0.60706,1.86852,1.05834,0.711029,-1.29743,1.07536
1.01239,-0.628767,1.87651,1.05742,0.702556,-1.3195,1.06874
1.00804,-0.636022,1.88527,1.07223,0.663844,-1.32436,1.05638
1.01114,-0.639865,1.8809,1.08185,0.695703,-1.32631,1.05994
1.0098,-0.642668,1.87588,1.09006,0.714172,-1.3233,1.06376
1.00451,-0.646585,1.88116,1.10488,0.701522,-1.32811,1.06172
1.01064,-0.650041,1.88343,1.10977,0.698042,-1.33147,1.05793
1.01251,-0.653315,1.87663,1.10041,0.716237,-1.32457,1.05641
1.00272,-0.658065,1.88523,1.10907,0.702337,-1.33062,1.0606
1.01271,-0.659947,1.88186,1.09915,0.711146,-1.33137,1.05311
1.0014,-0.664003,1.88926,1.10889,0.685347,-1.33714,1.0555
1.00704,-0.666238,1.88012,1.09598,0.710869,-1.32959,1.05523
0.999755,-0.670109,1.88523,1.10395,0.704533,-1.33447,1.05737
1.01683,-0.670517,1.87598,1.07629,0.715271,-1.32104,1.04717
0.997508,-0.676905,1.88981,1.10887,0.707276,-1.33232,1.05564
1.00691,-0.678546,1.88325,1.09612,0.711886,-1.33675,1.05085
1.00471,-0.681942,1.88916,1.10232,0.709064,-1.34733,1.05052
1.00955,-0.683912,1.88936,1.09285,0.713487,-1.34217,1.04554
0.991875,-0.68909,1.90466,1.11456,0.693881,-1.34916,1.05112
0.989148,-0.692795,1.90366,1.11155,0.703343,-1.3522,1.0555
0.986659,-0.695505,1.90215,1.11485,0.707209,-1.35038,1.05374
0.985233,-0.698384,1.90115,1.11011,0.710841,-1.34946,1.05491
1.01419,-0.693082,1.88587,1.06263,0.719372,-1.2964,1.03015
0.99528,-0.702576,1.89934,1.08841,0.713004,-1.35828,1.04764
0.985675,-0.707132,1.90164,1.10017,0.711684,-1.35317,1.04972
0.991115,-0.709055,1.902,1.08824,0.713739,-1.36139,1.04649
0.996559,-0.709689,1.90596,1.0809,0.712659,-1.36935,1.04316
0.995571,-0.710775,1.90786,1.07491,0.70733,-1.37451,1.04107
0.992612,-0.712666,1.91551,1.07533,0.683032,-1.37996,1.03539
0.977666,-0.719289,1.91971,1.08684,0.664441,-1.37077,1.03431
0.981289,-0.722149,1.91458,1.08333,0.69888,-1.37195,1.03907
0.989872,-0.72383,1.91497,1.08268,0.712965,-1.37813,1.03989
1.00944,-0.719096,1.90185,1.07111,0.724323,-1.33041,1.02239
1.0055,-0.723684,1.90535,1.07443,0.727031,-1.32954,1.02113
0.963962,-0.642739,1.93721,1.06467,0.680262,-1.39332,1.07942
0.98028,-0.740461,1.93091,1.12285,0.685397,-1.40082,1.03081
1.00127,-0.739557,1.9205,1.08727,0.717711,-1.39239,1.03132
1,-0.757932,1.89303,1.06616,0.611055,-1.40558,1.00201
0.950126,-0.726944,1.92831,1.04098,0.643032,-1.31637,1.01814
1.00785,-0.765344,1.88603,1.07265,0.61165,-1.40985,0.999367
0.969183,-0.755364,1.94245,1.09949,0.645114,-1.40244,1.01543
0.98617,-0.753708,1.92244,1.07504,0.72136,-1.39675,1.02843
0.992298,-0.755043,1.92828,1.07656,0.716474,-1.40493,1.02684
0.991501,-0.757997,1.93838,1.07892,0.700389,-1.42103,1.02333
0.994875,-0.75749,1.9411,1.06884,0.684048,-1.42759,1.02165
0.999635,-0.755056,1.94777,1.07284,0.665304,-1.43077,1.01546
1.00407,-0.760085,1.94568,1.0652,0.683995,-1.43295,1.01514
0.99248,-0.768407,1.94486,1.07204,0.694955,-1.43314,1.01141
0.941066,-0.759418,1.94045,1.03027,0.644809,-1.33518,1.0089
0.97972,-0.777786,1.94231,1.08869,0.713206,-1.42058,1.0113
0.966431,-0.786957,1.94664,1.11376,0.699373,-1.43321,1.01952
0.98355,-0.784775,1.94678,1.09407,0.711992,-1.42543,1.00249
0.983731,-0.78902,1.94956,1.09658,0.707695,-1.43369,1.00252
0.986003,-0.77312,1.94539,1.05066,0.701034,-1.42471,1.00279
0.957813,-0.783544,1.96006,1.06403,0.621191,-1.43206,0.990631
0.993296,-0.771028,1.94452,1.05134,0.698521,-1.42011,1.00186
0.967453,-0.78094,1.96051,1.06471,0.636617,-1.43174,0.992812
0.957303,-0.785678,1.96029,1.06399,0.614446,-1.4357,0.987345
0.996195,-0.768394,1.93793,1.04799,0.694791,-1.40754,1.00078
1.03748,-0.79054,1.89877,1.02584,0.606539,-1.45686,0.984184
1.0024,-0.757237,1.92822,1.04096,0.702443,-1.40684,0.998059
0.960751,-0.739319,1.96192,1.05391,0.642876,-1.43746,0.994617
0.965927,-0.780732,1.96033,1.06383,0.661445,-1.42835,0.997179
0.96129,-0.783248,1.95943,1.06817,0.622309,-1.43603,0.991327
0.96569,-0.781193,1.96013,1.06683,0.652325,-1.42876,0.99601
0.976801,-0.778937,1.96061,1.06687,0.662153,-1.43291,0.995658
1.00226,-0.757579,1.92783,1.04144,0.702459,-1.40523,0.997572
1.00226,-0.757579,1.92783,1.04144,0.702459,-1.40523,0.997572
1.00226,-0.757579,1.92783,1.04144,0.702459,-1.40523,0.997572
1.00226,-0.757579,1.92783,1.04144,0.702459,-1.40523,0.997572
1.00226,-0.757579,1.92783,1.04144,0.702459,-1.40523,0.997572
1.00226,-0.757579,1.92783,1.04144,0.702459,-1.40523,0.997572
1.00226,-0.757579,1.92783,1.04144,0.702459,-1.40523,0.997572
0.973301,-0.787876,1.93009,1.06729,0.714669,-1.36434,1.00559
0.986487,-0.770423,1.91175,1.03281,0.709183,-1.38003,1.00555
0.986487,-0.770423,1.91175,1.03281,0.709183,-1.38003,1.00555
0.986487,-0.770423,1.91175,1.03281,0.709183,-1.38003,1.00555
0.986487,-0.770423,1.91175,1.03281,0.709183,-1.38003,1.00555
0.986487,-0.770423,1.91175,1.03281,0.709183,-1.38003,1.00555
0.986487,-0.770423,1.91175,1.03281,0.709183,-1.38003,1.00555
0.986487,-0.770423,1.91175,1.03281,0.709183,-1.38003,1.00555
0.986487,-0.770423,1.91175,1.03281,0.709183,-1.38003,1.00555
0.986487,-0.770423,1.91175,1.03281,0.709183,-1.38003,1.00555
0.986487,-0.770423,1.91175,1.03281,0.709183,-1.38003,1.00555
0.986487,-0.770423,1.91175,1.03281,0.709183,-1.38003,1.00555
0.986487,-0.770423,1.91175,1.03281,0.709183,-1.38003,1.00555
0.986487,-0.770423,1.91175,1.03281,0.709183,-1.38003,1.00555
0.986487,-0.770423,1.91175,1.03281,0.709183,-1.38003,1.00555
0.986487,-0.770423,1.91175,1.03281,0.709183,-1.38003,1.00555
0.986487,-0.770423,1.91175,1.03281,0.709183,-1.38003,1.00555
0.986487,-0.770423,1.91175,1.03281,0.709183,-1.38003,1.00555
0.986487,-0.770423,1.91175,1.03281,0.709183,-1.38003,1.00555
0.986487,-0.770423,1.91175,1.03281,0.709183,-1.38003,1.00555
0.986487,-0.770423,1.91175,1.03281,0.709183,-1.38003,1.00555
0.986487,-0.770423,1.91175,1.03281,0.709183,-1.38003,1.00555
0.986487,-0.770423,1.91175,1.03281,0.709183,-1.38003,1.00555
0.986487,-0.770423,1.91175,1.03281,0.709183,-1.38003,1.00555
0.986487,-0.770423,1.91175,1.03281,0.709183,-1.38003,1.00555
0.986487,-0.770423,1.91175,1.03281,0.709183,-1.38003,1.00555
0.986487,-0.770423,1.91175,1.03281,0.709183,-1.38003,1.00555
0.986487,-0.770423,1.91175,1.03281,0.709183,-1.38003,1.00555
0.986487,-0.770423,1.91175,1.03281,0.709183,-1.38003,1.00555
0.986487,-0.770423,1.91175,1.03281,0.709183,-1.38003,1.00555
0.986487,-0.770423,1.91175,1.03281,0.709183,-1.38003,1.00555
0.986487,-0.770423,1.91175,1.03281,0.709183,-1.38003,1.00555
0.986487,-0.770423,1.91175,1.03281,0.709183,-1.38003,1.00555
0.986487,-0.770423,1.91175,1.03281,0.709183,-1.38003,1.00555
0.986487,-0.770423,1.91175,1.03281,0.709183,-1.38003,1.00555
0.986487,-0.770423,1.91175,1.03281,0.709183,-1.38003,1.00555
0.986487,-0.770423,1.91175,1.03281,0.709183,-1.38003,1.00555
0.986487,-0.770423,1.91175,1.03281,0.709183,-1.38003,1.00555
0.986487,-0.770423,1.91175,1.03281,0.709183,-1.38003,1.00555
1.04371,-0.806069,1.883,1.0282,0.6045,-1.45762,0.985355
0.95416,-0.787845,1.96095,1.04914,0.668589,-1.43502,1.00178
0.959591,-0.780266,1.91845,1.03414,0.716689,-1.41131,1.0127
0.94692,-0.791867,1.96544,1.0564,0.643186,-1.43006,0.995829
0.948448,-0.790666,1.95907,1.04808,0.685485,-1.43141,1.00469
0.957349,-0.784303,1.9463,1.03977,0.709445,-1.43064,1.01023
0.974512,-0.774751,1.91757,1.03196,0.708465,-1.40354,1.00891
0.947136,-0.792963,1.96533,1.06181,0.627766,-1.42805,0.987913
0.954023,-0.787537,1.9552,1.04292,0.694673,-1.43263,1.00648
0.955499,-0.78535,1.94588,1.03976,0.709608,-1.4273,1.01009
0.973853,-0.774988,1.91784,1.03197,0.708336,-1.40579,1.0093
0.94327,-0.793672,1.96565,1.05835,0.651422,-1.42719,0.994691
0.958602,-0.784762,1.95442,1.04074,0.6947,-1.43485,1.00541
0.946929,-0.791391,1.964,1.05222,0.657317,-1.4321,1.00053
0.973049,-0.775256,1.91812,1.03198,0.708306,-1.40794,1.00972
0.973049,-0.775256,1.91812,1.03198,0.708306,-1.40794,1.00972
0.973049,-0.775256,1.91812,1.03198,0.708306,-1.40794,1.00972
0.973049,-0.775256,1.91812,1.03198,0.708306,-1.40794,1.00972
0.973049,-0.775256,1.91812,1.03198,0.708306,-1.40794,1.00972
0.973049,-0.775256,1.91812,1.03198,0.708306,-1.40794,1.00972
0.934983,-0.755465,1.9371,1.02051,0.697322,-1.44084,1.01886
0.974894,-0.774222,1.91684,1.0318,0.709186,-1.40645,1.00884
0.974895,-0.774221,1.91684,1.0318,0.709186,-1.40645,1.00884
1.00253,-0.731159,1.92639,1.08057,0.644976,-1.43413,0.994988
0.975823,-0.774266,1.91742,1.03192,0.708448,-1.40317,1.00864
0.975208,-0.774473,1.91765,1.03194,0.708359,-1.40477,1.00882
0.956505,-0.798724,1.96065,1.06518,0.612453,-1.4165,0.981444
0.944938,-0.792673,1.96433,1.05844,0.629632,-1.42448,0.993071
0.974027,-0.774894,1.91794,1.03196,0.708272,-1.40729,1.00936
0.974027,-0.774894,1.91794,1.03196,0.708272,-1.40729,1.00936
0.974027,-0.774894,1.91794,1.03196,0.708272,-1.40729,1.00936
0.974027,-0.774894,1.91794,1.03196,0.708272,-1.40729,1.00936
1.00656,-0.806443,1.8912,1.04238,0.599365,-1.44325,0.981433
0.971616,-0.775714,1.91906,1.03204,0.708317,-1.41127,1.01049
0.971616,-0.775713,1.91905,1.03204,0.708317,-1.41127,1.01049
0.970184,-0.776107,1.92016,1.03215,0.708224,-1.41314,1.01109
0.970184,-0.776107,1.92016,1.03215,0.708224,-1.41314,1.01109
0.970184,-0.776107,1.92016,1.03215,0.708224,-1.41314,1.01109
0.970184,-0.776107,1.92016,1.03215,0.708224,-1.41314,1.01109
0.970184,-0.776107,1.92016,1.03215,0.708224,-1.41314,1.01109
0.970184,-0.776107,1.92016,1.03215,0.708224,-1.41314,1.01109
0.970184,-0.776107,1.92016,1.03215,0.708224,-1.41314,1.01109
0.970184,-0.776107,1.92016,1.03215,0.708224,-1.41314,1.01109
0.970184,-0.776107,1.92016,1.03215,0.708224,-1.41314,1.01109
0.970184,-0.776107,1.92016,1.03215,0.708224,-1.41314,1.01109
0.970184,-0.776107,1.92016,1.03215,0.708224,-1.41314,1.01109
0.970184,-0.776107,1.92016,1.03215,0.708224,-1.41314,1.01109
0.970184,-0.776107,1.92016,1.03215,0.708224,-1.41314,1.01109
0.970184,-0.776107,1.92016,1.03215,0.708224,-1.41314,1.01109
1.03803,-0.809689,1.8743,1.06892,0.601534,-1.4503,0.984162
0.960774,-0.778937,1.93151,1.03236,0.708385,-1.4239,1.01278
0.950666,-0.795719,1.96147,1.0545,0.61455,-1.43207,0.990666
0.960303,-0.77912,1.93231,1.03237,0.708311,-1.4241,1.01275
0.953439,-0.797777,1.95455,1.0556,0.613606,-1.42873,0.991158
0.959823,-0.779302,1.93309,1.03238,0.708276,-1.42422,1.01271
0.959823,-0.779302,1.93309,1.03238,0.708276,-1.42422,1.01271
0.959823,-0.779302,1.93309,1.03238,0.708276,-1.42422,1.01271
0.959823,-0.779302,1.93309,1.03238,0.708276,-1.42422,1.01271
0.959823,-0.779302,1.93309,1.03238,0.708276,-1.42422,1.01271
0.959823,-0.779302,1.93309,1.03238,0.708276,-1.42422,1.01271
0.959823,-0.779302,1.93309,1.03238,0.708276,-1.42422,1.01271
0.959823,-0.779302,1.93309,1.03238,0.708276,-1.42422,1.01271
0.959823,-0.779302,1.93309,1.03238,0.708276,-1.42422,1.01271
0.949851,-0.706617,1.94847,1.0189,0.635397,-1.46771,1.01837
0.986003,-0.806397,1.89252,1.05329,0.599843,-1.42842,0.978764
0.942467,-0.79231,1.96547,1.05231,0.670202,-1.43966,1.00193
0.957585,-0.780339,1.93762,1.03296,0.706968,-1.42866,1.01354
0.957585,-0.780339,1.93762,1.03296,0.706968,-1.42866,1.01354
0.957585,-0.780339,1.93762,1.03296,0.706968,-1.42866,1.01354
0.957585,-0.780339,1.93762,1.03296,0.706968,-1.42866,1.01354
0.957585,-0.780339,1.93762,1.03296,0.706968,-1.42866,1.01354
0.957585,-0.780339,1.93762,1.03296,0.706968,-1.42866,1.01354
0.939983,-0.677898,1.97428,1.07187,0.704873,-1.41909,1.07514
0.961794,-0.800565,1.96156,1.06768,0.624239,-1.42392,0.98268
0.998949,-0.805583,1.90387,1.05552,0.601231,-1.43673,0.978232
0.9672,-0.775437,1.94412,1.03227,0.652861,-1.41285,1.00337
0.961519,-0.778657,1.93191,1.0325,0.707601,-1.42574,1.01306
0.96152,-0.778657,1.93191,1.0325,0.707601,-1.42574,1.01306
1.03908,-0.785616,1.90326,1.02217,0.610125,-1.4641,0.989875
0.958021,-0.779954,1.9368,1.03297,0.707196,-1.42876,1.01362
0.974099,-0.769577,1.92908,1.03169,0.697599,-1.42254,1.0099
0.958125,-0.779915,1.9367,1.03295,0.707217,-1.42874,1.01361
0.958125,-0.779915,1.9367,1.03295,0.707217,-1.42874,1.01361
1.03376,-0.794198,1.90006,1.02412,0.606777,-1.46043,0.981961
0.941006,-0.795833,1.96624,1.05657,0.643542,-1.43298,0.9967
0.940921,-0.794482,1.96536,1.05506,0.639944,-1.43482,0.997609
0.955692,-0.781437,1.94188,1.03377,0.704645,-1.43191,1.01382
0.955692,-0.781437,1.94188,1.03377,0.704645,-1.43191,1.01382
0.946368,-0.747109,1.95703,1.03208,0.698015,-1.4359,1.01184
0.956942,-0.780604,1.93912,1.03332,0.706113,-1.43025,1.01376
0.956942,-0.780604,1.93912,1.03332,0.706113,-1.43025,1.01376
0.956942,-0.780604,1.93912,1.03332,0.706113,-1.43025,1.01376
0.966364,-0.803515,1.94157,1.07029,0.606843,-1.42109,0.978553
0.956249,-0.781022,1.94036,1.0335,0.705563,-1.43081,1.01378
0.956249,-0.781022,1.94036,1.0335,0.705563,-1.43081,1.01378
0.956249,-0.781022,1.94036,1.0335,0.705563,-1.43081,1.01378
0.956249,-0.781022,1.94036,1.0335,0.705563,-1.43081,1.01378
0.956249,-0.781022,1.94036,1.0335,0.705563,-1.43081,1.01378
0.956249,-0.781022,1.94036,1.0335,0.705563,-1.43081,1.01378
0.956249,-0.781022,1.94036,1.0335,0.705563,-1.43081,1.01378
0.956249,-0.781022,1.94036,1.0335,0.705563,-1.43081,1.01378
0.956249,-0.781022,1.94036,1.0335,0.705563,-1.43081,1.01378
0.956249,-0.781022,1.94036,1.0335,0.705563,-1.43081,1.01378
0.956249,-0.781022,1.94036,1.0335,0.705563,-1.43081,1.01378
0.956249,-0.781022,1.94036,1.0335,0.705563,-1.43081,1.01378
0.956249,-0.781022,1.94036,1.0335,0.705563,-1.43081,1.01378
0.956249,-0.781022,1.94036,1.0335,0.705563,-1.43081,1.01378
0.956249,-0.781022,1.94036,1.0335,0.705563,-1.43081,1.01378
0.956249,-0.781022,1.94036,1.0335,0.705563,-1.43081,1.01378
0.956249,-0.781022,1.94036,1.0335,0.705563,-1.43081,1.01378
0.956249,-0.781022,1.94036,1.0335,0.705563,-1.43081,1.01378
0.956249,-0.781022,1.94036,1.0335,0.705563,-1.43081,1.01378
0.956249,-0.781022,1.94036,1.0335,0.705563,-1.43081,1.01378
0.956249,-0.781022,1.94036,1.0335,0.705563,-1.43081,1.01378
0.956249,-0.781022,1.94036,1.0335,0.705563,-1.43081,1.01378
0.956249,-0.781022,1.94036,1.0335,0.705563,-1.43081,1.01378
0.956249,-0.781022,1.94036,1.0335,0.705563,-1.43081,1.01378
0.956249,-0.781022,1.94036,1.0335,0.705563,-1.43081,1.01378
0.956249,-0.781022,1.94036,1.0335,0.705563,-1.43081,1.01378
0.956249,-0.781022,1.94036,1.0335,0.705563,-1.43081,1.01378
0.956249,-0.781022,1.94036,1.0335,0.705563,-1.43081,1.01378
0.956249,-0.781022,1.94036,1.0335,0.705563,-1.43081,1.01378
0.956249,-0.781022,1.94036,1.0335,0.705563,-1.43081,1.01378
0.956249,-0.781022,1.94036,1.0335,0.705563,-1.43081,1.01378
0.956249,-0.781022,1.94036,1.0335,0.705563,-1.43081,1.01378
0.956249,-0.781022,1.94036,1.0335,0.705563,-1.43081,1.01378
0.956249,-0.781022,1.94036,1.0335,0.705563,-1.43081,1.01378
0.956249,-0.781022,1.94036,1.0335,0.705563,-1.43081,1.01378
0.956249,-0.781022,1.94036,1.0335,0.705563,-1.43081,1.01378
0.956249,-0.781022,1.94036,1.0335,0.705563,-1.43081,1.01378
0.956249,-0.781022,1.94036,1.0335,0.705563,-1.43081,1.01378
0.956249,-0.781022,1.94036,1.0335,0.705563,-1.43081,1.01378
0.956249,-0.781022,1.94036,1.0335,0.705563,-1.43081,1.01378
0.956249,-0.781022,1.94036,1.0335,0.705563,-1.43081,1.01378
0.956249,-0.781022,1.94036,1.0335,0.705563,-1.43081,1.01378
0.956249,-0.781022,1.94036,1.0335,0.705563,-1.43081,1.01378
0.956249,-0.781022,1.94036,1.0335,0.705563,-1.43081,1.01378
0.956249,-0.781022,1.94036,1.0335,0.705563,-1.43081,1.01378
0.956249,-0.781022,1.94036,1.0335,0.705563,-1.43081,1.01378
1.04257,-0.807055,1.8818,1.02875,0.604255,-1.45616,0.984823
0.940158,-0.797989,1.96832,1.05974,0.65349,-1.43427,0.998967
0.9408,-0.795581,1.96658,1.05513,0.63825,-1.43831,0.996712
0.947824,-0.790112,1.96446,1.04259,0.649651,-1.44231,1.00217
0.949574,-0.78574,1.95299,1.03592,0.696172,-1.43601,1.01391
0.949574,-0.78574,1.95299,1.03592,0.696172,-1.43601,1.01391
0.956867,-0.801989,1.95071,1.05535,0.61687,-1.41985,0.984826
1.01321,-0.794615,1.95976,1.03339,0.620934,-1.46256,0.981527
0.948746,-0.78634,1.95425,1.0363,0.693883,-1.43633,1.01368
1.01942,-0.678533,1.97253,1.09996,0.675438,-1.43976,1.06119
1.03947,-0.806424,1.88069,1.02871,0.602887,-1.45773,0.986587
0.940551,-0.793288,1.96323,1.04345,0.652449,-1.43311,1.00997
1.00965,-0.771472,1.95347,1.02055,0.633536,-1.46543,0.991078
0.962809,-0.792541,1.9679,1.06628,0.622219,-1.45103,0.982359
0.955764,-0.780262,1.94837,1.03158,0.667666,-1.43041,1.01117
0.942007,-0.796335,1.96606,1.05273,0.628347,-1.43725,0.996623
0.948076,-0.787075,1.95561,1.03646,0.690569,-1.4365,1.01319
0.948076,-0.787075,1.95561,1.03646,0.690569,-1.4365,1.01319
0.972413,-0.804972,1.90629,1.06102,0.602586,-1.42471,0.977757
0.940039,-0.795607,1.96561,1.04958,0.633039,-1.43998,1.00172
0.94727,-0.799417,1.96272,1.05898,0.622382,-1.43089,0.990402
0.947364,-0.787707,1.95676,1.03669,0.687716,-1.43663,1.01284
0.947364,-0.787707,1.95676,1.03669,0.687716,-1.43663,1.01284
0.947364,-0.787707,1.95676,1.03669,0.687716,-1.43663,1.01284
0.947364,-0.787707,1.95676,1.03669,0.687716,-1.43663,1.01284
0.947364,-0.787707,1.95676,1.03669,0.687716,-1.43663,1.01284
0.947364,-0.787707,1.95676,1.03669,0.687716,-1.43663,1.01284
0.947364,-0.787707,1.95676,1.03669,0.687716,-1.43663,1.01284
0.947364,-0.787707,1.95676,1.03669,0.687716,-1.43663,1.01284
0.947364,-0.787707,1.95676,1.03669,0.687716,-1.43663,1.01284
0.947364,-0.787707,1.95676,1.03669,0.687716,-1.43663,1.01284
0.947364,-0.787707,1.95676,1.03669,0.687716,-1.43663,1.01284
0.947364,-0.787707,1.95676,1.03669,0.687716,-1.43663,1.01284
0.947364,-0.787707,1.95676,1.03669,0.687716,-1.43663,1.01284
0.947364,-0.787707,1.95676,1.03669,0.687716,-1.43663,1.01284
0.947364,-0.787707,1.95676,1.03669,0.687716,-1.43663,1.01284
0.947364,-0.787707,1.95676,1.03669,0.687716,-1.43663,1.01284
0.947364,-0.787707,1.95676,1.03669,0.687716,-1.43663,1.01284
0.947364,-0.787707,1.95676,1.03669,0.687716,-1.43663,1.01284
0.947364,-0.787707,1.95676,1.03669,0.687716,-1.43663,1.01284
0.947364,-0.787707,1.95676,1.03669,0.687716,-1.43663,1.01284
0.947364,-0.787707,1.95676,1.03669,0.687716,-1.43663,1.01284
0.947364,-0.787707,1.95676,1.03669,0.687716,-1.43663,1.01284
0.947364,-0.787707,1.95676,1.03669,0.687716,-1.43663,1.01284
0.947364,-0.787707,1.95676,1.03669,0.687716,-1.43663,1.01284
0.947364,-0.787707,1.95676,1.03669,0.687716,-1.43663,1.01284
0.947364,-0.787707,1.95676,1.03669,0.687716,-1.43663,1.01284
0.947364,-0.787707,1.95676,1.03669,0.687716,-1.43663,1.01284
0.947364,-0.787707,1.95676,1.03669,0.687716,-1.43663,1.01284
0.947364,-0.787707,1.95676,1.03669,0.687716,-1.43663,1.01284
0.947364,-0.787707,1.95676,1.03669,0.687716,-1.43663,1.01284
0.947364,-0.787707,1.95676,1.03669,0.687716,-1.43663,1.01284
0.947364,-0.787707,1.95676,1.03669,0.687716,-1.43663,1.01284
0.947364,-0.787707,1.95676,1.03669,0.687716,-1.43663,1.01284
0.947364,-0.787707,1.95676,1.03669,0.687716,-1.43663,1.01284
0.947364,-0.787707,1.95676,1.03669,0.687716,-1.43663,1.01284
0.947364,-0.787707,1.95676,1.03669,0.687716,-1.43663,1.01284
0.947364,-0.787707,1.95676,1.03669,0.687716,-1.43663,1.01284
0.947364,-0.787707,1.95676,1.03669,0.687716,-1.43663,1.01284
0.947364,-0.787707,1.95676,1.03669,0.687716,-1.43663,1.01284
0.947364,-0.787707,1.95676,1.03669,0.687716,-1.43663,1.01284
0.947364,-0.787707,1.95676,1.03669,0.687716,-1.43663,1.01284
0.947364,-0.787707,1.95676,1.03669,0.687716,-1.43663,1.01284
0.947364,-0.787707,1.95676,1.03669,0.687716,-1.43663,1.01284
0.989062,-0.806409,1.94621,1.06579,0.640786,-1.41401,0.989964
1.04038,-0.807366,1.88053,1.02921,0.603681,-1.45476,0.984674
0.945807,-0.797593,1.96622,1.05322,0.620542,-1.43804,0.992447
0.942995,-0.797183,1.96671,1.05148,0.625844,-1.43991,0.995929
0.944018,-0.797541,1.96683,1.0517,0.625036,-1.4389,0.995485
0.94494,-0.800256,1.96405,1.0581,0.624975,-1.43652,0.992775
0.943331,-0.791686,1.96328,1.03825,0.663605,-1.43796,1.01028
0.943331,-0.791686,1.96328,1.03825,0.663606,-1.43796,1.01028
0.943331,-0.791686,1.96328,1.03825,0.663606,-1.43796,1.01028
0.943331,-0.791686,1.96328,1.03825,0.663606,-1.43796,1.01028
1.00274,-0.801764,1.93665,1.03785,0.60896,-1.45456,0.97793
0.942672,-0.792274,1.96404,1.03857,0.659769,-1.43791,1.00992
0.985285,-0.804877,1.94792,1.0538,0.618621,-1.44656,0.978203
0.943935,-0.800957,1.96438,1.05985,0.62898,-1.43721,0.993636
0.942909,-0.799889,1.96657,1.05963,0.625636,-1.4401,0.992441
0.943698,-0.800953,1.96422,1.05737,0.6324,-1.43453,0.996941
0.944367,-0.799964,1.96509,1.05804,0.622461,-1.43922,0.991444
0.941675,-0.793122,1.96512,1.03905,0.654642,-1.43775,1.00934
0.941675,-0.793122,1.96512,1.03905,0.654642,-1.43775,1.00934
0.941675,-0.793122,1.96512,1.03905,0.654642,-1.43775,1.00934
0.941675,-0.793122,1.96512,1.03905,0.654642,-1.43775,1.00934
0.941675,-0.793122,1.96512,1.03905,0.654642,-1.43775,1.00934
0.941675,-0.793122,1.96512,1.03905,0.654642,-1.43775,1.00934
0.941675,-0.793122,1.96512,1.03905,0.654642,-1.43775,1.00934
0.941675,-0.793122,1.96512,1.03905,0.654642,-1.43775,1.00934
0.941675,-0.793122,1.96512,1.03905,0.654642,-1.43775,1.00934
0.941675,-0.793122,1.96512,1.03905,0.654642,-1.43775,1.00934
0.941675,-0.793122,1.96512,1.03905,0.654642,-1.43775,1.00934
0.941675,-0.793122,1.96512,1.03905,0.654642,-1.43775,1.00934
0.941675,-0.793122,1.96512,1.03905,0.654642,-1.43775,1.00934
0.941675,-0.793122,1.96512,1.03905,0.654642,-1.43775,1.00934
0.941675,-0.793122,1.96512,1.03905,0.654642,-1.43775,1.00934
1.01729,-0.803726,1.90444,1.03777,0.606797,-1.45479,0.981107
0.940885,-0.793821,1.96524,1.03932,0.650963,-1.43747,1.00908
0.940885,-0.793821,1.96524,1.03932,0.650963,-1.43747,1.00908
0.940885,-0.793821,1.96524,1.03932,0.650963,-1.43747,1.00908
0.940885,-0.793821,1.96524,1.03932,0.650963,-1.43747,1.00908
0.940885,-0.793821,1.96524,1.03932,0.650963,-1.43747,1.00908
0.940885,-0.793821,1.96524,1.03932,0.650963,-1.43747,1.00908
0.940885,-0.793821,1.96524,1.03932,0.650963,-1.43747,1.00908
0.940885,-0.793821,1.96524,1.03932,0.650963,-1.43747,1.00908
0.940885,-0.793821,1.96524,1.03932,0.650963,-1.43747,1.00908
0.940885,-0.793821,1.96524,1.03932,0.650963,-1.43747,1.00908
0.940885,-0.793821,1.96524,1.03932,0.650963,-1.43747,1.00908
0.940885,-0.793821,1.96524,1.03932,0.650963,-1.43747,1.00908
0.940885,-0.793821,1.96524,1.03932,0.650963,-1.43747,1.00908
0.940885,-0.793821,1.96524,1.03932,0.650963,-1.43747,1.00908
0.940885,-0.793821,1.96524,1.03932,0.650963,-1.43747,1.00908
0.940885,-0.793821,1.96524,1.03932,0.650963,-1.43747,1.00908
0.940885,-0.793821,1.96524,1.03932,0.650963,-1.43747,1.00908
0.940885,-0.793821,1.96524,1.03932,0.650963,-1.43747,1.00908
0.940885,-0.793821,1.96524,1.03932,0.650963,-1.43747,1.00908
0.940885,-0.793821,1.96524,1.03932,0.650963,-1.43747,1.00908
0.940885,-0.793821,1.96524,1.03932,0.650963,-1.43747,1.00908
0.940885,-0.793821,1.96524,1.03932,0.650963,-1.43747,1.00908
0.940885,-0.793821,1.96524,1.03932,0.650963,-1.43747,1.00908
0.940885,-0.793821,1.96524,1.03932,0.650963,-1.43747,1.00908
0.940885,-0.793821,1.96524,1.03932,0.650963,-1.43747,1.00908
0.940885,-0.793821,1.96524,1.03932,0.650963,-1.43747,1.00908
0.940885,-0.793821,1.96524,1.03932,0.650963,-1.43747,1.00908
0.940885,-0.793821,1.96524,1.03932,0.650963,-1.43747,1.00908
0.940885,-0.793821,1.96524,1.03932,0.650963,-1.43747,1.00908
0.940885,-0.793821,1.96524,1.03932,0.650963,-1.43747,1.00908
0.940885,-0.793821,1.96524,1.03932,0.650963,-1.43747,1.00908
0.940885,-0.793821,1.96524,1.03932,0.650963,-1.43747,1.00908
0.940885,-0.793821,1.96524,1.03932,0.650963,-1.43747,1.00908
0.940885,-0.793821,1.96524,1.03932,0.650963,-1.43747,1.00908
0.940885,-0.793821,1.96524,1.03932,0.650963,-1.43747,1.00908
0.940885,-0.793821,1.96524,1.03932,0.650963,-1.43747,1.00908
0.940885,-0.793821,1.96524,1.03932,0.650963,-1.43747,1.00908
0.940885,-0.793821,1.96524,1.03932,0.650963,-1.43747,1.00908
0.940885,-0.793821,1.96524,1.03932,0.650963,-1.43747,1.00908
0.940885,-0.793821,1.96524,1.03932,0.650963,-1.43747,1.00908
0.940885,-0.793821,1.96524,1.03932,0.650963,-1.43747,1.00908
0.940885,-0.793821,1.96524,1.03932,0.650963,-1.43747,1.00908
0.940885,-0.793821,1.96524,1.03932,0.650963,-1.43747,1.00908
0.940885,-0.793821,1.96524,1.03932,0.650963,-1.43747,1.00908
0.940885,-0.793821,1.96524,1.03932,0.650963,-1.43747,1.00908
0.940885,-0.793821,1.96524,1.03932,0.650963,-1.43747,1.00908
1.04288,-0.803112,1.88177,1.02623,0.60593,-1.46107,0.986487
0.946539,-0.798571,1.96694,1.04949,0.620504,-1.44237,0.993027
0.938708,-0.799979,1.96919,1.04816,0.64205,-1.43725,1.00728
0.939838,-0.787884,1.94086,1.03147,0.690259,-1.42222,1.03154
0.938604,-0.79892,1.96796,1.04393,0.639008,-1.43685,1.0081
0.941539,-0.798587,1.96752,1.04304,0.631942,-1.43657,1.00387
0.952735,-0.804634,1.95765,1.06539,0.626472,-1.43645,0.988285
0.940051,-0.799001,1.96797,1.0438,0.634353,-1.43764,1.00491
0.939515,-0.799104,1.9682,1.04442,0.635269,-1.4383,1.00512
0.943273,-0.800611,1.96744,1.05285,0.625713,-1.44204,0.995086
0.944675,-0.802713,1.96316,1.05835,0.632054,-1.43472,0.996241
0.942322,-0.800093,1.9692,1.05001,0.632094,-1.43908,1.00041
0.948822,-0.803837,1.95895,1.06111,0.624623,-1.43725,0.989279
0.938635,-0.797456,1.96686,1.03993,0.63705,-1.43745,1.00698
0.938635,-0.797456,1.96686,1.03993,0.63705,-1.43745,1.00698
0.938635,-0.797456,1.96686,1.03993,0.63705,-1.43745,1.00698
0.938635,-0.797456,1.96686,1.03993,0.63705,-1.43745,1.00698
0.938635,-0.797456,1.96686,1.03993,0.63705,-1.43745,1.00698
0.938635,-0.797456,1.96686,1.03993,0.63705,-1.43745,1.00698
0.938635,-0.797456,1.96686,1.03993,0.63705,-1.43745,1.00698
0.938635,-0.797456,1.96686,1.03993,0.63705,-1.43745,1.00698
0.938635,-0.797456,1.96686,1.03993,0.63705,-1.43745,1.00698
1.02805,-0.798533,1.89522,1.02501,0.607372,-1.4593,0.983221
0.939794,-0.797455,1.96676,1.03894,0.631716,-1.43819,1.00431
0.938937,-0.79805,1.96736,1.04008,0.636203,-1.43743,1.00645
0.938936,-0.79805,1.96736,1.04008,0.636203,-1.43743,1.00645
0.938936,-0.79805,1.96736,1.04008,0.636203,-1.43743,1.00645
0.938936,-0.79805,1.96736,1.04008,0.636203,-1.43743,1.00645
0.938936,-0.79805,1.96736,1.04008,0.636203,-1.43743,1.00645
0.938936,-0.79805,1.96736,1.04008,0.636203,-1.43743,1.00645
0.938936,-0.79805,1.96736,1.04008,0.636203,-1.43743,1.00645
0.938936,-0.79805,1.96736,1.04008,0.636203,-1.43743,1.00645
0.938936,-0.79805,1.96736,1.04008,0.636203,-1.43743,1.00645
0.938936,-0.79805,1.96736,1.04008,0.636203,-1.43743,1.00645
0.938936,-0.79805,1.96736,1.04008,0.636203,-1.43743,1.00645
0.938936,-0.79805,1.96736,1.04008,0.636203,-1.43743,1.00645
0.938936,-0.79805,1.96736,1.04008,0.636203,-1.43743,1.00645
0.938936,-0.79805,1.96736,1.04008,0.636203,-1.43743,1.00645
0.938936,-0.79805,1.96736,1.04008,0.636203,-1.43743,1.00645
0.938936,-0.79805,1.96736,1.04008,0.636203,-1.43743,1.00645
0.938936,-0.79805,1.96736,1.04008,0.636203,-1.43743,1.00645
0.938936,-0.79805,1.96736,1.04008,0.636203,-1.43743,1.00645
0.938936,-0.79805,1.96736,1.04008,0.636203,-1.43743,1.00645
0.938936,-0.79805,1.96736,1.04008,0.636203,-1.43743,1.00645
0.938936,-0.79805,1.96736,1.04008,0.636203,-1.43743,1.00645
0.938936,-0.79805,1.96736,1.04008,0.636203,-1.43743,1.00645
0.938936,-0.79805,1.96736,1.04008,0.636203,-1.43743,1.00645
1.03953,-0.799399,1.88454,1.0245,0.606993,-1.46338,0.987305
0.946453,-0.803547,1.96186,1.05574,0.62599,-1.43653,0.993539
0.946055,-0.803549,1.96209,1.05626,0.626035,-1.43742,0.993238
0.945565,-0.803604,1.96241,1.05693,0.62549,-1.43937,0.992197
0.943589,-0.803308,1.96422,1.0581,0.628996,-1.43881,0.994404
0.939907,-0.799615,1.96859,1.04061,0.633908,-1.43721,1.00481
0.939907,-0.799615,1.96859,1.04061,0.633909,-1.43721,1.00481
0.939907,-0.799615,1.96859,1.04061,0.633909,-1.43721,1.00481
0.939907,-0.799615,1.96859,1.04061,0.633909,-1.43721,1.00481
0.939907,-0.799615,1.96859,1.04061,0.633909,-1.43721,1.00481
0.939907,-0.799615,1.96859,1.04061,0.633909,-1.43721,1.00481
0.939907,-0.799615,1.96859,1.04061,0.633909,-1.43721,1.00481
0.939907,-0.799615,1.96859,1.04061,0.633909,-1.43721,1.00481
0.939907,-0.799615,1.96859,1.04061,0.633909,-1.43721,1.00481
0.939907,-0.799615,1.96859,1.04061,0.633909,-1.43721,1.00481
0.939907,-0.799615,1.96859,1.04061,0.633909,-1.43721,1.00481
0.939907,-0.799615,1.96859,1.04061,0.633909,-1.43721,1.00481
0.939907,-0.799615,1.96859,1.04061,0.633909,-1.43721,1.00481
0.939907,-0.799615,1.96859,1.04061,0.633909,-1.43721,1.00481
0.939907,-0.799615,1.96859,1.04061,0.633909,-1.43721,1.00481
0.939907,-0.799615,1.96859,1.04061,0.633909,-1.43721,1.00481
0.939907,-0.799615,1.96859,1.04061,0.633909,-1.43721,1.00481
0.939907,-0.799615,1.96859,1.04061,0.633909,-1.43721,1.00481
0.939907,-0.799615,1.96859,1.04061,0.633909,-1.43721,1.00481
0.939907,-0.799615,1.96859,1.04061,0.633909,-1.43721,1.00481
0.939907,-0.799615,1.96859,1.04061,0.633909,-1.43721,1.00481
0.939907,-0.799615,1.96859,1.04061,0.633909,-1.43721,1.00481
0.939907,-0.799615,1.96859,1.04061,0.633909,-1.43721,1.00481
0.939907,-0.799615,1.96859,1.04061,0.633909,-1.43721,1.00481
0.939907,-0.799615,1.96859,1.04061,0.633909,-1.43721,1.00481
0.939907,-0.799615,1.96859,1.04061,0.633909,-1.43721,1.00481
0.939907,-0.799615,1.96859,1.04061,0.633909,-1.43721,1.00481
0.939907,-0.799615,1.96859,1.04061,0.633909,-1.43721,1.00481
0.939907,-0.799615,1.96859,1.04061,0.633909,-1.43721,1.00481
0.939907,-0.799615,1.96859,1.04061,0.633909,-1.43721,1.00481
0.939907,-0.799615,1.96859,1.04061,0.633909,-1.43721,1.00481
0.939907,-0.799615,1.96859,1.04061,0.633909,-1.43721,1.00481
0.939907,-0.799615,1.96859,1.04061,0.633909,-1.43721,1.00481
0.939907,-0.799615,1.96859,1.04061,0.633909,-1.43721,1.00481
0.939907,-0.799615,1.96859,1.04061,0.633909,-1.43721,1.00481
0.939907,-0.799615,1.96859,1.04061,0.633909,-1.43721,1.00481
0.939907,-0.799615,1.96859,1.04061,0.633909,-1.43721,1.00481
0.939907,-0.799615,1.96859,1.04061,0.633909,-1.43721,1.00481
0.939907,-0.799615,1.96859,1.04061,0.633909,-1.43721,1.00481
0.939907,-0.799615,1.96859,1.04061,0.633909,-1.43721,1.00481
0.939907,-0.799615,1.96859,1.04061,0.633909,-1.43721,1.00481
0.939907,-0.799615,1.96859,1.04061,0.633909,-1.43721,1.00481
0.939907,-0.799615,1.96859,1.04061,0.633909,-1.43721,1.00481
0.939907,-0.799615,1.96859,1.04061,0.633909,-1.43721,1.00481
0.939907,-0.799615,1.96859,1.04061,0.633909,-1.43721,1.00481
0.939907,-0.799615,1.96859,1.04061,0.633909,-1.43721,1.00481
0.939907,-0.799615,1.96859,1.04061,0.633909,-1.43721,1.00481
0.939907,-0.799615,1.96859,1.04061,0.633909,-1.43721,1.00481
0.939907,-0.799615,1.96859,1.04061,0.633909,-1.43721,1.00481
0.939907,-0.799615,1.96859,1.04061,0.633909,-1.43721,1.00481
0.939907,-0.799615,1.96859,1.04061,0.633909,-1.43721,1.00481
0.939907,-0.799615,1.96859,1.04061,0.633909,-1.43721,1.00481
0.939907,-0.799615,1.96859,1.04061,0.633909,-1.43721,1.00481
1.04043,-0.792896,1.8917,1.02283,0.6104,-1.46485,0.98824
0.940535,-0.800772,1.96963,1.04133,0.633042,-1.43691,1.00341
0.940535,-0.800772,1.96963,1.04133,0.633042,-1.43691,1.00341
0.940535,-0.800772,1.96963,1.04133,0.633042,-1.43691,1.00341
0.940535,-0.800772,1.96963,1.04133,0.633042,-1.43691,1.00341
0.940535,-0.800772,1.96963,1.04133,0.633042,-1.43691,1.00341
0.940535,-0.800772,1.96963,1.04133,0.633042,-1.43691,1.00341
0.940535,-0.800772,1.96963,1.04133,0.633042,-1.43691,1.00341
0.940535,-0.800772,1.96963,1.04133,0.633042,-1.43691,1.00341
0.940535,-0.800772,1.96963,1.04133,0.633042,-1.43691,1.00341
0.940535,-0.800772,1.96963,1.04133,0.633042,-1.43691,1.00341
0.940535,-0.800772,1.96963,1.04133,0.633042,-1.43691,1.00341
0.940535,-0.800772,1.96963,1.04133,0.633042,-1.43691,1.00341
0.940535,-0.800772,1.96963,1.04133,0.633042,-1.43691,1.00341
0.940535,-0.800772,1.96963,1.04133,0.633042,-1.43691,1.00341
0.940535,-0.800772,1.96963,1.04133,0.633042,-1.43691,1.00341
0.940535,-0.800772,1.96963,1.04133,0.633042,-1.43691,1.00341
0.940535,-0.800772,1.96963,1.04133,0.633042,-1.43691,1.00341
0.940535,-0.800772,1.96963,1.04133,0.633042,-1.43691,1.00341
0.926277,-0.801054,1.95864,1.03738,0.680552,-1.41752,1.04208
0.957558,-0.806782,1.95716,1.0558,0.620879,-1.4354,0.987516
0.940175,-0.793115,1.95356,1.03536,0.646398,-1.42694,1.02141
0.954837,-0.8057,1.95961,1.05348,0.624151,-1.43414,0.989619
0.942079,-0.802115,1.97062,1.04195,0.63206,-1.43594,1.00143
0.942079,-0.802115,1.97062,1.04195,0.63206,-1.43594,1.00143
0.942079,-0.802115,1.97062,1.04195,0.63206,-1.43594,1.00143
0.942079,-0.802115,1.97062,1.04195,0.63206,-1.43594,1.00143
0.942079,-0.802115,1.97062,1.04195,0.63206,-1.43594,1.00143
0.942079,-0.802115,1.97062,1.04195,0.63206,-1.43594,1.00143
0.942079,-0.802115,1.97062,1.04195,0.63206,-1.43594,1.00143
0.942079,-0.802115,1.97062,1.04195,0.63206,-1.43594,1.00143
0.942079,-0.802115,1.97062,1.04195,0.63206,-1.43594,1.00143
0.942079,-0.802115,1.97062,1.04195,0.63206,-1.43594,1.00143
0.942079,-0.802115,1.97062,1.04195,0.63206,-1.43594,1.00143
0.942079,-0.802115,1.97062,1.04195,0.63206,-1.43594,1.00143
0.942079,-0.802115,1.97062,1.04195,0.63206,-1.43594,1.00143
0.942079,-0.802115,1.97062,1.04195,0.63206,-1.43594,1.00143
0.942079,-0.802115,1.97062,1.04195,0.63206,-1.43594,1.00143
0.942079,-0.802115,1.97062,1.04195,0.63206,-1.43594,1.00143
0.942079,-0.802115,1.97062,1.04195,0.63206,-1.43594,1.00143
0.942079,-0.802115,1.97062,1.04195,0.63206,-1.43594,1.00143
0.942079,-0.802115,1.97062,1.04195,0.63206,-1.43594,1.00143
0.942079,-0.802115,1.97062,1.04195,0.63206,-1.43594,1.00143
0.942079,-0.802115,1.97062,1.04195,0.63206,-1.43594,1.00143
0.942079,-0.802115,1.97062,1.04195,0.63206,-1.43594,1.00143
0.942079,-0.802115,1.97062,1.04195,0.63206,-1.43594,1.00143
0.942079,-0.802115,1.97062,1.04195,0.63206,-1.43594,1.00143
0.942079,-0.802115,1.97062,1.04195,0.63206,-1.43594,1.00143
0.942079,-0.802115,1.97062,1.04195,0.63206,-1.43594,1.00143
0.942079,-0.802115,1.97062,1.04195,0.63206,-1.43594,1.00143
0.942079,-0.802115,1.97062,1.04195,0.63206,-1.43594,1.00143
0.942079,-0.802115,1.97062,1.04195,0.63206,-1.43594,1.00143
0.942079,-0.802115,1.97062,1.04195,0.63206,-1.43594,1.00143
0.942079,-0.802115,1.97062,1.04195,0.63206,-1.43594,1.00143
0.942079,-0.802115,1.97062,1.04195,0.63206,-1.43594,1.00143
0.942079,-0.802115,1.97062,1.04195,0.63206,-1.43594,1.00143
0.942079,-0.802115,1.97062,1.04195,0.63206,-1.43594,1.00143
0.942079,-0.802115,1.97062,1.04195,0.63206,-1.43594,1.00143
0.942079,-0.802115,1.97062,1.04195,0.63206,-1.43594,1.00143
0.942079,-0.802115,1.97062,1.04195,0.63206,-1.43594,1.00143
0.942079,-0.802115,1.97062,1.04195,0.63206,-1.43594,1.00143
0.942079,-0.802115,1.97062,1.04195,0.63206,-1.43594,1.00143
0.942079,-0.802115,1.97062,1.04195,0.63206,-1.43594,1.00143
0.942079,-0.802115,1.97062,1.04195,0.63206,-1.43594,1.00143
0.942079,-0.802115,1.97062,1.04195,0.63206,-1.43594,1.00143
0.942079,-0.802115,1.97062,1.04195,0.63206,-1.43594,1.00143
0.942079,-0.802115,1.97062,1.04195,0.63206,-1.43594,1.00143
0.942079,-0.802115,1.97062,1.04195,0.63206,-1.43594,1.00143
0.942079,-0.802115,1.97062,1.04195,0.63206,-1.43594,1.00143
0.942079,-0.802115,1.97062,1.04195,0.63206,-1.43594,1.00143
0.942079,-0.802115,1.97062,1.04195,0.63206,-1.43594,1.00143
0.942079,-0.802115,1.97062,1.04195,0.63206,-1.43594,1.00143
0.942079,-0.802115,1.97062,1.04195,0.63206,-1.43594,1.00143
0.942079,-0.802115,1.97062,1.04195,0.63206,-1.43594,1.00143
0.942079,-0.802115,1.97062,1.04195,0.63206,-1.43594,1.00143
0.942079,-0.802115,1.97062,1.04195,0.63206,-1.43594,1.00143
0.942079,-0.802115,1.97062,1.04195,0.63206,-1.43594,1.00143
0.942079,-0.802115,1.97062,1.04195,0.63206,-1.43594,1.00143
0.942079,-0.802115,1.97062,1.04195,0.63206,-1.43594,1.00143
0.942079,-0.802115,1.97062,1.04195,0.63206,-1.43594,1.00143
0.942079,-0.802115,1.97062,1.04195,0.63206,-1.43594,1.00143
0.942079,-0.802115,1.97062,1.04195,0.63206,-1.43594,1.00143
0.942079,-0.802115,1.97062,1.04195,0.63206,-1.43594,1.00143
0.942079,-0.802115,1.97062,1.04195,0.63206,-1.43594,1.00143
0.942079,-0.802115,1.97062,1.04195,0.63206,-1.43594,1.00143
0.942079,-0.802115,1.97062,1.04195,0.63206,-1.43594,1.00143
0.942079,-0.802115,1.97062,1.04195,0.63206,-1.43594,1.00143
0.942079,-0.802115,1.97062,1.04195,0.63206,-1.43594,1.00143
0.942079,-0.802115,1.97062,1.04195,0.63206,-1.43594,1.00143
0.942079,-0.802115,1.97062,1.04195,0.63206,-1.43594,1.00143
0.942079,-0.802115,1.97062,1.04195,0.63206,-1.43594,1.00143
0.942079,-0.802115,1.97062,1.04195,0.63206,-1.43594,1.00143
0.942079,-0.802115,1.97062,1.04195,0.63206,-1.43594,1.00143
0.942079,-0.802115,1.97062,1.04195,0.63206,-1.43594,1.00143
0.942079,-0.802115,1.97062,1.04195,0.63206,-1.43594,1.00143
0.942079,-0.802115,1.97062,1.04195,0.63206,-1.43594,1.00143
0.942079,-0.802115,1.97062,1.04195,0.63206,-1.43594,1.00143
0.942079,-0.802115,1.97062,1.04195,0.63206,-1.43594,1.00143
0.942079,-0.802115,1.97062,1.04195,0.63206,-1.43594,1.00143
0.942079,-0.802115,1.97062,1.04195,0.63206,-1.43594,1.00143
0.942079,-0.802115,1.97062,1.04195,0.63206,-1.43594,1.00143
0.942079,-0.802115,1.97062,1.04195,0.63206,-1.43594,1.00143
0.942079,-0.802115,1.97062,1.04195,0.63206,-1.43594,1.00143
0.942079,-0.802115,1.97062,1.04195,0.63206,-1.43594,1.00143
0.942079,-0.802115,1.97062,1.04195,0.63206,-1.43594,1.00143
0.942079,-0.802115,1.97062,1.04195,0.63206,-1.43594,1.00143
0.942079,-0.802115,1.97062,1.04195,0.63206,-1.43594,1.00143
0.942079,-0.802115,1.97062,1.04195,0.63206,-1.43594,1.00143
0.942079,-0.802115,1.97062,1.04195,0.63206,-1.43594,1.00143
0.942079,-0.802115,1.97062,1.04195,0.63206,-1.43594,1.00143
0.942079,-0.802115,1.97062,1.04195,0.63206,-1.43594,1.00143
0.942079,-0.802115,1.97062,1.04195,0.63206,-1.43594,1.00143
0.942079,-0.802115,1.97062,1.04195,0.63206,-1.43594,1.00143
0.942079,-0.802115,1.97062,1.04195,0.63206,-1.43594,1.00143
0.942079,-0.802115,1.97062,1.04195,0.63206,-1.43594,1.00143
0.942079,-0.802115,1.97062,1.04195,0.63206,-1.43594,1.00143
0.942079,-0.802115,1.97062,1.04195,0.63206,-1.43594,1.00143
0.942079,-0.802115,1.97062,1.04195,0.63206,-1.43594,1.00143
0.942079,-0.802115,1.97062,1.04195,0.63206,-1.43594,1.00143
0.942079,-0.802115,1.97062,1.04195,0.63206,-1.43594,1.00143
0.942079,-0.802115,1.97062,1.04195,0.63206,-1.43594,1.00143
0.942079,-0.802115,1.97062,1.04195,0.63206,-1.43594,1.00143
0.942079,-0.802115,1.97062,1.04195,0.63206,-1.43594,1.00143
0.942079,-0.802115,1.97062,1.04195,0.63206,-1.43594,1.00143
0.942079,-0.802115,1.97062,1.04195,0.63206,-1.43594,1.00143
0.942079,-0.802115,1.97062,1.04195,0.63206,-1.43594,1.00143
0.942079,-0.802115,1.97062,1.04195,0.63206,-1.43594,1.00143
0.942079,-0.802115,1.97062,1.04195,0.63206,-1.43594,1.00143
0.942079,-0.802115,1.97062,1.04195,0.63206,-1.43594,1.00143
0.942079,-0.802115,1.97062,1.04195,0.63206,-1.43594,1.00143
0.942079,-0.802115,1.97062,1.04195,0.63206,-1.43594,1.00143
0.942079,-0.802115,1.97062,1.04195,0.63206,-1.43594,1.00143
0.942079,-0.802115,1.97062,1.04195,0.63206,-1.43594,1.00143
0.942079,-0.802115,1.97062,1.04195,0.63206,-1.43594,1.00143
0.942079,-0.802115,1.97062,1.04195,0.63206,-1.43594,1.00143
0.942079,-0.802115,1.97062,1.04195,0.63206,-1.43594,1.00143
0.942079,-0.802115,1.97062,1.04195,0.63206,-1.43594,1.00143
0.942079,-0.802115,1.97062,1.04195,0.63206,-1.43594,1.00143
0.942079,-0.802115,1.97062,1.04195,0.63206,-1.43594,1.00143
0.942079,-0.802115,1.97062,1.04195,0.63206,-1.43594,1.00143
0.942079,-0.802115,1.97062,1.04195,0.63206,-1.43594,1.00143
0.942079,-0.802115,1.97062,1.04195,0.63206,-1.43594,1.00143
0.942079,-0.802115,1.97062,1.04195,0.63206,-1.43594,1.00143
0.942079,-0.802115,1.97062,1.04195,0.63206,-1.43594,1.00143
0.942079,-0.802115,1.97062,1.04195,0.63206,-1.43594,1.00143
0.942079,-0.802115,1.97062,1.04195,0.63206,-1.43594,1.00143
0.942079,-0.802115,1.97062,1.04195,0.63206,-1.43594,1.00143
0.942079,-0.802115,1.97062,1.04195,0.63206,-1.43594,1.00143
0.942079,-0.802115,1.97062,1.04195,0.63206,-1.43594,1.00143
0.942079,-0.802115,1.97062,1.04195,0.63206,-1.43594,1.00143
0.942079,-0.802115,1.97062,1.04195,0.63206,-1.43594,1.00143
0.942079,-0.802115,1.97062,1.04195,0.63206,-1.43594,1.00143
0.942079,-0.802115,1.97062,1.04195,0.63206,-1.43594,1.00143
0.942079,-0.802115,1.97062,1.04195,0.63206,-1.43594,1.00143
0.942079,-0.802115,1.97062,1.04195,0.63206,-1.43594,1.00143
0.942079,-0.802115,1.97062,1.04195,0.63206,-1.43594,1.00143
0.942079,-0.802115,1.97062,1.04195,0.63206,-1.43594,1.00143
0.942079,-0.802115,1.97062,1.04195,0.63206,-1.43594,1.00143
0.942079,-0.802115,1.97062,1.04195,0.63206,-1.43594,1.00143
0.942079,-0.802115,1.97062,1.04195,0.63206,-1.43594,1.00143
0.942079,-0.802115,1.97062,1.04195,0.63206,-1.43594,1.00143
0.942079,-0.802115,1.97062,1.04195,0.63206,-1.43594,1.00143
0.942079,-0.802115,1.97062,1.04195,0.63206,-1.43594,1.00143
0.942079,-0.802115,1.97062,1.04195,0.63206,-1.43594,1.00143
0.942079,-0.802115,1.97062,1.04195,0.63206,-1.43594,1.00143
0.942079,-0.802115,1.97062,1.04195,0.63206,-1.43594,1.00143
0.942079,-0.802115,1.97062,1.04195,0.63206,-1.43594,1.00143
0.942079,-0.802115,1.97062,1.04195,0.63206,-1.43594,1.00143
0.942079,-0.802115,1.97062,1.04195,0.63206,-1.43594,1.00143
0.942079,-0.802115,1.97062,1.04195,0.63206,-1.43594,1.00143
0.942079,-0.802115,1.97062,1.04195,0.63206,-1.43594,1.00143
0.942079,-0.802115,1.97062,1.04195,0.63206,-1.43594,1.00143
0.942079,-0.802115,1.97062,1.04195,0.63206,-1.43594,1.00143
0.942079,-0.802115,1.97062,1.04195,0.63206,-1.43594,1.00143
0.942079,-0.802115,1.97062,1.04195,0.63206,-1.43594,1.00143
0.942079,-0.802115,1.97062,1.04195,0.63206,-1.43594,1.00143
0.942079,-0.802115,1.97062,1.04195,0.63206,-1.43594,1.00143
0.942079,-0.802115,1.97062,1.04195,0.63206,-1.43594,1.00143
0.942079,-0.802115,1.97062,1.04195,0.63206,-1.43594,1.00143
0.942079,-0.802115,1.97062,1.04195,0.63206,-1.43594,1.00143
0.942079,-0.802115,1.97062,1.04195,0.63206,-1.43594,1.00143
0.942079,-0.802115,1.97062,1.04195,0.63206,-1.43594,1.00143
0.942079,-0.802115,1.97062,1.04195,0.63206,-1.43594,1.00143
0.942079,-0.802115,1.97062,1.04195,0.63206,-1.43594,1.00143
0.942079,-0.802115,1.97062,1.04195,0.63206,-1.43594,1.00143
0.942079,-0.802115,1.97062,1.04195,0.63206,-1.43594,1.00143
0.942079,-0.802115,1.97062,1.04195,0.63206,-1.43594,1.00143
0.942079,-0.802115,1.97062,1.04195,0.63206,-1.43594,1.00143
0.942079,-0.802115,1.97062,1.04195,0.63206,-1.43594,1.00143
0.942079,-0.802115,1.97062,1.04195,0.63206,-1.43594,1.00143
0.942079,-0.802115,1.97062,1.04195,0.63206,-1.43594,1.00143
0.942079,-0.802115,1.97062,1.04195,0.63206,-1.43594,1.00143
0.942079,-0.802115,1.97062,1.04195,0.63206,-1.43594,1.00143
0.942079,-0.802115,1.97062,1.04195,0.63206,-1.43594,1.00143
0.942079,-0.802115,1.97062,1.04195,0.63206,-1.43594,1.00143
0.942079,-0.802115,1.97062,1.04195,0.63206,-1.43594,1.00143
0.942079,-0.802115,1.97062,1.04195,0.63206,-1.43594,1.00143
0.942079,-0.802115,1.97062,1.04195,0.63206,-1.43594,1.00143
0.942079,-0.802115,1.97062,1.04195,0.63206,-1.43594,1.00143
0.942079,-0.802115,1.97062,1.04195,0.63206,-1.43594,1.00143
0.942079,-0.802115,1.97062,1.04195,0.63206,-1.43594,1.00143
0.942079,-0.802115,1.97062,1.04195,0.63206,-1.43594,1.00143
0.942079,-0.802115,1.97062,1.04195,0.63206,-1.43594,1.00143
0.942079,-0.802115,1.97062,1.04195,0.63206,-1.43594,1.00143
0.942079,-0.802115,1.97062,1.04195,0.63206,-1.43594,1.00143
0.942079,-0.802115,1.97062,1.04195,0.63206,-1.43594,1.00143
0.942079,-0.802115,1.97062,1.04195,0.63206,-1.43594,1.00143
0.942079,-0.802115,1.97062,1.04195,0.63206,-1.43594,1.00143
0.942079,-0.802115,1.97062,1.04195,0.63206,-1.43594,1.00143
0.942079,-0.802115,1.97062,1.04195,0.63206,-1.43594,1.00143
0.942079,-0.802115,1.97062,1.04195,0.63206,-1.43594,1.00143
0.942079,-0.802115,1.97062,1.04195,0.63206,-1.43594,1.00143
0.942079,-0.802115,1.97062,1.04195,0.63206,-1.43594,1.00143
0.942079,-0.802115,1.97062,1.04195,0.63206,-1.43594,1.00143
0.942079,-0.802115,1.97062,1.04195,0.63206,-1.43594,1.00143
0.942079,-0.802115,1.97062,1.04195,0.63206,-1.43594,1.00143
0.942079,-0.802115,1.97062,1.04195,0.63206,-1.43594,1.00143
0.942079,-0.802115,1.97062,1.04195,0.63206,-1.43594,1.00143
0.942079,-0.802115,1.97062,1.04195,0.63206,-1.43594,1.00143
0.942079,-0.802115,1.97062,1.04195,0.63206,-1.43594,1.00143
0.942079,-0.802115,1.97062,1.04195,0.63206,-1.43594,1.00143
0.942079,-0.802115,1.97062,1.04195,0.63206,-1.43594,1.00143
0.942079,-0.802115,1.97062,1.04195,0.63206,-1.43594,1.00143
0.942079,-0.802115,1.97062,1.04195,0.63206,-1.43594,1.00143
0.942079,-0.802115,1.97062,1.04195,0.63206,-1.43594,1.00143
0.942079,-0.802115,1.97062,1.04195,0.63206,-1.43594,1.00143
0.942079,-0.802115,1.97062,1.04195,0.63206,-1.43594,1.00143
0.942079,-0.802115,1.97062,1.04195,0.63206,-1.43594,1.00143
0.942079,-0.802115,1.97062,1.04195,0.63206,-1.43594,1.00143
0.942079,-0.802115,1.97062,1.04195,0.63206,-1.43594,1.00143
0.942079,-0.802115,1.97062,1.04195,0.63206,-1.43594,1.00143
0.942079,-0.802115,1.97062,1.04195,0.63206,-1.43594,1.00143
0.942079,-0.802115,1.97062,1.04195,0.63206,-1.43594,1.00143
0.942079,-0.802115,1.97062,1.04195,0.63206,-1.43594,1.00143
0.942079,-0.802115,1.97062,1.04195,0.63206,-1.43594,1.00143
0.942079,-0.802115,1.97062,1.04195,0.63206,-1.43594,1.00143
0.942079,-0.802115,1.97062,1.04195,0.63206,-1.43594,1.00143
0.942079,-0.802115,1.97062,1.04195,0.63206,-1.43594,1.00143
0.942079,-0.802115,1.97062,1.04195,0.63206,-1.43594,1.00143
0.942079,-0.802115,1.97062,1.04195,0.63206,-1.43594,1.00143
0.942079,-0.802115,1.97062,1.04195,0.63206,-1.43594,1.00143
0.942079,-0.802115,1.97062,1.04195,0.63206,-1.43594,1.00143
0.942079,-0.802115,1.97062,1.04195,0.63206,-1.43594,1.00143
0.942079,-0.802115,1.97062,1.04195,0.63206,-1.43594,1.00143
0.942079,-0.802115,1.97062,1.04195,0.63206,-1.43594,1.00143
0.942079,-0.802115,1.97062,1.04195,0.63206,-1.43594,1.00143
0.942079,-0.802115,1.97062,1.04195,0.63206,-1.43594,1.00143
0.942079,-0.802115,1.97062,1.04195,0.63206,-1.43594,1.00143
0.942079,-0.802115,1.97062,1.04195,0.63206,-1.43594,1.00143
0.942079,-0.802115,1.97062,1.04195,0.63206,-1.43594,1.00143
0.942079,-0.802115,1.97062,1.04195,0.63206,-1.43594,1.00143
0.942079,-0.802115,1.97062,1.04195,0.63206,-1.43594,1.00143
0.942079,-0.802115,1.97062,1.04195,0.63206,-1.43594,1.00143
0.942079,-0.802115,1.97062,1.04195,0.63206,-1.43594,1.00143
0.942079,-0.802115,1.97062,1.04195,0.63206,-1.43594,1.00143
0.942079,-0.802115,1.97062,1.04195,0.63206,-1.43594,1.00143
0.942079,-0.802115,1.97062,1.04195,0.63206,-1.43594,1.00143
0.942079,-0.802115,1.97062,1.04195,0.63206,-1.43594,1.00143
0.942079,-0.802115,1.97062,1.04195,0.63206,-1.43594,1.00143
0.942079,-0.802115,1.97062,1.04195,0.63206,-1.43594,1.00143
0.942079,-0.802115,1.97062,1.04195,0.63206,-1.43594,1.00143
0.942079,-0.802115,1.97062,1.04195,0.63206,-1.43594,1.00143
0.942079,-0.802115,1.97062,1.04195,0.63206,-1.43594,1.00143
0.942079,-0.802115,1.97062,1.04195,0.63206,-1.43594,1.00143
0.942079,-0.802115,1.97062,1.04195,0.63206,-1.43594,1.00143
0.942079,-0.802115,1.97062,1.04195,0.63206,-1.43594,1.00143
0.942079,-0.802115,1.97062,1.04195,0.63206,-1.43594,1.00143
0.942079,-0.802115,1.97062,1.04195,0.63206,-1.43594,1.00143
0.942079,-0.802115,1.97062,1.04195,0.63206,-1.43594,1.00143
0.942079,-0.802115,1.97062,1.04195,0.63206,-1.43594,1.00143
0.942079,-0.802115,1.97062,1.04195,0.63206,-1.43594,1.00143
0.942079,-0.802115,1.97062,1.04195,0.63206,-1.43594,1.00143
0.942079,-0.802115,1.97062,1.04195,0.63206,-1.43594,1.00143
0.942079,-0.802115,1.97062,1.04195,0.63206,-1.43594,1.00143
0.942079,-0.802115,1.97062,1.04195,0.63206,-1.43594,1.00143
0.942079,-0.802115,1.97062,1.04195,0.63206,-1.43594,1.00143
0.942079,-0.802115,1.97062,1.04195,0.63206,-1.43594,1.00143
0.942079,-0.802115,1.97062,1.04195,0.63206,-1.43594,1.00143
0.942079,-0.802115,1.97062,1.04195,0.63206,-1.43594,1.00143
0.942079,-0.802115,1.97062,1.04195,0.63206,-1.43594,1.00143
0.942079,-0.802115,1.97062,1.04195,0.63206,-1.43594,1.00143
0.942079,-0.802115,1.97062,1.04195,0.63206,-1.43594,1.00143
0.942079,-0.802115,1.97062,1.04195,0.63206,-1.43594,1.00143
0.942079,-0.802115,1.97062,1.04195,0.63206,-1.43594,1.00143
0.942079,-0.802115,1.97062,1.04195,0.63206,-1.43594,1.00143
0.942079,-0.802115,1.97062,1.04195,0.63206,-1.43594,1.00143
0.942079,-0.802115,1.97062,1.04195,0.63206,-1.43594,1.00143
0.942079,-0.802115,1.97062,1.04195,0.63206,-1.43594,1.00143
0.942079,-0.802115,1.97062,1.04195,0.63206,-1.43594,1.00143
0.942079,-0.802115,1.97062,1.04195,0.63206,-1.43594,1.00143
0.942079,-0.802115,1.97062,1.04195,0.63206,-1.43594,1.00143
0.942079,-0.802115,1.97062,1.04195,0.63206,-1.43594,1.00143
0.942079,-0.802115,1.97062,1.04195,0.63206,-1.43594,1.00143
0.942079,-0.802115,1.97062,1.04195,0.63206,-1.43594,1.00143
0.942079,-0.802115,1.97062,1.04195,0.63206,-1.43594,1.00143
0.942079,-0.802115,1.97062,1.04195,0.63206,-1.43594,1.00143
0.942079,-0.802115,1.97062,1.04195,0.63206,-1.43594,1.00143
0.942079,-0.802115,1.97062,1.04195,0.63206,-1.43594,1.00143
0.942079,-0.802115,1.97062,1.04195,0.63206,-1.43594,1.00143
0.942079,-0.802115,1.97062,1.04195,0.63206,-1.43594,1.00143
0.942079,-0.802115,1.97062,1.04195,0.63206,-1.43594,1.00143
0.942079,-0.802115,1.97062,1.04195,0.63206,-1.43594,1.00143
0.942079,-0.802115,1.97062,1.04195,0.63206,-1.43594,1.00143
0.942079,-0.802115,1.97062,1.04195,0.63206,-1.43594,1.00143
0.942079,-0.802115,1.97062,1.04195,0.63206,-1.43594,1.00143
0.942079,-0.802115,1.97062,1.04195,0.63206,-1.43594,1.00143
0.942079,-0.802115,1.97062,1.04195,0.63206,-1.43594,1.00143
0.942079,-0.802115,1.97062,1.04195,0.63206,-1.43594,1.00143
0.942079,-0.802115,1.97062,1.04195,0.63206,-1.43594,1.00143
0.942079,-0.802115,1.97062,1.04195,0.63206,-1.43594,1.00143
0.942079,-0.802115,1.97062,1.04195,0.63206,-1.43594,1.00143
0.942079,-0.802115,1.97062,1.04195,0.63206,-1.43594,1.00143
0.942079,-0.802115,1.97062,1.04195,0.63206,-1.43594,1.00143
0.942079,-0.802115,1.97062,1.04195,0.63206,-1.43594,1.00143
0.942079,-0.802115,1.97062,1.04195,0.63206,-1.43594,1.00143
0.942079,-0.802115,1.97062,1.04195,0.63206,-1.43594,1.00143
0.942079,-0.802115,1.97062,1.04195,0.63206,-1.43594,1.00143
0.942079,-0.802115,1.97062,1.04195,0.63206,-1.43594,1.00143
0.942079,-0.802115,1.97062,1.04195,0.63206,-1.43594,1.00143
0.942079,-0.802115,1.97062,1.04195,0.63206,-1.43594,1.00143
0.942079,-0.802115,1.97062,1.04195,0.63206,-1.43594,1.00143
0.942079,-0.802115,1.97062,1.04195,0.63206,-1.43594,1.00143
0.942079,-0.802115,1.97062,1.04195,0.63206,-1.43594,1.00143
0.942079,-0.802115,1.97062,1.04195,0.63206,-1.43594,1.00143
0.942079,-0.802115,1.97062,1.04195,0.63206,-1.43594,1.00143
0.942079,-0.802115,1.97062,1.04195,0.63206,-1.43594,1.00143
0.942079,-0.802115,1.97062,1.04195,0.63206,-1.43594,1.00143
0.942079,-0.802115,1.97062,1.04195,0.63206,-1.43594,1.00143
0.942079,-0.802115,1.97062,1.04195,0.63206,-1.43594,1.00143
0.942079,-0.802115,1.97062,1.04195,0.63206,-1.43594,1.00143
0.942079,-0.802115,1.97062,1.04195,0.63206,-1.43594,1.00143
0.942079,-0.802115,1.97062,1.04195,0.63206,-1.43594,1.00143
0.942079,-0.802115,1.97062,1.04195,0.63206,-1.43594,1.00143
0.942079,-0.802115,1.97062,1.04195,0.63206,-1.43594,1.00143
0.942079,-0.802115,1.97062,1.04195,0.63206,-1.43594,1.00143
0.942079,-0.802115,1.97062,1.04195,0.63206,-1.43594,1.00143
0.942079,-0.802115,1.97062,1.04195,0.63206,-1.43594,1.00143
0.942079,-0.802115,1.97062,1.04195,0.63206,-1.43594,1.00143
0.942079,-0.802115,1.97062,1.04195,0.63206,-1.43594,1.00143
0.942079,-0.802115,1.97062,1.04195,0.63206,-1.43594,1.00143
0.942079,-0.802115,1.97062,1.04195,0.63206,-1.43594,1.00143
0.942079,-0.802115,1.97062,1.04195,0.63206,-1.43594,1.00143
0.942079,-0.802115,1.97062,1.04195,0.63206,-1.43594,1.00143
0.942079,-0.802115,1.97062,1.04195,0.63206,-1.43594,1.00143
0.942079,-0.802115,1.97062,1.04195,0.63206,-1.43594,1.00143
0.942079,-0.802115,1.97062,1.04195,0.63206,-1.43594,1.00143
0.942079,-0.802115,1.97062,1.04195,0.63206,-1.43594,1.00143
0.942079,-0.802115,1.97062,1.04195,0.63206,-1.43594,1.00143
0.942079,-0.802115,1.97062,1.04195,0.63206,-1.43594,1.00143
0.942079,-0.802115,1.97062,1.04195,0.63206,-1.43594,1.00143
0.942079,-0.802115,1.97062,1.04195,0.63206,-1.43594,1.00143
0.942079,-0.802115,1.97062,1.04195,0.63206,-1.43594,1.00143
0.942079,-0.802115,1.97062,1.04195,0.63206,-1.43594,1.00143
0.942079,-0.802115,1.97062,1.04195,0.63206,-1.43594,1.00143
0.942079,-0.802115,1.97062,1.04195,0.63206,-1.43594,1.00143
0.942079,-0.802115,1.97062,1.04195,0.63206,-1.43594,1.00143
0.942079,-0.802115,1.97062,1.04195,0.63206,-1.43594,1.00143
0.942079,-0.802115,1.97062,1.04195,0.63206,-1.43594,1.00143
0.942079,-0.802115,1.97062,1.04195,0.63206,-1.43594,1.00143
0.942079,-0.802115,1.97062,1.04195,0.63206,-1.43594,1.00143
0.942079,-0.802115,1.97062,1.04195,0.63206,-1.43594,1.00143
0.942079,-0.802115,1.97062,1.04195,0.63206,-1.43594,1.00143
0.942079,-0.802115,1.97062,1.04195,0.63206,-1.43594,1.00143
0.942079,-0.802115,1.97062,1.04195,0.63206,-1.43594,1.00143
0.942079,-0.802115,1.97062,1.04195,0.63206,-1.43594,1.00143
0.942079,-0.802115,1.97062,1.04195,0.63206,-1.43594,1.00143
0.942079,-0.802115,1.97062,1.04195,0.63206,-1.43594,1.00143
0.942079,-0.802115,1.97062,1.04195,0.63206,-1.43594,1.00143
0.942079,-0.802115,1.97062,1.04195,0.63206,-1.43594,1.00143
0.942079,-0.802115,1.97062,1.04195,0.63206,-1.43594,1.00143
0.942079,-0.802115,1.97062,1.04195,0.63206,-1.43594,1.00143
0.942079,-0.802115,1.97062,1.04195,0.63206,-1.43594,1.00143
0.942079,-0.802115,1.97062,1.04195,0.63206,-1.43594,1.00143
0.942079,-0.802115,1.97062,1.04195,0.63206,-1.43594,1.00143
0.942079,-0.802115,1.97062,1.04195,0.63206,-1.43594,1.00143
0.942079,-0.802115,1.97062,1.04195,0.63206,-1.43594,1.00143
0.942079,-0.802115,1.97062,1.04195,0.63206,-1.43594,1.00143
0.942079,-0.802115,1.97062,1.04195,0.63206,-1.43594,1.00143
0.942079,-0.802115,1.97062,1.04195,0.63206,-1.43594,1.00143
0.942079,-0.802115,1.97062,1.04195,0.63206,-1.43594,1.00143
0.942079,-0.802115,1.97062,1.04195,0.63206,-1.43594,1.00143
0.942079,-0.802115,1.97062,1.04195,0.63206,-1.43594,1.00143
0.942079,-0.802115,1.97062,1.04195,0.63206,-1.43594,1.00143
0.942079,-0.802115,1.97062,1.04195,0.63206,-1.43594,1.00143
0.942079,-0.802115,1.97062,1.04195,0.63206,-1.43594,1.00143
0.942079,-0.802115,1.97062,1.04195,0.63206,-1.43594,1.00143
0.942079,-0.802115,1.97062,1.04195,0.63206,-1.43594,1.00143
0.942079,-0.802115,1.97062,1.04195,0.63206,-1.43594,1.00143
0.942079,-0.802115,1.97062,1.04195,0.63206,-1.43594,1.00143
0.942079,-0.802115,1.97062,1.04195,0.63206,-1.43594,1.00143
0.942079,-0.802115,1.97062,1.04195,0.63206,-1.43594,1.00143
0.942079,-0.802115,1.97062,1.04195,0.63206,-1.43594,1.00143
0.942079,-0.802115,1.97062,1.04195,0.63206,-1.43594,1.00143
0.942079,-0.802115,1.97062,1.04195,0.63206,-1.43594,1.00143
0.942079,-0.802115,1.97062,1.04195,0.63206,-1.43594,1.00143
0.942079,-0.802115,1.97062,1.04195,0.63206,-1.43594,1.00143
0.942079,-0.802115,1.97062,1.04195,0.63206,-1.43594,1.00143
0.942079,-0.802115,1.97062,1.04195,0.63206,-1.43594,1.00143
0.942079,-0.802115,1.97062,1.04195,0.63206,-1.43594,1.00143
0.942079,-0.802115,1.97062,1.04195,0.63206,-1.43594,1.00143
0.942079,-0.802115,1.97062,1.04195,0.63206,-1.43594,1.00143
0.942079,-0.802115,1.97062,1.04195,0.63206,-1.43594,1.00143
0.942079,-0.802115,1.97062,1.04195,0.63206,-1.43594,1.00143
0.942079,-0.802115,1.97062,1.04195,0.63206,-1.43594,1.00143
0.942079,-0.802115,1.97062,1.04195,0.63206,-1.43594,1.00143
0.942079,-0.802115,1.97062,1.04195,0.63206,-1.43594,1.00143
0.942079,-0.802115,1.97062,1.04195,0.63206,-1.43594,1.00143
0.942079,-0.802115,1.97062,1.04195,0.63206,-1.43594,1.00143
0.942079,-0.802115,1.97062,1.04195,0.63206,-1.43594,1.00143
0.942079,-0.802115,1.97062,1.04195,0.63206,-1.43594,1.00143
0.942079,-0.802115,1.97062,1.04195,0.63206,-1.43594,1.00143
0.942079,-0.802115,1.97062,1.04195,0.63206,-1.43594,1.00143
0.942079,-0.802115,1.97062,1.04195,0.63206,-1.43594,1.00143
0.942079,-0.802115,1.97062,1.04195,0.63206,-1.43594,1.00143
0.942079,-0.802115,1.97062,1.04195,0.63206,-1.43594,1.00143
0.942079,-0.802115,1.97062,1.04195,0.63206,-1.43594,1.00143
0.942079,-0.802115,1.97062,1.04195,0.63206,-1.43594,1.00143
0.942079,-0.802115,1.97062,1.04195,0.63206,-1.43594,1.00143
0.942079,-0.802115,1.97062,1.04195,0.63206,-1.43594,1.00143
0.942079,-0.802115,1.97062,1.04195,0.63206,-1.43594,1.00143
0.942079,-0.802115,1.97062,1.04195,0.63206,-1.43594,1.00143
0.942079,-0.802115,1.97062,1.04195,0.63206,-1.43594,1.00143
0.942079,-0.802115,1.97062,1.04195,0.63206,-1.43594,1.00143
0.942079,-0.802115,1.97062,1.04195,0.63206,-1.43594,1.00143
0.942079,-0.802115,1.97062,1.04195,0.63206,-1.43594,1.00143
0.942079,-0.802115,1.97062,1.04195,0.63206,-1.43594,1.00143
0.942079,-0.802115,1.97062,1.04195,0.63206,-1.43594,1.00143
0.942079,-0.802115,1.97062,1.04195,0.63206,-1.43594,1.00143
0.942079,-0.802115,1.97062,1.04195,0.63206,-1.43594,1.00143
0.942079,-0.802115,1.97062,1.04195,0.63206,-1.43594,1.00143
0.942079,-0.802115,1.97062,1.04195,0.63206,-1.43594,1.00143
0.942079,-0.802115,1.97062,1.04195,0.63206,-1.43594,1.00143
0.942079,-0.802115,1.97062,1.04195,0.63206,-1.43594,1.00143
0.942079,-0.802115,1.97062,1.04195,0.63206,-1.43594,1.00143
0.942079,-0.802115,1.97062,1.04195,0.63206,-1.43594,1.00143
0.942079,-0.802115,1.97062,1.04195,0.63206,-1.43594,1.00143
0.942079,-0.802115,1.97062,1.04195,0.63206,-1.43594,1.00143
0.942079,-0.802115,1.97062,1.04195,0.63206,-1.43594,1.00143
0.942079,-0.802115,1.97062,1.04195,0.63206,-1.43594,1.00143
0.942079,-0.802115,1.97062,1.04195,0.63206,-1.43594,1.00143
0.942079,-0.802115,1.97062,1.04195,0.63206,-1.43594,1.00143
0.942079,-0.802115,1.97062,1.04195,0.63206,-1.43594,1.00143
0.942079,-0.802115,1.97062,1.04195,0.63206,-1.43594,1.00143
0.942079,-0.802115,1.97062,1.04195,0.63206,-1.43594,1.00143
0.942079,-0.802115,1.97062,1.04195,0.63206,-1.43594,1.00143
0.942079,-0.802115,1.97062,1.04195,0.63206,-1.43594,1.00143
0.942079,-0.802115,1.97062,1.04195,0.63206,-1.43594,1.00143
0.942079,-0.802115,1.97062,1.04195,0.63206,-1.43594,1.00143
0.942079,-0.802115,1.97062,1.04195,0.63206,-1.43594,1.00143
0.942079,-0.802115,1.97062,1.04195,0.63206,-1.43594,1.00143
0.942079,-0.802115,1.97062,1.04195,0.63206,-1.43594,1.00143
0.942079,-0.802115,1.97062,1.04195,0.63206,-1.43594,1.00143
0.942079,-0.802115,1.97062,1.04195,0.63206,-1.43594,1.00143
0.942079,-0.802115,1.97062,1.04195,0.63206,-1.43594,1.00143
0.942079,-0.802115,1.97062,1.04195,0.63206,-1.43594,1.00143
0.942079,-0.802115,1.97062,1.04195,0.63206,-1.43594,1.00143
0.942079,-0.802115,1.97062,1.04195,0.63206,-1.43594,1.00143
0.942079,-0.802115,1.97062,1.04195,0.63206,-1.43594,1.00143
0.942079,-0.802115,1.97062,1.04195,0.63206,-1.43594,1.00143
0.942079,-0.802115,1.97062,1.04195,0.63206,-1.43594,1.00143
0.942079,-0.802115,1.97062,1.04195,0.63206,-1.43594,1.00143
0.942079,-0.802115,1.97062,1.04195,0.63206,-1.43594,1.00143
0.942079,-0.802115,1.97062,1.04195,0.63206,-1.43594,1.00143
0.942079,-0.802115,1.97062,1.04195,0.63206,-1.43594,1.00143
0.942079,-0.802115,1.97062,1.04195,0.63206,-1.43594,1.00143
0.942079,-0.802115,1.97062,1.04195,0.63206,-1.43594,1.00143
0.942079,-0.802115,1.97062,1.04195,0.63206,-1.43594,1.00143
0.942079,-0.802115,1.97062,1.04195,0.63206,-1.43594,1.00143
0.942079,-0.802115,1.97062,1.04195,0.63206,-1.43594,1.00143
0.942079,-0.802115,1.97062,1.04195,0.63206,-1.43594,1.00143
0.942079,-0.802115,1.97062,1.04195,0.63206,-1.43594,1.00143
0.942079,-0.802115,1.97062,1.04195,0.63206,-1.43594,1.00143
0.942079,-0.802115,1.97062,1.04195,0.63206,-1.43594,1.00143
0.942079,-0.802115,1.97062,1.04195,0.63206,-1.43594,1.00143
0.942079,-0.802115,1.97062,1.04195,0.63206,-1.43594,1.00143
0.942079,-0.802115,1.97062,1.04195,0.63206,-1.43594,1.00143
0.942079,-0.802115,1.97062,1.04195,0.63206,-1.43594,1.00143
0.942079,-0.802115,1.97062,1.04195,0.63206,-1.43594,1.00143
0.942079,-0.802115,1.97062,1.04195,0.63206,-1.43594,1.00143
0.942079,-0.802115,1.97062,1.04195,0.63206,-1.43594,1.00143
0.942079,-0.802115,1.97062,1.04195,0.63206,-1.43594,1.00143
0.942079,-0.802115,1.97062,1.04195,0.63206,-1.43594,1.00143
0.942079,-0.802115,1.97062,1.04195,0.63206,-1.43594,1.00143
0.942079,-0.802115,1.97062,1.04195,0.63206,-1.43594,1.00143
0.942079,-0.802115,1.97062,1.04195,0.63206,-1.43594,1.00143
0.942079,-0.802115,1.97062,1.04195,0.63206,-1.43594,1.00143
0.942079,-0.802115,1.97062,1.04195,0.63206,-1.43594,1.00143
0.942079,-0.802115,1.97062,1.04195,0.63206,-1.43594,1.00143
0.942079,-0.802115,1.97062,1.04195,0.63206,-1.43594,1.00143
0.942079,-0.802115,1.97062,1.04195,0.63206,-1.43594,1.00143
0.942079,-0.802115,1.97062,1.04195,0.63206,-1.43594,1.00143
0.942079,-0.802115,1.97062,1.04195,0.63206,-1.43594,1.00143
0.942079,-0.802115,1.97062,1.04195,0.63206,-1.43594,1.00143
0.942079,-0.802115,1.97062,1.04195,0.63206,-1.43594,1.00143
0.942079,-0.802115,1.97062,1.04195,0.63206,-1.43594,1.00143
0.942079,-0.802115,1.97062,1.04195,0.63206,-1.43594,1.00143
0.942079,-0.802115,1.97062,1.04195,0.63206,-1.43594,1.00143
0.942079,-0.802115,1.97062,1.04195,0.63206,-1.43594,1.00143
0.942079,-0.802115,1.97062,1.04195,0.63206,-1.43594,1.00143
0.942079,-0.802115,1.97062,1.04195,0.63206,-1.43594,1.00143
0.942079,-0.802115,1.97062,1.04195,0.63206,-1.43594,1.00143
0.942079,-0.802115,1.97062,1.04195,0.63206,-1.43594,1.00143
0.942079,-0.802115,1.97062,1.04195,0.63206,-1.43594,1.00143
0.942079,-0.802115,1.97062,1.04195,0.63206,-1.43594,1.00143
0.942079,-0.802115,1.97062,1.04195,0.63206,-1.43594,1.00143
0.942079,-0.802115,1.97062,1.04195,0.63206,-1.43594,1.00143
0.942079,-0.802115,1.97062,1.04195,0.63206,-1.43594,1.00143
0.942079,-0.802115,1.97062,1.04195,0.63206,-1.43594,1.00143
0.942079,-0.802115,1.97062,1.04195,0.63206,-1.43594,1.00143
0.942079,-0.802115,1.97062,1.04195,0.63206,-1.43594,1.00143
0.942079,-0.802115,1.97062,1.04195,0.63206,-1.43594,1.00143
0.942079,-0.802115,1.97062,1.04195,0.63206,-1.43594,1.00143
0.942079,-0.802115,1.97062,1.04195,0.63206,-1.43594,1.00143
0.942079,-0.802115,1.97062,1.04195,0.63206,-1.43594,1.00143
0.942079,-0.802115,1.97062,1.04195,0.63206,-1.43594,1.00143
0.942079,-0.802115,1.97062,1.04195,0.63206,-1.43594,1.00143
0.942079,-0.802115,1.97062,1.04195,0.63206,-1.43594,1.00143
0.942079,-0.802115,1.97062,1.04195,0.63206,-1.43594,1.00143
0.942079,-0.802115,1.97062,1.04195,0.63206,-1.43594,1.00143
0.942079,-0.802115,1.97062,1.04195,0.63206,-1.43594,1.00143
0.942079,-0.802115,1.97062,1.04195,0.63206,-1.43594,1.00143
0.942079,-0.802115,1.97062,1.04195,0.63206,-1.43594,1.00143
0.942079,-0.802115,1.97062,1.04195,0.63206,-1.43594,1.00143
0.942079,-0.802115,1.97062,1.04195,0.63206,-1.43594,1.00143
0.942079,-0.802115,1.97062,1.04195,0.63206,-1.43594,1.00143
0.942079,-0.802115,1.97062,1.04195,0.63206,-1.43594,1.00143
0.942079,-0.802115,1.97062,1.04195,0.63206,-1.43594,1.00143
0.942079,-0.802115,1.97062,1.04195,0.63206,-1.43594,1.00143
0.942079,-0.802115,1.97062,1.04195,0.63206,-1.43594,1.00143
0.942079,-0.802115,1.97062,1.04195,0.63206,-1.43594,1.00143
0.942079,-0.802115,1.97062,1.04195,0.63206,-1.43594,1.00143
0.942079,-0.802115,1.97062,1.04195,0.63206,-1.43594,1.00143
0.942079,-0.802115,1.97062,1.04195,0.63206,-1.43594,1.00143
0.942079,-0.802115,1.97062,1.04195,0.63206,-1.43594,1.00143
0.942079,-0.802115,1.97062,1.04195,0.63206,-1.43594,1.00143
0.942079,-0.802115,1.97062,1.04195,0.63206,-1.43594,1.00143
0.942079,-0.802115,1.97062,1.04195,0.63206,-1.43594,1.00143
0.942079,-0.802115,1.97062,1.04195,0.63206,-1.43594,1.00143
0.942079,-0.802115,1.97062,1.04195,0.63206,-1.43594,1.00143
0.942079,-0.802115,1.97062,1.04195,0.63206,-1.43594,1.00143
0.942079,-0.802115,1.97062,1.04195,0.63206,-1.43594,1.00143
0.942079,-0.802115,1.97062,1.04195,0.63206,-1.43594,1.00143
0.942079,-0.802115,1.97062,1.04195,0.63206,-1.43594,1.00143
0.942079,-0.802115,1.97062,1.04195,0.63206,-1.43594,1.00143
0.942079,-0.802115,1.97062,1.04195,0.63206,-1.43594,1.00143
0.942079,-0.802115,1.97062,1.04195,0.63206,-1.43594,1.00143
0.942079,-0.802115,1.97062,1.04195,0.63206,-1.43594,1.00143
0.942079,-0.802115,1.97062,1.04195,0.63206,-1.43594,1.00143
0.942079,-0.802115,1.97062,1.04195,0.63206,-1.43594,1.00143
0.942079,-0.802115,1.97062,1.04195,0.63206,-1.43594,1.00143
0.942079,-0.802115,1.97062,1.04195,0.63206,-1.43594,1.00143
0.942079,-0.802115,1.97062,1.04195,0.63206,-1.43594,1.00143
0.942079,-0.802115,1.97062,1.04195,0.63206,-1.43594,1.00143
0.942079,-0.802115,1.97062,1.04195,0.63206,-1.43594,1.00143
0.942079,-0.802115,1.97062,1.04195,0.63206,-1.43594,1.00143
0.942079,-0.802115,1.97062,1.04195,0.63206,-1.43594,1.00143
0.942079,-0.802115,1.97062,1.04195,0.63206,-1.43594,1.00143
0.942079,-0.802115,1.97062,1.04195,0.63206,-1.43594,1.00143
0.942079,-0.802115,1.97062,1.04195,0.63206,-1.43594,1.00143
0.942079,-0.802115,1.97062,1.04195,0.63206,-1.43594,1.00143
0.942079,-0.802115,1.97062,1.04195,0.63206,-1.43594,1.00143
0.942079,-0.802115,1.97062,1.04195,0.63206,-1.43594,1.00143
0.942079,-0.802115,1.97062,1.04195,0.63206,-1.43594,1.00143
0.942079,-0.802115,1.97062,1.04195,0.63206,-1.43594,1.00143
0.942079,-0.802115,1.97062,1.04195,0.63206,-1.43594,1.00143
0.942079,-0.802115,1.97062,1.04195,0.63206,-1.43594,1.00143
0.942079,-0.802115,1.97062,1.04195,0.63206,-1.43594,1.00143
0.942079,-0.802115,1.97062,1.04195,0.63206,-1.43594,1.00143
0.942079,-0.802115,1.97062,1.04195,0.63206,-1.43594,1.00143
0.942079,-0.802115,1.97062,1.04195,0.63206,-1.43594,1.00143
0.942079,-0.802115,1.97062,1.04195,0.63206,-1.43594,1.00143
0.942079,-0.802115,1.97062,1.04195,0.63206,-1.43594,1.00143
0.942079,-0.802115,1.97062,1.04195,0.63206,-1.43594,1.00143
0.942079,-0.802115,1.97062,1.04195,0.63206,-1.43594,1.00143
0.942079,-0.802115,1.97062,1.04195,0.63206,-1.43594,1.00143
0.942079,-0.802115,1.97062,1.04195,0.63206,-1.43594,1.00143
0.942079,-0.802115,1.97062,1.04195,0.63206,-1.43594,1.00143
0.942079,-0.802115,1.97062,1.04195,0.63206,-1.43594,1.00143
0.942079,-0.802115,1.97062,1.04195,0.63206,-1.43594,1.00143
0.942079,-0.802115,1.97062,1.04195,0.63206,-1.43594,1.00143
0.942079,-0.802115,1.97062,1.04195,0.63206,-1.43594,1.00143
0.942079,-0.802115,1.97062,1.04195,0.63206,-1.43594,1.00143
0.942079,-0.802115,1.97062,1.04195,0.63206,-1.43594,1.00143
0.942079,-0.802115,1.97062,1.04195,0.63206,-1.43594,1.00143
0.942079,-0.802115,1.97062,1.04195,0.63206,-1.43594,1.00143
0.942079,-0.802115,1.97062,1.04195,0.63206,-1.43594,1.00143
0.942079,-0.802115,1.97062,1.04195,0.63206,-1.43594,1.00143
0.942079,-0.802115,1.97062,1.04195,0.63206,-1.43594,1.00143
0.942079,-0.802115,1.97062,1.04195,0.63206,-1.43594,1.00143
0.942079,-0.802115,1.97062,1.04195,0.63206,-1.43594,1.00143
0.942079,-0.802115,1.97062,1.04195,0.63206,-1.43594,1.00143
0.942079,-0.802115,1.97062,1.04195,0.63206,-1.43594,1.00143
0.942079,-0.802115,1.97062,1.04195,0.63206,-1.43594,1.00143
0.942079,-0.802115,1.97062,1.04195,0.63206,-1.43594,1.00143
0.942079,-0.802115,1.97062,1.04195,0.63206,-1.43594,1.00143
0.942079,-0.802115,1.97062,1.04195,0.63206,-1.43594,1.00143
0.942079,-0.802115,1.97062,1.04195,0.63206,-1.43594,1.00143
0.942079,-0.802115,1.97062,1.04195,0.63206,-1.43594,1.00143
0.942079,-0.802115,1.97062,1.04195,0.63206,-1.43594,1.00143
0.942079,-0.802115,1.97062,1.04195,0.63206,-1.43594,1.00143
0.942079,-0.802115,1.97062,1.04195,0.63206,-1.43594,1.00143
0.942079,-0.802115,1.97062,1.04195,0.63206,-1.43594,1.00143
0.942079,-0.802115,1.97062,1.04195,0.63206,-1.43594,1.00143
0.942079,-0.802115,1.97062,1.04195,0.63206,-1.43594,1.00143
0.942079,-0.802115,1.97062,1.04195,0.63206,-1.43594,1.00143
0.942079,-0.802115,1.97062,1.04195,0.63206,-1.43594,1.00143
0.942079,-0.802115,1.97062,1.04195,0.63206,-1.43594,1.00143
0.942079,-0.802115,1.97062,1.04195,0.63206,-1.43594,1.00143
0.942079,-0.802115,1.97062,1.04195,0.63206,-1.43594,1.00143
0.942079,-0.802115,1.97062,1.04195,0.63206,-1.43594,1.00143
0.942079,-0.802115,1.97062,1.04195,0.63206,-1.43594,1.00143
0.942079,-0.802115,1.97062,1.04195,0.63206,-1.43594,1.00143
0.942079,-0.802115,1.97062,1.04195,0.63206,-1.43594,1.00143
0.942079,-0.802115,1.97062,1.04195,0.63206,-1.43594,1.00143
0.942079,-0.802115,1.97062,1.04195,0.63206,-1.43594,1.00143
0.942079,-0.802115,1.97062,1.04195,0.63206,-1.43594,1.00143
0.942079,-0.802115,1.97062,1.04195,0.63206,-1.43594,1.00143
0.942079,-0.802115,1.97062,1.04195,0.63206,-1.43594,1.00143
0.942079,-0.802115,1.97062,1.04195,0.63206,-1.43594,1.00143
0.942079,-0.802115,1.97062,1.04195,0.63206,-1.43594,1.00143
0.942079,-0.802115,1.97062,1.04195,0.63206,-1.43594,1.00143
0.942079,-0.802115,1.97062,1.04195,0.63206,-1.43594,1.00143
0.942079,-0.802115,1.97062,1.04195,0.63206,-1.43594,1.00143
0.942079,-0.802115,1.97062,1.04195,0.63206,-1.43594,1.00143
0.942079,-0.802115,1.97062,1.04195,0.63206,-1.43594,1.00143
0.942079,-0.802115,1.97062,1.04195,0.63206,-1.43594,1.00143
0.942079,-0.802115,1.97062,1.04195,0.63206,-1.43594,1.00143
0.942079,-0.802115,1.97062,1.04195,0.63206,-1.43594,1.00143
0.942079,-0.802115,1.97062,1.04195,0.63206,-1.43594,1.00143
0.942079,-0.802115,1.97062,1.04195,0.63206,-1.43594,1.00143
0.942079,-0.802115,1.97062,1.04195,0.63206,-1.43594,1.00143
0.942079,-0.802115,1.97062,1.04195,0.63206,-1.43594,1.00143
0.942079,-0.802115,1.97062,1.04195,0.63206,-1.43594,1.00143
0.942079,-0.802115,1.97062,1.04195,0.63206,-1.43594,1.00143
0.942079,-0.802115,1.97062,1.04195,0.63206,-1.43594,1.00143
0.942079,-0.802115,1.97062,1.04195,0.63206,-1.43594,1.00143
0.942079,-0.802115,1.97062,1.04195,0.63206,-1.43594,1.00143
0.942079,-0.802115,1.97062,1.04195,0.63206,-1.43594,1.00143
0.942079,-0.802115,1.97062,1.04195,0.63206,-1.43594,1.00143
0.942079,-0.802115,1.97062,1.04195,0.63206,-1.43594,1.00143
0.942079,-0.802115,1.97062,1.04195,0.63206,-1.43594,1.00143
0.942079,-0.802115,1.97062,1.04195,0.63206,-1.43594,1.00143
0.942079,-0.802115,1.97062,1.04195,0.63206,-1.43594,1.00143
0.942079,-0.802115,1.97062,1.04195,0.63206,-1.43594,1.00143
0.942079,-0.802115,1.97062,1.04195,0.63206,-1.43594,1.00143
0.942079,-0.802115,1.97062,1.04195,0.63206,-1.43594,1.00143
0.942079,-0.802115,1.97062,1.04195,0.63206,-1.43594,1.00143
0.942079,-0.802115,1.97062,1.04195,0.63206,-1.43594,1.00143
0.942079,-0.802115,1.97062,1.04195,0.63206,-1.43594,1.00143
0.942079,-0.802115,1.97062,1.04195,0.63206,-1.43594,1.00143
0.942079,-0.802115,1.97062,1.04195,0.63206,-1.43594,1.00143
0.942079,-0.802115,1.97062,1.04195,0.63206,-1.43594,1.00143
0.942079,-0.802115,1.97062,1.04195,0.63206,-1.43594,1.00143
0.942079,-0.802115,1.97062,1.04195,0.63206,-1.43594,1.00143
0.942079,-0.802115,1.97062,1.04195,0.63206,-1.43594,1.00143
0.942079,-0.802115,1.97062,1.04195,0.63206,-1.43594,1.00143
0.942079,-0.802115,1.97062,1.04195,0.63206,-1.43594,1.00143
0.942079,-0.802115,1.97062,1.04195,0.63206,-1.43594,1.00143
0.942079,-0.802115,1.97062,1.04195,0.63206,-1.43594,1.00143
0.942079,-0.802115,1.97062,1.04195,0.63206,-1.43594,1.00143
0.942079,-0.802115,1.97062,1.04195,0.63206,-1.43594,1.00143
0.942079,-0.802115,1.97062,1.04195,0.63206,-1.43594,1.00143
0.942079,-0.802115,1.97062,1.04195,0.63206,-1.43594,1.00143
0.942079,-0.802115,1.97062,1.04195,0.63206,-1.43594,1.00143
0.942079,-0.802115,1.97062,1.04195,0.63206,-1.43594,1.00143
0.942079,-0.802115,1.97062,1.04195,0.63206,-1.43594,1.00143
0.942079,-0.802115,1.97062,1.04195,0.63206,-1.43594,1.00143
0.942079,-0.802115,1.97062,1.04195,0.63206,-1.43594,1.00143
0.942079,-0.802115,1.97062,1.04195,0.63206,-1.43594,1.00143
0.942079,-0.802115,1.97062,1.04195,0.63206,-1.43594,1.00143
0.942079,-0.802115,1.97062,1.04195,0.63206,-1.43594,1.00143
0.942079,-0.802115,1.97062,1.04195,0.63206,-1.43594,1.00143
0.942079,-0.802115,1.97062,1.04195,0.63206,-1.43594,1.00143
0.942079,-0.802115,1.97062,1.04195,0.63206,-1.43594,1.00143
0.942079,-0.802115,1.97062,1.04195,0.63206,-1.43594,1.00143
0.942079,-0.802115,1.97062,1.04195,0.63206,-1.43594,1.00143
0.942079,-0.802115,1.97062,1.04195,0.63206,-1.43594,1.00143
0.942079,-0.802115,1.97062,1.04195,0.63206,-1.43594,1.00143
0.942079,-0.802115,1.97062,1.04195,0.63206,-1.43594,1.00143
0.942079,-0.802115,1.97062,1.04195,0.63206,-1.43594,1.00143
0.942079,-0.802115,1.97062,1.04195,0.63206,-1.43594,1.00143
0.942079,-0.802115,1.97062,1.04195,0.63206,-1.43594,1.00143
0.942079,-0.802115,1.97062,1.04195,0.63206,-1.43594,1.00143
0.942079,-0.802115,1.97062,1.04195,0.63206,-1.43594,1.00143
0.942079,-0.802115,1.97062,1.04195,0.63206,-1.43594,1.00143
0.942079,-0.802115,1.97062,1.04195,0.63206,-1.43594,1.00143
0.942079,-0.802115,1.97062,1.04195,0.63206,-1.43594,1.00143
0.942079,-0.802115,1.97062,1.04195,0.63206,-1.43594,1.00143
0.942079,-0.802115,1.97062,1.04195,0.63206,-1.43594,1.00143
0.942079,-0.802115,1.97062,1.04195,0.63206,-1.43594,1.00143
0.942079,-0.802115,1.97062,1.04195,0.63206,-1.43594,1.00143
0.942079,-0.802115,1.97062,1.04195,0.63206,-1.43594,1.00143
0.942079,-0.802115,1.97062,1.04195,0.63206,-1.43594,1.00143
0.942079,-0.802115,1.97062,1.04195,0.63206,-1.43594,1.00143
0.942079,-0.802115,1.97062,1.04195,0.63206,-1.43594,1.00143
0.942079,-0.802115,1.97062,1.04195,0.63206,-1.43594,1.00143
0.942079,-0.802115,1.97062,1.04195,0.63206,-1.43594,1.00143
0.942079,-0.802115,1.97062,1.04195,0.63206,-1.43594,1.00143
0.942079,-0.802115,1.97062,1.04195,0.63206,-1.43594,1.00143
0.942079,-0.802115,1.97062,1.04195,0.63206,-1.43594,1.00143
0.942079,-0.802115,1.97062,1.04195,0.63206,-1.43594,1.00143
0.942079,-0.802115,1.97062,1.04195,0.63206,-1.43594,1.00143
0.942079,-0.802115,1.97062,1.04195,0.63206,-1.43594,1.00143
0.942079,-0.802115,1.97062,1.04195,0.63206,-1.43594,1.00143
0.942079,-0.802115,1.97062,1.04195,0.63206,-1.43594,1.00143
0.942079,-0.802115,1.97062,1.04195,0.63206,-1.43594,1.00143
0.942079,-0.802115,1.97062,1.04195,0.63206,-1.43594,1.00143
0.942079,-0.802115,1.97062,1.04195,0.63206,-1.43594,1.00143
0.942079,-0.802115,1.97062,1.04195,0.63206,-1.43594,1.00143
0.942079,-0.802115,1.97062,1.04195,0.63206,-1.43594,1.00143
0.942079,-0.802115,1.97062,1.04195,0.63206,-1.43594,1.00143
0.942079,-0.802115,1.97062,1.04195,0.63206,-1.43594,1.00143
0.942079,-0.802115,1.97062,1.04195,0.63206,-1.43594,1.00143
0.942079,-0.802115,1.97062,1.04195,0.63206,-1.43594,1.00143
0.942079,-0.802115,1.97062,1.04195,0.63206,-1.43594,1.00143
0.942079,-0.802115,1.97062,1.04195,0.63206,-1.43594,1.00143
0.942079,-0.802115,1.97062,1.04195,0.63206,-1.43594,1.00143
0.942079,-0.802115,1.97062,1.04195,0.63206,-1.43594,1.00143
0.942079,-0.802115,1.97062,1.04195,0.63206,-1.43594,1.00143
0.942079,-0.802115,1.97062,1.04195,0.63206,-1.43594,1.00143
0.942079,-0.802115,1.97062,1.04195,0.63206,-1.43594,1.00143
