Afshin1997/kuka_rl_ros2/src/catch_and_throw/output_files/tm/nn_ema2.00_jvws1_realball_D24H15M02S44/recorded_data.csv
pure_target_joint_0,pure_target_joint_1,pure_target_joint_2,pure_target_joint_3,pure_target_joint_4,pure_target_joint_5,pure_target_joint_6,target_joint_0,target_joint_1,target_joint_2,target_joint_3,target_joint_4,target_joint_5,target_joint_6,pos_joint_0,pos_joint_1,pos_joint_2,pos_joint_3,pos_joint_4,pos_joint_5,pos_joint_6,vel_joint_0,vel_joint_1,vel_joint_2,vel_joint_3,vel_joint_4,vel_joint_5,vel_joint_6,vel_smooth_joint_0,vel_smooth_joint_1,vel_smooth_joint_2,vel_smooth_joint_3,vel_smooth_joint_4,vel_smooth_joint_5,vel_smooth_joint_6,ee_pos_x,ee_pos_y,ee_pos_z,ee_or_w,ee_or_x,ee_or_y,ee_or_z,ee_vel_x,ee_vel_y,ee_vel_z,ball_pos_x,ball_pos_y,ball_pos_z,ball_raw_vx,ball_raw_vy,ball_raw_vz,ball_ema_vx,ball_ema_vy,ball_ema_vz,action_0,action_1,action_2,action_3,action_4,action_5,action_6,command_published
1.70623,-1.00255,-1.79394,-1.16788,2.01093,1.17253,-0.927602,1.76174,-1.04916,-1.80981,-1.12977,1.95566,1.13081,-0.919103,1.78024,-1.0647,-1.8151,-1.11707,1.93723,1.11691,-0.916269,0,0,0,0,0,0,0,0,0,0,0,0,0,0,0.531056,-0.454419,0.694269,0.574503,0.175173,0.152586,0.784843,0,0,0,2.96784,-0.466987,0.210933,-3.64645,0.241196,5.355,-3.64645,0.241196,5.355,-0.740166,0.621426,0.211578,-0.508108,0.736928,0.556252,-0.113326,1
1.70676,-1.00143,-1.78965,-1.16347,2.01086,1.17182,-0.926864,1.72487,-1.01781,-1.79815,-1.15408,1.99249,1.15845,-0.924584,1.78024,-1.0647,-1.8151,-1.11707,1.93723,1.11691,-0.916269,-5.93966e-07,5.70404e-07,-3.3813e-07,-8.10985e-07,6.02577e-07,9.02703e-08,2.60304e-07,-5.93966e-07,5.70404e-07,-3.3813e-07,-8.10985e-07,6.02577e-07,9.02703e-08,2.60304e-07,0.531056,-0.454419,0.694269,0.574503,0.175173,0.152586,0.784843,-1.93008e-07,3.60162e-08,1.84544e-08,2.93222,-0.464511,0.263343,-3.56207,0.247565,5.24097,-3.56207,0.247565,5.24097,-0.734788,0.632682,0.254476,-0.464034,0.73622,0.549143,-0.105943,1
1.70315,-0.99516,-1.79873,-1.16273,2.01179,1.16958,-0.934296,1.70573,-1.00014,-1.79299,-1.16439,2.01111,1.17144,-0.928907,1.7783,-1.06306,-1.81454,-1.11841,1.93917,1.11837,-0.916567,-0.389173,0.326742,0.111245,-0.26716,0.387471,0.292474,-0.0595864,-0.389173,0.326742,0.111245,-0.26716,0.387471,0.292474,-0.0595864,0.529946,-0.454478,0.695205,0.574856,0.174382,0.151955,0.784883,-0.205812,-0.00972317,0.178826,2.89639,-0.46208,0.314768,-3.5831,0.243104,5.14257,-3.5831,0.243104,5.14257,-0.751507,0.679036,0.158073,-0.443205,0.726179,0.512102,-0.17729,1
1.69577,-0.984811,-1.81014,-1.1526,2.01695,1.17324,-0.946943,1.70221,-0.99414,-1.79931,-1.16038,2.01285,1.17106,-0.9356,1.77112,-1.057,-1.81237,-1.12323,1.94633,1.12376,-0.917649,-1.08719,0.921077,0.334142,-0.725103,1.08488,0.81544,-0.16301,-1.08719,0.921077,0.334142,-0.725103,1.08488,0.81544,-0.16301,0.525828,-0.45467,0.698727,0.576174,0.171409,0.149601,0.785024,-0.57815,-0.0214373,0.512003,2.86035,-0.459926,0.365122,-3.60389,0.215453,5.03541,-3.60389,0.215453,5.03541,-0.753531,0.721847,0.0223328,-0.293686,0.706171,0.494831,-0.292943,1
1.68526,-0.972817,-1.81959,-1.15587,2.02775,1.17793,-0.947568,1.69499,-0.9844,-1.80965,-1.15595,2.01836,1.1735,-0.943938,1.75989,-1.04733,-1.809,-1.13046,1.95748,1.13204,-0.919486,-1.27312,1.1091,0.376158,-0.79751,1.26036,0.926175,-0.221435,-1.27312,1.1091,0.376158,-0.79751,1.26036,0.926175,-0.221435,0.519368,-0.454936,0.704313,0.57841,0.166716,0.146029,0.785063,-0.679718,-0.0244402,0.611672,2.82422,-0.457645,0.41437,-3.61254,0.228015,4.9248,-3.61254,0.228015,4.9248,-0.746296,0.745129,-0.105985,-0.254132,0.702689,0.458955,-0.280828,1
1.67355,-0.961441,-1.83064,-1.165,2.03781,1.17825,-0.947188,1.68496,-0.972971,-1.81999,-1.15733,2.02757,1.17684,-0.947317,1.74873,-1.0373,-1.80647,-1.1368,1.96835,1.13985,-0.922067,-1.09345,1.01436,0.168255,-0.554294,1.04578,0.733547,-0.318092,-1.09345,1.01436,0.168255,-0.554294,1.04578,0.733547,-0.318092,0.512933,-0.4554,0.709878,0.581398,0.162142,0.142979,0.784375,-0.590701,-0.0652555,0.524355,2.78815,-0.455141,0.462338,-3.60739,0.250474,4.79674,-3.60739,0.250474,4.79674,-0.751814,0.758546,-0.241692,-0.281967,0.694585,0.384044,-0.251215,1
1.66435,-0.950412,-1.83905,-1.16465,2.0443,1.18444,-0.950657,1.67418,-0.961528,-1.82998,-1.16263,2.03692,1.17972,-0.94815,1.7387,-1.02767,-1.80613,-1.14103,1.9778,1.14632,-0.92564,-1.02744,1.01709,-0.0827038,-0.350598,0.95336,0.638736,-0.430077,-1.02744,1.01709,-0.0827038,-0.350598,0.95336,0.638736,-0.430077,0.507117,-0.456395,0.714759,0.585463,0.158301,0.141074,0.782478,-0.567562,-0.137331,0.476167,2.75205,-0.452725,0.508876,-3.61023,0.241539,4.6538,-3.61023,0.241539,4.6538,-0.743465,0.772601,-0.329164,-0.236191,0.66497,0.381182,-0.250165,1
1.65427,-0.938416,-1.84356,-1.15715,2.0524,1.19026,-0.955423,1.66413,-0.95017,-1.83807,-1.16286,2.0447,1.18435,-0.950981,1.72799,-1.01677,-1.80889,-1.14428,1.98772,1.1524,-0.92996,-1.01142,1.02951,-0.260849,-0.306825,0.936679,0.574332,-0.407977,-1.01142,1.02951,-0.260849,-0.306825,0.936679,0.574332,-0.407977,0.501022,-0.458248,0.719384,0.590987,0.155093,0.140116,0.779133,-0.552142,-0.168865,0.424096,2.71633,-0.450423,0.55437,-3.57215,0.230184,4.54944,-3.57215,0.230184,4.54944,-0.737248,0.783562,-0.346708,-0.128723,0.64684,0.378535,-0.254634,1
1.64299,-0.926936,-1.85102,-1.15373,2.06078,1.19106,-0.960272,1.65397,-0.938545,-1.8443,-1.15817,2.05247,1.189,-0.955444,1.71727,-1.00576,-1.8131,-1.14794,1.99752,1.15785,-0.933584,-1.01282,1.03975,-0.396878,-0.34533,0.926033,0.5141,-0.342366,-1.01282,1.03975,-0.396878,-0.34533,0.926033,0.5141,-0.342366,0.495207,-0.460168,0.723353,0.596312,0.152741,0.139733,0.775601,-0.53392,-0.175842,0.36605,2.68065,-0.44831,0.59898,-3.56805,0.211343,4.46103,-3.56805,0.211343,4.46103,-0.742799,0.788285,-0.379278,-0.0579498,0.632562,0.332151,-0.266878,1
1.63199,-0.915554,-1.85851,-1.15741,2.06816,1.19038,-0.966198,1.64306,-0.92696,-1.85103,-1.15551,2.06053,1.19069,-0.960541,1.70668,-0.994686,-1.81807,-1.15091,2.00692,1.16313,-0.937051,-1.00011,1.04632,-0.470141,-0.280921,0.887982,0.498774,-0.327422,-1.00011,1.04632,-0.470141,-0.280921,0.887982,0.498774,-0.327422,0.489415,-0.462267,0.727203,0.601918,0.150507,0.139674,0.771708,-0.534354,-0.193771,0.35642,2.64491,-0.446173,0.64302,-3.57323,0.213692,4.40396,-3.57323,0.213692,4.40396,-0.746925,0.791326,-0.404376,-0.0650295,0.612364,0.272581,-0.291468,1
1.62148,-0.904146,-1.86459,-1.16677,2.07612,1.18829,-0.970522,1.63211,-0.915547,-1.85816,-1.15883,2.0683,1.19003,-0.965797,1.69618,-0.9835,-1.8233,-1.15236,2.016,1.16828,-0.940716,-0.992069,1.05663,-0.493615,-0.136662,0.857225,0.487027,-0.346168,-0.992069,1.05663,-0.493615,-0.136662,0.857225,0.487027,-0.346168,0.483394,-0.46472,0.73139,0.608176,0.147988,0.139661,0.767278,-0.555189,-0.226896,0.388362,2.60912,-0.443717,0.686138,-3.579,0.245556,4.31177,-3.579,0.245556,4.31177,-0.746939,0.793539,-0.412914,-0.144127,0.60119,0.200066,-0.298059,1
1.61191,-0.89263,-1.86935,-1.16876,2.08325,1.19646,-0.976748,1.62171,-0.904119,-1.86426,-1.16493,2.07591,1.19086,-0.970997,1.68559,-0.972233,-1.82882,-1.15298,2.02487,1.17275,-0.944666,-0.999741,1.06412,-0.521926,-0.0592809,0.838099,0.421733,-0.37313,-0.999741,1.06412,-0.521926,-0.0592809,0.838099,0.421733,-0.37313,0.477274,-0.467432,0.735675,0.614901,0.145633,0.139823,0.762323,-0.566843,-0.25052,0.398878,2.57304,-0.441379,0.727995,-3.60816,0.233874,4.18573,-3.60816,0.233874,4.18573,-0.736794,0.79603,-0.405275,-0.157713,0.583844,0.237159,-0.320813,1
1.60222,-0.881142,-1.87307,-1.1685,2.09428,1.2036,-0.978269,1.61188,-0.892637,-1.86909,-1.1682,2.08423,1.19621,-0.975572,1.67493,-0.960938,-1.83467,-1.15415,2.03352,1.17619,-0.948877,-1.00655,1.06688,-0.552088,-0.110047,0.817417,0.325263,-0.397704,-1.00655,1.06688,-0.552088,-0.110047,0.817417,0.325263,-0.397704,0.471386,-0.470013,0.739637,0.621581,0.143917,0.140407,0.757107,-0.550772,-0.237907,0.370896,2.53706,-0.439027,0.768116,-3.59783,0.235137,4.01205,-3.59783,0.235137,4.01205,-0.7271,0.797957,-0.383986,-0.143522,0.60757,0.274107,-0.293922,1
1.59244,-0.869645,-1.87807,-1.16141,2.10322,1.21226,-0.982346,1.6022,-0.88114,-1.87339,-1.16679,2.09376,1.20398,-0.978908,1.66433,-0.949616,-1.84057,-1.1563,2.04197,1.17911,-0.953285,-1.00163,1.06938,-0.556928,-0.20284,0.797751,0.276014,-0.416323,-1.00163,1.06938,-0.556928,-0.20284,0.797751,0.276014,-0.416323,0.465803,-0.472189,0.743266,0.627955,0.142626,0.141347,0.751898,-0.526037,-0.200871,0.340989,2.50148,-0.43699,0.80755,-3.5589,0.203782,3.9434,-3.5589,0.203782,3.9434,-0.718914,0.799713,-0.375037,-0.0511106,0.612536,0.331451,-0.290613,1
1.58139,-0.858315,-1.88504,-1.1563,2.11307,1.21197,-0.986501,1.59212,-0.869687,-1.87856,-1.16191,2.10345,1.21002,-0.982366,1.65388,-0.938262,-1.84625,-1.15867,2.05039,1.18252,-0.957726,-0.987107,1.07239,-0.536858,-0.223942,0.795295,0.321668,-0.419458,-0.987107,1.07239,-0.536858,-0.223942,0.795295,0.321668,-0.419458,0.460252,-0.474048,0.746926,0.634161,0.141065,0.142241,0.746798,-0.521025,-0.172476,0.343059,2.46584,-0.434865,0.846032,-3.56307,0.212419,3.84825,-3.56307,0.212419,3.84825,-0.724898,0.799477,-0.387889,0.0236355,0.626784,0.294488,-0.287759,1
1.57109,-0.846889,-1.89116,-1.15901,2.12049,1.2118,-0.994969,1.58158,-0.858291,-1.88483,-1.15826,2.11246,1.212,-0.987579,1.64358,-0.92688,-1.85166,-1.16029,2.05903,1.1868,-0.961946,-0.972601,1.07504,-0.510767,-0.15289,0.81622,0.403922,-0.398651,-0.972601,1.07504,-0.510767,-0.15289,0.81622,0.403922,-0.398651,0.45445,-0.475866,0.750947,0.640424,0.138851,0.142743,0.741756,-0.538866,-0.169161,0.374978,2.43005,-0.432802,0.883116,-3.57955,0.206321,3.70842,-3.57955,0.206321,3.70842,-0.724916,0.799907,-0.395054,0.0127719,0.614543,0.250018,-0.330226,1
1.56078,-0.835469,-1.895,-1.17058,2.12958,1.20998,-0.99965,1.57109,-0.84689,-1.89059,-1.16123,2.12091,1.21139,-0.994022,1.63333,-0.915483,-1.85702,-1.16061,2.06788,1.19142,-0.966015,-0.968449,1.07638,-0.50633,-0.0304656,0.835926,0.437112,-0.384288,-0.968449,1.07638,-0.50633,-0.0304656,0.835926,0.437112,-0.384288,0.448307,-0.477927,0.755383,0.647016,0.136162,0.142892,0.736486,-0.567117,-0.191175,0.412733,2.39463,-0.430466,0.919116,-3.54214,0.2336,3.60003,-3.54214,0.2336,3.60003,-0.725456,0.800147,-0.37977,-0.0997337,0.616976,0.185593,-0.336352,1
1.55111,-0.82385,-1.89732,-1.17092,2.13871,1.21385,-1.00422,1.56094,-0.835419,-1.89462,-1.16777,2.12959,1.2114,-0.999622,1.62302,-0.904087,-1.86256,-1.16014,2.07677,1.19552,-0.970312,-0.97395,1.07636,-0.523361,0.0442768,0.838971,0.387205,-0.405838,-0.97395,1.07636,-0.523361,0.0442768,0.838971,0.387205,-0.405838,0.442017,-0.480216,0.759959,0.653963,0.133555,0.143024,0.73078,-0.581752,-0.211057,0.426582,2.35921,-0.42811,0.954533,-3.54197,0.23565,3.54169,-3.54197,0.23565,3.54169,-0.719071,0.802371,-0.347574,-0.107781,0.619465,0.183237,-0.339058,1
1.54147,-0.812236,-1.9021,-1.15568,2.14857,1.22233,-1.00758,1.55112,-0.823851,-1.89793,-1.16703,2.13889,1.215,-1.00392,1.61267,-0.89269,-1.86815,-1.16036,2.08556,1.19868,-0.975037,-0.97728,1.07644,-0.527528,-0.0204386,0.830708,0.298542,-0.446227,-0.97728,1.07644,-0.527528,-0.0204386,0.830708,0.298542,-0.446227,0.435988,-0.482293,0.764256,0.660803,0.131516,0.14345,0.72489,-0.561891,-0.19044,0.402097,2.32364,-0.425981,0.989337,-3.55666,0.212824,3.4804,-3.55666,0.212824,3.4804,-0.712009,0.804543,-0.339501,0.0467277,0.630062,0.236447,-0.325386,1
1.53126,-0.800687,-1.90971,-1.14955,2.15872,1.22267,-1.00962,1.54133,-0.812252,-1.9028,-1.15796,2.14864,1.2203,-1.00725,1.60236,-0.881278,-1.87342,-1.16184,2.09433,1.20122,-0.979936,-0.973515,1.07783,-0.498213,-0.139577,0.828623,0.239359,-0.462693,-0.973515,1.07783,-0.498213,-0.139577,0.828623,0.239359,-0.462693,0.430341,-0.483879,0.76823,0.667174,0.129965,0.144097,0.719183,-0.529147,-0.144408,0.372765,2.28811,-0.423722,1.02303,-3.55341,0.22594,3.36975,-3.55341,0.22594,3.36975,-0.71096,0.805914,-0.362882,0.12281,0.643829,0.214543,-0.296835,1
1.52107,-0.789284,-1.9169,-1.14438,2.16546,1.22845,-1.01689,1.53127,-0.800723,-1.9096,-1.14979,2.15787,1.22403,-1.01092,1.59215,-0.869835,-1.8783,-1.16287,2.10321,1.20397,-0.984714,-0.964416,1.08077,-0.461299,-0.097698,0.838594,0.259393,-0.451298,-0.964416,1.08077,-0.461299,-0.097698,0.838594,0.259393,-0.451298,0.424589,-0.485327,0.77248,0.673509,0.128068,0.144521,0.713511,-0.535918,-0.131822,0.397515,2.25251,-0.421763,1.05541,-3.5599,0.195897,3.23772,-3.5599,0.195897,3.23772,-0.710815,0.805512,-0.385962,0.184932,0.622472,0.244814,-0.321712,1
1.5101,-0.777903,-1.9225,-1.14691,2.17573,1.2222,-1.02029,1.52087,-0.789289,-1.9165,-1.1463,2.16634,1.22544,-1.01592,1.58202,-0.858361,-1.88319,-1.16189,2.11227,1.20722,-0.989204,-0.956483,1.08371,-0.461083,0.0923865,0.854945,0.30732,-0.424071,-0.956483,1.08371,-0.461083,0.0923865,0.854945,0.30732,-0.424071,0.418309,-0.487104,0.777394,0.680317,0.125397,0.144499,0.707505,-0.579668,-0.162411,0.458296,2.21767,-0.419415,1.08727,-3.48434,0.234827,3.18612,-3.48434,0.234827,3.18612,-0.719268,0.804582,-0.393098,0.149796,0.634609,0.149854,-0.310859,1
1.49999,-0.767513,-1.92714,-1.1409,2.18213,1.21508,-1.02874,1.51031,-0.778151,-1.92226,-1.14477,2.17476,1.22198,-1.02155,1.57285,-0.847961,-1.88781,-1.16025,2.12048,1.21022,-0.993186,-0.977482,1.11024,-0.512202,0.245771,0.878596,0.324655,-0.416918,-0.977482,1.11024,-0.512202,0.245771,0.878596,0.324655,-0.416918,0.412422,-0.488828,0.782025,0.686679,0.122784,0.144396,0.701816,-0.629241,-0.200173,0.504577,2.18205,-0.416987,1.11794,-3.56109,0.242788,3.06647,-3.56109,0.242788,3.06647,-0.72866,0.804472,-0.393337,0.193542,0.6165,0.0486456,-0.355566,1
1.49052,-0.756893,-1.9336,-1.12981,2.18813,1.22338,-1.03445,1.50015,-0.767456,-1.9276,-1.13963,2.18203,1.21894,-1.02806,1.56348,-0.837346,-1.89288,-1.1578,2.12882,1.21312,-0.997246,-1.00127,1.12948,-0.555222,0.270148,0.88178,0.289663,-0.438897,-1.00127,1.12948,-0.555222,0.270148,0.88178,0.289663,-0.438897,0.406223,-0.490759,0.786886,0.693427,0.120044,0.144291,0.69565,-0.646164,-0.20806,0.508582,2.14618,-0.414755,1.14749,-3.5871,0.223219,2.95478,-3.5871,0.223219,2.95478,-0.729506,0.80453,-0.407241,0.279839,0.593056,0.102625,-0.37208,1
1.47982,-0.74523,-1.94165,-1.12043,2.19766,1.2315,-1.03607,1.49021,-0.756632,-1.934,-1.13024,2.18901,1.22334,-1.03343,1.55288,-0.82555,-1.89873,-1.1552,2.13798,1.21489,-1.00209,-1.00053,1.11405,-0.552946,0.245129,0.864551,0.166858,-0.457436,-1.00053,1.11405,-0.552946,0.245129,0.864551,0.166858,-0.457436,0.399462,-0.492972,0.792113,0.701016,0.117727,0.144458,0.688367,-0.62931,-0.199982,0.490191,2.11028,-0.412603,1.17556,-3.59056,0.215176,2.80703,-3.59056,0.215176,2.80703,-0.730628,0.803198,-0.42912,0.347763,0.59683,0.166122,-0.339772,1
1.46974,-0.734938,-1.94859,-1.11362,2.20644,1.23752,-1.03688,1.47998,-0.745573,-1.94137,-1.12107,2.19747,1.23097,-1.03587,1.54333,-0.814981,-1.90398,-1.15258,2.14607,1.21598,-1.00665,-1.01489,1.11699,-0.555021,0.304483,0.845156,0.0695259,-0.503105,-1.01489,1.11699,-0.555021,0.304483,0.845156,0.0695259,-0.503105,0.393351,-0.49494,0.796876,0.707933,0.115733,0.144669,0.681548,-0.641549,-0.209518,0.507042,2.07473,-0.410583,1.20255,-3.55475,0.201997,2.69927,-3.55475,0.201997,2.69927,-0.735862,0.800429,-0.446058,0.389692,0.603652,0.215425,-0.302326,1
1.45868,-0.724646,-1.95554,-1.10616,2.21477,1.23493,-1.04236,1.4695,-0.734938,-1.94859,-1.11346,2.20633,1.23537,-1.03805,1.53368,-0.804372,-1.90936,-1.14902,2.15397,1.21703,-1.01148,-1.02162,1.12205,-0.579066,0.441326,0.823603,0.148166,-0.515835,-1.02162,1.12205,-0.579066,0.441326,0.823603,0.148166,-0.515835,0.386945,-0.497007,0.801936,0.715218,0.113429,0.144882,0.674245,-0.686552,-0.222538,0.550274,2.03869,-0.408202,1.22895,-3.60372,0.238076,2.63978,-3.60372,0.238076,2.63978,-0.750004,0.797267,-0.461742,0.428506,0.607992,0.179021,-0.308769,1
1.44834,-0.714268,-1.96194,-1.09899,2.22022,1.24004,-1.05198,1.45886,-0.724624,-1.9554,-1.10623,2.21405,1.23686,-1.04339,1.52394,-0.793697,-1.91505,-1.14431,2.16184,1.21909,-1.01611,-1.03336,1.13107,-0.618716,0.546182,0.837388,0.279304,-0.464335,-1.03336,1.13107,-0.618716,0.546182,0.837388,0.279304,-0.464335,0.38004,-0.499129,0.807379,0.722782,0.110333,0.144913,0.666643,-0.735406,-0.229,0.584583,2.00289,-0.406218,1.25432,-3.57985,0.1984,2.53732,-3.57985,0.1984,2.53732,-0.755999,0.794287,-0.468991,0.453226,0.583809,0.209489,-0.358643,1
1.4378,-0.703779,-1.9675,-1.09282,2.22857,1.24036,-1.05673,1.44829,-0.71424,-1.96173,-1.09924,2.22095,1.23884,-1.05076,1.51408,-0.782989,-1.92105,-1.13888,2.16987,1.22192,-1.02028,-1.0479,1.12941,-0.647286,0.597545,0.856786,0.316084,-0.417692,-1.0479,1.12941,-0.647286,0.597545,0.856786,0.316084,-0.417692,0.372731,-0.501271,0.813052,0.730408,0.106726,0.144744,0.65891,-0.764678,-0.232049,0.597148,1.96747,-0.404114,1.27871,-3.54292,0.210401,2.43917,-3.54292,0.210401,2.43917,-0.76276,0.792095,-0.464526,0.460608,0.58696,0.184347,-0.364546,1
1.42728,-0.693046,-1.97393,-1.08614,2.23603,1.23784,-1.05948,1.43781,-0.703718,-1.96772,-1.09269,2.22835,1.23965,-1.05623,1.50408,-0.77233,-1.92725,-1.13305,2.17795,1.22476,-1.02438,-1.06277,1.12128,-0.661573,0.630388,0.848523,0.284406,-0.446903,-1.06277,1.12128,-0.661573,0.630388,0.848523,0.284406,-0.446903,0.365201,-0.503421,0.818806,0.738099,0.103016,0.144521,0.650932,-0.781254,-0.231752,0.601907,1.93177,-0.401661,1.30207,-3.56948,0.245363,2.33576,-3.56948,0.245363,2.33576,-0.768014,0.792837,-0.466798,0.469151,0.580807,0.130876,-0.351033,1
1.41693,-0.682453,-1.9816,-1.07877,2.24245,1.24144,-1.06317,1.42732,-0.693081,-1.97424,-1.08597,2.23577,1.23937,-1.05972,1.49396,-0.761732,-1.93353,-1.12697,2.18587,1.22738,-1.02894,-1.0733,1.11626,-0.662906,0.651875,0.824506,0.269483,-0.512785,-1.0733,1.11626,-0.662906,0.651875,0.824506,0.269483,-0.512785,0.357547,-0.5055,0.824609,0.745948,0.0992537,0.144378,0.642546,-0.792549,-0.219301,0.608164,1.89645,-0.399433,1.32409,-3.53218,0.222722,2.20176,-3.53218,0.222722,2.20176,-0.770235,0.792783,-0.480741,0.481995,0.56581,0.140585,-0.34227,1
1.40606,-0.670852,-1.98877,-1.07185,2.25058,1.24631,-1.06849,1.4168,-0.682201,-1.98148,-1.07888,2.24288,1.24176,-1.06358,1.48277,-0.750172,-1.94034,-1.12014,2.19433,1.22982,-1.03438,-1.05679,1.09186,-0.643535,0.645241,0.799515,0.230968,-0.513564,-1.05679,1.09186,-0.643535,0.645241,0.799515,0.230968,-0.513564,0.3491,-0.507621,0.831024,0.754617,0.095149,0.144331,0.632984,-0.780156,-0.19538,0.600736,1.86149,-0.397496,1.34484,-3.49612,0.193685,2.0752,-3.49612,0.193685,2.0752,-0.767084,0.7932,-0.484301,0.482967,0.562465,0.16492,-0.341056,1
1.39623,-0.660391,-1.99434,-1.06592,2.25827,1.24846,-1.0736,1.40632,-0.671137,-1.98837,-1.0721,2.25047,1.24563,-1.06844,1.47271,-0.739797,-1.94648,-1.11396,2.20189,1.23175,-1.0391,-1.06672,1.09802,-0.652481,0.658077,0.79629,0.179083,-0.484565,-1.06672,1.09802,-0.652481,0.658077,0.79629,0.179083,-0.484565,0.341503,-0.509347,0.836805,0.762242,0.0915172,0.144329,0.624325,-0.786501,-0.183049,0.606936,1.82644,-0.395608,1.36497,-3.50505,0.188899,2.0129,-3.50505,0.188899,2.0129,-0.764784,0.794053,-0.478584,0.480484,0.563784,0.167113,-0.344978,1
1.38511,-0.648809,-2.00071,-1.05955,2.26634,1.24705,-1.07884,1.39591,-0.660111,-1.99454,-1.06581,2.25837,1.24757,-1.07363,1.46157,-0.72832,-1.95346,-1.10697,2.21006,1.23375,-1.04398,-1.05219,1.084,-0.658625,0.660274,0.771384,0.188329,-0.460667,-1.05219,1.084,-0.658625,0.660274,0.771384,0.188329,-0.460667,0.333052,-0.511077,0.843223,0.770506,0.0874888,0.144438,0.614657,-0.782105,-0.159898,0.602099,1.79098,-0.393509,1.38385,-3.54602,0.209892,1.88843,-3.54602,0.209892,1.88843,-0.764522,0.795113,-0.472553,0.474205,0.562841,0.133069,-0.348568,1
1.37492,-0.638427,-2.00744,-1.05291,2.2731,1.24676,-1.08313,1.38534,-0.649109,-2.0008,-1.05948,2.26601,1.24733,-1.0786,1.45154,-0.717967,-1.95976,-1.10066,2.2174,1.23575,-1.0484,-1.06296,1.1007,-0.672389,0.671466,0.777365,0.232286,-0.471048,-1.06296,1.1007,-0.672389,0.671466,0.777365,0.232286,-0.471048,0.325401,-0.512378,0.849043,0.777833,0.0836737,0.144553,0.60587,-0.796616,-0.135675,0.614385,1.7557,-0.391393,1.40186,-3.52798,0.211596,1.80061,-3.52798,0.211596,1.80061,-0.766293,0.795399,-0.476727,0.477483,0.557027,0.110142,-0.347357,1
1.36462,-0.627812,-2.01366,-1.04675,2.2806,1.24475,-1.0862,1.37489,-0.638369,-2.00731,-1.05303,2.27329,1.24633,-1.08282,1.44144,-0.707476,-1.96611,-1.09431,2.22482,1.23792,-1.05294,-1.07016,1.11329,-0.668175,0.669905,0.788538,0.226827,-0.486438,-1.07016,1.11329,-0.668175,0.669905,0.788538,0.226827,-0.486438,0.317661,-0.513424,0.854963,0.785116,0.079655,0.144683,0.596921,-0.800166,-0.109651,0.623447,1.72068,-0.389057,1.41916,-3.50132,0.233555,1.73032,-3.50132,0.233555,1.73032,-0.768136,0.796637,-0.475477,0.475631,0.557866,0.0682723,-0.332631,1
1.35439,-0.61715,-2.02113,-1.0389,2.28551,1.24833,-1.09206,1.36464,-0.6278,-2.01397,-1.04633,2.27995,1.24615,-1.0869,1.43125,-0.696881,-1.97244,-1.08796,2.23231,1.23982,-1.05758,-1.07912,1.12285,-0.666675,0.669415,0.792269,0.176571,-0.494041,-1.07912,1.12285,-0.666675,0.669415,0.792269,0.176571,-0.494041,0.309912,-0.514248,0.860948,0.792317,0.075659,0.144845,0.587818,-0.800326,-0.0895147,0.629277,1.68536,-0.387057,1.43574,-3.53225,0.20003,1.65826,-3.53225,0.20003,1.65826,-0.768649,0.797311,-0.486893,0.490617,0.532035,0.0850672,-0.34476,1
1.34403,-0.606409,-2.02706,-1.03292,2.29293,1.24632,-1.09526,1.35436,-0.61713,-2.02074,-1.03937,2.28614,1.24693,-1.09139,1.42101,-0.686232,-1.97877,-1.08161,2.23979,1.24121,-1.06221,-1.0839,1.125,-0.670785,0.671735,0.787359,0.120349,-0.484427,-1.0839,1.125,-0.670785,0.671735,0.787359,0.120349,-0.484427,0.302189,-0.514905,0.866961,0.799406,0.0718232,0.14507,0.578573,-0.798486,-0.073203,0.630828,1.65005,-0.384942,1.45126,-3.53119,0.21143,1.55126,-3.53119,0.21143,1.55126,-0.769743,0.79823,-0.482871,0.486876,0.531372,0.0511077,-0.330494,1
1.33413,-0.595634,-2.03334,-1.02727,2.29912,1.24767,-1.10014,1.34415,-0.606401,-2.02715,-1.03301,2.29262,1.24716,-1.09568,1.41074,-0.675583,-1.98516,-1.07521,2.24716,1.24221,-1.06675,-1.08359,1.12311,-0.677195,0.678901,0.770711,0.0924838,-0.473548,-1.08359,1.12311,-0.677195,0.678901,0.770711,0.0924838,-0.473548,0.294498,-0.515397,0.87298,0.80636,0.0681038,0.145378,0.56922,-0.796837,-0.0548372,0.631881,1.61479,-0.383249,1.46558,-3.52563,0.169322,1.43191,-3.52563,0.169322,1.43191,-0.766133,0.799493,-0.481752,0.479392,0.519588,0.0545367,-0.333874,1
1.32375,-0.584965,-2.03874,-1.02277,2.3078,1.24216,-1.10221,1.33401,-0.595661,-2.03312,-1.02756,2.29974,1.24595,-1.09944,1.40047,-0.66494,-1.99161,-1.06872,2.25435,1.24308,-1.07124,-1.08387,1.12374,-0.684684,0.689974,0.747185,0.0905457,-0.47379,-1.08387,1.12374,-0.684684,0.689974,0.747185,0.0905457,-0.47379,0.286821,-0.515688,0.879017,0.813199,0.0643567,0.145792,0.559741,-0.797504,-0.0328604,0.635478,1.58007,-0.381216,1.47885,-3.47197,0.203365,1.32695,-3.47197,0.203365,1.32695,-0.76722,0.799748,-0.471293,0.459573,0.534559,-0.00914707,-0.309767,1
1.31242,-0.573104,-2.04516,-1.01581,2.31385,1.23439,-1.10701,1.32351,-0.584667,-2.039,-1.02216,2.30714,1.2416,-1.10289,1.38925,-0.653275,-1.99869,-1.06161,2.26197,1.24389,-1.07611,-1.06007,1.10171,-0.668712,0.67222,0.720291,0.076794,-0.460027,-1.06007,1.10171,-0.668712,0.67222,0.720291,0.076794,-0.460027,0.278479,-0.515732,0.885638,0.820522,0.060219,0.14638,0.549264,-0.775361,-0.00597559,0.623398,1.54469,-0.378987,1.4913,-3.53816,0.222886,1.24573,-3.53816,0.222886,1.24573,-0.76825,0.80171,-0.464676,0.457926,0.518711,-0.0949991,-0.309044,1
1.30281,-0.562495,-2.05107,-1.01007,2.32,1.2336,-1.11099,1.31285,-0.573417,-2.04503,-1.01612,2.31387,1.23614,-1.10681,1.3792,-0.642805,-2.00499,-1.05533,2.26883,1.24442,-1.0804,-1.06202,1.10806,-0.661082,0.652832,0.726572,0.0361544,-0.447382,-1.06202,1.10806,-0.661082,0.652832,0.726572,0.0361544,-0.447382,0.271084,-0.51554,0.891561,0.826893,0.0565666,0.146924,0.539872,-0.764836,0.0174737,0.622137,1.50932,-0.377001,1.50279,-3.53696,0.198531,1.14892,-3.53696,0.198531,1.14892,-0.763902,0.803101,-0.460773,0.452665,0.511657,-0.108133,-0.305893,1
1.29304,-0.551683,-2.0554,-1.00611,2.32861,1.22702,-1.11213,1.30277,-0.562444,-2.05068,-1.01051,2.32061,1.23216,-1.11028,1.36909,-0.632255,-2.01121,-1.04923,2.27577,1.24426,-1.08456,-1.07116,1.11847,-0.652961,0.636395,0.737433,-0.0627044,-0.430925,-1.07116,1.11847,-0.652961,0.636395,0.737433,-0.0627044,-0.430925,0.26381,-0.515176,0.897476,0.833068,0.053214,0.147495,0.530482,-0.753936,0.0343882,0.622836,1.47387,-0.374985,1.5131,-3.54562,0.201601,1.0313,-3.54562,0.201601,1.0313,-0.760463,0.805724,-0.441881,0.431257,0.528371,-0.172403,-0.275698,1
1.28396,-0.540673,-2.05875,-1.00545,2.33806,1.21946,-1.11132,1.29321,-0.551634,-2.05516,-1.00693,2.32882,1.22678,-1.11164,1.35889,-0.62159,-2.01738,-1.0432,2.28273,1.24316,-1.08862,-1.08196,1.13221,-0.649834,0.636598,0.732005,-0.165018,-0.427366,-1.08196,1.13221,-0.649834,0.636598,0.732005,-0.165018,-0.427366,0.256648,-0.514677,0.903418,0.839104,0.050255,0.14813,0.520996,-0.746649,0.0509599,0.629147,1.43858,-0.372941,1.52229,-3.52869,0.204426,0.918627,-3.52869,0.204426,0.918627,-0.749217,0.809164,-0.413645,0.377474,0.553324,-0.237015,-0.22698,1
1.27479,-0.52968,-2.06143,-1.00382,2.34827,1.20864,-1.11217,1.28394,-0.540677,-2.05858,-1.00521,2.33825,1.21865,-1.11173,1.34865,-0.610837,-2.02349,-1.03722,2.28964,1.24134,-1.09261,-1.0784,1.13738,-0.639,0.62756,0.727854,-0.215888,-0.415269,-1.0784,1.13738,-0.639,0.62756,0.727854,-0.215888,-0.415269,0.249607,-0.514004,0.909391,0.844989,0.0475585,0.14883,0.51145,-0.732725,0.0739479,0.630535,1.40333,-0.370614,1.53033,-3.52453,0.23275,0.8039,-3.52453,0.23275,0.8039,-0.738585,0.811568,-0.379461,0.333903,0.586275,-0.326983,-0.195542,1
1.26633,-0.518652,-2.06259,-0.999421,2.35799,1.20133,-1.11596,1.27497,-0.529671,-2.06105,-1.00313,2.34815,1.20952,-1.1129,1.3385,-0.600057,-2.02938,-1.03152,2.29668,1.23895,-1.09628,-1.0645,1.13811,-0.605901,0.577816,0.755408,-0.285986,-0.361161,-1.0645,1.13811,-0.605901,0.577816,0.755408,-0.285986,-0.361161,0.2428,-0.513119,0.915316,0.850563,0.045155,0.149486,0.502153,-0.70093,0.0987095,0.620392,1.36821,-0.368414,1.53795,-3.51233,0.219923,0.762391,-3.51233,0.219923,0.762391,-0.721709,0.814053,-0.332188,0.320973,0.613114,-0.376119,-0.196857,1
1.25829,-0.507614,-2.06216,-0.993471,2.36787,1.19325,-1.1201,1.26644,-0.518649,-2.0622,-0.999034,2.35803,1.20114,-1.11605,1.3285,-0.589256,-2.03487,-1.02644,2.30407,1.23567,-1.09935,-1.0474,1.14176,-0.557264,0.498935,0.803256,-0.400026,-0.291131,-1.0474,1.14176,-0.557264,0.498935,0.803256,-0.400026,-0.291131,0.236375,-0.512045,0.921112,0.85567,0.0433073,0.14999,0.493414,-0.655469,0.121898,0.603717,1.33269,-0.36596,1.5445,-3.55182,0.245467,0.654137,-3.55182,0.245467,0.654137,-0.702112,0.816422,-0.272833,0.329673,0.637989,-0.42412,-0.207511,1
1.25273,-0.496417,-2.06048,-0.993562,2.3782,1.18801,-1.12337,1.25891,-0.507574,-2.06185,-0.994981,2.36798,1.19396,-1.11988,1.31868,-0.578419,-2.03986,-1.02199,2.31192,1.23131,-1.10194,-1.02733,1.14572,-0.498155,0.443233,0.851372,-0.512259,-0.257717,-1.02733,1.14572,-0.498155,0.443233,0.851372,-0.512259,-0.257717,0.230376,-0.510793,0.926799,0.860331,0.0420785,0.150285,0.485256,-0.613108,0.145959,0.596551,1.2971,-0.363975,1.54962,-3.55945,0.19843,0.512743,-3.55945,0.19843,0.512743,-0.65948,0.820012,-0.206243,0.284273,0.662761,-0.433079,-0.214287,1
1.24579,-0.484375,-2.05949,-0.994047,2.38919,1.17928,-1.12572,1.25239,-0.496206,-2.06065,-0.993661,2.37836,1.18714,-1.12314,1.30827,-0.566509,-2.04431,-1.01742,2.32111,1.2253,-1.10475,-0.983207,1.12486,-0.420389,0.432014,0.867708,-0.567864,-0.265516,-0.983207,1.12486,-0.420389,0.432014,0.867708,-0.567864,-0.265516,0.224285,-0.509095,0.933126,0.865047,0.0411456,0.150219,0.476901,-0.57087,0.174427,0.596054,1.26121,-0.361839,1.55349,-3.58905,0.21362,0.386834,-3.58905,0.21362,0.386834,-0.624835,0.821337,-0.151824,0.233682,0.680788,-0.460221,-0.209654,1
1.24136,-0.472473,-2.05268,-1.00263,2.40023,1.17307,-1.12704,1.24642,-0.48441,-2.05804,-0.996071,2.3892,1.17991,-1.12546,1.29844,-0.554765,-2.0478,-1.01295,2.33045,1.21906,-1.10777,-0.928915,1.10915,-0.330084,0.422212,0.882127,-0.589821,-0.284776,-0.928915,1.10915,-0.330084,0.422212,0.882127,-0.589821,-0.284776,0.218676,-0.506976,0.939507,0.869411,0.040089,0.149875,0.469101,-0.522488,0.212867,0.599861,1.2272,-0.360252,1.55648,-3.40049,0.15876,0.298595,-3.40049,0.15876,0.298595,-0.57074,0.822925,-0.0488007,0.103165,0.697781,-0.459906,-0.192743,1
1.23535,-0.460417,-2.05029,-1.01434,2.40848,1.15992,-1.13238,1.24097,-0.472434,-2.05379,-1.00341,2.39953,1.17133,-1.12804,1.28926,-0.543097,-2.05036,-1.0091,2.34,1.2127,-1.11083,-0.866645,1.10209,-0.241826,0.362934,0.901748,-0.60074,-0.289303,-0.866645,1.10209,-0.241826,0.362934,0.901748,-0.60074,-0.289303,0.213752,-0.504401,0.945776,0.873291,0.0390448,0.149332,0.462103,-0.455939,0.254444,0.588499,1.19231,-0.358516,1.55865,-3.48912,0.173542,0.217271,-3.48912,0.173542,0.217271,-0.539063,0.826798,0.000723791,-0.0524191,0.684795,-0.527765,-0.215524,1
1.22986,-0.44956,-2.04547,-1.02401,2.41703,1.1489,-1.13127,1.23548,-0.460717,-2.04968,-1.01383,2.40855,1.16045,-1.13077,1.28128,-0.532513,-2.05214,-1.00628,2.34878,1.20684,-1.11353,-0.819494,1.13057,-0.138622,0.239914,0.94998,-0.633062,-0.280493,-0.819494,1.13057,-0.138622,0.239914,0.94998,-0.633062,-0.280493,0.209789,-0.501777,0.951292,0.876451,0.0382224,0.148772,0.456333,-0.373173,0.306241,0.572031,1.15753,-0.356324,1.55991,-3.47829,0.219196,0.125551,-3.47829,0.219196,0.125551,-0.514249,0.829527,0.066721,-0.177263,0.682482,-0.579442,-0.17743,1
1.22176,-0.437518,-2.04786,-1.03358,2.42673,1.13919,-1.13385,1.22921,-0.449264,-2.04727,-1.02398,2.41732,1.14923,-1.13219,1.27325,-0.520541,-2.05247,-1.00571,2.35889,1.19977,-1.11642,-0.758793,1.13067,-0.0310272,0.0539535,0.955081,-0.668299,-0.273238,-0.758793,1.13067,-0.0310272,0.0539535,0.955081,-0.668299,-0.273238,0.206907,-0.498277,0.956821,0.879028,0.0380784,0.148123,0.451574,-0.264273,0.342413,0.517557,1.12266,-0.354376,1.56022,-3.48722,0.194791,0.031209,-3.48722,0.194791,0.031209,-0.514954,0.830232,0.0460401,-0.278721,0.678325,-0.605812,-0.174362,1
1.21245,-0.426907,-2.04358,-1.04166,2.43686,1.13095,-1.12871,1.22145,-0.437876,-2.04619,-1.03321,2.42684,1.13956,-1.13192,1.26624,-0.509723,-2.0523,-1.00635,2.36794,1.19296,-1.11902,-0.722966,1.15187,0.0614751,-0.175925,0.954572,-0.76403,-0.276084,-0.722966,1.15187,0.0614751,-0.175925,0.954572,-0.76403,-0.276084,0.20496,-0.495004,0.961409,0.881014,0.0384834,0.147666,0.447804,-0.15133,0.368723,0.451931,1.0882,-0.351773,1.55956,-3.44597,0.260305,-0.0656486,-3.44597,0.260305,-0.0656486,-0.537951,0.828165,0.0871821,-0.353119,0.689211,-0.620049,-0.0968746,1
1.20388,-0.416006,-2.0432,-1.04793,2.44452,1.12332,-1.13657,1.21263,-0.426834,-2.04456,-1.04121,2.43624,1.1311,-1.13196,1.25945,-0.498754,-2.05152,-1.00891,2.37696,1.1853,-1.12151,-0.710887,1.16323,0.0999428,-0.354415,0.948672,-0.847884,-0.251058,-0.710887,1.16323,0.0999428,-0.354415,0.948672,-0.847884,-0.251058,0.203952,-0.491653,0.965381,0.882518,0.0398839,0.147443,0.444782,-0.0750447,0.372035,0.390225,1.05349,-0.349565,1.55807,-3.47049,0.220865,-0.149131,-3.47049,0.220865,-0.149131,-0.55575,0.827472,0.0832818,-0.390258,0.675674,-0.619748,-0.150599,1
1.19723,-0.405082,-2.04051,-1.04919,2.45401,1.11585,-1.13984,1.20436,-0.416,-2.04262,-1.04668,2.44498,1.12336,-1.13542,1.25261,-0.487695,-2.05056,-1.01288,2.386,1.17709,-1.12361,-0.7323,1.17096,0.102714,-0.477757,0.959879,-0.882321,-0.19532,-0.7323,1.17096,0.102714,-0.477757,0.959879,-0.882321,-0.19532,0.203495,-0.488382,0.968821,0.883689,0.0421078,0.1474,0.44226,-0.0416921,0.363178,0.341233,1.01863,-0.347621,1.55556,-3.48637,0.194368,-0.250649,-3.48637,0.194368,-0.250649,-0.553764,0.826125,0.100513,-0.363058,0.680102,-0.612425,-0.16227,1
1.18976,-0.393984,-2.03781,-1.0505,2.46366,1.10793,-1.1423,1.19703,-0.405039,-2.04051,-1.0492,2.45405,1.11574,-1.13964,1.24547,-0.476606,-2.04952,-1.01777,2.39513,1.16873,-1.12527,-0.771954,1.16986,0.116707,-0.550837,0.966456,-0.884279,-0.15723,-0.771954,1.16986,0.116707,-0.550837,0.966456,-0.884279,-0.15723,0.203259,-0.485229,0.971869,0.88466,0.0448434,0.147438,0.440031,-0.0319717,0.354137,0.308151,0.983486,-0.346019,1.5521,-3.51419,0.160211,-0.346577,-3.51419,0.160211,-0.346577,-0.557109,0.82622,0.117153,-0.327328,0.685343,-0.607988,-0.170263,1
1.18072,-0.381994,-2.03477,-1.05856,2.47415,1.09799,-1.14115,1.18937,-0.393761,-2.03772,-1.05219,2.46387,1.10742,-1.1414,1.23728,-0.46453,-2.04815,-1.02353,2.40506,1.15969,-1.12729,-0.773831,1.14066,0.129848,-0.544018,0.938286,-0.853756,-0.191052,-0.773831,1.14066,0.129848,-0.544018,0.938286,-0.853756,-0.191052,0.203044,-0.48184,0.974973,0.885736,0.0479632,0.147524,0.437503,-0.0283374,0.346023,0.291123,0.948694,-0.343975,1.54773,-3.47921,0.204387,-0.436687,-3.47921,0.204387,-0.436687,-0.565615,0.825358,0.133729,-0.350322,0.690875,-0.616966,-0.138534,1
1.17279,-0.37015,-2.03514,-1.06461,2.48363,1.08895,-1.14337,1.181,-0.382031,-2.03562,-1.05806,2.4739,1.09821,-1.14199,1.22926,-0.452675,-2.04662,-1.02865,2.41482,1.15093,-1.12975,-0.757623,1.11967,0.143776,-0.483142,0.922047,-0.827134,-0.232295,-0.757623,1.11967,0.143776,-0.483142,0.922047,-0.827134,-0.232295,0.202796,-0.478399,0.978153,0.886921,0.0507161,0.147556,0.434772,-0.0296363,0.348855,0.298268,0.913846,-0.342034,1.5425,-3.48477,0.194138,-0.52278,-3.48477,0.194138,-0.52278,-0.564693,0.825257,0.114865,-0.359653,0.688053,-0.61983,-0.136137,1
1.16604,-0.359637,-2.03375,-1.06726,2.49306,1.08116,-1.14258,1.17309,-0.370483,-2.0347,-1.06376,2.48362,1.08926,-1.14262,1.22203,-0.441997,-2.04511,-1.03306,2.42367,1.14304,-1.13191,-0.7677,1.13376,0.173652,-0.44971,0.944832,-0.837203,-0.223,-0.7677,1.13376,0.173652,-0.44971,0.944832,-0.837203,-0.223,0.202611,-0.475248,0.981034,0.887963,0.0531246,0.147541,0.432355,-0.0285705,0.362815,0.313054,0.878583,-0.340046,1.53604,-3.52623,0.198776,-0.645888,-3.52623,0.198776,-0.645888,-0.559905,0.823605,0.113633,-0.342022,0.69391,-0.618876,-0.106703,1
1.15819,-0.348995,-2.02942,-1.07344,2.50287,1.07295,-1.14191,1.16577,-0.359605,-2.03301,-1.06814,2.49316,1.08105,-1.14261,1.21464,-0.431152,-2.04342,-1.03749,2.43274,1.13498,-1.13386,-0.790803,1.15457,0.183258,-0.483589,0.967441,-0.864103,-0.19107,-0.790803,1.15457,0.183258,-0.483589,0.967441,-0.864103,-0.19107,0.202487,-0.472024,0.983924,0.888943,0.0556019,0.147486,0.430042,-0.0169187,0.365981,0.301727,0.843769,-0.337862,1.5286,-3.48148,0.218424,-0.74389,-3.48148,0.218424,-0.74389,-0.564516,0.82157,0.140032,-0.359553,0.70138,-0.620294,-0.0804464,1
1.1509,-0.338028,-2.02816,-1.07763,2.51185,1.06498,-1.14673,1.15833,-0.348914,-2.03018,-1.07294,2.50266,1.07301,-1.14328,1.20711,-0.42015,-2.04177,-1.04219,2.44196,1.12671,-1.13555,-0.799652,1.16739,0.166158,-0.507126,0.97911,-0.880239,-0.166143,-0.799652,1.16739,0.166158,-0.507126,0.97911,-0.880239,-0.166143,0.202473,-0.468819,0.986683,0.889846,0.0583188,0.147469,0.427815,-0.00743779,0.362484,0.286726,0.809022,-0.336074,1.52032,-3.47463,0.178796,-0.828254,-3.47463,0.178796,-0.828254,-0.562064,0.821214,0.13609,-0.354497,0.698915,-0.617317,-0.111849,1
1.14188,-0.326232,-2.02579,-1.08294,2.52244,1.05564,-1.14623,1.15047,-0.337821,-2.02788,-1.07791,2.51225,1.06464,-1.1454,1.19887,-0.408085,-2.04002,-1.04736,2.45216,1.11761,-1.13695,-0.778067,1.13951,0.164787,-0.488535,0.963572,-0.859332,-0.132891,-0.778067,1.13951,0.164787,-0.488535,0.963572,-0.859332,-0.132891,0.202548,-0.465338,0.989597,0.890723,0.0614126,0.147437,0.425562,0.000922512,0.354461,0.273493,0.773966,-0.333934,1.51093,-3.50565,0.213933,-0.938773,-3.50565,0.213933,-0.938773,-0.569876,0.818528,0.142342,-0.355818,0.702824,-0.619684,-0.0927429,1
1.134,-0.315659,-2.023,-1.08902,2.5321,1.04736,-1.14475,1.14217,-0.326538,-2.02569,-1.08313,2.52221,1.05591,-1.14599,1.19149,-0.397301,-2.03833,-1.052,2.46133,1.10948,-1.13815,-0.779402,1.1373,0.191429,-0.492179,0.971559,-0.857291,-0.120562,-0.779402,1.1373,0.191429,-0.492179,0.971559,-0.857291,-0.120562,0.202716,-0.462207,0.992127,0.891454,0.0642041,0.147398,0.42363,0.0133795,0.358673,0.266682,0.739147,-0.331734,1.50053,-3.48185,0.220048,-1.04004,-3.48185,0.220048,-1.04004,-0.574867,0.816419,0.153257,-0.370132,0.707693,-0.621235,-0.0660178,1
1.12618,-0.305082,-2.02123,-1.09667,2.54151,1.03886,-1.14357,1.13402,-0.315658,-2.02326,-1.08941,2.53204,1.0473,-1.14483,1.18406,-0.386492,-2.03646,-1.0567,2.47057,1.10133,-1.1394,-0.789472,1.14399,0.201745,-0.49861,0.97966,-0.862517,-0.141103,-0.789472,1.14399,0.201745,-0.49861,0.97966,-0.862517,-0.141103,0.202981,-0.459048,0.994589,0.892153,0.0670217,0.147346,0.421734,0.0217572,0.360721,0.25945,0.704542,-0.329269,1.48893,-3.46059,0.24645,-1.16079,-3.46059,0.24645,-1.16079,-0.578738,0.8141,0.152297,-0.399726,0.709337,-0.624767,-0.0417288,1
1.11916,-0.294141,-2.02137,-1.09736,2.55054,1.03157,-1.14778,1.12638,-0.304991,-2.02171,-1.09493,2.54141,1.03916,-1.14492,1.17649,-0.375607,-2.03452,-1.06148,2.47993,1.0931,-1.14065,-0.806724,1.15329,0.207709,-0.509023,0.993772,-0.874249,-0.125304,-0.806724,1.15329,0.207709,-0.509023,0.993772,-0.874249,-0.125304,0.203314,-0.45589,0.996973,0.892841,0.0699244,0.147298,0.41982,0.0275497,0.360093,0.250845,0.669026,-0.327596,1.47631,-3.55159,0.167352,-1.2619,-3.55159,0.167352,-1.2619,-0.573338,0.814661,0.131514,-0.358808,0.706093,-0.615316,-0.0712168,1
1.1127,-0.283614,-2.01696,-1.09964,2.56125,1.02378,-1.14457,1.1193,-0.294245,-2.02023,-1.09776,2.55096,1.03144,-1.14592,1.16879,-0.364686,-2.03251,-1.06645,2.48939,1.08479,-1.14159,-0.817354,1.15231,0.217382,-0.539644,1.00246,-0.880959,-0.0759482,-0.817354,1.15231,0.217382,-0.539644,1.00246,-0.880959,-0.0759482,0.203741,-0.452776,0.999216,0.89343,0.0730048,0.147244,0.418057,0.040141,0.354255,0.231025,0.634114,-0.325803,1.46261,-3.49119,0.17927,-1.36995,-3.49119,0.17927,-1.36995,-0.560972,0.810715,0.155487,-0.331876,0.718635,-0.610087,-0.02973,1
1.10426,-0.271881,-2.01515,-1.10559,2.57175,1.01432,-1.14336,1.1122,-0.283313,-2.01761,-1.10056,2.5612,1.02336,-1.14507,1.16034,-0.352791,-2.03036,-1.07213,2.49975,1.07569,-1.14226,-0.798203,1.12345,0.203173,-0.535958,0.979156,-0.858675,-0.0625264,-0.798203,1.12345,0.203173,-0.535958,0.979156,-0.858675,-0.0625264,0.204321,-0.449476,1.00145,0.893963,0.0765763,0.147203,0.416291,0.0475833,0.339653,0.210597,0.59975,-0.323851,1.44775,-3.43632,0.195238,-1.48602,-3.43632,0.195238,-1.48602,-0.560829,0.809093,0.152016,-0.334641,0.71996,-0.613785,-0.011,1
1.0969,-0.261562,-2.01438,-1.10676,2.58147,1.00663,-1.14032,1.10453,-0.272235,-2.01541,-1.10439,2.57156,1.01476,-1.1429,1.15283,-0.342136,-2.02848,-1.07697,2.50906,1.0676,-1.14289,-0.788125,1.1256,0.193757,-0.488604,0.984781,-0.84986,-0.0712102,-0.788125,1.1256,0.193757,-0.488604,0.984781,-0.84986,-0.0712102,0.204865,-0.446505,1.00346,0.894462,0.0796893,0.147157,0.414648,0.0457514,0.344239,0.22006,0.565393,-0.321977,1.43211,-3.43575,0.187355,-1.56343,-3.43575,0.187355,-1.56343,-0.559347,0.805736,0.140927,-0.297884,0.724171,-0.609753,0.025753,1
1.08887,-0.250364,-2.01715,-1.10743,2.59255,0.998131,-1.13987,1.09673,-0.261343,-2.01527,-1.10663,2.58181,1.00643,-1.14097,1.14474,-0.330415,-2.02631,-1.08167,2.51945,1.05879,-1.14333,-0.764619,1.10705,0.204524,-0.443944,0.981233,-0.832645,-0.0409234,-0.764619,1.10705,0.204524,-0.443944,0.981233,-0.832645,-0.0409234,0.205457,-0.443107,1.00583,0.894967,0.082837,0.146975,0.413001,0.0513079,0.346293,0.223372,0.531154,-0.319999,1.41574,-3.42394,0.197813,-1.63742,-3.42394,0.197813,-1.63742,-0.558661,0.800504,0.0916066,-0.257636,0.730986,-0.606556,0.0345075,1
1.08261,-0.240588,-2.02424,-1.10439,2.60297,0.990931,-1.13848,1.08931,-0.25072,-2.01823,-1.1065,2.59238,0.998455,-1.13964,1.13745,-0.319864,-2.02435,-1.08583,2.52886,1.05082,-1.14344,-0.773666,1.11944,0.209992,-0.436193,1.00359,-0.847627,0.0128164,-0.773666,1.11944,0.209992,-0.436193,1.00359,-0.847627,0.0128164,0.206051,-0.440062,1.00791,0.895355,0.0857137,0.146789,0.411637,0.0564671,0.34949,0.222894,0.496977,-0.31807,1.39839,-3.41763,0.192866,-1.73517,-3.41763,0.192866,-1.73517,-0.548385,0.792766,0.00103215,-0.185518,0.74118,-0.59892,0.0496608,1
1.07464,-0.230863,-2.0387,-1.09868,2.61376,0.983129,-1.13318,1.08218,-0.240601,-2.02608,-1.10372,2.60306,0.990781,-1.1375,1.13007,-0.309228,-2.02255,-1.08977,2.53844,1.04276,-1.14313,-0.783507,1.12546,0.171172,-0.396373,1.01931,-0.853993,0.0509163,-0.783507,1.12546,0.171172,-0.396373,1.01931,-0.853993,0.0509163,0.20659,-0.437042,1.01001,0.895712,0.088621,0.146533,0.410334,0.0418079,0.342367,0.22792,0.462718,-0.315899,1.38027,-3.42594,0.21714,-1.81135,-3.42594,0.21714,-1.81135,-0.554279,0.783649,-0.161463,-0.0890779,0.753132,-0.596315,0.0995449,1
1.0654,-0.221237,-2.05872,-1.07731,2.62587,0.976011,-1.12512,1.07432,-0.230888,-2.04009,-1.09476,2.61409,0.9833,-1.13249,1.12195,-0.297569,-2.02169,-1.0931,2.54919,1.03393,-1.14244,-0.767026,1.10112,0.0812767,-0.314907,1.0152,-0.833823,0.0658015,-0.767026,1.10112,0.0812767,-0.314907,1.0152,-0.833823,0.0658015,0.206709,-0.433938,1.0125,0.89633,0.0916467,0.146085,0.408475,0.00905446,0.319237,0.234565,0.428389,-0.313883,1.36105,-3.43288,0.201589,-1.92237,-3.43288,0.201589,-1.92237,-0.565482,0.763322,-0.370309,0.157921,0.7668,-0.579218,0.173174,1
1.05926,-0.212903,-2.07111,-1.06898,2.63651,0.973259,-1.11689,1.06617,-0.22156,-2.05681,-1.08057,2.6255,0.977102,-1.12508,1.11469,-0.28717,-2.02183,-1.09548,2.55892,1.02606,-1.14165,-0.76414,1.09453,-0.100041,-0.193671,1.03746,-0.829082,0.0975655,-0.76414,1.09453,-0.100041,-0.193671,1.03746,-0.829082,0.0975655,0.206497,-0.431353,1.0148,0.897063,0.0942823,0.145592,0.406439,-0.0600966,0.283043,0.255682,0.393789,-0.312211,1.34083,-3.45996,0.1672,-2.02203,-3.45996,0.1672,-2.02203,-0.554314,0.74267,-0.492832,0.265031,0.775854,-0.52797,0.247646,1
1.05003,-0.204399,-2.08149,-1.06923,2.64643,0.971569,-1.11271,1.05849,-0.21286,-2.07061,-1.07112,2.63633,0.973524,-1.1179,1.10739,-0.276869,-2.02415,-1.09618,2.56888,1.01824,-1.1403,-0.777188,1.08071,-0.374679,0.0333166,1.06265,-0.82121,0.183581,-0.777188,1.08071,-0.374679,0.0333166,1.06265,-0.82121,0.183581,0.205302,-0.429184,1.01747,0.898257,0.0966141,0.144822,0.403518,-0.187658,0.232956,0.309875,0.359518,-0.310411,1.31983,-3.4271,0.179997,-2.09959,-3.4271,0.179997,-2.09959,-0.573536,0.724702,-0.573448,0.269524,0.775542,-0.466715,0.275852,1
1.03976,-0.194621,-2.09275,-1.06412,2.65621,0.969398,-1.11332,1.04977,-0.20408,-2.08171,-1.06789,2.64639,0.971449,-1.11391,1.09918,-0.265848,-2.03066,-1.09307,2.58016,1.01004,-1.13727,-0.775648,1.04091,-0.614744,0.293806,1.06568,-0.774214,0.286499,-0.775648,1.04091,-0.614744,0.293806,1.06568,-0.774214,0.286499,0.201852,-0.427381,1.02148,0.900432,0.0981212,0.143312,0.398817,-0.315952,0.198727,0.377156,0.324965,-0.30863,1.29781,-3.45533,0.178134,-2.2028,-3.45533,0.178134,-2.2028,-0.594155,0.712267,-0.620959,0.289513,0.760526,-0.406447,0.239501,1
1.03266,-0.187053,-2.1025,-1.06072,2.66485,0.971899,-1.11938,1.04055,-0.195174,-2.09237,-1.06454,2.65593,0.970566,-1.11468,1.09179,-0.256108,-2.03732,-1.08958,2.59033,1.0031,-1.13408,-0.78272,1.01646,-0.782403,0.433917,1.08105,-0.695193,0.38028,-0.78272,1.01646,-0.782403,0.433917,1.08105,-0.695193,0.38028,0.198332,-0.4258,1.02525,0.902493,0.0991112,0.141784,0.394437,-0.401591,0.180664,0.411713,0.290399,-0.307069,1.27492,-3.45664,0.156036,-2.28845,-3.45664,0.156036,-2.28845,-0.591263,0.690553,-0.651786,0.288676,0.745203,-0.312038,0.146989,1
1.0245,-0.180969,-2.11256,-1.06445,2.67373,0.967192,-1.12578,1.0324,-0.187424,-2.10258,-1.0625,2.66491,0.970097,-1.11946,1.08424,-0.246567,-2.04512,-1.08557,2.60056,0.996991,-1.13044,-0.810067,0.998578,-0.860027,0.415501,1.07734,-0.600321,0.388514,-0.810067,0.998578,-0.860027,0.415501,1.07734,-0.600321,0.388514,0.194233,-0.42434,1.02909,0.90473,0.0996709,0.140094,0.389748,-0.434819,0.167028,0.394994,0.255851,-0.305335,1.25083,-3.45478,0.173417,-2.40953,-3.45478,0.173417,-2.40953,-0.59734,0.655979,-0.674427,0.211112,0.731725,-0.297992,0.0466173,1
1.01455,-0.176448,-2.1223,-1.07437,2.68343,0.960076,-1.12193,1.02406,-0.18136,-2.11248,-1.066,2.67394,0.96659,-1.12322,1.0764,-0.237165,-2.05353,-1.08169,2.61069,0.991808,-1.12723,-0.842558,0.986972,-0.912935,0.403022,1.0632,-0.499286,0.294831,-0.842558,0.986972,-0.912935,0.403022,1.0632,-0.499286,0.294831,0.189833,-0.422928,1.03282,0.907171,0.0998842,0.138426,0.38458,-0.462558,0.165311,0.385057,0.221649,-0.303248,1.22589,-3.42017,0.208759,-2.49399,-3.42017,0.208759,-2.49399,-0.618517,0.60716,-0.687692,0.0731961,0.727418,-0.317327,0.0529607,1
1.00615,-0.17411,-2.13255,-1.09575,2.69269,0.964546,-1.12715,1.01494,-0.176994,-2.12243,-1.07724,2.68332,0.962972,-1.1242,1.0684,-0.227982,-2.06235,-1.07806,2.62065,0.987526,-1.12523,-0.846211,0.953298,-0.945635,0.365692,1.04032,-0.409665,0.135492,-0.846211,0.953298,-0.945635,0.365692,1.04032,-0.409665,0.135492,0.185247,-0.421547,1.03639,0.909892,0.0997354,0.136845,0.378712,-0.47337,0.156047,0.360656,0.18754,-0.301435,1.19989,-3.4109,0.18124,-2.59917,-3.4109,0.18124,-2.59917,-0.622549,0.53872,-0.702038,-0.17687,0.720378,-0.229805,-0.0191783,1
1.00047,-0.181348,-2.14137,-1.10633,2.70026,0.999146,-1.13954,1.00683,-0.176504,-2.13219,-1.09305,2.69227,0.972078,-1.12894,1.06035,-0.219263,-2.0714,-1.07533,2.63042,0.983684,-1.12448,-0.853061,0.890885,-0.965506,0.219252,1.02284,-0.401806,0.0295816,-0.853061,0.890885,-0.965506,0.219252,1.02284,-0.401806,0.0295816,0.180651,-0.420496,1.03946,0.912757,0.0997994,0.135315,0.372297,-0.46768,0.101996,0.285036,0.153215,-0.299525,1.17335,-3.43256,0.191075,-2.6544,-3.43256,0.191075,-2.6544,-0.598763,0.37915,-0.699702,-0.310021,0.698363,0.154615,-0.15066,1
0.995337,-0.228866,-2.15097,-1.11503,2.70438,1.03441,-1.13783,1.00061,-0.191418,-2.14157,-1.10586,2.69939,0.999311,-1.13602,1.05216,-0.211251,-2.08064,-1.07465,2.64008,0.979898,-1.12433,-0.874863,0.80519,-0.982345,-0.0607786,1.01642,-0.397822,0.00309221,-0.874863,0.80519,-0.982345,-0.0607786,1.01642,-0.397822,0.00309221,0.176183,-0.420264,1.04151,0.91551,0.100927,0.133744,0.365743,-0.453101,0.00352377,0.151368,0.11868,-0.29771,1.14565,-3.45348,0.181419,-2.77021,-3.45348,0.181419,-2.77021,-0.568221,-0.176153,-0.703365,-0.403752,0.643005,0.545104,-0.135033,1
0.982129,-0.240404,-2.15913,-1.13409,2.68139,1.04765,-1.10522,0.993319,-0.219871,-2.15061,-1.11762,2.6976,1.0289,-1.13011,1.04389,-0.204374,-2.08999,-1.07683,2.64964,0.977483,-1.1248,-0.871086,0.655049,-0.991972,-0.381247,1.00203,-0.127025,-0.0973341,-0.871086,0.655049,-0.991972,-0.381247,1.00203,-0.127025,-0.0973341,0.171795,-0.421092,1.04214,0.918074,0.102978,0.132047,0.359305,-0.453508,-0.10575,-0.00985276,0.0839117,-0.29609,1.11659,-3.47681,0.161991,-2.90558,-3.47681,0.161991,-2.90558,-0.617601,-0.360301,-0.691361,-0.572625,0.317523,0.70165,0.195771,1
0.964589,-0.258744,-2.16871,-1.15163,2.61216,1.04937,-1.10839,0.981046,-0.242104,-2.15948,-1.13371,2.66983,1.04477,-1.11417,1.03585,-0.200389,-2.09939,-1.08141,2.65888,0.97927,-1.12637,-0.828364,0.210844,-0.991463,-0.574687,0.952282,0.471071,-0.226719,-0.828364,0.210844,-0.991463,-0.574687,0.952282,0.471071,-0.226719,0.166765,-0.423433,1.04113,0.920563,0.104837,0.129724,0.353191,-0.570368,-0.309668,-0.197236,0.0492919,-0.294453,1.08668,-3.46199,0.163785,-2.99108,-3.46199,0.163785,-2.99108,-0.712614,-0.583552,-0.693193,-0.702195,-0.467232,0.700991,0.179818,1
0.955428,-0.27406,-2.17832,-1.16295,2.61108,1.05473,-1.1134,0.966684,-0.257988,-2.16871,-1.15007,2.62919,1.05028,-1.10885,1.02738,-0.204271,-2.10959,-1.08862,2.6666,0.98916,-1.12711,-0.800475,-0.366678,-0.964107,-0.681509,0.728748,0.934131,-0.0703374,-0.800475,-0.366678,-0.964107,-0.681509,0.728748,0.934131,-0.0703374,0.158772,-0.429903,1.03698,0.922921,0.106502,0.125424,0.348057,-0.731665,-0.570843,-0.400473,0.0147119,-0.292886,1.05522,-3.458,0.156659,-3.14597,-3.458,0.156659,-3.14597,-0.719472,-0.697894,-0.687285,-0.743259,-0.555173,0.655671,0.137104,1
0.944296,-0.284073,-2.1894,-1.16806,2.62228,1.06302,-1.10205,0.954935,-0.272734,-2.17869,-1.1614,2.61415,1.05546,-1.10931,1.0193,-0.209717,-2.1187,-1.09609,2.66985,0.998747,-1.12603,-0.899104,-0.761237,-0.958584,-0.884141,-0.000592303,1.08169,0.278945,-0.899104,-0.761237,-0.958584,-0.884141,-0.000592303,1.08169,0.278945,0.151221,-0.436752,1.03213,0.924778,0.108811,0.122354,0.343476,-0.816252,-0.787177,-0.618565,-0.0187533,-0.290635,1.02276,-3.34651,0.22513,-3.24608,-3.34651,0.22513,-3.24608,-0.750024,-0.743559,-0.707009,-0.719645,-0.475696,0.642731,0.239809,1
0.931759,-0.29497,-2.20047,-1.17471,2.61567,1.07569,-1.09466,0.943945,-0.284294,-2.1894,-1.16844,2.61783,1.06411,-1.10304,1.01017,-0.217841,-2.1278,-1.10531,2.66557,1.0085,-1.12311,-1.02202,-0.943622,-0.961748,-1.05216,-0.855088,0.982038,0.335164,-1.02202,-0.943622,-0.961748,-1.05216,-0.855088,0.982038,0.335164,0.143435,-0.445225,1.02542,0.926434,0.112887,0.121501,0.337957,-0.831415,-0.901784,-0.777282,-0.0523726,-0.28892,0.989639,-3.36193,0.171444,-3.31227,-3.36193,0.171444,-3.31227,-0.784065,-0.77129,-0.72674,-0.694059,-0.499006,0.671929,0.284458,1
0.920705,-0.305416,-2.20996,-1.18518,2.6089,1.08541,-1.09348,0.93213,-0.294857,-2.20008,-1.17567,2.61563,1.07495,-1.09622,1.00027,-0.227392,-2.137,-1.11542,2.65674,1.01737,-1.12032,-1.06547,-1.06575,-0.979852,-1.08064,-1.00116,0.895361,0.258673,-1.06547,-1.06575,-0.979852,-1.08064,-1.00116,0.895361,0.258673,0.135413,-0.454599,1.01758,0.928122,0.118388,0.122062,0.331173,-0.89288,-0.961804,-0.848176,-0.0857378,-0.286882,0.955595,-3.33652,0.203836,-3.40433,-3.33652,0.203836,-3.40433,-0.795614,-0.780245,-0.729591,-0.697611,-0.478428,0.680382,0.268331,1
0.911243,-0.315046,-2.2186,-1.19585,2.59923,1.0944,-1.0942,0.921103,-0.305212,-2.20975,-1.18523,2.60818,1.08523,-1.09396,0.990078,-0.237642,-2.14643,-1.12532,2.64864,1.02587,-1.11747,-1.08432,-1.09652,-1.00989,-1.01357,-0.724248,0.898958,0.33897,-1.08432,-1.09652,-1.00989,-1.01357,-0.724248,0.898958,0.33897,0.126641,-0.464239,1.00947,0.929741,0.124291,0.121938,0.324446,-0.977326,-0.950806,-0.840594,-0.12027,-0.285358,0.921645,-3.45325,0.152361,-3.39501,-3.45325,0.152361,-3.39501,-0.788347,-0.774036,-0.72171,-0.705272,-0.494167,0.68536,0.232631,1
0.900884,-0.325991,-2.22866,-1.20464,2.59393,1.10245,-1.09054,0.911019,-0.315375,-2.21896,-1.19538,2.60032,1.09417,-1.09311,0.979643,-0.248049,-2.15612,-1.13467,2.64227,1.03463,-1.11387,-1.11676,-1.1002,-1.03322,-0.963505,-0.626132,0.947762,0.415018,-1.11676,-1.1002,-1.03322,-0.963505,-0.626132,0.947762,0.415018,0.117108,-0.473661,1.00144,0.931239,0.129971,0.12086,0.318267,-1.03666,-0.916719,-0.834321,-0.154803,-0.283812,0.88633,-3.45328,0.154603,-3.53155,-3.45328,0.154603,-3.53155,-0.787587,-0.779419,-0.725436,-0.69965,-0.483401,0.678223,0.23337,1
0.888823,-0.33889,-2.2401,-1.21432,2.58952,1.11178,-1.08152,0.900458,-0.326479,-2.22901,-1.20486,2.59415,1.10277,-1.0892,0.967978,-0.25944,-2.1668,-1.14475,2.63548,1.04471,-1.10991,-1.10171,-1.0758,-1.00934,-0.951481,-0.641698,0.952245,0.374797,-1.10171,-1.0758,-1.00934,-0.951481,-0.641698,0.952245,0.374797,0.106279,-0.483568,0.992562,0.932836,0.135942,0.11955,0.31152,-1.03064,-0.860416,-0.835478,-0.187744,-0.281712,0.849184,-3.29407,0.210056,-3.71454,-3.29407,0.210056,-3.71454,-0.791548,-0.7945,-0.732961,-0.695746,-0.459591,0.670682,0.283855,1
0.878326,-0.34914,-2.24978,-1.22344,2.58284,1.12126,-1.07773,0.889214,-0.338228,-2.23966,-1.21418,2.58895,1.11182,-1.08283,0.957577,-0.269629,-2.17633,-1.15388,2.62921,1.05372,-1.10664,-1.09427,-1.07517,-1.00189,-0.975322,-0.679018,0.950518,0.318043,-1.09427,-1.07517,-1.00189,-0.975322,-0.679018,0.950518,0.318043,0.096513,-0.492129,0.984422,0.93418,0.141364,0.118437,0.305446,-1.03069,-0.830138,-0.85938,-0.220765,-0.280081,0.811797,-3.30207,0.163111,-3.73869,-3.30207,0.163111,-3.73869,-0.792515,-0.795108,-0.734475,-0.695618,-0.463714,0.67532,0.289099,1
0.868105,-0.359143,-2.25919,-1.2328,2.57601,1.13061,-1.07709,0.878395,-0.349078,-2.24971,-1.2235,2.5828,1.12123,-1.07852,0.947189,-0.279912,-2.18588,-1.16315,2.62281,1.06269,-1.10353,-1.09832,-1.09448,-1.0136,-0.980422,-0.673456,0.942096,0.336849,-1.09832,-1.09448,-1.0136,-0.980422,-0.673456,0.942096,0.336849,0.0866156,-0.500475,0.976047,0.935427,0.146934,0.117314,0.299372,-1.05613,-0.811645,-0.883294,-0.254786,-0.278681,0.774112,-3.4021,0.139996,-3.76851,-3.4021,0.139996,-3.76851,-0.790843,-0.792312,-0.733075,-0.696509,-0.467921,0.679223,0.264426,1
0.857813,-0.370284,-2.26901,-1.24185,2.57085,1.13985,-1.07261,0.868087,-0.359428,-2.25929,-1.23272,2.57643,1.13058,-1.07613,0.936695,-0.290427,-2.19559,-1.17244,2.61655,1.07163,-1.1,-1.11596,-1.12347,-1.03568,-0.981069,-0.648624,0.944605,0.403756,-1.11596,-1.12347,-1.03568,-0.981069,-0.648624,0.944605,0.403756,0.0763761,-0.508682,0.96743,0.936535,0.152683,0.115936,0.29351,-1.0976,-0.796934,-0.909388,-0.288323,-0.277687,0.734351,-3.35378,0.0993282,-3.97609,-3.35378,0.0993282,-3.97609,-0.788823,-0.798575,-0.734124,-0.694064,-0.457031,0.682205,0.273898,1
0.846847,-0.381042,-2.27911,-1.25105,2.5647,1.14816,-1.06811,0.857644,-0.370189,-2.26908,-1.24189,2.5706,1.13962,-1.07261,0.926096,-0.301093,-2.20543,-1.18174,2.6104,1.08062,-1.09613,-1.12114,-1.12782,-1.0407,-0.981599,-0.648703,0.954266,0.413949,-1.12114,-1.12782,-1.0407,-0.981599,-0.648703,0.954266,0.413949,0.0658427,-0.516668,0.95861,0.93752,0.158522,0.114358,0.287836,-1.11535,-0.764107,-0.925479,-0.322227,-0.275651,0.6944,-3.39032,0.203642,-3.99513,-3.39032,0.203642,-3.99513,-0.792494,-0.799493,-0.736798,-0.693152,-0.456992,0.675333,0.280182,1
0.836332,-0.392002,-2.28919,-1.26044,2.55896,1.15712,-1.06325,0.846959,-0.381093,-2.2791,-1.2511,2.5648,1.14832,-1.06802,0.915507,-0.311743,-2.21526,-1.19103,2.60423,1.0897,-1.09237,-1.11452,-1.12075,-1.0348,-0.979912,-0.653514,0.960874,0.381653,-1.11452,-1.12075,-1.0348,-0.979912,-0.653514,0.960874,0.381653,0.0552062,-0.524299,0.949664,0.938424,0.164338,0.112749,0.282207,-1.1181,-0.723393,-0.935103,-0.355991,-0.273549,0.652893,-3.37641,0.210202,-4.15074,-3.37641,0.210202,-4.15074,-0.791749,-0.802591,-0.73926,-0.694052,-0.452771,0.674211,0.291143,1
0.82547,-0.403709,-2.29975,-1.27045,2.55063,1.16858,-1.05977,0.836245,-0.392189,-2.28931,-1.26059,2.55831,1.15774,-1.0636,0.903977,-0.323389,-2.22599,-1.20116,2.59753,1.09964,-1.08843,-1.08897,-1.09995,-1.01281,-0.957123,-0.632929,0.939435,0.3719,-1.08897,-1.09995,-1.01281,-0.957123,-0.632929,0.939435,0.3719,0.0434762,-0.532247,0.939747,0.939321,0.170684,0.110914,0.276117,-1.10579,-0.671397,-0.929607,-0.389257,-0.273176,0.609587,-3.32658,0.0373393,-4.33056,-3.32658,0.0373393,-4.33056,-0.785075,-0.803197,-0.73767,-0.692843,-0.468994,0.689359,0.286587,1
0.814582,-0.414257,-2.3098,-1.27989,2.54506,1.17576,-1.05497,0.825463,-0.403419,-2.29962,-1.27031,2.55132,1.16751,-1.05944,0.893621,-0.333861,-2.23563,-1.21025,2.59156,1.10852,-1.0848,-1.0967,-1.1101,-1.02187,-0.960115,-0.628789,0.935322,0.39422,-1.0967,-1.1101,-1.02187,-0.960115,-0.628789,0.935322,0.39422,0.0328246,-0.539056,0.930708,0.940017,0.176433,0.109159,0.270785,-1.12493,-0.64374,-0.948398,-0.423148,-0.270399,0.566276,-3.38914,0.277659,-4.33111,-3.38914,0.277659,-4.33111,-0.790387,-0.803961,-0.741779,-0.696465,-0.465002,0.672309,0.29823,1
0.804507,-0.424801,-2.31948,-1.28894,2.5385,1.18554,-1.0518,0.814785,-0.414256,-2.30971,-1.27979,2.54481,1.17641,-1.05538,0.883196,-0.344439,-2.24536,-1.21939,2.58554,1.11745,-1.08099,-1.10351,-1.12226,-1.03289,-0.968511,-0.64,0.947149,0.40873,-1.10351,-1.12226,-1.03289,-0.968511,-0.64,0.947149,0.40873,0.0219907,-0.545603,0.921468,0.940606,0.182271,0.107292,0.265567,-1.14183,-0.614663,-0.970412,-0.456693,-0.269125,0.521964,-3.35453,0.127438,-4.43125,-3.35453,0.127438,-4.43125,-0.786897,-0.803614,-0.741176,-0.695515,-0.470465,0.680985,0.291862,1
0.793758,-0.435516,-2.32965,-1.29809,2.53267,1.1936,-1.04742,0.804338,-0.424844,-2.3196,-1.28896,2.53868,1.18511,-1.0515,0.872707,-0.355135,-2.2552,-1.22862,2.57938,1.1265,-1.07709,-1.11038,-1.13483,-1.04401,-0.979807,-0.659547,0.96379,0.41467,-1.11038,-1.13483,-1.04401,-0.979807,-0.659547,0.96379,0.41467,0.0109986,-0.551871,0.912004,0.941097,0.188177,0.105374,0.260427,-1.15672,-0.584273,-0.993935,-0.490749,-0.266846,0.477195,-3.40554,0.227895,-4.47682,-3.40554,0.227895,-4.47682,-0.789493,-0.803813,-0.74445,-0.694724,-0.467075,0.670954,0.29666,1
