Afshin1997/kuka_rl_ros2/src/catch_and_throw/output_files/tm/nn_ema7.00_jvws1_realball_D01H12M43S34/recorded_data.csv
pure_target_joint_0,pure_target_joint_1,pure_target_joint_2,pure_target_joint_3,pure_target_joint_4,pure_target_joint_5,pure_target_joint_6,target_joint_0,target_joint_1,target_joint_2,target_joint_3,target_joint_4,target_joint_5,target_joint_6,pos_joint_0,pos_joint_1,pos_joint_2,pos_joint_3,pos_joint_4,pos_joint_5,pos_joint_6,vel_joint_0,vel_joint_1,vel_joint_2,vel_joint_3,vel_joint_4,vel_joint_5,vel_joint_6,vel_smooth_joint_0,vel_smooth_joint_1,vel_smooth_joint_2,vel_smooth_joint_3,vel_smooth_joint_4,vel_smooth_joint_5,vel_smooth_joint_6,ee_pos_x,ee_pos_y,ee_pos_z,ee_or_w,ee_or_x,ee_or_y,ee_or_z,eep_vel_x,eep_vel_y,eep_vel_z,ee_vel_offset_x,ee_vel_offset_y,ee_vel_offset_z,ball_pos_x,ball_pos_y,ball_pos_z,ball_raw_vx,ball_raw_vy,ball_raw_vz,ball_ema_vx,ball_ema_vy,ball_ema_vz,action_0,action_1,action_2,action_3,action_4,action_5,action_6,command_published
1.72074,-0.99943,-1.84348,-1.18332,1.99577,1.04866,-0.938108,1.72074,-0.99943,-1.84348,-1.18332,1.99577,1.04866,-0.938108,1.781,-1.0719,-1.81517,-1.11965,1.9374,1.11683,-0.916229,0,0,0,-1.19994e-05,-1.91642e-05,3.59547e-05,3.59547e-05,0,0,0,-1.19994e-05,-1.91642e-05,3.59547e-05,3.59547e-05,0.544277,-0.454729,0.712986,0.572461,0.178265,0.1507,0.786003,-1.29967e-06,7.88319e-06,-1.36504e-06,-2.71332e-06,1.00982e-05,-7.28242e-07,2.97716,-0.488344,0.126302,-2.73468,0.295728,5.16523,-2.73468,0.305716,5.16523,-0.602538,0.724658,-0.283098,-0.636662,0.58369,-0.681731,-0.218792,1
1.72002,-0.998223,-1.84003,-1.1836,1.99706,1.04888,-0.938573,1.72002,-0.998223,-1.84003,-1.1836,1.99706,1.04888,-0.938573,1.781,-1.0719,-1.81517,-1.11965,1.9374,1.11683,-0.916229,2.39771e-05,-3.59547e-05,0,0,1.91642e-05,2.39771e-05,0,2.39771e-05,-3.59547e-05,0,0,1.91642e-05,2.39771e-05,0,0.544277,-0.454729,0.712986,0.572461,0.178265,0.1507,0.786003,1.0109e-05,3.68032e-07,-1.82633e-05,8.75579e-06,-1.62072e-06,-1.75024e-05,2.94919,-0.485516,0.176486,-2.79677,0.282887,5.01842,-2.79677,0.323033,5.01842,-0.609774,0.73673,-0.248566,-0.639469,0.596591,-0.679467,-0.223436,1
1.72222,-0.99909,-1.83252,-1.18539,1.99829,1.04955,-0.940009,1.72222,-0.99909,-1.83252,-1.18539,1.99829,1.04955,-0.940009,1.78099,-1.07189,-1.81517,-1.11965,1.9374,1.11683,-0.916229,-0.00134226,0.00141417,4.79323e-05,-0.000287616,1.91642e-05,-7.19094e-05,-1.19994e-05,-0.00134226,0.00141417,4.79323e-05,-0.000287616,1.91642e-05,-7.19094e-05,-1.19994e-05,0.544273,-0.45473,0.71299,0.572464,0.178263,0.150702,0.786,-0.00065527,-0.000151674,0.000728723,-0.000660836,-0.000105375,0.000729847,2.92168,-0.482525,0.225747,-2.75133,0.299051,4.92607,-2.75133,0.322772,4.92607,-0.587672,0.727984,-0.173483,-0.657352,0.608895,-0.672833,-0.237801,1
1.73137,-0.998124,-1.8288,-1.18564,2.00018,1.04798,-0.928179,1.73137,-0.998124,-1.8288,-1.18564,2.00018,1.04798,-0.928179,1.78103,-1.07184,-1.81581,-1.12094,1.93836,1.11567,-0.917001,0.00478182,0.00545296,-0.112619,-0.199806,0.17622,-0.206302,-0.131027,0.00478182,0.00545296,-0.112619,-0.199806,0.17622,-0.206302,-0.131027,0.544734,-0.454565,0.712385,0.572254,0.179303,0.150898,0.785879,0.0545224,0.0267377,-0.0918729,0.0754175,0.0151151,-0.102125,2.89458,-0.479552,0.274356,-2.70991,0.297263,4.86094,-2.70991,0.313427,4.86094,-0.49658,0.737118,-0.129882,-0.646979,0.618203,-0.676883,-0.111785,1
1.7615,-0.99418,-1.78863,-1.18485,2.00718,1.03866,-0.925561,1.7615,-0.99418,-1.78863,-1.18485,2.00718,1.03866,-0.925561,1.7808,-1.071,-1.81834,-1.12506,1.94551,1.10901,-0.919424,-0.0363593,0.128875,-0.269255,-0.475451,0.905085,-0.8125,-0.269207,-0.0363593,0.128875,-0.269255,-0.475451,0.905085,-0.8125,-0.269207,0.546319,-0.454948,0.710505,0.571468,0.184595,0.150396,0.785321,0.117744,0.00881744,-0.164205,0.176227,-0.0493707,-0.193011,2.86755,-0.476131,0.322521,-2.70269,0.342107,4.81651,-2.70269,0.305003,4.81651,-0.193013,0.768197,0.297134,-0.597946,0.616772,-0.703509,-0.0613786,1
1.7934,-0.993765,-1.78272,-1.1911,2.02253,1.02729,-0.922811,1.7934,-0.993765,-1.78272,-1.1911,2.02253,1.02729,-0.922811,1.77938,-1.06837,-1.82154,-1.13234,1.95776,1.09849,-0.923125,-0.190904,0.302415,-0.342226,-0.808833,1.2959,-1.11091,-0.39994,-0.190904,0.302415,-0.342226,-0.808833,1.2959,-1.11091,-0.39994,0.54824,-0.455362,0.708345,0.57021,0.192619,0.149425,0.784494,0.108394,0.0334184,-0.18797,0.189412,-0.0428136,-0.230148,2.84066,-0.472679,0.370266,-2.68974,0.345221,4.77446,-2.68974,0.308061,4.77446,0.140253,0.746025,0.388198,-0.587573,0.647666,-0.711987,0.00313887,1
1.81147,-0.98683,-1.84068,-1.19326,2.03132,1.02029,-0.914986,1.81147,-0.98683,-1.84068,-1.19326,2.03132,1.02029,-0.914986,1.77585,-1.06465,-1.82456,-1.14229,1.97133,1.08648,-0.926993,-0.400312,0.389646,-0.277117,-1.03801,1.35302,-1.21919,-0.351597,-0.400312,0.389646,-0.277117,-1.03801,1.35302,-1.21919,-0.351597,0.549755,-0.455797,0.705999,0.568704,0.201735,0.148672,0.783438,0.0475375,0.0364405,-0.184537,0.136618,-0.0419833,-0.233653,2.81343,-0.469477,0.416841,-2.723,0.320244,4.65749,-2.723,0.316678,4.65749,0.35621,0.778161,-0.161201,-0.509724,0.599924,-0.661962,0.120072,1
1.79034,-0.981421,-1.86833,-1.19246,2.02774,1.01958,-0.906785,1.79034,-0.981421,-1.86833,-1.19246,2.02774,1.01958,-0.906785,1.77098,-1.06077,-1.82662,-1.15358,1.98382,1.07408,-0.929147,-0.5019,0.38369,-0.154138,-1.13534,1.20961,-1.24266,-0.171754,-0.5019,0.38369,-0.154138,-1.13534,1.20961,-1.24266,-0.171754,0.550905,-0.456048,0.703584,0.566419,0.211004,0.14823,0.782736,0.0167648,0.0568373,-0.179197,0.106478,-0.0141619,-0.231324,2.78609,-0.46636,0.462352,-2.73371,0.311702,4.55114,-2.73371,0.322992,4.55114,0.193583,0.793521,-0.417109,-0.388831,0.439191,-0.545044,0.223623,1
1.73302,-0.976711,-1.87422,-1.19761,2.0438,1.0069,-0.922123,1.73302,-0.976711,-1.87422,-1.19761,2.0438,1.0069,-0.922123,1.76585,-1.05691,-1.82612,-1.16502,1.99451,1.06158,-0.92975,-0.510528,0.380035,0.107364,-1.16269,1.02638,-1.25955,-0.0216191,-0.510528,0.380035,0.107364,-1.16269,1.02638,-1.25955,-0.0216191,0.551832,-0.455541,0.701971,0.563264,0.219396,0.147831,0.78278,0.0141787,0.134946,-0.104119,0.0956956,0.077194,-0.153516,2.75895,-0.463432,0.506289,-2.71368,0.292751,4.39371,-2.71368,0.322567,4.39371,-0.328264,0.802025,-0.480999,-0.325829,0.492889,-0.546738,0.0762765,1
1.70948,-0.971645,-1.85006,-1.21834,2.06143,0.985437,-0.955486,1.70948,-0.971645,-1.85006,-1.21834,2.06143,0.985437,-0.955486,1.76119,-1.05343,-1.82351,-1.17606,2.00412,1.0487,-0.929155,-0.450045,0.344323,0.298113,-1.06615,0.943913,-1.29373,0.0868357,-0.450045,0.344323,0.298113,-1.06615,0.943913,-1.29373,0.0868357,0.552851,-0.454421,0.700945,0.559261,0.227223,0.14722,0.783532,0.0283461,0.170895,-0.0390057,0.101318,0.118235,-0.0849805,2.73187,-0.460429,0.549317,-2.70772,0.300291,4.30276,-2.70772,0.318169,4.30276,-0.517099,0.817856,-0.26551,-0.422804,0.573059,-0.632665,-0.263314,1
1.71458,-0.968286,-1.79881,-1.23695,2.07681,0.971215,-0.959946,1.71458,-0.968286,-1.79881,-1.23695,2.07681,0.971215,-0.959946,1.75714,-1.0502,-1.82167,-1.18582,2.01319,1.03614,-0.927412,-0.38357,0.315777,0.115597,-0.932723,0.893121,-1.2274,0.206016,-0.38357,0.315777,0.115597,-0.932723,0.893121,-1.2274,0.206016,0.553971,-0.453551,0.699763,0.555139,0.234969,0.146672,0.784282,0.0405012,0.121562,-0.0895755,0.115981,0.0708713,-0.138802,2.70452,-0.457234,0.591259,-2.73547,0.319526,4.19422,-2.73547,0.311558,4.19422,-0.425566,0.819134,0.228507,-0.511357,0.636165,-0.64924,-0.325338,1
1.75184,-0.964906,-1.82214,-1.2459,2.08857,0.971155,-0.960849,1.75184,-0.964906,-1.82214,-1.2459,2.08857,0.971155,-0.960849,1.75411,-1.04589,-1.82299,-1.1936,2.02115,1.02536,-0.924668,-0.277992,0.483744,-0.232369,-0.723172,0.768142,-1.02418,0.263395,-0.277992,0.483744,-0.232369,-0.723172,0.768142,-1.02418,0.263395,0.555147,-0.452878,0.698531,0.551744,0.242018,0.147146,0.784445,0.0410614,0.0973167,-0.0677933,0.115619,0.0642428,-0.117359,2.67666,-0.454296,0.632008,-2.78544,0.293767,4.0749,-2.78544,0.305587,4.0749,-0.0227349,0.809861,0.00850398,-0.52296,0.674172,-0.542085,-0.361813,1
1.78314,-0.959517,-1.85656,-1.25018,2.0938,0.972828,-0.932454,1.78314,-0.959517,-1.85656,-1.25018,2.0938,0.972828,-0.932454,1.75188,-1.03926,-1.82868,-1.20004,2.02867,1.01647,-0.923705,-0.203715,0.728756,-0.670454,-0.626473,0.756005,-0.856349,0.0197376,-0.203715,0.728756,-0.670454,-0.626473,0.756005,-0.856349,0.0197376,0.556333,-0.452272,0.69731,0.550363,0.248345,0.149397,0.783011,0.0403927,0.0838646,-0.0672304,0.120883,0.0647171,-0.12167,2.65002,-0.45135,0.671492,-2.66478,0.294632,3.94837,-2.66478,0.302518,3.94837,0.312608,0.797448,-0.278726,-0.5014,0.651354,-0.436444,-0.0874888,1
1.76749,-0.949615,-1.87113,-1.25056,2.0909,0.974705,-0.903561,1.76749,-0.949615,-1.87113,-1.25056,2.0909,0.974705,-0.903561,1.75035,-1.03005,-1.83668,-1.20613,2.03709,1.00782,-0.92617,-0.141902,0.966338,-0.808437,-0.614249,0.8806,-0.880089,-0.337348,-0.141902,0.966338,-0.808437,-0.614249,0.8806,-0.880089,-0.337348,0.557666,-0.451192,0.696652,0.550829,0.254225,0.153021,0.780091,0.0516595,0.132997,0.00691917,0.134641,0.11944,-0.0506876,2.62301,-0.44856,0.710467,-2.70078,0.27898,3.89748,-2.70078,0.298913,3.89748,0.171367,0.804323,-0.344506,-0.44431,0.538171,-0.331149,0.226087,1
1.7677,-0.939561,-1.86819,-1.25498,2.10167,0.951071,-0.90998,1.7677,-0.939561,-1.86819,-1.25498,2.10167,0.951071,-0.90998,1.74839,-1.02029,-1.84362,-1.21319,2.04717,0.998315,-0.931955,-0.232848,0.968699,-0.64391,-0.739206,1.04606,-0.980371,-0.645719,-0.232848,0.968699,-0.64391,-0.739206,1.04606,-0.980371,-0.645719,0.558877,-0.449914,0.696297,0.552113,0.260221,0.156494,0.776509,0.0266508,0.143867,0.0242489,0.108068,0.119362,-0.0346754,2.59581,-0.445542,0.748722,-2.72019,0.301829,3.8255,-2.72019,0.297474,3.8255,0.193035,0.807324,-0.245606,-0.417919,0.545023,-0.472438,0.21975,1
1.72325,-0.928832,-1.84768,-1.24952,2.12032,0.936682,-0.930929,1.72325,-0.928832,-1.84768,-1.24952,2.12032,0.936682,-0.930929,1.74489,-1.01106,-1.84719,-1.22141,2.05871,0.987755,-0.938616,-0.377962,0.892301,-0.241441,-0.849518,1.18555,-1.05557,-0.620325,-0.377962,0.892301,-0.241441,-0.849518,1.18555,-1.05557,-0.620325,0.559476,-0.448755,0.696512,0.55309,0.266309,0.158682,0.773298,-0.0231115,0.159721,0.0903172,0.0455423,0.123159,0.0381689,2.5682,-0.442159,0.785763,-2.76105,0.338283,3.70408,-2.76105,0.299753,3.70408,-0.216326,0.822249,-0.00491095,-0.281123,0.616099,-0.510732,0.0768692,1
1.72051,-0.920893,-1.82487,-1.28312,2.13821,0.919997,-0.944603,1.72051,-0.920893,-1.82487,-1.28312,2.13821,0.919997,-0.944603,1.74108,-1.00349,-1.84726,-1.23066,2.07071,0.978075,-0.941444,-0.367931,0.710696,0.038085,-0.923447,1.18908,-0.934652,-0.156247,-0.367931,0.710696,0.038085,-0.923447,1.18908,-0.934652,-0.156247,0.559863,-0.447111,0.696932,0.551492,0.272076,0.158916,0.772384,-0.0144204,0.208239,0.0781035,0.0397369,0.170247,0.0352689,2.54133,-0.438841,0.821569,-2.68619,0.331786,3.58063,-2.68619,0.304503,3.58063,-0.205736,0.825955,0.223888,-0.524579,0.674943,-0.58078,-0.031587,1
1.78481,-0.916376,-1.81138,-1.29101,2.15153,0.937542,-0.959194,1.78481,-0.916376,-1.81138,-1.29101,2.15153,0.937542,-0.959194,1.73819,-0.997033,-1.84728,-1.23926,2.08149,0.970022,-0.939348,-0.248823,0.641951,-0.034084,-0.830144,1.03103,-0.762767,0.308745,-0.248823,0.641951,-0.034084,-0.830144,1.03103,-0.762767,0.308745,0.56042,-0.445285,0.697055,0.547913,0.277482,0.158436,0.773106,0.0172855,0.222019,0.0460421,0.0660623,0.194509,0.00706041,2.51489,-0.43591,0.856567,-2.64421,0.293165,3.49978,-2.64421,0.30921,3.49978,0.466141,0.80657,0.359014,-0.517431,0.700394,-0.324798,-0.198462,1
1.79776,-0.914195,-1.86933,-1.27702,2.1547,0.998923,-0.914048,1.79776,-0.914195,-1.86933,-1.27702,2.1547,0.998923,-0.914048,1.73723,-0.990098,-1.84941,-1.24648,2.09073,0.962952,-0.934946,-0.0501672,0.720521,-0.285711,-0.675484,0.901658,-0.702257,0.431706,-0.0501672,0.720521,-0.285711,-0.675484,0.901658,-0.702257,0.431706,0.561594,-0.44298,0.697024,0.543847,0.282491,0.158772,0.774094,0.0784925,0.247207,0.0356239,0.13174,0.233282,-0.00657896,2.48816,-0.433094,0.890664,-2.67377,0.281554,3.40977,-2.67377,0.309893,3.40977,0.60527,0.759033,-0.199165,-0.305397,0.639715,0.359717,0.208988,1
1.77172,-0.904157,-1.89663,-1.26264,2.15708,0.977004,-0.914611,1.77172,-0.904157,-1.89663,-1.26264,2.15708,0.977004,-0.914611,1.73774,-0.982194,-1.85359,-1.25185,2.09978,0.955678,-0.932527,0.0811951,0.810214,-0.440623,-0.530327,0.916385,-0.747642,0.17036,0.0811951,0.810214,-0.440623,-0.530327,0.916385,-0.747642,0.17036,0.563176,-0.440727,0.697172,0.541182,0.287271,0.160071,0.773935,0.114807,0.24831,0.0589169,0.171361,0.237128,0.0134254,2.46138,-0.430407,0.923486,-2.67754,0.268698,3.28212,-2.67754,0.305731,3.28212,0.339771,0.780369,-0.43041,-0.107919,0.573003,0.213264,0.179161,1
1.7349,-0.892893,-1.88956,-1.2453,2.17295,0.954224,-0.915892,1.7349,-0.892893,-1.88956,-1.2453,2.17295,0.954224,-0.915892,1.73902,-0.973423,-1.85707,-1.25731,2.10991,0.947229,-0.933179,0.123728,0.889347,-0.295095,-0.55305,1.04944,-0.868207,-0.138086,0.123728,0.889347,-0.295095,-0.55305,1.04944,-0.868207,-0.138086,0.565125,-0.437756,0.697856,0.539214,0.291971,0.161779,0.773194,0.136933,0.320922,0.133866,0.191854,0.309371,0.0886683,2.43437,-0.427504,0.955099,-2.70133,0.290263,3.16133,-2.70133,0.297728,3.16133,-0.0411894,0.805304,-0.324915,0.120055,0.630321,0.0699552,0.172875,1
1.71094,-0.882837,-1.86667,-1.28015,2.1877,0.919416,-0.942509,1.71094,-0.882837,-1.86667,-1.28015,2.1877,0.919416,-0.942509,1.73922,-0.96554,-1.85789,-1.26398,2.12157,0.940264,-0.935633,-0.0107501,0.742849,0.00182165,-0.701011,1.19314,-0.584485,-0.239127,-0.0107501,0.742849,0.00182165,-0.701011,1.19314,-0.584485,-0.239127,0.566445,-0.434681,0.698901,0.537244,0.295915,0.162145,0.772989,0.0731921,0.330397,0.142174,0.105372,0.31145,0.114201,2.40762,-0.42471,0.985581,-2.67508,0.279465,3.04818,-2.67508,0.287586,3.04818,-0.28283,0.827035,-0.0878507,-0.161772,0.661351,-0.20848,-0.0687649,1
1.77646,-0.877941,-1.79441,-1.30413,2.20416,0.939519,-0.963618,1.77646,-0.877941,-1.79441,-1.30413,2.20416,0.939519,-0.963618,1.73911,-0.9591,-1.85618,-1.27097,2.13367,0.939021,-0.93547,-0.00297215,0.625041,0.208171,-0.668029,1.1982,0.03563,0.104241,-0.00297215,0.625041,0.208171,-0.668029,1.1982,0.03563,0.104241,0.566809,-0.431256,0.700747,0.533936,0.297386,0.16015,0.775129,0.019304,0.36028,0.2111,0.011503,0.348839,0.216461,2.38106,-0.42172,1.01531,-2.65522,0.298938,2.97331,-2.65522,0.283399,2.97331,0.373499,0.81159,0.617658,-0.331647,0.704897,0.00497775,-0.281479,1
1.8073,-0.881244,-1.8022,-1.25671,2.20962,0.998274,-0.9581,1.8073,-0.881244,-1.8022,-1.25671,2.20962,0.998274,-0.9581,1.73994,-0.953297,-1.85479,-1.27572,2.14454,0.941748,-0.932691,0.131171,0.569876,0.0930358,-0.406131,1.04664,0.295299,0.315001,0.131171,0.569876,0.0930358,-0.406131,1.04664,0.295299,0.315001,0.56673,-0.42808,0.703279,0.530458,0.296873,0.157253,0.778301,0.0247519,0.314771,0.234472,0.00227059,0.310107,0.25231,2.35444,-0.418786,1.04459,-2.66249,0.293449,2.92747,-2.66249,0.285056,2.92747,0.673608,0.72053,0.525886,0.190079,0.650751,0.565267,-0.254085,1
1.81069,-0.876094,-1.84734,-1.25646,2.21683,0.996045,-0.945497,1.81069,-0.876094,-1.84734,-1.25646,2.21683,0.996045,-0.945497,1.74336,-0.947334,-1.85609,-1.2774,2.15428,0.943692,-0.92991,0.407138,0.609473,-0.223583,-0.106075,0.957899,0.141369,0.223056,0.407138,0.609473,-0.223583,-0.106075,0.957899,0.141369,0.223056,0.567518,-0.425135,0.705686,0.527697,0.29646,0.155292,0.780725,0.117438,0.287943,0.21498,0.107182,0.286573,0.22314,2.32813,-0.415942,1.07278,-2.63121,0.284365,2.81947,-2.63121,0.287434,2.81947,0.673225,0.712397,0.0874445,0.209345,0.625571,0.523535,-0.155873,1
1.80699,-0.864335,-1.8851,-1.235,2.22953,0.985843,-0.932373,1.80699,-0.864335,-1.8851,-1.235,2.22953,0.985843,-0.932373,1.74851,-0.940016,-1.86103,-1.27768,2.16416,0.94307,-0.930152,0.535444,0.787695,-0.560396,-0.0255989,1.008,-0.115027,-0.107417,0.535444,0.787695,-0.560396,-0.0255989,1.008,-0.115027,-0.107417,0.569234,-0.422407,0.707497,0.526672,0.297257,0.155182,0.781136,0.172687,0.281344,0.188747,0.184619,0.280085,0.178967,2.30171,-0.413028,1.10029,-2.6418,0.291428,2.7508,-2.6418,0.289948,2.7508,0.584788,0.756813,-0.240698,0.426764,0.653688,0.427727,-0.0222067,1
1.78881,-0.852057,-1.89263,-1.24194,2.24182,0.969822,-0.950254,1.78881,-0.852057,-1.89263,-1.24194,2.24182,0.969822,-0.950254,1.75344,-0.930497,-1.86688,-1.27862,2.17521,0.942619,-0.933689,0.456107,0.982395,-0.560684,-0.135233,1.13728,0.0220515,-0.430448,0.456107,0.982395,-0.560684,-0.135233,1.13728,0.0220515,-0.430448,0.570758,-0.419183,0.709915,0.527202,0.297638,0.156005,0.780469,0.122525,0.329286,0.26593,0.127125,0.332404,0.262475,2.27525,-0.410217,1.12657,-2.64571,0.281098,2.62756,-2.64571,0.2893,2.62756,0.353644,0.7844,-0.257572,0.366865,0.666084,0.272029,-0.165647,1
1.74167,-0.840456,-1.86195,-1.24192,2.25482,0.952653,-0.971348,1.74167,-0.840456,-1.86195,-1.24192,2.25482,0.952653,-0.971348,1.75621,-0.921187,-1.87077,-1.28066,2.18703,0.946099,-0.93885,0.220875,0.905562,-0.313911,-0.207081,1.18225,0.456838,-0.505064,0.220875,0.905562,-0.313911,-0.207081,1.18225,0.456838,-0.505064,0.570845,-0.416249,0.713114,0.528622,0.296139,0.155576,0.780164,-0.00621866,0.2811,0.326041,-0.0325934,0.280112,0.347242,2.24849,-0.407084,1.15208,-2.67589,0.313291,2.5509,-2.67589,0.291578,2.5509,-0.145386,0.80731,0.0881641,0.387347,0.677909,0.0655437,-0.324982,1
1.79369,-0.838517,-1.80863,-1.24878,2.27033,0.977926,-0.996141,1.79369,-0.838517,-1.80863,-1.24878,2.27033,0.977926,-0.996141,1.75798,-0.913369,-1.87019,-1.28176,2.19826,0.952798,-0.942278,0.183195,0.724896,0.178809,-0.0695941,1.10212,0.70789,-0.273619,0.183195,0.724896,0.178809,-0.0695941,1.10212,0.70789,-0.273619,0.569815,-0.413227,0.717944,0.529283,0.292206,0.153003,0.781707,-0.052405,0.308903,0.467159,-0.114345,0.310529,0.516293,2.22178,-0.404458,1.17618,-2.67148,0.262633,2.41016,-2.67148,0.288989,2.41016,0.357092,0.748519,0.615571,0.32987,0.720701,0.25128,-0.538634,1
1.80218,-0.839891,-1.81588,-1.25229,2.27909,1.00726,-1.00246,1.80218,-0.839891,-1.81588,-1.25229,2.27909,1.00726,-1.00246,1.76051,-0.908034,-1.86611,-1.28038,2.20865,0.958578,-0.943598,0.284715,0.474564,0.466631,0.22561,1.02753,0.495896,-0.120834,0.284715,0.474564,0.466631,0.22561,1.02753,0.495896,-0.120834,0.56886,-0.410466,0.723523,0.528641,0.287798,0.14878,0.784586,-0.0144532,0.265238,0.51469,-0.0843799,0.256645,0.567812,2.1952,-0.401615,1.19919,-2.65739,0.284231,2.30145,-2.65739,0.28723,2.30145,0.41663,0.681438,0.502306,0.280909,0.704368,0.486809,-0.58864,1
1.81552,-0.834339,-1.8169,-1.2395,2.28941,1.01054,-0.999496,1.81552,-0.834339,-1.8169,-1.2395,2.28941,1.01054,-0.999496,1.76463,-0.904179,-1.8614,-1.27598,2.21886,0.961075,-0.945605,0.453832,0.371502,0.446546,0.496495,1.02621,0.16762,-0.235101,0.453832,0.371502,0.446546,0.496495,1.02621,0.16762,-0.235101,0.568597,-0.408363,0.729181,0.528128,0.28424,0.144247,0.787071,0.0543714,0.217388,0.51396,-0.00611675,0.19857,0.557765,2.16828,-0.398701,1.22107,-2.69215,0.291491,2.18749,-2.69215,0.286819,2.18749,0.508912,0.698398,0.445042,0.364781,0.705436,0.494612,-0.538914,1
1.80678,-0.8287,-1.82758,-1.23273,2.29993,1.00895,-1.0048,1.80678,-0.8287,-1.82758,-1.23273,2.29993,1.00895,-1.0048,1.77003,-0.899676,-1.85907,-1.27017,2.22954,0.961409,-0.94992,0.559099,0.492373,0.144275,0.583403,1.09008,0.0294086,-0.504992,0.559099,0.492373,0.144275,0.583403,1.09008,0.0294086,-0.504992,0.56896,-0.406616,0.734485,0.528858,0.281656,0.140683,0.788155,0.0886635,0.193342,0.486553,0.0424128,0.172545,0.518773,2.14158,-0.395865,1.24189,-2.67005,0.283596,2.08187,-2.67005,0.285685,2.08187,0.367434,0.709761,0.314917,0.374403,0.703897,0.475397,-0.548806,1
1.79593,-0.823962,-1.82348,-1.22931,2.31108,1.01019,-1.01607,1.79593,-0.823962,-1.82348,-1.22931,2.31108,1.01019,-1.01607,1.77569,-0.892944,-1.85944,-1.26449,2.24124,0.963689,-0.957675,0.556187,0.738691,-0.0815628,0.550914,1.19537,0.314663,-0.861394,0.556187,0.738691,-0.0815628,0.550914,1.19537,0.314663,-0.861394,0.569032,-0.404649,0.740108,0.531695,0.278235,0.138076,0.787922,0.0426416,0.223747,0.544347,-0.0135702,0.211401,0.583915,2.11484,-0.393005,1.26211,-2.67382,0.285947,2.02274,-2.67382,0.285114,2.02274,0.202407,0.689819,0.359636,0.351887,0.698478,0.465039,-0.583904,1
1.78263,-0.825827,-1.81441,-1.22015,2.32189,1.01665,-1.02971,1.78263,-0.825827,-1.81441,-1.22015,2.32189,1.01665,-1.02971,1.78056,-0.88451,-1.86057,-1.25932,2.25365,0.969657,-0.968075,0.45877,0.860508,-0.0999941,0.519804,1.25356,0.677429,-1.07775,0.45877,0.860508,-0.0999941,0.519804,1.25356,0.677429,-1.07775,0.568126,-0.402422,0.74658,0.536273,0.272941,0.135529,0.787112,-0.0430013,0.227594,0.616185,-0.120866,0.220287,0.67046,2.0881,-0.39017,1.28142,-2.67413,0.283483,1.93031,-2.67413,0.283563,1.93031,0.0206365,0.586832,0.461571,0.391708,0.682436,0.469938,-0.616355,1
1.79271,-0.829874,-1.8036,-1.2123,2.33243,1.02601,-1.03927,1.79271,-0.829874,-1.8036,-1.2123,2.33243,1.02601,-1.03927,1.7844,-0.876197,-1.86019,-1.25484,2.26602,0.977495,-0.978852,0.368411,0.805969,0.110264,0.437714,1.23078,0.800132,-1.06149,0.368411,0.805969,0.110264,0.437714,1.23078,0.800132,-1.06149,0.5665,-0.40001,0.753495,0.540908,0.266622,0.132344,0.786649,-0.0838364,0.25743,0.640111,-0.17417,0.251489,0.701304,2.0613,-0.38727,1.29955,-2.68033,0.289997,1.81335,-2.68033,0.286243,1.81335,0.0830885,0.463221,0.565893,0.425391,0.664143,0.485164,-0.604163,1
1.80179,-0.827783,-1.80169,-1.21108,2.34504,1.03766,-1.04926,1.80179,-0.827783,-1.80169,-1.21108,2.34504,1.03766,-1.04926,1.78765,-0.869503,-1.85639,-1.25075,2.27801,0.985031,-0.988814,0.308455,0.619954,0.456349,0.40912,1.18574,0.725101,-0.973828,0.308455,0.619954,0.456349,0.40912,1.18574,0.725101,-0.973828,0.564658,-0.39735,0.7606,0.544283,0.26014,0.12804,0.787203,-0.0916974,0.273517,0.643484,-0.188834,0.261699,0.706425,2.03523,-0.384294,1.31649,-2.6068,0.297657,1.69418,-2.6068,0.287571,1.69418,0.141422,0.417202,0.546971,0.396684,0.670329,0.52633,-0.604463,1
1.79152,-0.826128,-1.79649,-1.20399,2.35644,1.04708,-1.05901,1.79152,-0.826128,-1.79649,-1.20399,2.35644,1.04708,-1.05901,1.79042,-0.864483,-1.85002,-1.24646,2.28962,0.991596,-0.998248,0.272887,0.481599,0.688094,0.443226,1.15159,0.640962,-0.938343,0.272887,0.481599,0.688094,0.443226,1.15159,0.640962,-0.938343,0.562697,-0.394908,0.767663,0.546789,0.253927,0.122801,0.788329,-0.100404,0.263271,0.650973,-0.202324,0.244925,0.713942,2.00946,-0.381746,1.33253,-2.57754,0.254804,1.60387,-2.57754,0.284789,1.60387,0.0110176,0.38355,0.535316,0.424677,0.66821,0.554799,-0.607632,1
1.78938,-0.819949,-1.78633,-1.19776,2.36664,1.05363,-1.06766,1.78938,-0.819949,-1.78633,-1.19776,2.36664,1.05363,-1.06766,1.79332,-0.859457,-1.84243,-1.24146,2.3009,0.997869,-1.00776,0.299898,0.520954,0.775853,0.521973,1.11869,0.629481,-0.958944,0.299898,0.520954,0.775853,0.521973,1.11869,0.629481,-0.958944,0.560564,-0.392218,0.775302,0.549182,0.247296,0.117323,0.789607,-0.111546,0.296472,0.717675,-0.220584,0.281823,0.782803,1.98349,-0.378941,1.34791,-2.59609,0.280443,1.53824,-2.59609,0.282733,1.53824,-0.039413,0.395085,0.561007,0.437055,0.657385,0.557612,-0.598991,1
1.79214,-0.811954,-1.77756,-1.19288,2.37738,1.05813,-1.07715,1.79214,-0.811954,-1.77756,-1.19288,2.37738,1.05813,-1.07715,1.79642,-0.853919,-1.83407,-1.23578,2.31184,1.00445,-1.01755,0.302798,0.549884,0.834562,0.571527,1.08711,0.667123,-0.985872,0.302798,0.549884,0.834562,0.571527,1.08711,0.667123,-0.985872,0.558152,-0.389128,0.783646,0.551703,0.239935,0.111766,0.790926,-0.133417,0.316239,0.762694,-0.250199,0.304393,0.829778,1.95712,-0.376369,1.36207,-2.63704,0.257215,1.41584,-2.63704,0.278181,1.41584,-0.0427895,0.41965,0.565067,0.428989,0.655407,0.53679,-0.596,1
1.78479,-0.806276,-1.76957,-1.18641,2.38836,1.06239,-1.08668,1.78479,-0.806276,-1.76957,-1.18641,2.38836,1.06239,-1.08668,1.79916,-0.849043,-1.82609,-1.22983,2.32269,1.01166,-1.02758,0.269267,0.465636,0.793889,0.603548,1.08749,0.7405,-1.0055,0.269267,0.465636,0.793889,0.603548,1.08749,0.7405,-1.0055,0.555447,-0.386675,0.791592,0.554515,0.232634,0.105805,0.79196,-0.15832,0.249132,0.716976,-0.279353,0.229754,0.782596,1.93029,-0.373931,1.37505,-2.68316,0.24384,1.29837,-2.68316,0.270977,1.29837,-0.143709,0.42767,0.565268,0.434245,0.656672,0.507373,-0.591056,1
1.78165,-0.799982,-1.75842,-1.18222,2.39922,1.06331,-1.0953,1.78165,-0.799982,-1.75842,-1.18222,2.39922,1.06331,-1.0953,1.80155,-0.844636,-1.81835,-1.22373,2.33361,1.0196,-1.03771,0.22138,0.437822,0.767512,0.603991,1.09319,0.810199,-1.0142,0.22138,0.437822,0.767512,0.603991,1.09319,0.810199,-1.0142,0.552427,-0.384724,0.799254,0.557516,0.225302,0.0993959,0.792803,-0.188397,0.208315,0.69301,-0.313597,0.184683,0.757182,1.90396,-0.371209,1.38716,-2.63314,0.272194,1.21068,-2.63314,0.265311,1.21068,-0.198935,0.446546,0.599333,0.415122,0.656147,0.437015,-0.575848,1
1.7808,-0.793297,-1.74863,-1.18171,2.4096,1.06153,-1.10508,1.7808,-0.793297,-1.74863,-1.18171,2.4096,1.06153,-1.10508,1.80315,-0.839988,-1.8106,-1.21777,2.34457,1.02801,-1.04781,0.143112,0.479274,0.787609,0.581785,1.09453,0.852502,-1.00547,0.143112,0.479274,0.787609,0.581785,1.09453,0.852502,-1.00547,0.548945,-0.383036,0.806936,0.56073,0.217845,0.0927915,0.79342,-0.231076,0.19881,0.708061,-0.36079,0.17513,0.771179,1.87811,-0.368303,1.39846,-2.58517,0.290596,1.13032,-2.58517,0.26449,1.13032,-0.223472,0.466912,0.619778,0.360614,0.65037,0.335196,-0.572619,1
1.78477,-0.788555,-1.73974,-1.18119,2.41992,1.06758,-1.11595,1.78477,-0.788555,-1.73974,-1.18119,2.41992,1.06758,-1.11595,1.80428,-0.835075,-1.80216,-1.21237,2.35544,1.03642,-1.05781,0.101101,0.493882,0.859218,0.523496,1.08693,0.830348,-0.994524,0.101101,0.493882,0.859218,0.523496,1.08693,0.830348,-0.994524,0.545229,-0.381076,0.814695,0.563681,0.210326,0.0861384,0.794108,-0.246682,0.223111,0.710304,-0.376501,0.199922,0.770131,1.85207,-0.36547,1.40899,-2.60381,0.283238,1.05286,-2.60381,0.268796,1.05286,-0.195123,0.465201,0.624146,0.311827,0.64482,0.311524,-0.58141,1
1.78174,-0.782315,-1.73177,-1.18793,2.433,1.06808,-1.12568,1.78174,-0.782315,-1.73177,-1.18793,2.433,1.06808,-1.12568,1.8047,-0.830325,-1.79355,-1.20724,2.36624,1.04423,-1.06768,0.020913,0.467253,0.859362,0.510121,1.07995,0.75439,-0.981269,0.020913,0.467253,0.859362,0.510121,1.07995,0.75439,-0.981269,0.541331,-0.379449,0.822178,0.566599,0.203268,0.0794436,0.794567,-0.26977,0.176556,0.681962,-0.395101,0.148284,0.735927,1.82626,-0.362998,1.41852,-2.58126,0.247285,0.953078,-2.58126,0.268772,0.953078,-0.229588,0.480095,0.617852,0.193141,0.667654,0.238491,-0.580034,1
1.78226,-0.776609,-1.72176,-1.19027,2.44473,1.06676,-1.1355,1.78226,-0.776609,-1.72176,-1.19027,2.44473,1.06676,-1.1355,1.80444,-0.825621,-1.78459,-1.20227,2.37703,1.0509,-1.07738,-0.039465,0.476133,0.914119,0.500486,1.08066,0.627102,-0.962525,-0.039465,0.476133,0.914119,0.500486,1.08066,0.627102,-0.962525,0.537314,-0.378076,0.829507,0.569399,0.196786,0.0727809,0.794835,-0.28588,0.167053,0.686119,-0.406118,0.136143,0.734617,1.80043,-0.360078,1.4274,-2.58285,0.29197,0.888121,-2.58285,0.273137,0.888121,-0.221839,0.490121,0.628334,0.120047,0.676974,0.158632,-0.581205,1
1.77721,-0.770166,-1.71404,-1.1963,2.45761,1.06412,-1.14738,1.77721,-0.770166,-1.71404,-1.1963,2.45761,1.06412,-1.14738,1.80342,-0.820736,-1.77513,-1.19742,2.38781,1.0561,-1.08696,-0.124639,0.491449,0.951691,0.475738,1.08123,0.490131,-0.952901,-0.124639,0.491449,0.951691,0.475738,1.08123,0.490131,-0.952901,0.533163,-0.376869,0.836837,0.572115,0.190885,0.0662746,0.794893,-0.306691,0.148333,0.683268,-0.419782,0.114819,0.725852,1.77423,-0.357432,1.4353,-2.61967,0.264615,0.789964,-2.61967,0.275229,0.789964,-0.26203,0.5057,0.610861,0.0112139,0.698029,0.0802066,-0.604227,1
1.77469,-0.767626,-1.70352,-1.20767,2.46923,1.05879,-1.15743,1.77469,-0.767626,-1.70352,-1.20767,2.46923,1.05879,-1.15743,1.80188,-0.815913,-1.76543,-1.1933,2.39863,1.06043,-1.09657,-0.153977,0.480591,0.976031,0.370394,1.08482,0.416055,-0.961686,-0.153977,0.480591,0.976031,0.370394,1.08482,0.416055,-0.961686,0.529071,-0.375664,0.843808,0.574594,0.185623,0.0599719,0.794852,-0.295815,0.169148,0.6427,-0.40005,0.13468,0.679365,1.74804,-0.35492,1.4419,-2.61931,0.251213,0.659382,-2.61931,0.271437,0.659382,-0.271911,0.482873,0.619144,-0.143687,0.706053,-0.0163079,-0.608532,1
1.77157,-0.765409,-1.69278,-1.22016,2.48143,1.04626,-1.16756,1.77157,-0.765409,-1.69278,-1.22016,2.48143,1.04626,-1.16756,1.80009,-0.811265,-1.75581,-1.19034,2.4097,1.06412,-1.10635,-0.199434,0.458264,0.952338,0.277046,1.11955,0.346808,-0.977889,-0.199434,0.458264,0.952338,0.277046,1.11955,0.346808,-0.977889,0.525236,-0.374366,0.850163,0.576723,0.181156,0.0539106,0.794775,-0.288458,0.156662,0.587029,-0.382777,0.117852,0.617443,1.722,-0.352351,1.44759,-2.60364,0.256819,0.569153,-2.60364,0.266149,0.569153,-0.285166,0.458556,0.630352,-0.298142,0.717317,-0.178645,-0.612143,1
1.768,-0.76477,-1.68204,-1.2336,2.49437,1.03053,-1.17767,1.768,-0.76477,-1.68204,-1.2336,2.49437,1.03053,-1.17767,1.79764,-0.806754,-1.74645,-1.1885,2.42118,1.06674,-1.11624,-0.249877,0.451912,0.941983,0.14699,1.1588,0.228029,-0.991312,-0.249877,0.451912,0.941983,0.14699,1.1588,0.228029,-0.991312,0.521614,-0.373261,0.855856,0.578669,0.177748,0.0481526,0.794499,-0.271324,0.162302,0.530159,-0.351163,0.120224,0.55329,1.69609,-0.349437,1.45216,-2.59157,0.29144,0.457466,-2.59157,0.266253,0.457466,-0.296448,0.419836,0.644059,-0.451038,0.731961,-0.362139,-0.614289,1
1.76357,-0.767571,-1.67136,-1.24236,2.50656,1.02511,-1.18801,1.76357,-0.767571,-1.67136,-1.24236,2.50656,1.02511,-1.18801,1.79475,-0.801982,-1.73695,-1.18826,2.43302,1.06797,-1.12636,-0.309632,0.487902,0.945063,-0.0149207,1.19502,0.0819382,-1.01457,-0.309632,0.487902,0.945063,-0.0149207,1.19502,0.0819382,-1.01457,0.518388,-0.371772,0.86103,0.580171,0.175394,0.0430195,0.794222,-0.251923,0.195912,0.486636,-0.314631,0.153864,0.502594,1.67,-0.34655,1.45561,-2.60929,0.28865,0.344145,-2.60929,0.270369,0.344145,-0.311838,0.344106,0.655897,-0.540975,0.735341,-0.428676,-0.616522,1
1.76668,-0.769364,-1.66195,-1.24646,2.5184,1.02471,-1.19778,1.76668,-0.769364,-1.66195,-1.24646,2.5184,1.02471,-1.19778,1.7911,-0.796872,-1.72743,-1.18961,2.44522,1.0677,-1.13669,-0.376506,0.516509,0.961734,-0.18395,1.22727,-0.0660587,-1.03436,-0.376506,0.516509,0.961734,-0.18395,1.22727,-0.0660587,-1.03436,0.515485,-0.370044,0.865696,0.58139,0.174142,0.0385982,0.793832,-0.231918,0.230176,0.441609,-0.277054,0.188338,0.45079,1.64365,-0.343994,1.45824,-2.63472,0.255632,0.263023,-2.63472,0.269629,0.263023,-0.244236,0.275081,0.654763,-0.568503,0.731757,-0.429849,-0.610833,1
1.79728,-0.767395,-1.6554,-1.25108,2.52969,1.0313,-1.20539,1.79728,-0.767395,-1.6554,-1.25108,2.52969,1.0313,-1.20539,1.78708,-0.791703,-1.71766,-1.19308,2.45762,1.06577,-1.14714,-0.417037,0.513129,0.974533,-0.39833,1.24162,-0.238876,-1.04541,-0.417037,0.513129,0.974533,-0.39833,1.24162,-0.238876,-1.04541,0.513231,-0.367747,0.869615,0.581916,0.174195,0.0350665,0.7936,-0.185973,0.278333,0.36625,-0.208047,0.237322,0.367287,1.61779,-0.341514,1.46005,-2.58578,0.24806,0.181651,-2.58578,0.269308,0.181651,0.102017,0.243075,0.622611,-0.57995,0.720756,-0.344736,-0.582486,1
1.79,-0.750581,-1.66559,-1.25342,2.53933,1.07803,-1.21215,1.79,-0.750581,-1.66559,-1.25342,2.53933,1.07803,-1.21215,1.78244,-0.786536,-1.70788,-1.19849,2.47019,1.06163,-1.15761,-0.470596,0.523208,0.986051,-0.579332,1.26146,-0.474911,-1.04781,-0.470596,0.523208,0.986051,-0.579332,1.26146,-0.474911,-1.04781,0.511651,-0.36515,0.872714,0.581887,0.175819,0.0325655,0.79337,-0.143747,0.315572,0.304019,-0.140396,0.275365,0.296315,1.59144,-0.338756,1.46099,-2.63553,0.2758,0.0937104,-2.63553,0.270037,0.0937104,0.0755346,0.359549,0.422893,-0.549236,0.69141,0.163979,-0.545331,1
1.75444,-0.746932,-1.66478,-1.25402,2.54794,1.09258,-1.22368,1.75444,-0.746932,-1.66478,-1.25402,2.54794,1.09258,-1.22368,1.77764,-0.781156,-1.69798,-1.20571,2.48279,1.0555,-1.16806,-0.486392,0.539927,0.986218,-0.758093,1.26405,-0.651047,-1.04246,-0.486392,0.539927,0.986218,-0.758093,1.26405,-0.651047,-1.04246,0.510807,-0.361881,0.87518,0.581184,0.178715,0.0311986,0.793293,-0.0949061,0.374412,0.244154,-0.0690834,0.338316,0.229199,1.56532,-0.33618,1.4605,-2.61178,0.257578,-0.0492096,-2.61178,0.267552,-0.0492096,-0.232066,0.342243,0.331972,-0.483099,0.651535,0.370824,-0.556151,1
1.76907,-0.738145,-1.63593,-1.2664,2.56355,1.0636,-1.23631,1.76907,-0.738145,-1.63593,-1.2664,2.56355,1.0636,-1.23631,1.77272,-0.776078,-1.688,-1.21378,2.49536,1.04888,-1.17844,-0.484751,0.496279,1.01032,-0.824196,1.25797,-0.64385,-1.03268,-0.484751,0.496279,1.01032,-0.824196,1.25797,-0.64385,-1.03268,0.510274,-0.358451,0.877166,0.580124,0.182163,0.0302265,0.793321,-0.0787425,0.389414,0.20655,-0.048411,0.354018,0.189793,1.53988,-0.33354,1.45875,-2.54327,0.26401,-0.174892,-2.54327,0.263114,-0.174892,-0.036512,0.379323,0.520648,-0.526118,0.681889,0.1472,-0.578646,1
1.77903,-0.736084,-1.62567,-1.27045,2.57663,1.06665,-1.24658,1.77903,-0.736084,-1.62567,-1.27045,2.57663,1.06665,-1.24658,1.76846,-0.771638,-1.67812,-1.22249,2.5077,1.0444,-1.18849,-0.406232,0.422111,0.962359,-0.881539,1.22499,-0.348697,-0.992163,-0.406232,0.422111,0.962359,-0.881539,1.22499,-0.348697,-0.992163,0.509849,-0.354704,0.878717,0.57863,0.185108,0.028973,0.793778,-0.0641021,0.408303,0.151273,-0.0446423,0.375134,0.13842,1.51434,-0.331138,1.45649,-2.55417,0.240198,-0.225472,-2.55417,0.258861,-0.225472,0.105631,0.355541,0.524514,-0.479614,0.689268,0.222446,-0.580894,1
1.74283,-0.750356,-1.6224,-1.26025,2.58482,1.09274,-1.25664,1.74283,-0.750356,-1.6224,-1.26025,2.58482,1.09274,-1.25664,1.76523,-0.767653,-1.66994,-1.23101,2.51959,1.04487,-1.19798,-0.285985,0.396034,0.772725,-0.825934,1.16988,0.178549,-0.936941,-0.285985,0.396034,0.772725,-0.825934,1.16988,0.178549,-0.936941,0.509101,-0.351059,0.879908,0.577451,0.186454,0.0268794,0.794395,-0.0774396,0.394947,0.122302,-0.0855206,0.36558,0.119692,1.48896,-0.32861,1.45348,-2.53803,0.252745,-0.30098,-2.53803,0.257569,-0.30098,-0.224009,0.172967,0.475392,-0.292363,0.652327,0.478729,-0.586519,1
1.758,-0.750985,-1.6053,-1.25016,2.59298,1.10437,-1.26371,1.758,-0.750985,-1.6053,-1.25016,2.59298,1.10437,-1.26371,1.76367,-0.763291,-1.66318,-1.23897,2.53078,1.05009,-1.20719,-0.115298,0.455666,0.655534,-0.78864,1.09965,0.605693,-0.92135,-0.115298,0.455666,0.655534,-0.78864,1.09965,0.605693,-0.92135,0.508076,-0.346807,0.881305,0.576602,0.185779,0.0242211,0.795255,-0.0733342,0.470346,0.1404,-0.104688,0.451643,0.147771,1.46333,-0.326161,1.44922,-2.56364,0.244963,-0.426698,-2.56364,0.25497,-0.426698,-0.0567406,0.123058,0.578796,-0.111911,0.622061,0.542841,-0.565257,1
1.75756,-0.752265,-1.6027,-1.24435,2.60387,1.11388,-1.27258,1.75756,-0.752265,-1.6027,-1.24435,2.60387,1.11388,-1.27258,1.76304,-0.758464,-1.65676,-1.24665,2.54167,1.05611,-1.21663,-0.0602074,0.480712,0.639212,-0.75681,1.09506,0.588148,-0.956379,-0.0602074,0.480712,0.639212,-0.75681,1.09506,0.588148,-0.956379,0.507155,-0.341974,0.882899,0.575816,0.184614,0.0217345,0.796166,-0.0608271,0.495134,0.150489,-0.0907711,0.47824,0.157519,1.4377,-0.323517,1.44409,-2.56277,0.264391,-0.51285,-2.56277,0.252444,-0.51285,-0.0547482,0.0619831,0.540642,0.0229995,0.621988,0.577676,-0.559582,1
1.75508,-0.743549,-1.59668,-1.23888,2.61502,1.12128,-1.28172,1.75508,-0.743549,-1.59668,-1.23888,2.61502,1.12128,-1.28172,1.76241,-0.75403,-1.64982,-1.25343,2.55285,1.06188,-1.22648,-0.0659477,0.427503,0.719732,-0.648392,1.12749,0.586531,-0.995806,-0.0659477,0.427503,0.719732,-0.648392,1.12749,0.586531,-0.995806,0.506047,-0.337538,0.884692,0.575189,0.183485,0.0187747,0.796955,-0.0849277,0.454363,0.179617,-0.122067,0.42998,0.187393,1.41182,-0.321041,1.43799,-2.58795,0.247526,-0.609636,-2.58795,0.251564,-0.609636,-0.0732807,0.104803,0.531375,0.145543,0.62167,0.594045,-0.552395,1
1.74496,-0.731932,-1.58775,-1.24497,2.62645,1.12495,-1.29076,1.74496,-0.731932,-1.58775,-1.24497,2.62645,1.12495,-1.29076,1.76148,-0.750636,-1.64225,-1.25846,2.56413,1.06875,-1.23656,-0.0996346,0.312817,0.765499,-0.45388,1.11932,0.71809,-1.01039,-0.0996346,0.312817,0.765499,-0.45388,1.11932,0.71809,-1.01039,0.504262,-0.334213,0.88681,0.575042,0.181782,0.0144953,0.797541,-0.139743,0.338377,0.207352,-0.196132,0.302181,0.218665,1.3863,-0.31841,1.43104,-2.55182,0.263104,-0.695479,-2.55182,0.252407,-0.695479,-0.165209,0.187043,0.545015,0.134905,0.623247,0.562037,-0.542053,1
1.73935,-0.727751,-1.57792,-1.2527,2.63256,1.12879,-1.3029,1.73935,-0.727751,-1.57792,-1.2527,2.63256,1.12879,-1.3029,1.76096,-0.747969,-1.63415,-1.26171,2.57489,1.07672,-1.24651,-0.0302595,0.253748,0.827911,-0.265708,1.06044,0.819618,-0.987573,-0.0302595,0.253748,0.827911,-0.265708,1.06044,0.819618,-0.987573,0.50201,-0.331421,0.889386,0.575099,0.179263,0.00925973,0.798148,-0.163489,0.309741,0.260456,-0.236808,0.270463,0.275681,1.36078,-0.315878,1.42322,-2.55173,0.253204,-0.782084,-2.55173,0.254632,-0.782084,-0.216078,0.202175,0.562277,0.0900899,0.576777,0.520693,-0.563949,1
1.73401,-0.724355,-1.56979,-1.25709,2.63868,1.13144,-1.31319,1.73401,-0.724355,-1.56979,-1.25709,2.63868,1.13144,-1.31319,1.76121,-0.745827,-1.62564,-1.26247,2.58508,1.08559,-1.25615,0.0443886,0.195626,0.853509,-0.0192702,1.00909,0.904249,-0.956068,0.0443886,0.195626,0.853509,-0.0192702,1.00909,0.904249,-0.956068,0.49927,-0.329147,0.89268,0.575361,0.175772,0.00300379,0.798783,-0.191595,0.253543,0.320196,-0.283011,0.209162,0.338553,1.33544,-0.313202,1.41457,-2.53452,0.267598,-0.864446,-2.53452,0.256766,-0.864446,-0.272055,0.214717,0.558409,0.0538606,0.536054,0.458463,-0.570433,1
1.73193,-0.721992,-1.56161,-1.27402,2.64578,1.13347,-1.32162,1.73193,-0.721992,-1.56161,-1.27402,2.64578,1.13347,-1.32162,1.7622,-0.744507,-1.61718,-1.26192,2.59498,1.09467,-1.26551,0.115214,0.117059,0.839787,0.0659357,0.988398,0.902847,-0.930937,0.115214,0.117059,0.839787,0.0659357,0.988398,0.902847,-0.930937,0.496508,-0.327384,0.895992,0.575542,0.172195,-0.00386597,0.799428,-0.177632,0.219566,0.306981,-0.270758,0.169626,0.322945,1.31014,-0.310396,1.40502,-2.52961,0.280604,-0.95495,-2.52961,0.261016,-0.95495,-0.30276,0.225153,0.555674,-0.120959,0.507982,0.387967,-0.561031,1
1.73419,-0.723818,-1.5526,-1.28507,2.65276,1.14073,-1.32921,1.73419,-0.723818,-1.5526,-1.28507,2.65276,1.14073,-1.32921,1.76362,-0.743284,-1.60858,-1.26139,2.60488,1.10334,-1.27472,0.145785,0.132746,0.873067,0.0439451,0.992309,0.853161,-0.919181,0.145785,0.132746,0.873067,0.0439451,0.992309,0.853161,-0.919181,0.493946,-0.325444,0.899208,0.575356,0.168902,-0.0106829,0.800202,-0.165265,0.255316,0.309439,-0.253859,0.206027,0.322631,1.28454,-0.308386,1.39436,-2.56003,0.201008,-1.0663,-2.56003,0.256748,-1.0663,-0.294363,0.194665,0.559758,-0.23682,0.478807,0.373911,-0.544888,1
1.73347,-0.723497,-1.54276,-1.29276,2.66502,1.1448,-1.33635,1.73347,-0.723497,-1.54276,-1.29276,2.66502,1.1448,-1.33635,1.76444,-0.741624,-1.5996,-1.26121,2.61464,1.1115,-1.28404,0.0511954,0.171598,0.902068,-0.00101864,0.967095,0.792451,-0.937169,0.0511954,0.171598,0.902068,-0.00101864,0.967095,0.792451,-0.937169,0.491253,-0.323348,0.902516,0.575231,0.165734,-0.0171869,0.800841,-0.188093,0.252461,0.313404,-0.272001,0.205494,0.324379,1.25911,-0.305718,1.38255,-2.54272,0.266838,-1.18073,-2.54272,0.25536,-1.18073,-0.309643,0.181267,0.568354,-0.315566,0.503741,0.332984,-0.523123,1
1.73294,-0.722002,-1.53294,-1.29828,2.67679,1.15215,-1.34441,1.73294,-0.722002,-1.53294,-1.29828,2.67679,1.15215,-1.34441,1.76404,-0.739942,-1.59043,-1.26212,2.62389,1.11865,-1.2936,-0.0681407,0.169513,0.925856,-0.126551,0.905661,0.69314,-0.959423,-0.0681407,0.169513,0.925856,-0.126551,0.905661,0.69314,-0.959423,0.488577,-0.321349,0.905459,0.575316,0.163158,-0.0229792,0.801164,-0.194549,0.246685,0.276086,-0.266176,0.203323,0.283588,1.23355,-0.303339,1.36995,-2.55677,0.237933,-1.25977,-2.55677,0.251259,-1.25977,-0.310993,0.179393,0.574923,-0.361594,0.52899,0.335028,-0.508111,1
1.73017,-0.718458,-1.52354,-1.30412,2.68711,1.15309,-1.35291,1.73017,-0.718458,-1.52354,-1.30412,2.68711,1.15309,-1.35291,1.76224,-0.737954,-1.58112,-1.26431,2.63245,1.12492,-1.30323,-0.224973,0.208315,0.922844,-0.248919,0.840278,0.612924,-0.961734,-0.224973,0.208315,0.922844,-0.248919,0.840278,0.612924,-0.961734,0.485858,-0.31929,0.908111,0.575663,0.161005,-0.0278781,0.801194,-0.215555,0.236375,0.249889,-0.276727,0.199152,0.255441,1.20834,-0.300415,1.35605,-2.52026,0.292373,-1.39039,-2.52026,0.252845,-1.39039,-0.320769,0.194954,0.575758,-0.398083,0.546618,0.28171,-0.49679,1
1.72448,-0.715818,-1.51358,-1.30796,2.69483,1.16124,-1.36226,1.72448,-0.715818,-1.51358,-1.30796,2.69483,1.16124,-1.36226,1.75882,-0.735655,-1.57213,-1.26779,2.64056,1.13082,-1.31266,-0.371161,0.23528,0.900649,-0.383613,0.804861,0.585839,-0.934301,-0.371161,0.23528,0.900649,-0.383613,0.804861,0.585839,-0.934301,0.483002,-0.317439,0.910365,0.576412,0.159216,-0.032067,0.800857,-0.233169,0.221292,0.211238,-0.285915,0.188074,0.215142,1.18302,-0.298076,1.34142,-2.53203,0.233886,-1.46334,-2.53203,0.251393,-1.46334,-0.343314,0.198371,0.585531,-0.401683,0.542768,0.304201,-0.49607,1
1.71749,-0.714952,-1.50589,-1.31577,2.70163,1.16767,-1.37012,1.71749,-0.714952,-1.50589,-1.31577,2.70163,1.16767,-1.37012,1.75446,-0.733273,-1.56314,-1.27273,2.64868,1.13659,-1.32167,-0.459307,0.235544,0.890762,-0.525078,0.822157,0.578325,-0.88876,-0.459307,0.235544,0.890762,-0.525078,0.822157,0.578325,-0.88876,0.480221,-0.315498,0.912157,0.576987,0.157877,-0.0358155,0.800548,-0.232323,0.220565,0.162906,-0.276552,0.18755,0.16443,1.15769,-0.295438,1.32587,-2.53382,0.263804,-1.55467,-2.53382,0.252853,-1.55467,-0.369687,0.183208,0.572515,-0.430351,0.529518,0.310718,-0.484491,1
1.71129,-0.714571,-1.49617,-1.32509,2.71074,1.1729,-1.37659,1.71129,-0.714571,-1.49617,-1.32509,2.71074,1.1729,-1.37659,1.74932,-0.730953,-1.55444,-1.27848,2.65742,1.14228,-1.33029,-0.520512,0.235316,0.873971,-0.594624,0.892492,0.567299,-0.852603,-0.520512,0.235316,0.873971,-0.594624,0.892492,0.567299,-0.852603,0.477462,-0.313883,0.913534,0.577498,0.157074,-0.039555,0.800162,-0.233935,0.202637,0.132473,-0.272809,0.165681,0.131367,1.13229,-0.292946,1.3097,-2.5396,0.249186,-1.61743,-2.5396,0.257654,-1.61743,-0.380303,0.163825,0.582742,-0.466087,0.533217,0.306135,-0.462953,1
1.7108,-0.717727,-1.48958,-1.33527,2.71669,1.18418,-1.38337,1.7108,-0.717727,-1.48958,-1.33527,2.71669,1.18418,-1.38337,1.74447,-0.728488,-1.54538,-1.28508,2.66676,1.14764,-1.33867,-0.473832,0.246582,0.910236,-0.677833,0.947237,0.52672,-0.832721,-0.473832,0.246582,0.910236,-0.677833,0.947237,0.52672,-0.832721,0.475014,-0.31174,0.914734,0.577358,0.156715,-0.0431162,0.80015,-0.204602,0.261929,0.116131,-0.235056,0.224989,0.112845,1.1063,-0.290414,1.29212,-2.59854,0.253168,-1.75724,-2.59854,0.255973,-1.75724,-0.336706,0.107614,0.557976,-0.50195,0.499383,0.365397,-0.447013,1
1.70685,-0.720205,-1.48479,-1.34463,2.72438,1.19222,-1.3885,1.70685,-0.720205,-1.48479,-1.34463,2.72438,1.19222,-1.3885,1.7397,-0.726104,-1.53657,-1.29187,2.67642,1.15287,-1.34699,-0.480028,0.236886,0.870652,-0.683417,0.969308,0.522166,-0.831354,-0.480028,0.236886,0.870652,-0.683417,0.969308,0.522166,-0.831354,0.472728,-0.309657,0.915716,0.577129,0.156697,-0.0466353,0.800121,-0.198626,0.243776,0.0966344,-0.226194,0.204773,0.0918417,1.08088,-0.288019,1.27335,-2.54209,0.239548,-1.87694,-2.54209,0.253892,-1.87694,-0.328565,0.0589871,0.51786,-0.527589,0.479554,0.39353,-0.415035,1
1.70504,-0.722674,-1.48149,-1.35342,2.72694,1.20117,-1.39611,1.70504,-0.722674,-1.48149,-1.35342,2.72694,1.20117,-1.39611,1.73516,-0.723784,-1.52765,-1.29908,2.68595,1.1582,-1.35526,-0.445105,0.233746,0.903933,-0.735981,0.941907,0.533719,-0.824859,-0.445105,0.233746,0.903933,-0.735981,0.941907,0.533719,-0.824859,0.470588,-0.3073,0.916558,0.576686,0.156765,-0.0499913,0.800224,-0.184137,0.288217,0.0870116,-0.208802,0.252187,0.0821154,1.05603,-0.285344,1.25355,-2.48523,0.267473,-1.98025,-2.48523,0.251249,-1.98025,-0.301171,0.0111033,0.461597,-0.54341,0.409964,0.429775,-0.40849,1
1.69802,-0.72255,-1.47807,-1.36076,2.72944,1.20925,-1.40362,1.69802,-0.72255,-1.47807,-1.36076,2.72944,1.20925,-1.40362,1.73055,-0.721552,-1.51861,-1.30665,2.69508,1.16377,-1.36328,-0.470632,0.215997,0.898444,-0.758872,0.900814,0.571242,-0.796431,-0.470632,0.215997,0.898444,-0.758872,0.900814,0.571242,-0.796431,0.468469,-0.304795,0.917279,0.576133,0.156787,-0.0531947,0.800412,-0.190187,0.278381,0.0717093,-0.215414,0.243445,0.0669471,1.0311,-0.283119,1.23291,-2.49331,0.222501,-2.06414,-2.49331,0.249947,-2.06414,-0.325261,-0.00998449,0.405407,-0.541116,0.3436,0.454858,-0.403362,1
1.69293,-0.726208,-1.47202,-1.36726,2.72629,1.21813,-1.41205,1.69293,-0.726208,-1.47202,-1.36726,2.72629,1.21813,-1.41205,1.72594,-0.719483,-1.50942,-1.31437,2.70372,1.16999,-1.37095,-0.453075,0.203665,0.927782,-0.785933,0.845053,0.641172,-0.756355,-0.453075,0.203665,0.927782,-0.785933,0.845053,0.641172,-0.756355,0.466254,-0.302208,0.917947,0.575485,0.156533,-0.056455,0.800704,-0.192279,0.303066,0.0676465,-0.220459,0.270852,0.063959,1.00609,-0.281173,1.21146,-2.50046,0.194579,-2.14479,-2.50046,0.241135,-2.14479,-0.33003,-0.0672488,0.374071,-0.528874,0.225785,0.481378,-0.411037,1
1.68879,-0.734786,-1.46602,-1.37656,2.72289,1.2265,-1.41804,1.68879,-0.734786,-1.46602,-1.37656,2.72289,1.2265,-1.41804,1.72157,-0.717796,-1.50052,-1.32258,2.71168,1.17692,-1.37815,-0.435709,0.157273,0.867128,-0.835513,0.780643,0.708225,-0.70958,-0.435709,0.157273,0.867128,-0.835513,0.780643,0.708225,-0.70958,0.464159,-0.299544,0.918278,0.574688,0.156191,-0.0596203,0.801113,-0.177514,0.29195,0.0216614,-0.20431,0.260868,0.0177641,0.956714,-0.276484,1.16574,-2.46199,0.223273,-2.32576,-2.46199,0.230603,-2.32576,-0.327858,-0.169908,0.344963,-0.539849,0.112112,0.495801,-0.398922,1
1.68592,-0.738496,-1.47702,-1.38617,2.70757,1.23769,-1.42601,1.68592,-0.738496,-1.47702,-1.38617,2.70757,1.23769,-1.42601,1.71746,-0.716572,-1.49236,-1.33093,2.71872,1.18434,-1.38503,-0.397011,0.113721,0.808068,-0.831127,0.674892,0.762276,-0.682327,-0.397011,0.113721,0.808068,-0.831127,0.674892,0.762276,-0.682327,0.462217,-0.297049,0.918227,0.574047,0.155798,-0.0625857,0.801424,-0.165702,0.280015,-0.00492026,-0.193673,0.252013,-0.00793281,0.931715,-0.274316,1.14157,-2.49988,0.216708,-2.41739,-2.49988,0.225828,-2.41739,-0.315402,-0.219239,0.153421,-0.552344,-0.111554,0.533469,-0.409813,1
1.67899,-0.742874,-1.49504,-1.39646,2.69889,1.2464,-1.43598,1.67899,-0.742874,-1.49504,-1.39646,2.69889,1.2464,-1.43598,1.71369,-0.715703,-1.48475,-1.33951,2.72435,1.19225,-1.3918,-0.376482,0.0737168,0.739409,-0.861328,0.519687,0.801225,-0.678396,-0.376482,0.0737168,0.739409,-0.861328,0.519687,0.801225,-0.678396,0.460409,-0.294459,0.917904,0.573617,0.155145,-0.0651408,0.801655,-0.151771,0.275,-0.0409838,-0.178514,0.253908,-0.0423654,0.906778,-0.271422,1.11647,-2.4937,0.289446,-2.5099,-2.4937,0.228793,-2.5099,-0.346967,-0.271715,-0.102871,-0.569542,-0.254647,0.541434,-0.441765,1
1.66796,-0.747674,-1.5006,-1.41302,2.69021,1.25705,-1.44736,1.66796,-0.747674,-1.5006,-1.41302,2.69021,1.25705,-1.44736,1.70989,-0.715381,-1.47797,-1.34821,2.72793,1.20061,-1.39864,-0.377399,0.0190066,0.664558,-0.869783,0.298832,0.83944,-0.686237,-0.377399,0.0190066,0.664558,-0.869783,0.298832,0.83944,-0.686237,0.458655,-0.292055,0.917229,0.573815,0.154138,-0.0671173,0.801544,-0.146911,0.251572,-0.0739895,-0.174695,0.239742,-0.0725484,0.881872,-0.2691,1.09076,-2.4906,0.232235,-2.57109,-2.4906,0.235576,-2.57109,-0.419286,-0.322925,-0.226259,-0.648069,-0.377279,0.564428,-0.487147,1
1.66117,-0.757238,-1.50599,-1.42728,2.68257,1.26523,-1.45887,1.66117,-0.757238,-1.50599,-1.42728,2.68257,1.26523,-1.45887,1.70615,-0.715537,-1.47183,-1.35688,2.72867,1.20939,-1.4055,-0.374295,-0.0302595,0.578837,-0.870322,-0.0139589,0.881887,-0.686884,-0.374295,-0.0302595,0.578837,-0.870322,-0.0139589,0.881887,-0.686884,0.456882,-0.289619,0.916388,0.574687,0.152406,-0.0683092,0.80115,-0.143771,0.237253,-0.101605,-0.174199,0.240562,-0.0952679,0.857221,-0.266862,1.06396,-2.46512,0.22372,-2.6803,-2.46512,0.240099,-2.6803,-0.449815,-0.417017,-0.34163,-0.703983,-0.46096,0.558442,-0.533661,1
1.65647,-0.757161,-1.51695,-1.43971,2.67373,1.27711,-1.46373,1.65647,-0.757161,-1.51695,-1.43971,2.67373,1.27711,-1.46373,1.70264,-0.716404,-1.46829,-1.36579,2.72604,1.21823,-1.41247,-0.338139,-0.102151,0.2717,-0.898521,-0.34347,0.893152,-0.701756,-0.338139,-0.102151,0.2717,-0.898521,-0.34347,0.893152,-0.701756,0.455569,-0.287594,0.914703,0.576809,0.15046,-0.0680704,0.800012,-0.0942462,0.173178,-0.203039,-0.116852,0.192048,-0.193522,0.832189,-0.264763,1.03643,-2.50318,0.209981,-2.75224,-2.50318,0.236857,-2.75224,-0.461658,-0.407577,-0.486524,-0.739106,-0.523117,0.58888,-0.512592,1
1.65183,-0.757692,-1.5266,-1.44962,2.66012,1.28604,-1.46761,1.65183,-0.757692,-1.5266,-1.44962,2.66012,1.28604,-1.46761,1.69968,-0.717462,-1.46757,-1.37458,2.72044,1.22727,-1.41978,-0.289748,-0.10269,0.00684284,-0.885147,-0.626137,0.90619,-0.743688,-0.289748,-0.10269,0.00684284,-0.885147,-0.626137,0.90619,-0.743688,0.454706,-0.28578,0.912395,0.580243,0.148142,-0.0664558,0.798095,-0.0577367,0.144918,-0.259842,-0.0762629,0.18074,-0.246214,0.807341,-0.262522,1.00758,-2.48474,0.224012,-2.8851,-2.48474,0.234108,-2.8851,-0.47843,-0.402298,-0.590299,-0.750369,-0.603255,0.587686,-0.4783,1
1.64668,-0.761338,-1.53204,-1.45892,2.64921,1.29393,-1.47305,1.64668,-0.761338,-1.53204,-1.45892,2.64921,1.29393,-1.47305,1.6966,-0.718382,-1.46922,-1.38386,2.71266,1.23664,-1.42771,-0.32087,-0.0878064,-0.217784,-0.952137,-0.821485,0.948062,-0.810774,-0.32087,-0.0878064,-0.217784,-0.952137,-0.821485,0.948062,-0.810774,0.454136,-0.2841,0.909456,0.584955,0.145583,-0.0635626,0.795357,-0.0387391,0.115173,-0.328646,-0.0519652,0.164264,-0.312423,0.782673,-0.259958,0.977503,-2.4668,0.256413,-3.00811,-2.4668,0.232894,-3.00811,-0.499163,-0.429561,-0.628234,-0.750605,-0.634462,0.572992,-0.453327,1
1.64079,-0.76585,-1.53732,-1.46841,2.63852,1.30317,-1.476,1.64079,-0.76585,-1.53732,-1.46841,2.63852,1.30317,-1.476,1.69293,-0.719226,-1.47276,-1.39374,2.70361,1.24643,-1.43637,-0.381689,-0.0870754,-0.39112,-1.00292,-0.927596,0.989215,-0.87949,-0.381689,-0.0870754,-0.39112,-1.00292,-0.927596,0.989215,-0.87949,0.453681,-0.282794,0.905903,0.590805,0.142973,-0.0598403,0.791788,-0.0349573,0.0648927,-0.387496,-0.0445374,0.120363,-0.370563,0.757678,-0.257558,0.946463,-2.49949,0.240061,-3.104,-2.49949,0.22934,-3.104,-0.521396,-0.466241,-0.645645,-0.746702,-0.650916,0.567491,-0.396353,1
1.63516,-0.774282,-1.54361,-1.4798,2.62848,1.31227,-1.47781,1.63516,-0.774282,-1.54361,-1.4798,2.62848,1.31227,-1.47781,1.68887,-0.720381,-1.47766,-1.40449,2.69382,1.25637,-1.44524,-0.413111,-0.125364,-0.527078,-1.10564,-0.996259,0.998227,-0.88384,-0.413111,-0.125364,-0.527078,-1.10564,-0.996259,0.998227,-0.88384,0.453451,-0.281826,0.901627,0.597123,0.140641,-0.0555249,0.78777,-0.0150782,0.0314095,-0.466653,-0.0152387,0.0900988,-0.450917,0.733723,-0.25499,0.914467,-2.39557,0.256759,-3.19951,-2.39557,0.234793,-3.19951,-0.537042,-0.539017,-0.659482,-0.753066,-0.653336,0.559021,-0.325722,1
1.62838,-0.782123,-1.5522,-1.49262,2.61799,1.32207,-1.48191,1.62838,-0.782123,-1.5522,-1.49262,2.61799,1.32207,-1.48191,1.68452,-0.721998,-1.48408,-1.41605,2.68338,1.26664,-1.45366,-0.442328,-0.175625,-0.672779,-1.17561,-1.06055,1.0393,-0.826761,-0.442328,-0.175625,-0.672779,-1.17561,-1.06055,1.0393,-0.826761,0.453452,-0.28133,0.89654,0.603624,0.138622,-0.0508015,0.78348,-0.00336923,-0.020951,-0.542663,0.00246733,0.0387502,-0.528198,0.709549,-0.252319,0.881799,-2.41733,0.267154,-3.26682,-2.41733,0.243361,-3.26682,-0.561365,-0.601252,-0.681192,-0.765684,-0.653913,0.554332,-0.282503,1
1.62074,-0.787979,-1.55936,-1.50553,2.60788,1.33188,-1.48488,1.62074,-0.787979,-1.55936,-1.50553,2.60788,1.33188,-1.48488,1.67994,-0.723969,-1.49148,-1.4282,2.67231,1.27685,-1.46133,-0.463144,-0.206795,-0.762659,-1.22039,-1.12239,1.01497,-0.745438,-0.463144,-0.206795,-0.762659,-1.22039,-1.12239,1.01497,-0.745438,0.453625,-0.281115,0.89088,0.609998,0.136849,-0.0456704,0.779159,0.00539077,-0.0502869,-0.591613,0.018732,0.0118973,-0.578356,0.684963,-0.250058,0.848539,-2.45869,0.226048,-3.32603,-2.45869,0.248176,-3.32603,-0.592035,-0.640102,-0.678806,-0.7733,-0.644313,0.550229,-0.23557,1
1.61077,-0.795255,-1.56743,-1.51764,2.59698,1.3421,-1.48713,1.61077,-0.795255,-1.56743,-1.51764,2.59698,1.3421,-1.48713,1.67496,-0.726453,-1.49978,-1.44042,2.66089,1.28692,-1.46795,-0.507353,-0.262976,-0.848308,-1.22647,-1.148,0.998335,-0.634023,-0.507353,-0.262976,-0.848308,-1.22647,-1.148,0.998335,-0.634023,0.45382,-0.281536,0.884759,0.616219,0.135349,-0.0404812,0.774801,0.00154001,-0.116259,-0.636797,0.0196748,-0.0567784,-0.625595,0.659924,-0.247841,0.814281,-2.50382,0.22172,-3.42581,-2.50382,0.246729,-3.42581,-0.641933,-0.688021,-0.67658,-0.77222,-0.639126,0.5518,-0.191737,1
1.6031,-0.802651,-1.57597,-1.52945,2.58666,1.35306,-1.49231,1.6031,-0.802651,-1.57597,-1.52945,2.58666,1.35306,-1.49231,1.67008,-0.729757,-1.50841,-1.45262,2.64943,1.29652,-1.47338,-0.478795,-0.354138,-0.863887,-1.21473,-1.14505,0.949524,-0.515837,-0.478795,-0.354138,-0.863887,-1.21473,-1.14505,0.949524,-0.515837,0.454157,-0.282431,0.878232,0.621798,0.134329,-0.0354208,0.770758,0.0113393,-0.152595,-0.66957,0.0347556,-0.0990958,-0.661206,0.634874,-0.245364,0.778902,-2.505,0.24772,-3.53785,-2.505,0.243391,-3.53785,-0.66985,-0.728935,-0.675632,-0.768344,-0.62766,0.565405,-0.189239,1
1.59491,-0.811679,-1.58438,-1.54105,2.57875,1.36417,-1.49752,1.59491,-0.811679,-1.58438,-1.54105,2.57875,1.36417,-1.49752,1.66538,-0.733969,-1.51744,-1.46486,2.63805,1.30576,-1.47785,-0.46868,-0.444413,-0.92292,-1.22695,-1.13082,0.917755,-0.426784,-0.46868,-0.444413,-0.92292,-1.22695,-1.13082,0.917755,-0.426784,0.454648,-0.283825,0.87123,0.626792,0.133869,-0.0305614,0.766992,0.0209379,-0.202338,-0.721452,0.0510169,-0.155812,-0.716293,0.61094,-0.24329,0.742103,-2.39344,0.207421,-3.67997,-2.39344,0.237626,-3.67997,-0.70473,-0.777105,-0.669397,-0.761865,-0.592959,0.584138,-0.196648,1
1.5881,-0.818817,-1.59372,-1.55274,2.57072,1.37454,-1.50356,1.5881,-0.818817,-1.59372,-1.55274,2.57072,1.37454,-1.50356,1.66074,-0.738863,-1.52676,-1.47706,2.62697,1.31472,-1.4816,-0.463779,-0.501996,-0.925556,-1.2241,-1.10045,0.891882,-0.359099,-0.463779,-0.501996,-0.925556,-1.2241,-1.10045,0.891882,-0.359099,0.455195,-0.285666,0.863882,0.631324,0.133905,-0.0259611,0.76343,0.0180179,-0.227401,-0.743291,0.0512583,-0.186971,-0.740453,0.586953,-0.240933,0.704193,-2.39873,0.235665,-3.79092,-2.39873,0.231873,-3.79092,-0.726387,-0.799538,-0.669573,-0.756744,-0.562534,0.598246,-0.219579,1
1.58082,-0.825919,-1.60439,-1.56455,2.56173,1.38511,-1.50641,1.58082,-0.825919,-1.60439,-1.56455,2.56173,1.38511,-1.50641,1.65591,-0.744542,-1.53612,-1.48928,2.61613,1.32372,-1.48484,-0.49683,-0.590525,-0.947293,-1.21849,-1.07801,0.905179,-0.317015,-0.49683,-0.590525,-0.947293,-1.21849,-1.07801,0.905179,-0.317015,0.455629,-0.288014,0.856222,0.635518,0.134303,-0.0217868,0.760003,0.0018916,-0.287739,-0.778142,0.0355607,-0.255961,-0.777586,0.562546,-0.238497,0.665538,-2.44063,0.243556,-3.8655,-2.44063,0.229521,-3.8655,-0.75088,-0.813765,-0.682665,-0.752723,-0.544069,0.613834,-0.21564,1
1.5739,-0.833281,-1.61506,-1.57683,2.55179,1.39492,-1.50658,1.5739,-0.833281,-1.61506,-1.57683,2.55179,1.39492,-1.50658,1.65062,-0.751048,-1.54553,-1.50148,2.60552,1.33289,-1.48798,-0.53252,-0.661138,-0.932444,-1.22654,-1.056,0.916744,-0.315864,-0.53252,-0.661138,-0.932444,-1.22654,-1.056,0.916744,-0.315864,0.455838,-0.291009,0.848241,0.639648,0.13504,-0.0180847,0.756497,-0.0187507,-0.324028,-0.801199,0.0147262,-0.299371,-0.802374,0.537893,-0.236905,0.625602,-2.4653,0.159237,-3.99368,-2.4653,0.223492,-3.99368,-0.767169,-0.822325,-0.695245,-0.753472,-0.537308,0.620352,-0.186017,1
1.56742,-0.840892,-1.62416,-1.58888,2.543,1.40415,-1.51123,1.56742,-0.840892,-1.62416,-1.58888,2.543,1.40415,-1.51123,1.64521,-0.757721,-1.55466,-1.51377,2.5952,1.34234,-1.49132,-0.552019,-0.670186,-0.915438,-1.22857,-1.01916,0.961326,-0.342709,-0.552019,-0.670186,-0.915438,-1.22857,-1.01916,0.961326,-0.342709,0.455836,-0.294018,0.840234,0.643631,0.135815,-0.0146839,0.753046,-0.0422964,-0.328408,-0.801863,-0.0118983,-0.307838,-0.803517,0.514585,-0.234109,0.585481,-2.33088,0.279579,-4.01208,-2.33088,0.224661,-4.01208,-0.77795,-0.831713,-0.694928,-0.751054,-0.521963,0.618099,-0.199099,1
1.56049,-0.848559,-1.63451,-1.60156,2.53482,1.41455,-1.51361,1.56049,-0.848559,-1.63451,-1.60156,2.53482,1.41455,-1.51361,1.63931,-0.764798,-1.56409,-1.52629,2.58537,1.35203,-1.49504,-0.598112,-0.723637,-0.948994,-1.25674,-0.96879,0.971034,-0.378279,-0.598112,-0.723637,-0.948994,-1.25674,-0.96879,0.971034,-0.378279,0.455618,-0.297498,0.831899,0.647768,0.136966,-0.011595,0.749335,-0.0611714,-0.371047,-0.839882,-0.0283229,-0.358618,-0.843861,0.490486,-0.232409,0.543798,-2.40985,0.169994,-4.16825,-2.40985,0.218758,-4.16825,-0.788277,-0.837608,-0.704259,-0.752714,-0.505536,0.625159,-0.185693,1
1.55344,-0.856458,-1.64425,-1.61379,2.52588,1.42455,-1.51816,1.55344,-0.856458,-1.64425,-1.61379,2.52588,1.42455,-1.51816,1.63302,-0.772367,-1.5735,-1.53871,2.576,1.36213,-1.49883,-0.643293,-0.760466,-0.942511,-1.24297,-0.93067,1.01599,-0.375439,-0.643293,-0.760466,-0.942511,-1.24297,-0.93067,1.01599,-0.375439,0.455083,-0.301431,0.823411,0.651908,0.138299,-0.00906075,0.745525,-0.0936755,-0.404245,-0.846958,-0.064942,-0.398571,-0.851624,0.466663,-0.230517,0.50215,-2.38233,0.189175,-4.16481,-2.38233,0.213399,-4.16481,-0.795786,-0.840915,-0.70753,-0.750714,-0.501199,0.624162,-0.193378,1
1.54639,-0.864285,-1.65389,-1.62586,2.51772,1.43487,-1.52248,1.54639,-0.864285,-1.65389,-1.62586,2.51772,1.43487,-1.52248,1.62632,-0.779957,-1.58309,-1.55101,2.56693,1.37234,-1.5023,-0.675028,-0.757685,-0.959804,-1.22295,-0.89951,1.02059,-0.342793,-0.675028,-0.757685,-0.959804,-1.22295,-0.89951,1.02059,-0.342793,0.454278,-0.305625,0.814872,0.656011,0.139745,-0.00676151,0.74167,-0.117568,-0.422068,-0.847246,-0.0897389,-0.419879,-0.852552,0.442725,-0.228214,0.459567,-2.39382,0.230381,-4.25827,-2.39382,0.209332,-4.25827,-0.799218,-0.843274,-0.707953,-0.748457,-0.49205,0.625337,-0.201811,1
1.5393,-0.872251,-1.66405,-1.63796,2.50924,1.44538,-1.52487,1.5393,-0.872251,-1.66405,-1.63796,2.50924,1.44538,-1.52487,1.61954,-0.787705,-1.59278,-1.5634,2.55799,1.38257,-1.50558,-0.680625,-0.789492,-0.983809,-1.24387,-0.892569,1.02826,-0.326051,-0.680625,-0.789492,-0.983809,-1.24387,-0.892569,1.02826,-0.326051,0.453339,-0.309853,0.806204,0.659917,0.141355,-0.00458339,0.737907,-0.129624,-0.428394,-0.871965,-0.0999578,-0.429675,-0.878483,0.418762,-0.225893,0.416228,-2.39623,0.232075,-4.33392,-2.39623,0.209955,-4.33392,-0.802415,-0.845461,-0.712678,-0.745584,-0.487468,0.62805,-0.19291,1
1.53172,-0.880585,-1.67469,-1.64995,2.5016,1.45528,-1.52553,1.53172,-0.880585,-1.67469,-1.64995,2.5016,1.45528,-1.52553,1.61237,-0.795783,-1.60318,-1.57546,2.54923,1.39263,-1.50874,-0.726094,-0.807505,-1.0443,-1.19854,-0.87209,0.999629,-0.315768,-0.726094,-0.807505,-1.0443,-1.19854,-0.87209,0.999629,-0.315768,0.452206,-0.314668,0.797276,0.664012,0.143332,-0.00255498,0.733851,-0.153846,-0.477685,-0.884961,-0.12284,-0.483922,-0.892916,0.394833,-0.223736,0.371769,-2.39294,0.215657,-4.44593,-2.39294,0.214764,-4.44593,-0.806446,-0.848024,-0.71511,-0.744882,-0.476325,0.626526,-0.167917,1
1.52453,-0.888946,-1.68496,-1.66194,2.49346,1.46519,-1.5293,1.52453,-0.888946,-1.68496,-1.66194,2.49346,1.46519,-1.5293,1.60529,-0.803982,-1.6134,-1.58762,2.54057,1.40274,-1.51194,-0.705445,-0.826381,-1.02547,-1.22248,-0.865436,1.01444,-0.325895,-0.705445,-0.826381,-1.02547,-1.22248,-0.865436,1.01444,-0.325895,0.450943,-0.319317,0.78832,0.667866,0.145378,-0.000657857,0.729945,-0.162961,-0.451808,-0.893191,-0.131906,-0.460025,-0.901718,0.371049,-0.221642,0.326478,-2.37842,0.209425,-4.52909,-2.37842,0.212041,-4.52909,-0.807581,-0.849641,-0.715647,-0.743253,-0.471101,0.624499,-0.17365,1
1.51673,-0.897799,-1.69584,-1.67405,2.48646,1.47528,-1.53005,1.51673,-0.897799,-1.69584,-1.67405,2.48646,1.47528,-1.53005,1.59787,-0.81258,-1.62406,-1.59972,2.53206,1.41275,-1.51524,-0.753874,-0.864875,-1.07714,-1.19996,-0.846472,0.999617,-0.333745,-0.753874,-0.864875,-1.07714,-1.19996,-0.846472,0.999617,-0.333745,0.449482,-0.324358,0.779081,0.671828,0.147782,0.00108832,0.725814,-0.189672,-0.498243,-0.916631,-0.157416,-0.512619,-0.926877,0.347185,-0.219376,0.279925,-2.38636,0.226597,-4.65528,-2.38636,0.219026,-4.65528,-0.811327,-0.852194,-0.717798,-0.743347,-0.456056,0.625249,-0.148143,1
1.50903,-0.906346,-1.70671,-1.6857,2.47813,1.4849,-1.53327,1.50903,-0.906346,-1.70671,-1.6857,2.47813,1.4849,-1.53327,1.59025,-0.821109,-1.63484,-1.61152,2.52367,1.42283,-1.51847,-0.76339,-0.855863,-1.07886,-1.18181,-0.835868,1.01454,-0.319579,-0.76339,-0.855863,-1.07886,-1.18181,-0.835868,1.01454,-0.319579,0.447764,-0.329483,0.769904,0.675814,0.15017,0.002674,0.721608,-0.211301,-0.492617,-0.909592,-0.181184,-0.508431,-0.919839,0.32301,-0.217044,0.232118,-2.41751,0.233179,-4.78074,-2.41751,0.222662,-4.78074,-0.812186,-0.852367,-0.718724,-0.741809,-0.45539,0.62069,-0.147992,1
1.50139,-0.915528,-1.71744,-1.69757,2.47144,1.49502,-1.53624,1.50139,-0.915528,-1.71744,-1.69757,2.47144,1.49502,-1.53624,1.58273,-0.830055,-1.64563,-1.62363,2.51541,1.43287,-1.5214,-0.744886,-0.909601,-1.0754,-1.21637,-0.824075,0.999521,-0.289642,-0.744886,-0.909601,-1.0754,-1.21637,-0.824075,0.999521,-0.289642,0.445972,-0.334539,0.760475,0.6794,0.152878,0.0041006,0.717654,-0.216178,-0.478822,-0.937121,-0.183078,-0.499414,-0.949294,0.299425,-0.214969,0.183039,-2.35849,0.207502,-4.90785,-2.35849,0.22068,-4.90785,-0.813365,-0.85472,-0.718092,-0.739412,-0.439644,0.621545,-0.148391,1
1.49348,-0.924472,-1.72855,-1.70915,2.46363,1.50466,-1.5383,1.49348,-0.924472,-1.72855,-1.70915,2.46363,1.50466,-1.5383,1.57499,-0.838926,-1.65667,-1.6354,2.5073,1.44293,-1.52418,-0.793649,-0.883409,-1.12356,-1.16716,-0.804612,1.01337,-0.273366,-0.793649,-0.883409,-1.12356,-1.16716,-0.804612,1.01337,-0.273366,0.443924,-0.339735,0.751075,0.683032,0.15562,0.00537041,0.713597,-0.250833,-0.506673,-0.930021,-0.22039,-0.529488,-0.942275,0.276217,-0.212775,0.133295,-2.32085,0.219414,-4.97444,-2.32085,0.21959,-4.97444,-0.815054,-0.855465,-0.718794,-0.737595,-0.436705,0.617203,-0.141246,1
