Afshin1997/kuka_rl_ros2/src/catch_and_throw/output_files/tm/nn_ema7.00_jvws3_realball_D15H10M04S57/recorded_data.csv
pure_target_joint_0,pure_target_joint_1,pure_target_joint_2,pure_target_joint_3,pure_target_joint_4,pure_target_joint_5,pure_target_joint_6,target_joint_0,target_joint_1,target_joint_2,target_joint_3,target_joint_4,target_joint_5,target_joint_6,pos_joint_0,pos_joint_1,pos_joint_2,pos_joint_3,pos_joint_4,pos_joint_5,pos_joint_6,vel_joint_0,vel_joint_1,vel_joint_2,vel_joint_3,vel_joint_4,vel_joint_5,vel_joint_6,vel_smooth_joint_0,vel_smooth_joint_1,vel_smooth_joint_2,vel_smooth_joint_3,vel_smooth_joint_4,vel_smooth_joint_5,vel_smooth_joint_6,ee_pos_x,ee_pos_y,ee_pos_z,ee_or_w,ee_or_x,ee_or_y,ee_or_z,ee_vel_x,ee_vel_y,ee_vel_z,ball_pos_x,ball_pos_y,ball_pos_z,ball_raw_vx,ball_raw_vy,ball_raw_vz,ball_ema_vx,ball_ema_vy,ball_ema_vz,action_0,action_1,action_2,action_3,action_4,action_5,action_6,command_published
1.75674,-1.01103,-1.86599,-1.05184,1.87525,1.18424,-0.943653,1.77878,-1.06157,-1.81832,-1.1129,1.9335,1.1211,-0.917988,1.78025,-1.06494,-1.81514,-1.11697,1.93739,1.11689,-0.916277,0,0,0,0,0,0,0,0,0,0,0,0,0,0,0.531062,-0.454567,0.694141,0.57451,0.175291,0.152437,0.78484,0,0,0,2.96946,-0.546302,0.133265,-3.69516,0.0275015,5.85863,-3.6266,-0.335419,4.57291,-0.235121,0.539162,-0.508504,0.651321,-0.621356,0.673464,-0.273757,1
1.73338,-1.01081,-1.86403,-1.05495,1.87149,1.18463,-0.94131,1.77145,-1.04808,-1.83091,-1.09681,1.91773,1.13796,-0.924686,1.78025,-1.06494,-1.81514,-1.11697,1.93739,1.11689,-0.916277,0,0,0,0,0,0,0,0,0,0,0,0,0,0,0.531062,-0.454567,0.694141,0.57451,0.175291,0.152437,0.78484,0,0,0,2.93768,-0.546934,0.189701,-3.2586,-0.0648052,5.78652,-3.52989,-0.270111,4.86252,-0.46869,0.54131,-0.488875,0.620269,-0.658949,0.677392,-0.250323,1
1.72544,-1.01281,-1.86034,-1.05484,1.87125,1.18449,-0.950557,1.75629,-1.02793,-1.84926,-1.07316,1.89348,1.16331,-0.934944,1.78017,-1.06475,-1.81533,-1.11673,1.93716,1.11714,-0.916378,-0.0172658,0.0395946,-0.0373431,0.0478325,-0.0456307,0.0494574,-0.0201046,-0.00575528,0.0131982,-0.0124477,0.0159442,-0.0152102,0.0164858,-0.00670152,0.530956,-0.45462,0.694252,0.574743,0.175085,0.152585,0.784687,-0.019974,-0.0137133,0.0216846,2.90439,-0.54685,0.244553,-3.47867,0.0088633,5.73193,-3.44298,-0.183274,5.0627,-0.547259,0.519362,-0.450065,0.618947,-0.659062,0.673505,-0.341786,1
1.71975,-1.01197,-1.85575,-1.05018,1.86883,1.18336,-0.955407,1.73931,-1.01482,-1.86002,-1.05772,1.87632,1.18018,-0.943524,1.77943,-1.06325,-1.81673,-1.11494,1.93542,1.119,-0.917128,-0.114904,0.224316,-0.20997,0.268509,-0.261092,0.280284,-0.112094,-0.0440566,0.0879702,-0.0824378,0.105447,-0.102241,0.109914,-0.0440663,0.53012,-0.455061,0.695088,0.576525,0.173534,0.153698,0.783506,-0.120813,-0.0843615,0.122895,2.87313,-0.547384,0.298339,-3.18847,-0.0545001,5.48634,-3.35156,-0.108999,5.17189,-0.59685,0.512813,-0.390206,0.647664,-0.665953,0.643555,-0.382792,1
1.70963,-1.00693,-1.85143,-1.04203,1.86374,1.18238,-0.961866,1.72697,-1.01162,-1.85991,-1.05271,1.87049,1.18409,-0.949733,1.77677,-1.05871,-1.82095,-1.10954,1.93008,1.12469,-0.919402,-0.343622,0.551339,-0.509656,0.653894,-0.651856,0.690921,-0.277279,-0.158597,0.27175,-0.252323,0.323412,-0.319526,0.340221,-0.136493,0.527389,-0.456556,0.697631,0.582038,0.168823,0.157082,0.77978,-0.326087,-0.229277,0.303596,2.84178,-0.548059,0.351189,-2.9378,-0.0633112,4.95254,-3.27435,-0.0519544,5.19968,-0.671393,0.517782,-0.304797,0.675101,-0.663413,0.576901,-0.424634,1
1.70085,-1.00085,-1.83699,-1.03002,1.85543,1.17646,-0.96906,1.71831,-1.01015,-1.85516,-1.04834,1.86749,1.18304,-0.955781,1.77125,-1.05113,-1.82784,-1.10059,1.92098,1.13422,-0.923344,-0.624238,0.792377,-0.713675,0.935923,-0.960753,0.999211,-0.423129,-0.360921,0.522677,-0.477767,0.619442,-0.624567,0.656805,-0.270834,0.522306,-0.459446,0.70191,0.591548,0.160922,0.162754,0.773102,-0.5337,-0.375304,0.443386,2.81059,-0.548596,0.402999,-3.17878,-0.0547113,5.28113,-3.21429,-0.0359825,5.17068,-0.703997,0.502882,-0.0914679,0.705647,-0.655447,0.422347,-0.457163,1
1.69321,-0.993043,-1.82437,-1.01688,1.84476,1.15387,-0.969748,1.70993,-1.00617,-1.84776,-1.04029,1.86222,1.17949,-0.961835,1.76346,-1.04291,-1.83495,-1.09081,1.91076,1.14462,-0.928173,-0.80725,0.790667,-0.666107,0.947831,-0.994706,0.999154,-0.491458,-0.591703,0.711461,-0.629813,0.845883,-0.869105,0.896429,-0.397289,0.515897,-0.463255,0.706688,0.60254,0.152223,0.168923,0.765009,-0.627573,-0.4431,0.462194,2.77904,-0.548722,0.454665,-3.11603,-0.0123856,5.10259,-3.1715,-0.0421128,5.09797,-0.702506,0.498713,0.1058,0.7393,-0.660026,0.0924788,-0.415758,1
1.68204,-0.983334,-1.83763,-1.00727,1.83608,1.1285,-0.968932,1.70114,-1.00002,-1.83866,-1.02958,1.85447,1.16972,-0.966572,1.75488,-1.03591,-1.84019,-1.08213,1.90167,1.15329,-0.933297,-0.858418,0.666203,-0.461774,0.841446,-0.870384,0.806361,-0.518201,-0.763302,0.749749,-0.613852,0.9084,-0.941948,0.934909,-0.477596,0.509411,-0.467267,0.711112,0.612871,0.144587,0.174087,0.757085,-0.624457,-0.44104,0.431959,2.74723,-0.548823,0.506288,-3.34137,-0.0106112,5.42201,-3.15916,-0.0379328,5.01659,-0.728425,0.525716,0.0255987,0.748559,-0.655958,-0.247863,-0.356346,1
1.67098,-0.976391,-1.86135,-1.00078,1.82828,1.12967,-0.973819,1.69196,-0.992394,-1.83484,-1.01833,1.84541,1.15344,-0.969134,1.7463,-1.02998,-1.84307,-1.07418,1.8938,1.15966,-0.938626,-0.856862,0.580873,-0.223465,0.795206,-0.77085,0.575375,-0.537431,-0.840843,0.679248,-0.450449,0.861494,-0.878647,0.79363,-0.515697,0.503179,-0.471137,0.715488,0.622347,0.137981,0.17815,0.749605,-0.605145,-0.415941,0.446588,2.7153,-0.549805,0.555989,-3.08152,-0.0948634,4.79721,-3.14924,-0.0443126,4.94172,-0.753185,0.535849,-0.182803,0.734039,-0.655247,-0.29991,-0.351926,1
1.66043,-0.972926,-1.87956,-0.993464,1.82197,1.13371,-0.986849,1.68189,-0.98447,-1.84283,-1.00861,1.83663,1.13846,-0.971486,1.73774,-1.02435,-1.84357,-1.06606,1.88636,1.16347,-0.944038,-0.857538,0.565979,0.00967673,0.828707,-0.746073,0.296478,-0.536988,-0.857606,0.604352,-0.225187,0.821786,-0.795769,0.559405,-0.530873,0.497057,-0.474813,0.720437,0.631415,0.131976,0.181558,0.742249,-0.597248,-0.392109,0.513423,2.68381,-0.550754,0.604003,-3.2406,-0.0976393,4.93982,-3.15816,-0.0493939,4.85671,-0.773049,0.514222,-0.359817,0.725917,-0.643888,-0.297681,-0.42811,1
1.65157,-0.966664,-1.8903,-0.986631,1.8157,1.14044,-0.996295,1.67128,-0.977693,-1.85947,-1.00069,1.8289,1.13257,-0.977005,1.7291,-1.01852,-1.84226,-1.05733,1.87877,1.1639,-0.949173,-0.866848,0.594194,0.146776,0.888728,-0.767857,-0.0617136,-0.497448,-0.860416,0.580349,-0.0223375,0.837547,-0.761594,0.270046,-0.523956,0.491064,-0.478406,0.72608,0.640305,0.126843,0.184859,0.734675,-0.587926,-0.386055,0.573642,2.65226,-0.55121,0.652332,-3.16054,-0.0456225,4.84193,-3.16383,-0.0530417,4.77414,-0.775301,0.518544,-0.480377,0.706956,-0.630773,-0.234644,-0.471216,1
1.64297,-0.95887,-1.8946,-0.978305,1.80897,1.14674,-1.00451,1.66111,-0.971999,-1.87601,-0.9935,1.82205,1.13487,-0.985937,1.72029,-1.01227,-1.84109,-1.04813,1.87088,1.16071,-0.953727,-0.888621,0.634938,0.0600304,0.922996,-0.795174,-0.392973,-0.44161,-0.871003,0.598371,0.0721611,0.880143,-0.769701,-0.0527361,-0.492015,0.485338,-0.482248,0.731803,0.649184,0.123282,0.188737,0.726457,-0.575692,-0.417049,0.561811,2.62024,-0.55142,0.698611,-3.05725,-0.0200631,4.4192,-3.17158,-0.0549278,4.67816,-0.773204,0.534041,-0.535129,0.698242,-0.619076,-0.139619,-0.507839,1
1.63424,-0.950172,-1.89967,-0.969254,1.80171,1.15283,-1.01052,1.65177,-0.965859,-1.88747,-0.986056,1.8155,1.14043,-0.995472,1.71118,-1.00573,-1.84245,-1.03892,1.86285,1.15544,-0.957979,-0.921145,0.656289,-0.231608,0.912627,-0.801237,-0.53059,-0.433169,-0.892205,0.628474,-0.0082671,0.908117,-0.788089,-0.328425,-0.457409,0.479855,-0.486712,0.736704,0.658314,0.121456,0.19364,0.7172,-0.573336,-0.478645,0.470799,2.58795,-0.552926,0.742513,-3.27579,-0.152747,4.45351,-3.17961,-0.0686122,4.5519,-0.769377,0.555534,-0.572139,0.696684,-0.611392,-0.0260492,-0.525435,1
1.62508,-0.942943,-1.90557,-0.960784,1.7933,1.16356,-1.01512,1.64291,-0.958527,-1.89454,-0.977976,1.80867,1.14693,-1.00352,1.70175,-0.999191,-1.84719,-1.03004,1.85494,1.15052,-0.962713,-0.94689,0.648299,-0.547314,0.877375,-0.784611,-0.447261,-0.499546,-0.918885,0.646509,-0.23963,0.904333,-0.793674,-0.456941,-0.458108,0.474406,-0.491832,0.740393,0.667877,0.120613,0.199424,0.70684,-0.585514,-0.533813,0.360975,2.55643,-0.553819,0.786009,-3.12268,-0.0885375,4.30906,-3.18095,-0.0782004,4.41721,-0.766744,0.562473,-0.583828,0.692593,-0.616386,0.130476,-0.524106,1
1.61586,-0.937916,-1.91144,-0.952137,1.78538,1.17944,-1.01823,1.63407,-0.950804,-1.90003,-0.969416,1.80128,1.15488,-1.00976,1.69222,-0.992815,-1.85424,-1.02152,1.84728,1.14738,-0.96841,-0.95272,0.636101,-0.732363,0.845386,-0.759045,-0.259137,-0.593712,-0.940251,0.646896,-0.503761,0.878463,-0.781631,-0.412329,-0.508809,0.468801,-0.49724,0.743245,0.677774,0.119731,0.205589,0.695715,-0.604798,-0.549425,0.297963,2.52487,-0.554766,0.829287,-3.3049,-0.0991155,4.53218,-3.17984,-0.0811662,4.30031,-0.763555,0.548987,-0.57198,0.69386,-0.618961,0.320632,-0.498183,1
1.60736,-0.932656,-1.91659,-0.943926,1.77801,1.19068,-1.02017,1.62508,-0.943846,-1.90556,-0.960781,1.79344,1.16549,-1.0144,1.68275,-0.986422,-1.862,-1.0132,1.83985,1.14623,-0.974869,-0.942938,0.645216,-0.772256,0.830521,-0.739312,-0.0678239,-0.655818,-0.947516,0.643205,-0.683978,0.851094,-0.760989,-0.258074,-0.583025,0.462961,-0.502454,0.745956,0.687715,0.118112,0.211727,0.684302,-0.624745,-0.523491,0.298352,2.49533,-0.555236,0.87099,-2.86726,-0.0456546,4.04748,-3.15721,-0.0819892,4.18668,-0.753897,0.53766,-0.545834,0.692767,-0.618374,0.444515,-0.453038,1
1.59945,-0.926499,-1.9197,-0.936163,1.77003,1.19766,-1.02122,1.61616,-0.93791,-1.91104,-0.952318,1.78558,1.17776,-1.01764,1.67342,-0.979798,-1.86952,-1.00491,1.83252,1.14685,-0.981573,-0.930112,0.669268,-0.739273,0.831187,-0.733464,0.108007,-0.667559,-0.941923,0.650195,-0.747964,0.835698,-0.74394,-0.0729846,-0.63903,0.456855,-0.507189,0.748998,0.697458,0.11546,0.217671,0.672935,-0.645155,-0.478239,0.332924,2.46252,-0.556173,0.911247,-3.24963,-0.0927802,3.98698,-3.15048,-0.0870087,4.06527,-0.739698,0.532987,-0.501776,0.687444,-0.624893,0.508162,-0.396455,1
1.59108,-0.919975,-1.92161,-0.927974,1.76148,1.20188,-1.02257,1.6076,-0.932282,-1.9157,-0.944095,1.77778,1.18862,-1.01978,1.66418,-0.972976,-1.87659,-0.99655,1.82514,1.14925,-0.988081,-0.921754,0.683075,-0.697729,0.837557,-0.739919,0.291327,-0.639152,-0.931601,0.665853,-0.736419,0.833089,-0.737565,0.110504,-0.654176,0.450467,-0.511418,0.752429,0.706867,0.111741,0.223397,0.661776,-0.66709,-0.435048,0.364972,2.43138,-0.556403,0.951035,-3.10226,-0.022955,3.96459,-3.13767,-0.0816507,3.96328,-0.731069,0.530006,-0.450198,0.685754,-0.636624,0.526348,-0.344857,1
1.58267,-0.913878,-1.92194,-0.919446,1.75309,1.20658,-1.02454,1.59931,-0.926332,-1.91902,-0.93601,1.76979,1.19639,-1.02131,1.65501,-0.966183,-1.88332,-0.98814,1.81767,1.15356,-0.994094,-0.915843,0.673885,-0.665131,0.84128,-0.749899,0.48104,-0.583974,-0.92257,0.675409,-0.700711,0.836675,-0.741094,0.293458,-0.630228,0.443801,-0.515227,0.756075,0.71584,0.107044,0.228887,0.650941,-0.6875,-0.400272,0.379706,2.40023,-0.557302,0.989529,-3.17672,-0.0915799,3.92469,-3.12723,-0.070368,3.86808,-0.723384,0.523057,-0.386121,0.686947,-0.645809,0.530194,-0.304478,1
1.57386,-0.908871,-1.92155,-0.911048,1.74441,1.21202,-1.02549,1.59101,-0.92018,-1.9209,-0.927829,1.76149,1.20194,-1.02276,1.64591,-0.959599,-1.88973,-0.979733,1.81011,1.15955,-0.999428,-0.906348,0.652512,-0.629582,0.83958,-0.757251,0.629457,-0.513547,-0.914648,0.669824,-0.664147,0.839472,-0.749023,0.467275,-0.578891,0.436933,-0.518683,0.759795,0.724284,0.101593,0.234131,0.640527,-0.699517,-0.369085,0.38463,2.3697,-0.558138,1.02709,-3.05474,-0.0836611,3.7581,-3.11941,-0.0685496,3.76343,-0.720525,0.507274,-0.318183,0.686854,-0.657044,0.524683,-0.26062,1
1.56474,-0.904439,-1.91771,-0.902978,1.73606,1.2178,-1.02827,1.5825,-0.914349,-1.92136,-0.919494,1.75301,1.20691,-1.02431,1.63695,-0.953207,-1.89567,-0.971375,1.80249,1.16644,-1.00402,-0.892065,0.63646,-0.577712,0.834132,-0.764528,0.69417,-0.44014,-0.904752,0.654286,-0.624142,0.838331,-0.757226,0.601556,-0.512554,0.430002,-0.521791,0.76358,0.73215,0.09573,0.239169,0.630547,-0.699866,-0.336138,0.392673,2.33946,-0.558361,1.06428,-2.82935,-0.0209024,3.48044,-3.10641,-0.0632767,3.66237,-0.722073,0.487675,-0.220447,0.683969,-0.664297,0.513643,-0.242457,1
1.55577,-0.899851,-1.90905,-0.895458,1.72751,1.22319,-1.03301,1.57373,-0.909145,-1.91991,-0.911214,1.7445,1.21217,-1.02623,1.62814,-0.946901,-1.90095,-0.963072,1.79477,1.17339,-1.00793,-0.878196,0.629664,-0.506385,0.829599,-0.775825,0.686351,-0.375616,-0.892203,0.639545,-0.571226,0.834437,-0.765868,0.669993,-0.443101,0.42312,-0.524544,0.767504,0.739472,0.0897473,0.244066,0.620934,-0.693424,-0.301978,0.408689,2.30757,-0.558976,1.10155,-3.14994,-0.0607075,3.68156,-3.11097,-0.0618892,3.58503,-0.723665,0.4705,-0.0810802,0.676135,-0.672598,0.497965,-0.250745,1
1.54684,-0.895341,-1.8956,-0.888487,1.71941,1.2264,-1.03963,1.56478,-0.904421,-1.91539,-0.903239,1.73603,1.21754,-1.02923,1.61942,-0.940648,-1.90539,-0.954786,1.78691,1.18,-1.0113,-0.869982,0.622661,-0.419164,0.828831,-0.789828,0.650463,-0.32572,-0.880081,0.629595,-0.501087,0.830854,-0.776727,0.676995,-0.380492,0.416303,-0.526966,0.771623,0.746334,0.08376,0.248825,0.611602,-0.687572,-0.27032,0.428714,2.27707,-0.560133,1.13683,-3.08388,-0.117069,3.56712,-3.08828,-0.0645893,3.50904,-0.725823,0.453063,0.0979043,0.662989,-0.674991,0.464004,-0.283312,1
1.53832,-0.887718,-1.89087,-0.881666,1.71155,1.22824,-1.0452,1.55582,-0.899676,-1.9075,-0.895708,1.72768,1.22226,-1.03377,1.61074,-0.934525,-1.90883,-0.946493,1.77891,1.18626,-1.01429,-0.868834,0.606541,-0.314201,0.829214,-0.802966,0.619973,-0.292389,-0.872338,0.619622,-0.41325,0.829215,-0.78954,0.652263,-0.331242,0.409509,-0.529097,0.775945,0.752817,0.0777411,0.253375,0.602515,-0.685432,-0.24138,0.448657,2.24506,-0.560871,1.17088,-3.37127,-0.0776084,3.58505,-3.09789,-0.0710798,3.42353,-0.724165,0.468064,0.179584,0.64827,-0.673584,0.419816,-0.309095,1
1.52957,-0.881355,-1.88747,-0.874466,1.70387,1.22895,-1.051,1.54698,-0.894257,-1.89865,-0.888554,1.71954,1.22568,-1.03937,1.60203,-0.928633,-1.91102,-0.938221,1.7708,1.19231,-1.01711,-0.872719,0.581843,-0.176588,0.825355,-0.813094,0.600456,-0.282921,-0.870512,0.603682,-0.303318,0.8278,-0.801963,0.623631,-0.300343,0.402697,-0.530925,0.780487,0.758978,0.071581,0.257597,0.593694,-0.685286,-0.209252,0.471713,2.21407,-0.561432,1.2039,-3.14274,-0.0569622,3.34924,-3.10767,-0.0701049,3.33304,-0.724606,0.472783,0.235509,0.63755,-0.669307,0.366482,-0.338928,1
1.52033,-0.876132,-1.88665,-0.866342,1.69674,1.23119,-1.05792,1.53823,-0.888067,-1.89208,-0.881476,1.71167,1.22783,-1.04529,1.59326,-0.922999,-1.91152,-0.930041,1.76262,1.19817,-1.02006,-0.877735,0.557881,0.00205908,0.813969,-0.819199,0.578787,-0.304744,-0.873096,0.582089,-0.16291,0.822846,-0.811753,0.599739,-0.293351,0.395858,-0.532361,0.785338,0.764874,0.065134,0.261359,0.585163,-0.683289,-0.167478,0.503896,2.18308,-0.562657,1.23561,-3.05477,-0.120722,3.12597,-3.11838,-0.0771199,3.22905,-0.729377,0.468669,0.248663,0.636986,-0.658804,0.33027,-0.378582,1
1.5113,-0.870847,-1.88835,-0.858001,1.6899,1.23605,-1.06392,1.52938,-0.881857,-1.88868,-0.874082,1.70411,1.22962,-1.05138,1.58446,-0.917521,-1.91011,-0.922026,1.75441,1.2037,-1.02342,-0.880328,0.547355,0.187341,0.796071,-0.820262,0.539873,-0.350144,-0.876927,0.56236,0.0042706,0.811798,-0.817518,0.573039,-0.312603,0.389027,-0.533312,0.790587,0.77057,0.0583383,0.264621,0.576883,-0.676878,-0.118887,0.542067,2.15234,-0.563262,1.26637,-3.16954,-0.0623571,3.17131,-3.1191,-0.0834346,3.11232,-0.731659,0.466743,0.217611,0.640251,-0.645182,0.323536,-0.404952,1
1.50252,-0.867053,-1.89341,-0.849722,1.68296,1.24628,-1.06819,1.52039,-0.876273,-1.88797,-0.866207,1.69688,1.23261,-1.05754,1.57566,-0.912012,-1.90719,-0.914206,1.74624,1.20869,-1.0273,-0.880101,0.555201,0.314916,0.777334,-0.815735,0.48113,-0.400347,-0.879388,0.553479,0.168105,0.795791,-0.818399,0.533263,-0.351745,0.382263,-0.533801,0.796191,0.776133,0.0513372,0.267532,0.568691,-0.667426,-0.0768318,0.572453,2.12068,-0.564705,1.29538,-3.04632,-0.138889,2.79203,-3.1147,-0.0901048,2.98326,-0.731405,0.449588,0.137778,0.644839,-0.632775,0.375925,-0.408943,1
1.49402,-0.863838,-1.89959,-0.841495,1.67525,1.25828,-1.0709,1.51142,-0.871438,-1.88984,-0.858014,1.68983,1.23834,-1.06311,1.56686,-0.90635,-1.90365,-0.906532,1.73815,1.21302,-1.03163,-0.880137,0.569545,0.353381,0.765661,-0.805769,0.418044,-0.444719,-0.880189,0.557367,0.285213,0.779689,-0.813922,0.479682,-0.398403,0.375593,-0.534012,0.801958,0.781638,0.0444061,0.270343,0.560343,-0.659967,-0.0542329,0.583002,2.09009,-0.56595,1.32437,-3.12059,-0.127032,2.95637,-3.11223,-0.0962419,2.87176,-0.728354,0.425126,0.0405507,0.650369,-0.628996,0.45255,-0.39267,1
1.48552,-0.861438,-1.90203,-0.833453,1.66709,1.26838,-1.07282,1.50264,-0.867414,-1.89381,-0.849757,1.68264,1.24716,-1.06745,1.55804,-0.900604,-1.90029,-0.898891,1.73019,1.21687,-1.03636,-0.882854,0.57357,0.318787,0.765501,-0.790897,0.379247,-0.481803,-0.881031,0.566105,0.329028,0.769499,-0.804134,0.42614,-0.44229,0.368981,-0.534182,0.807652,0.787154,0.0377382,0.273212,0.551652,-0.659292,-0.0534745,0.571622,2.05859,-0.56693,1.35102,-3.13433,-0.0974697,2.65279,-3.10621,-0.104503,2.75407,-0.725232,0.391664,-0.0173688,0.654383,-0.631009,0.515116,-0.364524,1
1.47697,-0.858888,-1.89136,-0.825421,1.65922,1.27472,-1.07537,1.49403,-0.86417,-1.89744,-0.841568,1.67505,1.25744,-1.07054,1.54919,-0.894938,-1.89768,-0.89118,1.72241,1.22069,-1.04137,-0.886217,0.561411,0.233654,0.774103,-0.77371,0.393683,-0.504632,-0.883069,0.568175,0.301941,0.768421,-0.790125,0.396991,-0.477051,0.362353,-0.534487,0.813072,0.792687,0.0313398,0.276198,0.542567,-0.665752,-0.0677405,0.541404,2.02865,-0.567171,1.37772,-3.05531,-0.0246663,2.72397,-3.09814,-0.101614,2.64385,-0.722142,0.360504,0.0631302,0.657594,-0.631936,0.540269,-0.339919,1
1.46835,-0.853738,-1.87402,-0.817441,1.65249,1.27904,-1.07764,1.4855,-0.86127,-1.89647,-0.833472,1.66724,1.26672,-1.07299,1.54032,-0.889504,-1.89618,-0.883359,1.71478,1.22511,-1.04644,-0.886385,0.534645,0.115926,0.784845,-0.760176,0.469696,-0.501761,-0.885152,0.556542,0.222789,0.774816,-0.774928,0.414209,-0.496066,0.355658,-0.535002,0.818056,0.798158,0.0251,0.279349,0.533177,-0.675666,-0.0885353,0.496174,1.99795,-0.567834,1.40346,-3.04899,-0.0658252,2.5562,-3.08884,-0.0913467,2.54249,-0.719642,0.357654,0.221599,0.659174,-0.622899,0.539308,-0.312049,1
1.45993,-0.848022,-1.85727,-0.809729,1.64633,1.28063,-1.07998,1.47695,-0.857868,-1.88808,-0.825458,1.6597,1.27356,-1.07531,1.53148,-0.884427,-1.89587,-0.875445,1.70722,1.23059,-1.05127,-0.882488,0.496225,0.0064508,0.793076,-0.755769,0.578096,-0.4721,-0.88503,0.53076,0.118677,0.784008,-0.763218,0.480492,-0.492831,0.34889,-0.535716,0.822516,0.803435,0.0189045,0.282685,0.523664,-0.684602,-0.107064,0.446579,1.96767,-0.568113,1.42829,-2.95799,-0.0272321,2.42608,-3.07467,-0.0786926,2.44739,-0.715481,0.36405,0.385997,0.657158,-0.608951,0.500368,-0.287083,1
1.4516,-0.842957,-1.84524,-0.802899,1.64255,1.2763,-1.08517,1.46843,-0.853404,-1.87412,-0.8176,1.65292,1.27752,-1.07783,1.52269,-0.879776,-1.89616,-0.867476,1.69965,1.23708,-1.05567,-0.876818,0.454174,-0.0211834,0.797696,-0.759011,0.66591,-0.428499,-0.881897,0.495015,0.0337312,0.791873,-0.758319,0.571234,-0.467453,0.342068,-0.53651,0.826569,0.808409,0.0126524,0.286077,0.51427,-0.689405,-0.109759,0.41563,1.93753,-0.568719,1.45248,-2.95756,-0.0594588,2.37381,-3.05332,-0.0616861,2.36279,-0.710944,0.368189,0.509185,0.645765,-0.570949,0.392193,-0.294974,1
1.44355,-0.836129,-1.83926,-0.795948,1.64017,1.26553,-1.08914,1.45999,-0.848121,-1.85945,-0.810069,1.64735,1.27784,-1.08098,1.51396,-0.875483,-1.89573,-0.859483,1.69204,1.24404,-1.05964,-0.871775,0.423756,0.0921685,0.799365,-0.760703,0.695128,-0.386297,-0.877027,0.458052,0.025812,0.796712,-0.758494,0.646378,-0.428965,0.335211,-0.53711,0.830606,0.813032,0.00618189,0.28919,0.505282,-0.688859,-0.0823011,0.42689,1.90718,-0.569703,1.47561,-3.04045,-0.0985209,2.31633,-3.0423,-0.0563473,2.27578,-0.704083,0.393537,0.564686,0.635354,-0.51871,0.214919,-0.294958,1
1.4342,-0.830148,-1.83849,-0.788809,1.63806,1.25638,-1.09608,1.45163,-0.842389,-1.84813,-0.802897,1.64324,1.27361,-1.08508,1.50528,-0.871324,-1.89322,-0.851495,1.68449,1.2508,-1.06325,-0.867763,0.417772,0.322789,0.798012,-0.750295,0.658801,-0.354514,-0.872119,0.431901,0.131258,0.798358,-0.756669,0.67328,-0.38977,0.328338,-0.537189,0.835113,0.817317,-0.000687292,0.291652,0.496923,-0.683177,-0.0256791,0.480499,1.87644,-0.570905,1.49766,-3.18551,-0.124602,2.2857,-3.0351,-0.0638315,2.19543,-0.710742,0.411764,0.547324,0.626866,-0.464227,0.0557922,-0.328291,1
1.42376,-0.822714,-1.84193,-0.782116,1.63424,1.24594,-1.10336,1.44301,-0.836245,-1.84186,-0.795898,1.64025,1.26565,-1.0902,1.49663,-0.86705,-1.88813,-0.843555,1.67718,1.25673,-1.06666,-0.863333,0.433739,0.568466,0.79147,-0.720141,0.55789,-0.339232,-0.867624,0.425089,0.327808,0.796282,-0.743713,0.637273,-0.360015,0.32149,-0.536607,0.840339,0.821339,-0.00789765,0.293313,0.48919,-0.672512,0.0370805,0.547901,1.8452,-0.571301,1.5188,-3.11711,-0.0395754,2.10925,-3.04952,-0.0718606,2.10347,-0.72871,0.443358,0.461993,0.614391,-0.429374,-0.107883,-0.366948,1
1.41287,-0.816363,-1.85116,-0.775397,1.62611,1.24356,-1.10821,1.43368,-0.829724,-1.84076,-0.788963,1.63717,1.2565,-1.09624,1.48803,-0.862526,-1.88112,-0.835727,1.67034,1.26115,-1.07007,-0.858095,0.459929,0.727871,0.778768,-0.666915,0.388161,-0.345032,-0.863064,0.437147,0.539709,0.789416,-0.71245,0.534951,-0.346259,0.314749,-0.535552,0.846166,0.825243,-0.0149898,0.294308,0.4818,-0.657308,0.078152,0.597281,1.8147,-0.57219,1.53879,-3.02539,-0.0880941,1.98262,-3.05641,-0.077248,2.00786,-0.751593,0.461626,0.299615,0.6033,-0.442295,-0.175857,-0.381425,1
1.40272,-0.812429,-1.86316,-0.768836,1.61752,1.2459,-1.11519,1.42357,-0.82318,-1.84454,-0.782144,1.63249,1.24918,-1.1026,1.47948,-0.857711,-1.87346,-0.828054,1.66417,1.26344,-1.07369,-0.856264,0.48982,0.758017,0.763125,-0.597082,0.164966,-0.371418,-0.859231,0.461163,0.684785,0.777787,-0.661379,0.370339,-0.351894,0.30819,-0.534403,0.852277,0.829207,-0.0213127,0.294934,0.474316,-0.641365,0.0854151,0.616115,1.78386,-0.573082,1.5577,-3.0688,-0.0888247,1.88194,-3.06815,-0.0837441,1.9073,-0.767557,0.452815,0.102923,0.592175,-0.466491,-0.175349,-0.414979,1
1.39376,-0.808339,-1.87219,-0.76168,1.60908,1.26,-1.12045,1.4132,-0.817327,-1.85238,-0.775417,1.62568,1.24657,-1.10875,1.47086,-0.852579,-1.8664,-0.820533,1.6587,1.26339,-1.0777,-0.865843,0.521821,0.668305,0.748395,-0.532264,-0.0616323,-0.41339,-0.860067,0.490523,0.718064,0.763429,-0.598754,0.163832,-0.376613,0.301822,-0.533506,0.858359,0.83338,-0.0264094,0.295553,0.466294,-0.631206,0.0638923,0.606752,1.75326,-0.573766,1.57529,-3.00364,-0.0671191,1.72627,-3.07565,-0.082804,1.79903,-0.770994,0.442408,-0.0578946,0.588532,-0.496133,-0.0338577,-0.427502,1
1.3851,-0.803317,-1.87283,-0.751177,1.60189,1.2903,-1.12516,1.40323,-0.812463,-1.8617,-0.768413,1.61762,1.25162,-1.11464,1.46204,-0.847139,-1.86095,-0.813149,1.65366,1.26144,-1.08217,-0.889903,0.550913,0.487427,0.734892,-0.501504,-0.228953,-0.459367,-0.87067,0.520852,0.637916,0.748804,-0.543617,-0.0418731,-0.414725,0.295587,-0.533067,0.864143,0.837818,-0.0301963,0.29656,0.457386,-0.630067,0.0248591,0.572363,1.72276,-0.575133,1.59112,-3.07671,-0.137882,1.59696,-3.07476,-0.0849775,1.68098,-0.769398,0.438225,-0.118834,0.619725,-0.517735,0.288638,-0.429864,1
1.37675,-0.800219,-1.85763,-0.741968,1.59416,1.30537,-1.12922,1.39397,-0.8081,-1.86787,-0.760468,1.60952,1.26586,-1.12009,1.45292,-0.841496,-1.85778,-0.805896,1.64858,1.25857,-1.08705,-0.919842,0.565679,0.248281,0.722085,-0.519126,-0.284871,-0.495944,-0.891862,0.546138,0.468004,0.735124,-0.517631,-0.191819,-0.456234,0.28942,-0.533157,0.869366,0.842444,-0.0329109,0.298331,0.447441,-0.63578,-0.0213193,0.514079,1.6917,-0.5765,1.60602,-3.10182,-0.13658,1.48791,-3.07329,-0.0929496,1.55783,-0.761774,0.412765,0.00147714,0.639276,-0.544173,0.467971,-0.421668,1
1.36852,-0.800177,-1.83427,-0.734461,1.5873,1.30831,-1.13213,1.38524,-0.804171,-1.86586,-0.751559,1.60182,1.28484,-1.12481,1.44355,-0.835864,-1.85713,-0.798742,1.64304,1.25621,-1.0922,-0.941025,0.5584,0.00255591,0.714412,-0.569538,-0.189546,-0.519225,-0.916923,0.558331,0.246088,0.723796,-0.530056,-0.234457,-0.491512,0.28326,-0.533708,0.873835,0.847077,-0.0350871,0.301052,0.436575,-0.646234,-0.0602388,0.442494,1.66166,-0.577496,1.62075,-3.11226,-0.103095,1.52623,-3.0633,-0.104482,1.44186,-0.750323,0.356866,0.228651,0.64281,-0.557381,0.521006,-0.399279,1
1.36083,-0.799843,-1.81721,-0.72781,1.58289,1.30754,-1.13666,1.37685,-0.801467,-1.85398,-0.742741,1.5946,1.29964,-1.12885,1.43409,-0.830431,-1.85851,-0.791567,1.63694,1.25603,-1.09748,-0.945047,0.536595,-0.1672,0.722372,-0.622242,0.0720765,-0.529542,-0.935305,0.553558,0.0278789,0.719623,-0.570302,-0.134113,-0.514904,0.277002,-0.534418,0.877602,0.85149,-0.0376302,0.304556,0.425198,-0.662815,-0.0684487,0.385552,1.63132,-0.578406,1.63391,-2.97795,-0.0893876,1.29192,-3.05755,-0.1079,1.32929,-0.732619,0.305883,0.412947,0.63757,-0.540518,0.515027,-0.391725,1
1.35402,-0.802245,-1.80926,-0.721266,1.57994,1.31012,-1.14305,1.36878,-0.80043,-1.83669,-0.734895,1.58836,1.30637,-1.13278,1.4247,-0.825261,-1.86046,-0.784165,1.63042,1.25932,-1.10276,-0.934597,0.509314,-0.170585,0.749659,-0.659151,0.426868,-0.524336,-0.940223,0.53477,-0.111743,0.728815,-0.616977,0.103133,-0.524368,0.270504,-0.534765,0.881058,0.855485,-0.0415884,0.308325,0.413946,-0.683259,-0.0307237,0.370896,1.60141,-0.578937,1.64671,-3.00596,-0.0532956,1.28555,-3.04411,-0.104312,1.2282,-0.706781,0.230157,0.51202,0.628985,-0.504866,0.50795,-0.402928,1
1.34954,-0.810521,-1.80292,-0.715868,1.58426,1.31503,-1.14869,1.36134,-0.801218,-1.82112,-0.727975,1.58404,1.30871,-1.13741,1.41548,-0.820437,-1.86096,-0.776434,1.62367,1.26584,-1.10787,-0.916997,0.469169,0.0276449,0.779846,-0.678026,0.703137,-0.504706,-0.932214,0.505026,-0.10338,0.750626,-0.65314,0.400694,-0.519528,0.26373,-0.534332,0.884707,0.858984,-0.0474151,0.311654,0.403447,-0.696242,0.037753,0.398617,1.57156,-0.579051,1.659,-3.14546,-0.0120459,1.29535,-3.02929,-0.090602,1.14356,-0.659386,0.0991561,0.580405,0.605664,-0.394137,0.491913,-0.408154,1
1.34315,-0.81266,-1.79501,-0.708793,1.58929,1.32135,-1.14823,1.35483,-0.804235,-1.81033,-0.721598,1.5828,1.31129,-1.1425,1.40646,-0.81618,-1.8584,-0.76852,1.61688,1.27371,-1.11275,-0.895987,0.405621,0.347841,0.790983,-0.676197,0.78012,-0.481154,-0.91586,0.461368,0.0683004,0.773496,-0.671125,0.636708,-0.503399,0.256812,-0.533114,0.88882,0.862082,-0.0545696,0.313936,0.394056,-0.692837,0.100513,0.439425,1.54141,-0.579868,1.67011,-2.86471,-0.0776657,1.0555,-3.01637,-0.0741018,1.06739,-0.633111,0.0351953,0.633914,0.597275,-0.275852,0.476359,-0.354847,1
1.33288,-0.80565,-1.78454,-0.700521,1.60951,1.32947,-1.14552,1.34873,-0.808015,-1.80227,-0.715236,1.58593,1.31581,-1.14622,1.39769,-0.812742,-1.85268,-0.760676,1.61031,1.28107,-1.11745,-0.868861,0.317376,0.633084,0.778651,-0.642071,0.704822,-0.469891,-0.893948,0.397389,0.33619,0.78316,-0.665431,0.72936,-0.48525,0.249927,-0.531496,0.893269,0.864962,-0.0620603,0.314959,0.385733,-0.677132,0.126748,0.456235,1.51148,-0.580607,1.68055,-2.98224,-0.0735746,1.04014,-3.00327,-0.0632448,0.990609,-0.648053,0.0709217,0.681374,0.601548,-0.00803751,0.483955,-0.280756,1
1.32145,-0.792572,-1.77591,-0.689843,1.63348,1.31905,-1.13467,1.3415,-0.808467,-1.79406,-0.708089,1.59526,1.32095,-1.1465,1.38927,-0.81037,-1.84507,-0.753068,1.60443,1.28734,-1.12216,-0.830344,0.203544,0.781278,0.753108,-0.559449,0.603487,-0.473825,-0.865064,0.308847,0.587401,0.774247,-0.625906,0.696143,-0.474957,0.243161,-0.529997,0.897629,0.867775,-0.0691405,0.314837,0.378238,-0.659504,0.106721,0.428896,1.48115,-0.581859,1.68922,-3.03435,-0.125275,0.868211,-3.00423,-0.0657908,0.900261,-0.678161,0.177983,0.691584,0.632252,0.290492,0.317149,-0.125069,1
1.30948,-0.791754,-1.77326,-0.678984,1.63849,1.29307,-1.11119,1.33217,-0.803569,-1.78544,-0.699533,1.61068,1.32166,-1.14154,1.38129,-0.809235,-1.83691,-0.745733,1.59983,1.2929,-1.12688,-0.785858,0.0828194,0.815074,0.727405,-0.411831,0.54992,-0.465456,-0.828354,0.201247,0.743145,0.753055,-0.537784,0.61941,-0.469724,0.236472,-0.528995,0.901536,0.870575,-0.0755226,0.313669,0.371493,-0.650575,0.0606307,0.376466,1.45089,-0.582503,1.69713,-3.09234,-0.0657914,0.808012,-3.00669,-0.0703173,0.80796,-0.718108,0.174819,0.636459,0.667484,0.386618,0.00166029,0.156917,1
1.29683,-0.79158,-1.7774,-0.670669,1.61516,1.27114,-1.1039,1.32113,-0.796831,-1.77869,-0.689784,1.62483,1.31231,-1.13044,1.37366,-0.808992,-1.82876,-0.738567,1.5973,1.29827,-1.13117,-0.760176,0.0200022,0.814802,0.716448,-0.178589,0.535564,-0.404299,-0.792126,0.102122,0.803718,0.73232,-0.38329,0.562991,-0.44786,0.229669,-0.528433,0.905119,0.873346,-0.0813439,0.311373,0.365646,-0.662896,0.0326262,0.354579,1.42073,-0.582711,1.70402,-2.93305,-0.0203003,0.67041,-3.01298,-0.072208,0.704778,-0.768342,0.174119,0.513681,0.678985,0.178545,-0.271299,0.272761,1
1.28769,-0.784296,-1.80217,-0.668555,1.57397,1.26647,-1.10333,1.30941,-0.792317,-1.77747,-0.680314,1.62556,1.29469,-1.11689,1.366,-0.808588,-1.82058,-0.731323,1.59776,1.30333,-1.13427,-0.77661,0.0684426,0.820942,0.732617,0.138867,0.478637,-0.259524,-0.774215,0.0570881,0.816939,0.72549,-0.150518,0.521374,-0.376426,0.222452,-0.527876,0.909045,0.876084,-0.0868368,0.307813,0.360815,-0.702423,0.0464617,0.402477,1.38989,-0.584008,1.70998,-3.18697,-0.134035,0.615396,-3.02481,-0.0801938,0.597714,-0.783123,0.242917,0.184136,0.627674,-0.237827,-0.368576,0.309423,1
1.28004,-0.774065,-1.82911,-0.674065,1.5482,1.29657,-1.16305,1.2982,-0.78877,-1.7857,-0.67363,1.60766,1.28004,-1.1112,1.35787,-0.807082,-1.81241,-0.723718,1.60145,1.30683,-1.13523,-0.8313,0.183266,0.808073,0.773835,0.434298,0.27023,-0.020258,-0.789362,0.0905702,0.814606,0.740967,0.131525,0.428144,-0.228027,0.214647,-0.52711,0.913873,0.878832,-0.0916281,0.303138,0.356885,-0.754504,0.0673908,0.486319,1.36005,-0.585051,1.71467,-2.83789,-0.0991254,0.445894,-3.02741,-0.0828688,0.490542,-0.778335,0.330168,-0.166971,0.496529,-0.532524,-0.102682,-0.278217,1
1.27906,-0.774043,-1.82061,-0.670406,1.54521,1.3501,-1.17608,1.28888,-0.783385,-1.80206,-0.671228,1.58006,1.28205,-1.12344,1.34905,-0.804549,-1.80488,-0.715655,1.60666,1.30701,-1.13337,-0.899608,0.265633,0.713699,0.815019,0.493538,-0.0934319,0.258507,-0.835839,0.172447,0.780905,0.773823,0.355568,0.218478,-0.0070916,0.20646,-0.526552,0.919344,0.881612,-0.0946121,0.298275,0.353329,-0.786598,0.0430922,0.524135,1.32944,-0.586397,1.71761,-3.14879,-0.138432,0.302222,-3.0333,-0.0902112,0.374704,-0.699981,0.305066,-0.157283,0.452497,-0.614542,0.430873,-0.427071,1
1.26955,-0.785604,-1.76001,-0.657079,1.5546,1.35062,-1.17347,1.2821,-0.778433,-1.8127,-0.670499,1.55848,1.30421,-1.14833,1.33963,-0.801635,-1.7993,-0.707445,1.60979,1.30342,-1.12939,-0.953944,0.295357,0.471852,0.811472,0.181521,-0.427615,0.408676,-0.894951,0.248085,0.664542,0.800109,0.369786,-0.0836057,0.215642,0.198515,-0.52675,0.924477,0.884377,-0.0950695,0.295061,0.348967,-0.765617,-0.0205499,0.469779,1.29973,-0.587216,1.72014,-3.03441,-0.0837578,0.258427,-3.02801,-0.0935725,0.265473,-0.700792,0.160315,0.392903,0.503661,-0.551958,0.47191,-0.440729,1
1.26158,-0.791041,-1.73481,-0.651163,1.56096,1.33111,-1.16494,1.27637,-0.778642,-1.80107,-0.666671,1.55108,1.33043,-1.16693,1.32991,-0.798473,-1.79725,-0.699824,1.6077,1.29837,-1.12609,-0.968643,0.330085,0.0899279,0.729504,-0.368549,-0.461349,0.233472,-0.940732,0.297025,0.42516,0.785332,0.10217,-0.327465,0.300218,0.191579,-0.527589,0.928342,0.887049,-0.0938982,0.295354,0.34219,-0.683425,-0.0608887,0.34809,1.26968,-0.587727,1.72242,-2.9277,-0.0497312,0.222975,-3.02176,-0.0966847,0.163333,-0.68333,0.0743152,0.624403,0.486611,-0.467395,0.32743,-0.388549,1
1.25524,-0.786668,-1.73533,-0.646032,1.55325,1.32688,-1.16769,1.26969,-0.783418,-1.77164,-0.659303,1.55336,1.34075,-1.17098,1.32044,-0.794845,-1.79894,-0.693456,1.60032,1.29606,-1.12696,-0.930668,0.371092,-0.224671,0.601613,-0.826751,-0.0780146,-0.237572,-0.951085,0.332178,0.11237,0.714196,-0.337926,-0.322326,0.134859,0.185977,-0.528245,0.930693,0.889514,-0.093538,0.299357,0.332266,-0.581531,-0.0301172,0.228545,1.23929,-0.589053,1.72235,-3.11054,-0.13571,-0.00712563,-3.01816,-0.102243,0.0548352,-0.652017,0.0817641,0.636137,0.474237,-0.470631,0.308201,-0.407247,1
1.25275,-0.804503,-1.74401,-0.65205,1.54873,1.34352,-1.17791,1.26253,-0.788368,-1.74718,-0.652618,1.55569,1.33689,-1.16927,1.31162,-0.791227,-1.8013,-0.688153,1.59063,1.29941,-1.13278,-0.862449,0.3379,-0.14869,0.521085,-0.954542,0.477104,-0.661611,-0.920587,0.346359,-0.0944774,0.617401,-0.716614,-0.0207531,-0.221904,0.181141,-0.527888,0.932185,0.891613,-0.0962627,0.304724,0.320786,-0.528553,0.0561873,0.182633,1.2093,-0.589669,1.72174,-3.05473,-0.0627323,-0.0628659,-3.01098,-0.0939872,-0.0518861,-0.58869,-0.132766,0.572871,0.361026,-0.418965,0.441117,-0.451248,1
1.2453,-0.816738,-1.73614,-0.646318,1.60167,1.3596,-1.18384,1.25648,-0.794033,-1.73896,-0.649528,1.55716,1.33563,-1.17093,1.30343,-0.788724,-1.79952,-0.682968,1.58201,1.30687,-1.14057,-0.809516,0.20487,0.350621,0.532088,-0.793386,0.764658,-0.755669,-0.867545,0.30462,-0.00757962,0.551595,-0.858226,0.387916,-0.551617,0.176029,-0.526414,0.933949,0.893392,-0.102073,0.308104,0.31065,-0.547354,0.13505,0.224431,1.17977,-0.590826,1.7205,-2.86403,-0.11224,-0.11998,-3.00563,-0.0918116,-0.150058,-0.58133,-0.280148,0.633829,0.366503,0.196525,0.527258,-0.432654,1
1.23946,-0.800231,-1.7195,-0.632089,1.62866,1.35881,-1.18821,1.25123,-0.801995,-1.73777,-0.64781,1.56885,1.34356,-1.17667,1.29555,-0.787841,-1.79192,-0.677341,1.57581,1.31414,-1.1472,-0.783898,0.051869,0.86566,0.569342,-0.566877,0.657199,-0.610424,-0.818621,0.198213,0.355864,0.540838,-0.771602,0.632987,-0.675901,0.170172,-0.524501,0.93654,0.895163,-0.10881,0.308123,0.303158,-0.587494,0.153957,0.281187,1.15057,-0.590398,1.71957,-2.91092,0.0426528,-0.0925798,-2.98894,-0.0755936,-0.228777,-0.560901,-0.123898,0.724121,0.452522,0.528451,0.446694,-0.410133,1
1.2345,-0.814993,-1.71223,-0.621158,1.6258,1.35977,-1.18069,1.24565,-0.807564,-1.7324,-0.642603,1.59366,1.35335,-1.18224,1.28789,-0.78829,-1.78154,-0.67169,1.57145,1.3191,-1.15218,-0.755957,-0.0774998,1.02437,0.549058,-0.400046,0.456991,-0.47721,-0.783124,0.0597464,0.746885,0.550163,-0.58677,0.626283,-0.614434,0.163972,-0.523011,0.939352,0.897069,-0.114536,0.30606,0.29745,-0.596697,0.101861,0.260759,1.12077,-0.591467,1.71719,-2.92702,-0.104977,-0.233932,-2.98076,-0.0709559,-0.308551,-0.533878,-0.267026,0.693102,0.505324,0.543529,0.406722,-0.285152,1
1.21883,-0.815655,-1.70375,-0.608611,1.62039,1.37471,-1.17657,1.23922,-0.809279,-1.72239,-0.632693,1.61568,1.35929,-1.18387,1.28063,-0.790028,-1.77205,-0.666687,1.56897,1.32322,-1.15666,-0.713114,-0.212662,0.897038,0.479837,-0.158917,0.435997,-0.456352,-0.75099,-0.0794309,0.929024,0.532746,-0.37528,0.516729,-0.514662,0.157801,-0.522496,0.941394,0.899057,-0.118978,0.303165,0.292629,-0.596403,0.00908748,0.167446,1.09128,-0.592809,1.7131,-2.84527,-0.129471,-0.394653,-2.96773,-0.0743032,-0.39454,-0.618054,-0.256267,0.683021,0.580765,0.514152,0.5149,-0.199051,1
1.20955,-0.827941,-1.69792,-0.611628,1.61708,1.38619,-1.15025,1.23094,-0.812386,-1.71253,-0.621731,1.62311,1.36491,-1.17983,1.2738,-0.793002,-1.76415,-0.662206,1.57041,1.3283,-1.16141,-0.675358,-0.313626,0.77405,0.452691,0.289033,0.536834,-0.480445,-0.71481,-0.201263,0.898487,0.493862,-0.0899765,0.476607,-0.471336,0.151282,-0.522846,0.942677,0.901224,-0.122962,0.2988,0.288782,-0.63495,-0.0549958,0.110886,1.06214,-0.593431,1.70827,-3.05345,-0.0651742,-0.505978,-2.95173,-0.0716316,-0.474429,-0.642491,-0.349383,0.662357,0.505776,0.466762,0.57895,0.111679,1
1.20091,-0.824046,-1.68722,-0.618766,1.6262,1.39842,-1.14948,1.2206,-0.818121,-1.70436,-0.614604,1.6218,1.37433,-1.17005,1.2672,-0.796324,-1.75654,-0.657287,1.57684,1.33419,-1.16612,-0.659399,-0.322158,0.776103,0.522992,0.741108,0.589365,-0.451046,-0.682623,-0.282815,0.81573,0.485173,0.290408,0.520732,-0.462614,0.143898,-0.523352,0.944203,0.903698,-0.127257,0.292151,0.285979,-0.706258,-0.0545711,0.14632,1.03261,-0.594187,1.70238,-2.91358,-0.0746178,-0.581543,-2.94502,-0.0756319,-0.567897,-0.662889,-0.277213,0.693208,0.38521,0.493568,0.642352,0.166386,1
1.19588,-0.820456,-1.68049,-0.630939,1.63045,1.40527,-1.159,1.21041,-0.822618,-1.6965,-0.614461,1.62157,1.38592,-1.15908,1.26052,-0.799372,-1.74841,-0.651203,1.58587,1.34007,-1.16981,-0.677534,-0.30519,0.824169,0.63889,0.892778,0.58662,-0.320731,-0.670763,-0.313658,0.79144,0.538191,0.640973,0.57094,-0.417407,0.13565,-0.523624,0.94639,0.906318,-0.13188,0.284101,0.283693,-0.777191,-0.0388373,0.193318,1.00261,-0.595547,1.69519,-3.11437,-0.141184,-0.746332,-2.95007,-0.0846654,-0.675882,-0.646442,-0.210837,0.679222,0.202638,0.44579,0.652012,0.108114,1
1.19314,-0.823988,-1.67032,-0.657942,1.64085,1.41063,-1.17913,1.20245,-0.823594,-1.68819,-0.621839,1.62554,1.39636,-1.1556,1.25337,-0.802588,-1.73999,-0.644265,1.59403,1.34612,-1.17145,-0.735078,-0.337293,0.840095,0.694995,0.756863,0.625922,-0.0930343,-0.69067,-0.321547,0.813456,0.618959,0.796916,0.600635,-0.28827,0.12684,-0.523926,0.948584,0.908712,-0.136396,0.276308,0.281588,-0.827906,-0.0493264,0.175898,0.972813,-0.595901,1.68708,-2.84375,-0.0337212,-0.77395,-2.95808,-0.0930228,-0.793601,-0.602258,-0.214004,0.696693,-0.136766,0.46817,0.645185,-0.0768012,1
1.19851,-0.829073,-1.65754,-0.667453,1.65765,1.40138,-1.20676,1.19747,-0.823243,-1.67928,-0.635722,1.63285,1.40346,-1.16409,1.24552,-0.806288,-1.73165,-0.637696,1.60016,1.35304,-1.1705,-0.799363,-0.375001,0.831259,0.616847,0.573164,0.721364,0.157863,-0.737325,-0.339161,0.831841,0.650244,0.740935,0.644635,-0.0853005,0.117901,-0.524366,0.950158,0.910532,-0.140621,0.269639,0.280094,-0.830105,-0.0563184,0.117156,0.941943,-0.597418,1.67757,-3.09082,-0.15195,-0.951838,-2.97478,-0.0934039,-0.907078,-0.470085,-0.227846,0.741107,-0.297572,0.574862,0.483373,-0.362633,1
1.20893,-0.839712,-1.64834,-0.67077,1.66887,1.36912,-1.21449,1.19664,-0.825363,-1.66935,-0.651922,1.64328,1.40362,-1.18136,1.23729,-0.809958,-1.72339,-0.63299,1.60513,1.36093,-1.16777,-0.821766,-0.35015,0.8266,0.395189,0.490643,0.804585,0.277675,-0.785402,-0.354148,0.832651,0.569011,0.60689,0.71729,0.114168,0.109545,-0.524565,0.951105,0.91163,-0.144746,0.264052,0.279743,-0.75412,-0.0233395,0.0675945,0.912916,-0.598343,1.66703,-3.16046,-0.100719,-1.14801,-2.98312,-0.0938956,-1.01754,-0.283628,-0.297539,0.750482,-0.3778,0.637444,0.0819512,-0.467208,1
1.2325,-0.856523,-1.64103,-0.673734,1.67914,1.35709,-1.21376,1.20173,-0.831639,-1.65884,-0.664015,1.6559,1.3931,-1.19924,1.22929,-0.812953,-1.71508,-0.631339,1.61007,1.36918,-1.16557,-0.781081,-0.278688,0.834638,0.0681316,0.509213,0.818346,0.152637,-0.800737,-0.334613,0.830832,0.360056,0.52434,0.781431,0.196058,0.102549,-0.524151,0.951646,0.912145,-0.149002,0.259139,0.280422,-0.602876,0.0344574,0.0329605,0.883666,-0.599289,1.65506,-2.95286,-0.0954952,-1.20776,-2.98386,-0.099137,-1.13549,0.0321254,-0.435694,0.740416,-0.423958,0.690668,-0.120876,-0.48184,1
1.22046,-0.866043,-1.6341,-0.674565,1.68888,1.35231,-1.21802,1.21195,-0.841918,-1.6493,-0.670117,1.66813,1.37572,-1.21038,1.2222,-0.815354,-1.70658,-0.63326,1.61572,1.37677,-1.16626,-0.669643,-0.23831,0.859086,-0.281269,0.595028,0.712871,-0.172149,-0.757497,-0.289049,0.840108,0.0606842,0.531628,0.7786,0.0860543,0.0973967,-0.523256,0.951814,0.912415,-0.153226,0.254289,0.281707,-0.413364,0.0681403,-0.00606371,0.854076,-0.599819,1.6439,-2.83561,-0.050744,-1.07023,-2.97643,-0.0957906,-1.2348,-0.0174378,-0.506893,0.724713,-0.413048,0.731526,-0.244584,-0.517565,1
1.19517,-0.861292,-1.62441,-0.69056,1.6958,1.36871,-1.22192,1.21914,-0.853283,-1.64112,-0.67386,1.6787,1.3624,-1.21508,1.21685,-0.817937,-1.69772,-0.638099,1.62256,1.38209,-1.17065,-0.470282,-0.281322,0.895603,-0.529143,0.719796,0.433224,-0.523233,-0.640335,-0.266106,0.863109,-0.247427,0.608012,0.654813,-0.180915,0.0941016,-0.522503,0.951581,0.912852,-0.156694,0.248658,0.283404,-0.229009,0.0421983,-0.0502999,0.824971,-0.599777,1.6317,-2.89899,0.00420341,-1.21433,-2.95952,-0.0799826,-1.319,-0.216774,-0.433556,0.733114,-0.524618,0.732364,-0.133817,-0.512713,1
1.1775,-0.857789,-1.61622,-0.700794,1.70109,1.39998,-1.22248,1.21374,-0.860314,-1.63319,-0.679758,1.68768,1.36164,-1.21799,1.2141,-0.821571,-1.68856,-0.64419,1.63065,1.38351,-1.17763,-0.193389,-0.404961,0.918608,-0.609202,0.835131,0.0240867,-0.723858,-0.444438,-0.308198,0.891099,-0.473204,0.716651,0.390061,-0.47308,0.0923728,-0.522619,0.950996,0.913724,-0.158462,0.241628,0.285683,-0.0753762,-0.0427724,-0.096114,0.795919,-0.600983,1.6162,-2.86799,-0.119093,-1.53062,-2.94094,-0.0765673,-1.41964,-0.365998,-0.36218,0.723413,-0.566046,0.704322,0.164675,-0.448476,1
1.17717,-0.856338,-1.61468,-0.700034,1.70339,1.43021,-1.21708,1.19828,-0.860997,-1.62522,-0.68866,1.69482,1.37555,-1.22027,1.21405,-0.82674,-1.6794,-0.650145,1.63956,1.381,-1.18515,0.0398027,-0.555495,0.910369,-0.581679,0.901472,-0.318013,-0.734461,-0.207956,-0.413926,0.908193,-0.573341,0.818799,0.0464327,-0.660517,0.0917141,-0.523975,0.950027,0.914951,-0.158153,0.233308,0.288826,0.0142333,-0.146514,-0.145851,0.765787,-0.602568,1.60118,-3.0825,-0.162137,-1.5365,-2.93271,-0.0757703,-1.51496,-0.368826,-0.295984,0.647179,-0.498894,0.638258,0.492075,-0.319267,1
1.18447,-0.862512,-1.61169,-0.696065,1.70584,1.43703,-1.21457,1.18496,-0.859113,-1.61872,-0.696111,1.69987,1.39906,-1.22021,1.21486,-0.833024,-1.67046,-0.655737,1.64875,1.37684,-1.19194,0.0421127,-0.633083,0.887009,-0.561129,0.917231,-0.394763,-0.654845,-0.037158,-0.53118,0.905329,-0.584003,0.884611,-0.229563,-0.704388,0.091178,-0.526209,0.948674,0.916274,-0.156556,0.224478,0.292477,-0.00646067,-0.200972,-0.180052,0.73621,-0.602851,1.58545,-2.90188,-0.0278015,-1.54371,-2.94298,-0.0758763,-1.60789,-0.30391,-0.29488,0.587771,-0.403279,0.570872,0.601835,-0.226329,1
1.17652,-0.874422,-1.60696,-0.691157,1.70954,1.43837,-1.22218,1.18016,-0.859684,-1.61444,-0.698085,1.70334,1.42102,-1.21842,1.2137,-0.839101,-1.66175,-0.661574,1.65778,1.3743,-1.19784,-0.204802,-0.573977,0.866707,-0.602771,0.891331,-0.151916,-0.566996,-0.0409624,-0.587518,0.888028,-0.58186,0.903344,-0.288231,-0.652101,0.089696,-0.528294,0.947211,0.917437,-0.155316,0.216169,0.295733,-0.120417,-0.161455,-0.174752,0.706266,-0.603959,1.56987,-2.91467,-0.107786,-1.51659,-2.95399,-0.0816588,-1.68936,-0.371789,-0.353216,0.547933,-0.295837,0.517602,0.640726,-0.243466,1
1.16335,-0.881832,-1.59946,-0.696182,1.71296,1.4391,-1.231,1.1789,-0.864858,-1.61077,-0.696133,1.7063,1.43347,-1.21862,1.20951,-0.843833,-1.65329,-0.668003,1.66627,1.37595,-1.2028,-0.476384,-0.431965,0.834003,-0.649292,0.827532,0.302141,-0.46461,-0.213025,-0.546342,0.862573,-0.604397,0.878698,-0.0815125,-0.56215,0.0869873,-0.529255,0.945935,0.918141,-0.155975,0.209104,0.298268,-0.234391,-0.0562492,-0.141714,0.677875,-0.604705,1.552,-2.82716,-0.0742988,-1.77877,-2.94901,-0.0888939,-1.78612,-0.46162,-0.37999,0.538309,-0.281788,0.466917,0.631441,-0.282049,1
1.15893,-0.88599,-1.5883,-0.713181,1.72015,1.43728,-1.242,1.17416,-0.87289,-1.60558,-0.695572,1.70975,1.43764,-1.2234,1.2038,-0.847247,-1.64539,-0.674336,1.67391,1.38235,-1.20654,-0.56554,-0.323596,0.767172,-0.606121,0.737541,0.737194,-0.340199,-0.415576,-0.44318,0.822627,-0.619394,0.818801,0.295807,-0.457268,0.0836146,-0.528965,0.944865,0.918201,-0.158974,0.203297,0.300508,-0.284626,0.032882,-0.11512,0.649111,-0.605486,1.53328,-2.84352,-0.077261,-1.85074,-2.93997,-0.0927265,-1.87493,-0.448714,-0.387432,0.570891,-0.388447,0.462426,0.549257,-0.354603,1
1.1648,-0.894108,-1.57862,-0.727649,1.7368,1.4357,-1.24974,1.16695,-0.880579,-1.598,-0.701135,1.71495,1.43812,-1.23169,1.19849,-0.850302,-1.63833,-0.679475,1.68059,1.39164,-1.20918,-0.504966,-0.318735,0.684943,-0.469584,0.645128,0.948197,-0.248707,-0.51563,-0.358099,0.762039,-0.574999,0.736734,0.662511,-0.351172,0.0800987,-0.528185,0.9438,0.917833,-0.163373,0.198195,0.302673,-0.299507,0.0450076,-0.116286,0.619643,-0.606209,1.51382,-2.99253,-0.0733974,-1.97581,-2.93041,-0.083458,-1.95131,-0.336945,-0.438057,0.597085,-0.481744,0.562093,0.440649,-0.405581,1
1.16444,-0.903784,-1.56808,-0.736799,1.75244,1.43299,-1.25955,1.16294,-0.887369,-1.58857,-0.712648,1.72387,1.43714,-1.24104,1.19388,-0.853994,-1.63193,-0.683127,1.68648,1.40114,-1.21155,-0.462092,-0.396254,0.632485,-0.338875,0.573696,0.916506,-0.251955,-0.510866,-0.346195,0.694867,-0.471526,0.652122,0.867299,-0.280287,0.0763635,-0.527843,0.942515,0.91757,-0.167724,0.193165,0.304338,-0.332486,-0.00936369,-0.142327,0.590742,-0.607358,1.49285,-2.95981,-0.117666,-2.14832,-2.91223,-0.0807613,-2.05294,-0.294441,-0.4979,0.638426,-0.536725,0.659574,0.318526,-0.47994,1
1.14869,-0.915924,-1.56044,-0.746137,1.75983,1.43587,-1.26594,1.16214,-0.895094,-1.57857,-0.725508,1.7365,1.43564,-1.2501,1.1891,-0.858625,-1.62565,-0.686206,1.69193,1.40924,-1.21466,-0.493794,-0.48223,0.635422,-0.32346,0.54366,0.762638,-0.343183,-0.48695,-0.399073,0.65095,-0.377306,0.587495,0.87578,-0.281282,0.072233,-0.528271,0.940919,0.917767,-0.171172,0.187879,0.305133,-0.366364,-0.0708768,-0.175749,0.560578,-0.607338,1.47011,-3.06233,0.00209375,-2.30851,-2.91491,-0.0777198,-2.17223,-0.404011,-0.572983,0.652125,-0.599312,0.678923,0.266295,-0.512753,1
1.13954,-0.922779,-1.55838,-0.752799,1.76118,1.45531,-1.26512,1.15869,-0.904475,-1.56946,-0.73637,1.7489,1.43605,-1.25794,1.18396,-0.86388,-1.61898,-0.690185,1.69755,1.41557,-1.21898,-0.506357,-0.535077,0.684263,-0.444878,0.582154,0.587436,-0.463102,-0.487414,-0.471187,0.650723,-0.369071,0.566503,0.755527,-0.352747,0.0681399,-0.529198,0.939054,0.918309,-0.173609,0.182189,0.305574,-0.340126,-0.10183,-0.204206,0.530726,-0.609453,1.44835,-3.01806,-0.213866,-2.19981,-2.92707,-0.0843555,-2.2813,-0.444223,-0.588983,0.605996,-0.626143,0.636318,0.397387,-0.4614,1
1.1341,-0.927882,-1.56047,-0.75877,1.76217,1.46632,-1.26016,1.15044,-0.913986,-1.56298,-0.745102,1.75702,1.4419,-1.26276,1.17926,-0.86953,-1.61167,-0.695909,1.70411,1.42025,-1.22439,-0.445267,-0.577891,0.74821,-0.616967,0.69425,0.429734,-0.564037,-0.481806,-0.531733,0.689298,-0.461768,0.606688,0.593269,-0.456774,0.0647291,-0.530355,0.936974,0.918906,-0.175176,0.175791,0.30663,-0.262018,-0.117445,-0.230458,0.502825,-0.609361,1.42404,-2.74901,0.00904398,-2.39519,-2.93208,-0.082248,-2.38379,-0.451691,-0.583523,0.512001,-0.628606,0.580553,0.460654,-0.357647,1
1.12959,-0.933526,-1.56589,-0.762496,1.76421,1.47599,-1.25531,1.1414,-0.921825,-1.56049,-0.752232,1.76073,1.4531,-1.26312,1.17527,-0.875736,-1.60381,-0.703095,1.71201,1.42368,-1.23054,-0.395635,-0.640388,0.793405,-0.741476,0.817388,0.323946,-0.625339,-0.449086,-0.584452,0.741959,-0.601107,0.69793,0.447039,-0.550826,0.0619242,-0.531802,0.934637,0.919485,-0.175988,0.168458,0.308542,-0.21494,-0.143789,-0.262891,0.47431,-0.60956,1.39928,-2.73809,-0.0191328,-2.37709,-2.92162,-0.0736441,-2.48591,-0.456883,-0.577902,0.379221,-0.59401,0.522092,0.523079,-0.247739,1
1.12029,-0.940923,-1.58907,-0.764713,1.76507,1.48379,-1.24923,1.13438,-0.928085,-1.56309,-0.757791,1.76247,1.46517,-1.25986,1.17112,-0.882652,-1.59583,-0.710968,1.72064,1.42676,-1.23688,-0.440926,-0.707773,0.788584,-0.792695,0.860658,0.325279,-0.624955,-0.427276,-0.642017,0.776733,-0.717046,0.790765,0.359653,-0.604777,0.0590017,-0.533642,0.931937,0.920119,-0.176288,0.160562,0.310682,-0.242377,-0.176096,-0.302873,0.444485,-0.61047,1.37368,-3.17787,-0.0969103,-2.72834,-2.91461,-0.0686084,-2.5844,-0.508274,-0.582719,0.067615,-0.537451,0.444257,0.570286,-0.123502,1
1.11229,-0.947376,-1.61989,-0.762704,1.76472,1.49048,-1.24594,1.12793,-0.934158,-1.57324,-0.761526,1.76376,1.47514,-1.25503,1.16602,-0.890043,-1.58842,-0.718938,1.72891,1.43077,-1.24263,-0.535162,-0.741951,0.710582,-0.791677,0.798046,0.445562,-0.540889,-0.457241,-0.696704,0.76419,-0.775283,0.825364,0.364929,-0.597061,0.0555158,-0.535722,0.92881,0.920743,-0.176551,0.152982,0.312503,-0.299884,-0.193551,-0.341928,0.415503,-0.611131,1.3467,-2.84354,-0.0648539,-2.64679,-2.90829,-0.0631796,-2.67987,-0.537251,-0.573323,-0.314743,-0.437666,0.358069,0.597136,-0.0331393,1
1.10819,-0.956818,-1.62608,-0.751299,1.77202,1.49735,-1.24389,1.12072,-0.940865,-1.59151,-0.762447,1.76502,1.48327,-1.25028,1.16016,-0.897441,-1.58239,-0.726629,1.73605,1.43642,-1.24697,-0.593003,-0.732704,0.548671,-0.755838,0.680387,0.605008,-0.38673,-0.52303,-0.727476,0.682612,-0.78007,0.779697,0.458616,-0.517525,0.0516756,-0.53782,0.925293,0.921179,-0.177088,0.146486,0.314024,-0.333028,-0.198796,-0.375039,0.387111,-0.612265,1.31891,-2.8127,-0.112327,-2.75319,-2.88997,-0.0687369,-2.77591,-0.519629,-0.593769,-0.436861,-0.246706,0.359646,0.609301,0.0307982,1
1.09776,-0.971298,-1.63114,-0.764077,1.77451,1.49993,-1.23824,1.11344,-0.948753,-1.61106,-0.760428,1.76721,1.49021,-1.24636,1.15408,-0.904576,-1.57872,-0.733741,1.74197,1.44336,-1.24954,-0.610406,-0.706907,0.281166,-0.690174,0.563052,0.713448,-0.21062,-0.579524,-0.727187,0.513473,-0.745897,0.680495,0.588006,-0.379413,0.0478259,-0.540022,0.921378,0.921422,-0.177619,0.141468,0.315308,-0.34429,-0.221911,-0.415493,0.358578,-0.612585,1.29048,-2.89401,-0.0324411,-2.88391,-2.881,-0.0599027,-2.88021,-0.563151,-0.667213,-0.524187,-0.303356,0.325392,0.565682,0.112979,1
1.08602,-0.983455,-1.63836,-0.785234,1.78551,1.49654,-1.24689,1.10598,-0.958749,-1.62425,-0.760304,1.77122,1.49538,-1.24351,1.14787,-0.911514,-1.57858,-0.739941,1.74686,1.45087,-1.25047,-0.626953,-0.692333,-0.100952,-0.587065,0.466718,0.75451,-0.0580788,-0.610121,-0.710648,0.242962,-0.677692,0.570053,0.690989,-0.218476,0.043991,-0.542745,0.916887,0.921721,-0.17747,0.138151,0.31599,-0.366115,-0.283156,-0.477163,0.330587,-0.613392,1.26168,-2.81915,-0.0813052,-2.90006,-2.87697,-0.0711986,-2.96234,-0.618512,-0.719407,-0.597792,-0.452927,0.386481,0.45668,0.0358177,1
1.076,-0.991156,-1.64315,-0.79033,1.78161,1.50328,-1.24961,1.09698,-0.970463,-1.63173,-0.767727,1.77647,1.49806,-1.24301,1.14144,-0.91847,-1.58259,-0.744801,1.75101,1.45844,-1.2502,-0.648601,-0.701422,-0.497877,-0.443037,0.402298,0.753522,0.0501341,-0.628653,-0.700221,-0.105887,-0.573425,0.477356,0.740494,-0.0728549,0.0399316,-0.546336,0.911684,0.922352,-0.17621,0.136456,0.315588,-0.413889,-0.365813,-0.546338,0.301462,-0.614193,1.23209,-2.82658,-0.0777699,-2.87166,-2.8688,-0.0757005,-3.04209,-0.654421,-0.726866,-0.605577,-0.455287,0.306035,0.44833,0.00585262,1
1.06637,-1.00047,-1.65659,-0.789215,1.75393,1.515,-1.22856,1.08661,-0.98174,-1.63812,-0.779347,1.77897,1.50028,-1.24408,1.13481,-0.925756,-1.58966,-0.74825,1.75483,1.46577,-1.24918,-0.668304,-0.745518,-0.745529,-0.322649,0.383175,0.719568,0.113142,-0.647953,-0.713091,-0.448119,-0.450917,0.417397,0.742534,0.0350658,0.035409,-0.550776,0.905873,0.923384,-0.17393,0.135672,0.314171,-0.471306,-0.437341,-0.604448,0.273005,-0.61547,1.20057,-2.99129,-0.134168,-3.31362,-2.85373,-0.0794679,-3.12774,-0.684395,-0.747133,-0.66925,-0.409642,-0.00902109,0.492283,0.206262,1
1.05551,-1.00881,-1.66915,-0.784659,1.72239,1.52804,-1.22117,1.07617,-0.991421,-1.64618,-0.786782,1.77152,1.50586,-1.24118,1.1279,-0.933742,-1.59775,-0.751353,1.75876,1.47248,-1.2479,-0.703573,-0.821918,-0.80523,-0.337214,0.401662,0.64545,0.123535,-0.673492,-0.756286,-0.682879,-0.367633,0.395711,0.70618,0.0956037,0.030475,-0.555821,0.899557,0.924679,-0.170799,0.134895,0.31241,-0.505364,-0.483818,-0.65951,0.245092,-0.615913,1.16849,-2.74623,-0.0436636,-3.15642,-2.84486,-0.0798779,-3.21324,-0.723864,-0.750633,-0.713985,-0.333061,-0.363743,0.555613,0.267295,1
1.04994,-1.01686,-1.67957,-0.784577,1.71737,1.53271,-1.21659,1.06626,-1.00019,-1.65667,-0.787816,1.75265,1.51528,-1.23237,1.12045,-0.942527,-1.60564,-0.755657,1.76283,1.47827,-1.24688,-0.763177,-0.894091,-0.779778,-0.476132,0.396583,0.556515,0.0888855,-0.711685,-0.820509,-0.776846,-0.378665,0.393806,0.640511,0.108521,0.0254578,-0.561223,0.892698,0.926092,-0.166793,0.133847,0.310837,-0.506523,-0.504879,-0.716001,0.217018,-0.618265,1.13567,-2.73348,-0.22895,-3.19552,-2.83868,-0.0954824,-3.30292,-0.705108,-0.743335,-0.739241,-0.289199,-0.454535,0.544393,0.302909,1
1.04238,-1.02589,-1.68506,-0.797933,1.71089,1.54053,-1.23478,1.05729,-1.0087,-1.66798,-0.786961,1.732,1.52518,-1.2245,1.11235,-0.95177,-1.6133,-0.761334,1.76596,1.48346,-1.24609,-0.824539,-0.927018,-0.768346,-0.578675,0.247265,0.522079,0.0921676,-0.763763,-0.881009,-0.784451,-0.464007,0.348503,0.574681,0.101529,0.0205768,-0.566689,0.885369,0.92751,-0.16217,0.133146,0.309353,-0.499569,-0.50007,-0.757159,0.187611,-0.618237,1.1008,-3.02631,0.00286448,-3.58804,-2.84433,-0.10151,-3.4095,-0.699742,-0.741246,-0.717543,-0.365988,-0.55066,0.570644,0.113107,1
1.03331,-1.03501,-1.69465,-0.809365,1.70885,1.53563,-1.2593,1.04943,-1.01721,-1.67784,-0.789776,1.71876,1.53257,-1.2257,1.10377,-0.961056,-1.62119,-0.767024,1.76608,1.48897,-1.24449,-0.866801,-0.925351,-0.805137,-0.539925,-0.106372,0.575232,0.20531,-0.818173,-0.915487,-0.78442,-0.531578,0.179158,0.551275,0.128788,0.0158074,-0.571927,0.87775,0.928773,-0.157524,0.133978,0.307597,-0.505492,-0.477907,-0.778036,0.158948,-0.617679,1.06486,-2.79916,0.05452,-3.51036,-2.85216,-0.0847961,-3.52842,-0.704617,-0.739516,-0.734581,-0.423414,-0.572295,0.466621,-0.14816,1
1.0223,-1.0437,-1.70479,-0.78868,1.70126,1.53618,-1.24485,1.04157,-1.02596,-1.68632,-0.796044,1.71212,1.5363,-1.23614,1.09494,-0.970211,-1.6297,-0.771573,1.7619,1.49537,-1.24134,-0.883241,-0.911602,-0.868714,-0.421178,-0.521154,0.661989,0.343749,-0.858194,-0.921324,-0.814066,-0.51326,-0.126754,0.586434,0.213742,0.0110903,-0.576832,0.869942,0.92979,-0.153204,0.13707,0.305338,-0.516835,-0.453005,-0.788874,0.131159,-0.618037,1.02845,-2.83924,-0.0365879,-3.71956,-2.84466,-0.0652586,-3.64297,-0.726463,-0.734907,-0.750869,-0.171066,-0.606352,0.408078,-0.0350178,1
1.01238,-1.05243,-1.71505,-0.741743,1.69053,1.55117,-1.21899,1.03255,-1.03486,-1.69512,-0.79556,1.70685,1.53778,-1.24437,1.08615,-0.979225,-1.63875,-0.775142,1.75451,1.5024,-1.23769,-0.873265,-0.898301,-0.909768,-0.352224,-0.775636,0.70505,0.335256,-0.874436,-0.911751,-0.861206,-0.437776,-0.467721,0.647424,0.294771,0.00648663,-0.581463,0.862003,0.93067,-0.149127,0.141808,0.302498,-0.511197,-0.432086,-0.796652,0.103133,-0.618403,0.990839,-2.76291,-0.036096,-3.70808,-2.84126,-0.0445017,-3.75027,-0.737717,-0.732092,-0.763014,0.333992,-0.639781,0.487717,0.187012,1
1.00604,-1.06184,-1.72472,-0.741422,1.6813,1.55996,-1.23849,1.02281,-1.04373,-1.70483,-0.779742,1.69983,1.54155,-1.24097,1.07757,-0.988142,-1.6479,-0.778747,1.74621,1.50929,-1.23565,-0.854036,-0.890643,-0.910403,-0.377154,-0.819417,0.669516,0.125962,-0.870181,-0.900182,-0.896295,-0.383519,-0.705402,0.678852,0.268322,0.00212519,-0.585931,0.853976,0.931667,-0.145033,0.14687,0.298984,-0.488494,-0.417791,-0.803984,0.0744071,-0.619621,0.952416,-2.85347,-0.120973,-3.81675,-2.84384,-0.0399934,-3.85794,-0.715289,-0.737004,-0.768255,0.373251,-0.649044,0.506638,-0.028367,1
0.997814,-1.0703,-1.73329,-0.74592,1.68439,1.56307,-1.25158,1.01367,-1.05263,-1.71477,-0.757884,1.69167,1.54939,-1.23488,1.06908,-0.99703,-1.65691,-0.782545,1.73836,1.51535,-1.23624,-0.852537,-0.888832,-0.900283,-0.353027,-0.768871,0.577473,-0.106849,-0.859946,-0.892592,-0.906818,-0.360801,-0.787975,0.65068,0.118123,-0.00220539,-0.590379,0.845953,0.933021,-0.140698,0.151453,0.294514,-0.504731,-0.415326,-0.798199,0.0454101,-0.619488,0.913687,-2.87062,0.0131173,-3.83408,-2.8466,-0.0255802,-3.95265,-0.712624,-0.732653,-0.763785,0.366247,-0.539688,0.477159,-0.153371,1
0.987004,-1.07944,-1.74137,-0.742798,1.67946,1.57297,-1.24487,1.0054,-1.06157,-1.72424,-0.745667,1.68551,1.55787,-1.23768,1.06042,-1.00592,-1.66593,-0.784495,1.73098,1.52054,-1.23784,-0.871908,-0.888774,-0.906497,-0.0840497,-0.735915,0.509404,-0.128583,-0.859494,-0.889416,-0.905728,-0.27141,-0.774734,0.585464,-0.03649,-0.00741229,-0.594926,0.838233,0.934802,-0.136239,0.155533,0.288779,-0.62237,-0.422485,-0.756745,0.0230569,-0.616042,0.89475,-2.26491,0.349227,-1.9188,-2.77675,0.00493782,-3.80907,-0.734208,-0.73522,-0.754312,0.416961,-0.515156,0.524286,-0.0702707,1
0.976877,-1.08868,-1.75024,-0.734125,1.67149,1.57941,-1.22705,0.99677,-1.0705,-1.73309,-0.743017,1.68196,1.56504,-1.24306,1.05157,-1.01481,-1.67512,-0.782159,1.72361,1.52565,-1.23817,-0.887444,-0.888756,-0.923449,0.355393,-0.741856,0.527951,0.00660992,-0.87063,-0.888787,-0.910076,-0.0272277,-0.748881,0.538276,-0.076274,-0.0143824,-0.599527,0.831135,0.936907,-0.132183,0.159371,0.281662,-0.798148,-0.424337,-0.692888,0.00721295,-0.606225,0.900781,-1.63695,1.01418,0.62309,-2.60405,0.133089,-3.23855,-0.746905,-0.738769,-0.751152,0.480341,-0.521165,0.537628,0.111284,1
0.964765,-1.09669,-1.75884,-0.724411,1.66243,1.57813,-1.21304,0.986975,-1.07944,-1.74162,-0.740175,1.67775,1.57161,-1.2397,1.0427,-1.0237,-1.68445,-0.776072,1.71618,1.5314,-1.23761,-0.88315,-0.889471,-0.933509,0.646986,-0.734707,0.592058,0.0353751,-0.880834,-0.889,-0.921152,0.30611,-0.737493,0.543137,-0.0288659,-0.0228155,-0.60401,0.82454,0.939202,-0.128819,0.163062,0.273341,-0.910019,-0.410679,-0.653971,-0.00871192,-0.59606,0.907051,-1.56292,0.997671,0.61537,-2.36716,0.335231,-2.39997,-0.779346,-0.729885,-0.743904,0.516607,-0.537499,0.467313,0.245674,1
0.954471,-1.10289,-1.76487,-0.709773,1.66124,1.55841,-1.20959,0.976289,-1.08811,-1.75002,-0.73308,1.67138,1.57514,-1.22844,1.03394,-1.0326,-1.69377,-0.76919,1.70919,1.53767,-1.23794,-0.874982,-0.890364,-0.929175,0.661697,-0.67771,0.633284,-0.0646328,-0.881859,-0.88953,-0.928711,0.554692,-0.718091,0.584431,-0.00754926,-0.0316114,-0.608265,0.818009,0.941557,-0.125842,0.166473,0.264426,-0.922391,-0.38732,-0.655957,-0.0243052,-0.585392,0.911888,-1.5895,1.08745,0.493068,-2.09554,0.569348,-1.46604,-0.794697,-0.702924,-0.711017,0.594178,-0.479513,0.207391,0.283506,1
0.944448,-1.10339,-1.76623,-0.698532,1.67139,1.55202,-1.22007,0.96534,-1.09558,-1.75757,-0.722712,1.66602,1.57156,-1.21811,1.02514,-1.04151,-1.70297,-0.763234,1.70292,1.54411,-1.23888,-0.885975,-0.891093,-0.915598,0.576194,-0.614106,0.644804,-0.0666565,-0.881369,-0.89031,-0.926094,0.628292,-0.675508,0.623382,-0.0319714,-0.0402535,-0.612282,0.81132,0.943782,-0.122839,0.169582,0.255788,-0.909388,-0.362583,-0.67102,-0.0398514,-0.574412,0.915437,-1.48526,1.04905,0.339095,-1.83562,0.799293,-0.615124,-0.806948,-0.618786,-0.632617,0.64702,-0.315302,0.0790978,0.188056,1
0.935477,-1.10804,-1.7668,-0.694856,1.69632,1.56491,-1.24028,0.954752,-1.1009,-1.76291,-0.711212,1.66691,1.56346,-1.21608,1.01607,-1.05041,-1.71201,-0.757717,1.69698,1.5504,-1.2384,-0.917127,-0.888565,-0.900326,0.561577,-0.596764,0.611789,0.115178,-0.892695,-0.890007,-0.915033,0.599823,-0.629527,0.629959,-0.00537043,-0.0489849,-0.616091,0.804566,0.945725,-0.119554,0.172656,0.247994,-0.92738,-0.341382,-0.671944,-0.0555551,-0.56272,0.919077,-1.55527,1.15791,0.360511,-1.64368,0.979996,-0.00481288,-0.805953,-0.576269,-0.547927,0.628607,-0.00654453,0.145021,-0.0187849,1
0.926923,-1.11356,-1.76785,-0.692899,1.70791,1.56372,-1.25655,0.944886,-1.10464,-1.76567,-0.701688,1.67681,1.5592,-1.22434,1.00663,-1.05919,-1.72086,-0.751658,1.691,1.55567,-1.23559,-0.953717,-0.869634,-0.876979,0.632759,-0.593793,0.471031,0.32787,-0.91894,-0.883098,-0.897634,0.590177,-0.601554,0.575875,0.125464,-0.0581134,-0.619777,0.798003,0.947457,-0.115649,0.175845,0.24089,-0.972215,-0.325878,-0.643993,-0.0725405,-0.551548,0.921632,-1.71673,1.12918,0.258225,-1.58381,1.07907,0.198667,-0.797065,-0.543684,-0.469854,0.587591,0.169053,0.0805417,-0.209599,1
0.918445,-1.11359,-1.77316,-0.684152,1.69785,1.54423,-1.23824,0.935704,-1.10828,-1.7672,-0.695549,1.69089,1.55969,-1.23725,0.996874,-1.06755,-1.7293,-0.744579,1.68553,1.55871,-1.2316,-0.980697,-0.817199,-0.823966,0.73543,-0.507643,0.234516,0.386307,-0.950514,-0.858466,-0.867091,0.643255,-0.566067,0.439112,0.276452,-0.0677669,-0.623384,0.792016,0.949275,-0.110915,0.178745,0.233722,-1.02327,-0.306447,-0.577454,-0.0888498,-0.540573,0.922861,-1.66498,1.12039,0.125434,-1.59677,1.10233,0.116403,-0.784292,-0.460382,-0.438616,0.604275,0.123248,-0.144806,-0.0663677,1
0.908542,-1.11659,-1.79273,-0.677168,1.67839,1.54216,-1.20917,0.926888,-1.11174,-1.77037,-0.69057,1.69837,1.55706,-1.24266,0.986977,-1.07515,-1.73689,-0.736639,1.68199,1.55951,-1.22866,-0.989484,-0.7356,-0.729579,0.8039,-0.269847,0.0485841,0.224811,-0.974633,-0.807478,-0.810175,0.72403,-0.457095,0.251377,0.312996,-0.0779517,-0.62673,0.78696,0.951449,-0.105878,0.180498,0.225732,-1.06354,-0.266736,-0.484192,-0.104227,-0.529629,0.922269,-1.55592,1.10738,-0.0598946,-1.60115,1.11355,0.0135547,-0.784346,-0.414458,-0.558357,0.594707,-0.0360428,-0.173491,0.194892,1
0.898235,-1.11981,-1.80367,-0.669801,1.67292,1.53615,-1.20318,0.91789,-1.11437,-1.77823,-0.684365,1.69385,1.54937,-1.23348,0.977127,-1.08188,-1.74335,-0.728547,1.68167,1.55947,-1.22846,-0.980805,-0.65445,-0.614772,0.79697,0.0579532,-0.000600614,-0.062201,-0.983662,-0.735749,-0.722772,0.778767,-0.239846,0.0941664,0.182972,-0.0885262,-0.629523,0.782871,0.954026,-0.101542,0.18042,0.216728,-1.07843,-0.210025,-0.398332,-0.120583,-0.518458,0.92087,-1.56285,1.06745,-0.133701,-1.61028,1.11612,-0.0914559,-0.788917,-0.379258,-0.603174,0.587467,-0.0875536,-0.233179,0.252791,1
0.887919,-1.11735,-1.8081,-0.666687,1.67522,1.53221,-1.21927,0.908301,-1.1165,-1.78998,-0.6774,1.68353,1.5419,-1.21853,0.967446,-1.08793,-1.74881,-0.720955,1.68415,1.55936,-1.23072,-0.962644,-0.588039,-0.531848,0.742845,0.279058,-0.0262768,-0.245873,-0.977645,-0.659363,-0.6254,0.781238,0.022388,0.00723555,-0.0277542,-0.0991571,-0.631734,0.779464,0.956808,-0.0980905,0.178805,0.207185,-1.06056,-0.162017,-0.341194,-0.137659,-0.507708,0.917935,-1.69394,1.0664,-0.291105,-1.62558,1.10913,-0.208159,-0.795269,-0.294232,-0.592892,0.542685,-0.089323,-0.271553,0.11448,1
0.878285,-1.12041,-1.81444,-0.661138,1.67852,1.51937,-1.21939,0.898249,-1.11804,-1.80081,-0.67122,1.67677,1.53612,-1.2119,0.957946,-1.09335,-1.75404,-0.71387,1.68703,1.5584,-1.23282,-0.946851,-0.524789,-0.539488,0.703069,0.241748,-0.138094,-0.139792,-0.963434,-0.589092,-0.562036,0.747628,0.19292,-0.0549906,-0.149288,-0.109426,-0.633653,0.776414,0.959429,-0.0944837,0.177113,0.197992,-1.01847,-0.139487,-0.312649,-0.15416,-0.496308,0.915105,-1.67911,1.16,-0.287948,-1.63494,1.10369,-0.326073,-0.796611,-0.270586,-0.603964,0.527316,-0.0850816,-0.390361,0.134371,1
0.868933,-1.12248,-1.82439,-0.659101,1.67798,1.51721,-1.21332,0.888192,-1.119,-1.80863,-0.666259,1.67584,1.52967,-1.21427,0.948522,-1.09812,-1.76008,-0.706934,1.68793,1.55597,-1.23209,-0.943433,-0.46108,-0.639718,0.693762,0.0201788,-0.275124,0.162002,-0.950976,-0.524636,-0.570351,0.713225,0.180328,-0.146498,-0.074554,-0.119105,-0.635548,0.773444,0.961572,-0.0897053,0.176894,0.189844,-0.974231,-0.13291,-0.306706,-0.169401,-0.485673,0.911368,-1.63267,1.13926,-0.40038,-1.62369,1.10027,-0.430849,-0.795899,-0.243577,-0.643045,0.47833,-0.0994802,-0.387532,0.187731,1
0.860012,-1.12837,-1.83518,-0.655614,1.67216,1.51058,-1.20694,0.87846,-1.12062,-1.81596,-0.662212,1.67681,1.52254,-1.21605,0.939035,-1.10228,-1.76733,-0.700038,1.68656,1.55252,-1.2287,-0.952297,-0.399226,-0.747257,0.685148,-0.170718,-0.359614,0.359102,-0.947527,-0.461698,-0.642154,0.693993,0.030403,-0.257611,0.127104,-0.12829,-0.637425,0.770434,0.963247,-0.0838005,0.178391,0.182506,-0.943688,-0.121479,-0.303009,-0.185177,-0.475566,0.90602,-1.54499,0.989787,-0.523757,-1.61752,1.08958,-0.528894,-0.790225,-0.260919,-0.67847,0.444238,-0.144037,-0.419391,0.21767,1
0.850853,-1.13636,-1.84483,-0.652011,1.66549,1.50426,-1.19738,0.869097,-1.12398,-1.82486,-0.65877,1.67571,1.51622,-1.21262,0.929422,-1.10582,-1.7752,-0.693372,1.68434,1.54851,-1.22513,-0.964062,-0.338164,-0.786242,0.655976,-0.214018,-0.415812,0.320536,-0.953264,-0.39949,-0.724406,0.678295,-0.121519,-0.350183,0.280547,-0.137209,-0.639124,0.767557,0.964738,-0.0774628,0.180631,0.175079,-0.925204,-0.0983104,-0.281129,-0.2006,-0.465471,0.900921,-1.55746,1.01936,-0.514911,-1.60732,1.07246,-0.608255,-0.785692,-0.305414,-0.696333,0.413608,-0.188532,-0.442517,0.27743,1
0.840982,-1.13863,-1.85311,-0.647735,1.66012,1.50098,-1.19307,0.859905,-1.12904,-1.83472,-0.655438,1.67159,1.51061,-1.20605,0.91973,-1.10883,-1.78302,-0.687137,1.68252,1.54392,-1.22283,-0.969457,-0.292382,-0.779621,0.609868,-0.164868,-0.47455,0.20419,-0.961939,-0.343257,-0.77104,0.650331,-0.183201,-0.416659,0.294609,-0.145996,-0.640591,0.764964,0.966241,-0.0710871,0.182714,0.167157,-0.910402,-0.0761328,-0.256341,-0.215606,-0.454622,0.894681,-1.42704,1.03173,-0.593329,-1.57847,1.05972,-0.68457,-0.787485,-0.297945,-0.700878,0.39402,-0.224018,-0.429453,0.297622,1
0.831203,-1.14124,-1.86117,-0.644556,1.66065,1.49411,-1.19076,0.850577,-1.13437,-1.84423,-0.65182,1.66629,1.50519,-1.19927,0.910051,-1.11164,-1.79083,-0.681421,1.68119,1.53882,-1.22113,-0.965951,-0.283987,-0.787689,0.557384,-0.131291,-0.517766,0.180967,-0.96649,-0.304845,-0.784517,0.607743,-0.170059,-0.469376,0.235231,-0.154662,-0.641953,0.762445,0.967705,-0.0645408,0.18451,0.159176,-0.894709,-0.0681459,-0.260102,-0.230531,-0.444509,0.887198,-1.5131,1.02533,-0.758675,-1.54539,1.04704,-0.762524,-0.788486,-0.296048,-0.703361,0.368656,-0.205436,-0.44709,0.303659,1
0.821661,-1.14531,-1.86916,-0.644624,1.66428,1.488,-1.1892,0.840987,-1.13849,-1.85294,-0.648307,1.6626,1.49987,-1.1942,0.900452,-1.11467,-1.79894,-0.676215,1.67974,1.53349,-1.21886,-0.957389,-0.315453,-0.821542,0.50894,-0.162079,-0.534733,0.253651,-0.964266,-0.297274,-0.796284,0.558731,-0.152746,-0.509017,0.212936,-0.163177,-0.643381,0.75962,0.969002,-0.057556,0.186322,0.151677,-0.879654,-0.0741935,-0.297651,-0.246341,-0.432381,0.877143,-1.55497,1.19282,-0.98902,-1.53297,1.05376,-0.869878,-0.787916,-0.306457,-0.702183,0.315908,-0.15456,-0.454941,0.296584,1
0.812255,-1.15091,-1.8771,-0.645961,1.66571,1.48344,-1.18593,0.831306,-1.14191,-1.86112,-0.645921,1.66204,1.49427,-1.19106,0.890935,-1.11816,-1.80741,-0.671407,1.67762,1.52811,-1.21563,-0.950549,-0.360741,-0.85385,0.473424,-0.231203,-0.538267,0.345254,-0.957963,-0.32006,-0.821027,0.513249,-0.174858,-0.530255,0.259957,-0.171562,-0.644941,0.756301,0.970083,-0.0500366,0.188347,0.14478,-0.869391,-0.0821746,-0.343826,-0.26341,-0.420505,0.867268,-1.74709,1.21554,-1.01072,-1.55102,1.08156,-0.977774,-0.786799,-0.327542,-0.696917,0.254459,-0.119151,-0.446724,0.296949,1
0.802788,-1.1583,-1.88583,-0.64788,1.66227,1.48063,-1.18137,0.821723,-1.14609,-1.86918,-0.645339,1.66334,1.48874,-1.18853,0.881445,-1.12199,-1.81607,-0.666868,1.6749,1.52273,-1.21171,-0.949713,-0.384652,-0.865928,0.447498,-0.278349,-0.537872,0.398874,-0.95255,-0.353615,-0.847107,0.476621,-0.223877,-0.536957,0.332593,-0.179878,-0.646538,0.752628,0.970977,-0.0421513,0.190531,0.138294,-0.863708,-0.079015,-0.369922,-0.278202,-0.411154,0.857804,-1.47694,0.933696,-0.944912,-1.5551,1.09075,-1.06961,-0.786564,-0.3631,-0.697607,0.189878,-0.126249,-0.420962,0.303435,1
0.79316,-1.16535,-1.89497,-0.648797,1.6539,1.47837,-1.17564,0.812231,-1.15166,-1.87742,-0.646196,1.66344,1.48423,-1.18527,0.871927,-1.12584,-1.8247,-0.662622,1.67215,1.51734,-1.20765,-0.952841,-0.382433,-0.86089,0.412974,-0.26162,-0.53993,0.400147,-0.951034,-0.375942,-0.860223,0.444632,-0.257057,-0.538689,0.381425,-0.188162,-0.648025,0.748866,0.971752,-0.0341728,0.192628,0.132001,-0.858313,-0.0656337,-0.374443,-0.293504,-0.399825,0.844673,-1.55219,1.14917,-1.33189,-1.55993,1.09957,-1.18723,-0.787669,-0.395133,-0.702717,0.138254,-0.182513,-0.389728,0.320141,1
0.783547,-1.16985,-1.90423,-0.651214,1.64398,1.47415,-1.1686,0.802725,-1.15812,-1.88604,-0.647634,1.66002,1.48082,-1.18077,0.862378,-1.12964,-1.83323,-0.658894,1.66999,1.51191,-1.20383,-0.955068,-0.382387,-0.850081,0.353207,-0.19429,-0.543572,0.373911,-0.95254,-0.383157,-0.858967,0.40456,-0.244753,-0.540458,0.390977,-0.196414,-0.649377,0.74508,0.972473,-0.0262111,0.194336,0.125869,-0.84934,-0.0538344,-0.381275,-0.309317,-0.388945,0.831868,-1.56116,1.07413,-1.2642,-1.56764,1.09867,-1.29581,-0.788311,-0.402115,-0.709969,0.0767919,-0.26009,-0.377632,0.352323,1
0.774006,-1.17469,-1.91341,-0.661872,1.63609,1.47085,-1.16257,0.79316,-1.16439,-1.89504,-0.649812,1.65314,1.47773,-1.17514,0.852828,-1.1336,-1.84167,-0.655946,1.66852,1.50652,-1.20026,-0.954723,-0.406606,-0.842367,0.271049,-0.136698,-0.533671,0.355768,-0.95421,-0.390475,-0.851113,0.345743,-0.197536,-0.539058,0.376609,-0.204589,-0.650674,0.741088,0.973146,-0.0182128,0.195551,0.120064,-0.835048,-0.0501613,-0.4093,-0.325415,-0.378307,0.817552,-1.58819,1.04952,-1.4124,-1.57393,1.09342,-1.40029,-0.788214,-0.410874,-0.717452,-0.0592606,-0.324359,-0.356779,0.376901,1
0.76457,-1.18113,-1.92204,-0.672178,1.63222,1.46892,-1.15829,0.783582,-1.16992,-1.90418,-0.654376,1.64489,1.47446,-1.16901,0.843289,-1.13798,-1.85008,-0.653874,1.6672,1.50139,-1.19668,-0.953671,-0.450411,-0.842744,0.185308,-0.145638,-0.502387,0.363727,-0.954487,-0.413135,-0.845064,0.269855,-0.158876,-0.526543,0.364469,-0.212615,-0.65199,0.736658,0.973714,-0.0100849,0.196501,0.114742,-0.815767,-0.0520719,-0.456446,-0.340912,-0.367595,0.803278,-1.63236,1.12839,-1.50361,-1.56729,1.07488,-1.48915,-0.787196,-0.43153,-0.719606,-0.183044,-0.349761,-0.324692,0.383841,1
0.755323,-1.18696,-1.93034,-0.680272,1.6296,1.46677,-1.15596,0.774062,-1.17527,-1.91318,-0.662117,1.6378,1.47141,-1.16341,0.833754,-1.1428,-1.85857,-0.652621,1.66521,1.49666,-1.19283,-0.95364,-0.491494,-0.85142,0.103809,-0.229742,-0.462914,0.396062,-0.954011,-0.449504,-0.84551,0.186722,-0.170693,-0.499657,0.371852,-0.2204,-0.653343,0.731691,0.974097,-0.00173206,0.197592,0.109952,-0.78941,-0.0543785,-0.507468,-0.357131,-0.35715,0.78815,-1.53615,0.989235,-1.43284,-1.56605,1.06679,-1.58403,-0.784315,-0.441566,-0.717708,-0.27651,-0.356104,-0.298895,0.368712,1
0.746188,-1.1931,-1.93857,-0.681839,1.62445,1.46426,-1.15322,0.764654,-1.18102,-1.92188,-0.670919,1.63278,1.4689,-1.15911,0.824212,-1.1479,-1.86717,-0.652268,1.66205,1.49228,-1.18855,-0.954423,-0.512696,-0.863748,0.00463565,-0.347151,-0.431048,0.438898,-0.953911,-0.484867,-0.852637,0.0979174,-0.240844,-0.465449,0.399563,-0.2278,-0.654722,0.72623,0.974227,0.00692885,0.199122,0.10575,-0.749017,-0.05533,-0.552115,-0.372345,-0.347539,0.771681,-1.56916,0.991309,-1.69852,-1.57599,1.06266,-1.6786,-0.780244,-0.451998,-0.713979,-0.295705,-0.376016,-0.280174,0.353309,1
0.736999,-1.19938,-1.94688,-0.681181,1.6178,1.46006,-1.14747,0.755373,-1.18705,-1.9303,-0.677547,1.62863,1.46652,-1.15574,0.814666,-1.15309,-1.87588,-0.653189,1.65784,1.48816,-1.1839,-0.954488,-0.519501,-0.87326,-0.134672,-0.439171,-0.405463,0.471149,-0.954184,-0.507897,-0.862809,-0.00874263,-0.338688,-0.433141,0.43537,-0.234648,-0.656123,0.720326,0.974087,0.0159267,0.201093,0.102287,-0.693658,-0.0569528,-0.593938,-0.388241,-0.336439,0.754654,-1.52123,1.06221,-1.62954,-1.5785,1.05045,-1.74941,-0.776664,-0.462932,-0.709911,-0.279921,-0.400406,-0.281037,0.364274,1
0.727681,-1.20497,-1.95499,-0.683255,1.61118,1.45668,-1.14091,0.746167,-1.19313,-1.93858,-0.680767,1.62373,1.46366,-1.15202,0.805131,-1.15833,-1.88465,-0.655681,1.65311,1.48431,-1.17912,-0.952608,-0.527648,-0.87568,-0.288571,-0.474565,-0.376862,0.475548,-0.95384,-0.519948,-0.870896,-0.139536,-0.420296,-0.404457,0.461865,-0.240905,-0.657551,0.713979,0.973721,0.0251816,0.203233,0.0996472,-0.638454,-0.0589202,-0.635929,-0.403231,-0.325534,0.736545,-1.54029,1.12062,-1.86078,-1.56723,1.05009,-1.83344,-0.774508,-0.466407,-0.703454,-0.275743,-0.41936,-0.276268,0.38206,1
0.718379,-1.21173,-1.96305,-0.686752,1.6067,1.45498,-1.13619,0.736948,-1.19921,-1.9468,-0.682155,1.61785,1.46037,-1.1471,0.795633,-1.16371,-1.89338,-0.659441,1.64837,1.48076,-1.17449,-0.948494,-0.541338,-0.87109,-0.393893,-0.470373,-0.3475,0.454544,-0.951863,-0.529495,-0.873343,-0.272379,-0.46137,-0.376608,0.46708,-0.246756,-0.658974,0.707247,0.973216,0.034524,0.205255,0.0976154,-0.604268,-0.0569005,-0.669256,-0.418201,-0.314242,0.716031,-1.50659,1.13633,-2.06443,-1.55038,1.06081,-1.93402,-0.772534,-0.480292,-0.696717,-0.273106,-0.416757,-0.257742,0.382995,1
0.709073,-1.21905,-1.9711,-0.693371,1.60327,1.45417,-1.13316,0.727679,-1.2054,-1.95496,-0.684155,1.61205,1.45742,-1.14166,0.786186,-1.16923,-1.90203,-0.663635,1.64372,1.47744,-1.17013,-0.943105,-0.555553,-0.863027,-0.413337,-0.466951,-0.328977,0.432639,-0.948069,-0.541513,-0.869932,-0.365267,-0.47063,-0.351113,0.454244,-0.252504,-0.660323,0.700295,0.972641,0.0438219,0.207067,0.0957706,-0.599232,-0.0484994,-0.685608,-0.433331,-0.303327,0.695473,-1.51277,1.09142,-2.05558,-1.53673,1.07366,-2.04567,-0.77113,-0.4982,-0.690662,-0.297358,-0.404473,-0.232651,0.369642,1
0.699673,-1.22541,-1.97934,-0.699332,1.59874,1.45597,-1.13003,0.718373,-1.21195,-1.96305,-0.687971,1.60716,1.45558,-1.13693,0.776792,-1.17487,-1.9106,-0.667506,1.63895,1.4742,-1.16583,-0.938276,-0.567122,-0.854652,-0.371609,-0.483612,-0.324528,0.433374,-0.943292,-0.554671,-0.862923,-0.392946,-0.473645,-0.333669,0.440185,-0.258381,-0.661551,0.693277,0.972014,0.0530637,0.208739,0.0938177,-0.613058,-0.0358071,-0.688975,-0.449466,-0.293123,0.677176,-1.56161,0.987552,-1.77081,-1.53192,1.08108,-2.12129,-0.771193,-0.505446,-0.687393,-0.318256,-0.402088,-0.182258,0.35799,1
0.690398,-1.23126,-1.98773,-0.704043,1.59227,1.45724,-1.12506,0.709045,-1.21869,-1.97118,-0.693241,1.6028,1.45517,-1.13311,0.767434,-1.18062,-1.91909,-0.670864,1.63394,1.47096,-1.16137,-0.935237,-0.577499,-0.846666,-0.327292,-0.505788,-0.321502,0.452444,-0.938873,-0.566724,-0.854782,-0.370746,-0.485451,-0.325003,0.439486,-0.264437,-0.662643,0.686238,0.97132,0.0622899,0.210325,0.0917599,-0.627668,-0.0222271,-0.691152,-0.463444,-0.283272,0.654924,-1.42502,1.00427,-2.26849,-1.52089,1.07729,-2.20107,-0.770364,-0.506396,-0.686432,-0.331786,-0.416747,-0.137295,0.363113,1
0.681325,-1.2373,-1.99607,-0.707744,1.58478,1.45959,-1.11916,0.699727,-1.22517,-1.9794,-0.698759,1.59788,1.456,-1.12928,0.758094,-1.18648,-1.9275,-0.674028,1.62881,1.46786,-1.15673,-0.933828,-0.591011,-0.839048,-0.320463,-0.511543,-0.302499,0.464253,-0.935781,-0.578544,-0.846789,-0.339788,-0.500314,-0.316176,0.450024,-0.270586,-0.663602,0.679112,0.970556,0.0714843,0.211786,0.0897661,-0.631826,-0.00965588,-0.701888,-0.479488,-0.271448,0.630858,-1.61128,1.1875,-2.41697,-1.51941,1.07364,-2.29816,-0.767681,-0.508161,-0.685694,-0.337163,-0.440291,-0.0827024,0.375678,1
0.672158,-1.24342,-2.00405,-0.71089,1.57812,1.46189,-1.11589,0.690476,-1.2313,-1.9877,-0.703551,1.59182,1.45761,-1.12476,0.748759,-1.19251,-1.93584,-0.677422,1.62377,1.46512,-1.15213,-0.933358,-0.607402,-0.832867,-0.351076,-0.500284,-0.259408,0.455418,-0.934141,-0.591971,-0.839527,-0.332944,-0.505872,-0.29447,0.457372,-0.276711,-0.664426,0.6718,0.96973,0.0805641,0.213056,0.0879757,-0.624833,0.00270958,-0.721335,-0.495565,-0.258452,0.607879,-1.59747,1.29124,-2.28327,-1.53461,1.09603,-2.38176,-0.766015,-0.509069,-0.682083,-0.334678,-0.456423,-0.0323,0.362402,1
