Afshin1997/kuka_rl_ros2/src/catch_and_throw/output_files/tm/nn_ema1.00_jvws1_simball_D11H11M03S26/recorded_data.csv
pure_target_joint_0,pure_target_joint_1,pure_target_joint_2,pure_target_joint_3,pure_target_joint_4,pure_target_joint_5,pure_target_joint_6,target_joint_0,target_joint_1,target_joint_2,target_joint_3,target_joint_4,target_joint_5,target_joint_6,pos_joint_0,pos_joint_1,pos_joint_2,pos_joint_3,pos_joint_4,pos_joint_5,pos_joint_6,vel_joint_0,vel_joint_1,vel_joint_2,vel_joint_3,vel_joint_4,vel_joint_5,vel_joint_6,vel_smooth_joint_0,vel_smooth_joint_1,vel_smooth_joint_2,vel_smooth_joint_3,vel_smooth_joint_4,vel_smooth_joint_5,vel_smooth_joint_6,ee_pos_x,ee_pos_y,ee_pos_z,ee_or_w,ee_or_x,ee_or_y,ee_or_z,ee_vel_x,ee_vel_y,ee_vel_z,ball_pos_x,ball_pos_y,ball_pos_z,ball_raw_vx,ball_raw_vy,ball_raw_vz,ball_ema_vx,ball_ema_vy,ball_ema_vz,action_0,action_1,action_2,action_3,action_4,action_5,action_6,command_published
-nan,-nan,-nan,-nan,-nan,-nan,-nan,-nan,-nan,-nan,-nan,-nan,-nan,-nan,1.78146,-1.07391,-1.82,-1.12081,1.93556,1.11286,-0.916323,2.39541e-05,1.1977e-05,0,2.39759e-05,1.91633e-05,0,-5.99071e-05,2.39541e-05,1.1977e-05,0,2.39759e-05,1.91633e-05,0,-5.99071e-05,0.538604,-0.456174,0.694915,0.572356,0.182264,0.153001,0.784716,5.83039e-06,5.28557e-06,1.27593e-05,1.28896,-0.918934,-0.620133,0.00669438,0.0021168,-0.00222264,0.00669438,0.0021168,-0.00222264,-nan,-nan,-nan,-nan,-nan,-nan,-nan,1
-nan,-nan,-nan,-nan,-nan,-nan,-nan,-nan,-nan,-nan,-nan,-nan,-nan,-nan,1.78146,-1.07391,-1.82,-1.12081,1.93556,1.11286,-0.916323,2.39541e-05,1.1977e-05,0,2.39759e-05,1.91633e-05,0,-5.99071e-05,2.39541e-05,1.1977e-05,0,2.39759e-05,1.91633e-05,0,-5.99071e-05,0.538604,-0.456174,0.694915,0.572356,0.182264,0.153001,0.784716,5.83039e-06,5.28557e-06,1.27593e-05,1.28896,-0.918934,-0.620133,0.00669438,0.0021168,-0.00222264,0.00669438,0.0021168,-0.00222264,-nan,-nan,-nan,-nan,-nan,-nan,-nan,1
-nan,-nan,-nan,-nan,-nan,-nan,-nan,-nan,-nan,-nan,-nan,-nan,-nan,-nan,1.78146,-1.07391,-1.82,-1.12081,1.93556,1.11286,-0.916323,2.39541e-05,1.1977e-05,0,2.39759e-05,1.91633e-05,0,-5.99071e-05,2.39541e-05,1.1977e-05,0,2.39759e-05,1.91633e-05,0,-5.99071e-05,0.538604,-0.456174,0.694915,0.572356,0.182264,0.153001,0.784716,5.83039e-06,5.28557e-06,1.27593e-05,1.28896,-0.918934,-0.620133,0.00669438,0.0021168,-0.00222264,0.00669438,0.0021168,-0.00222264,-nan,-nan,-nan,-nan,-nan,-nan,-nan,1
-nan,-nan,-nan,-nan,-nan,-nan,-nan,-nan,-nan,-nan,-nan,-nan,-nan,-nan,1.78146,-1.07391,-1.82,-1.12081,1.93556,1.11286,-0.916323,2.39541e-05,1.1977e-05,0,2.39759e-05,1.91633e-05,0,-5.99071e-05,2.39541e-05,1.1977e-05,0,2.39759e-05,1.91633e-05,0,-5.99071e-05,0.538604,-0.456174,0.694915,0.572356,0.182264,0.153001,0.784716,5.83039e-06,5.28557e-06,1.27593e-05,1.28896,-0.918934,-0.620133,0.00669438,0.0021168,-0.00222264,0.00669438,0.0021168,-0.00222264,-nan,-nan,-nan,-nan,-nan,-nan,-nan,1
-nan,-nan,-nan,-nan,-nan,-nan,-nan,-nan,-nan,-nan,-nan,-nan,-nan,-nan,1.78146,-1.07391,-1.81999,-1.12081,1.93556,1.11286,-0.916323,5.99289e-05,0,2.39759e-05,0,-1.91633e-05,-2.39541e-05,-2.39541e-05,5.99289e-05,0,2.39759e-05,0,-1.91633e-05,-2.39541e-05,-2.39541e-05,0.538604,-0.456174,0.694915,0.572356,0.182264,0.153001,0.784716,5.78067e-06,1.58468e-05,8.80691e-06,1.28893,-0.918917,-0.620161,-0.032717,0.00141224,-0.0291863,-0.032717,0.00141224,-0.0291863,-nan,-nan,-nan,-nan,-nan,-nan,-nan,1
-nan,-nan,-nan,-nan,-nan,-nan,-nan,-nan,-nan,-nan,-nan,-nan,-nan,-nan,1.78146,-1.07391,-1.82,-1.12081,1.93556,1.11286,-0.916323,-2.39759e-05,-1.1977e-05,-2.39759e-05,0,1.91633e-05,0,3.5953e-05,-2.39759e-05,-1.1977e-05,-2.39759e-05,0,1.91633e-05,0,3.5953e-05,0.538604,-0.456174,0.694915,0.572356,0.182264,0.153001,0.784716,1.28734e-05,3.08276e-05,1.11662e-05,1.28895,-0.918923,-0.620121,0.0921909,0.0917315,0.0584999,0.0921909,0.0917315,0.0584999,-nan,-nan,-nan,-nan,-nan,-nan,-nan,1
-nan,-nan,-nan,-nan,-nan,-nan,-nan,-nan,-nan,-nan,-nan,-nan,-nan,-nan,1.78146,-1.07391,-1.81999,-1.12081,1.93556,1.11286,-0.916323,-1.1977e-05,0,0,0,0,0,0,-1.1977e-05,0,0,0,0,0,0,0.538604,-0.456174,0.694916,0.572356,0.182264,0.153001,0.784716,7.70421e-06,2.20059e-05,2.22855e-05,1.28892,-0.918956,-0.620159,-0.00601216,0.00188617,-0.00592375,-0.00601216,0.00188617,-0.00592375,-nan,-nan,-nan,-nan,-nan,-nan,-nan,1
-nan,-nan,-nan,-nan,-nan,-nan,-nan,-nan,-nan,-nan,-nan,-nan,-nan,-nan,1.78146,-1.07391,-1.81999,-1.12081,1.93556,1.11286,-0.916323,-4.793e-05,0,1.1977e-05,-1.1977e-05,1.91633e-05,2.39759e-05,0,-4.793e-05,0,1.1977e-05,-1.1977e-05,1.91633e-05,2.39759e-05,0,0.538604,-0.456173,0.694916,0.572356,0.182264,0.153001,0.784716,6.57452e-06,1.36448e-05,3.96635e-06,1.28893,-0.918983,-0.620164,-0.00368498,-0.00744727,-0.00819458,-0.00368498,-0.00744727,-0.00819458,-nan,-nan,-nan,-nan,-nan,-nan,-nan,1
-nan,-nan,-nan,-nan,-nan,-nan,-nan,-nan,-nan,-nan,-nan,-nan,-nan,-nan,1.78146,-1.07391,-1.81999,-1.12081,1.93556,1.11286,-0.916323,-1.19776e-05,-2.39771e-05,0,-1.19776e-05,-1.91642e-05,3.59329e-05,2.39552e-05,-1.19776e-05,-2.39771e-05,0,-1.19776e-05,-1.91642e-05,3.59329e-05,2.39552e-05,0.538604,-0.456174,0.694916,0.572356,0.182264,0.153001,0.784716,-2.29152e-06,-1.71122e-05,4.57435e-07,1.28892,-0.918908,-0.620134,-0.0109103,0.00986991,0.00435851,-0.0109103,0.00986991,0.00435851,-nan,-nan,-nan,-nan,-nan,-nan,-nan,1
1.7264,-1.1329,-1.87421,-1.18965,1.97595,1.07237,-0.867129,1.7264,-1.1329,-1.87421,-1.18965,1.97595,1.07237,-0.867129,1.78146,-1.07391,-1.81999,-1.12081,1.93556,1.11286,-0.916323,-1.19776e-05,0,0,0,0,2.39552e-05,0,-1.19776e-05,0,0,0,0,2.39552e-05,0,0.538604,-0.456174,0.694916,0.572356,0.182264,0.153001,0.784716,1.19042e-05,1.14054e-05,9.96332e-06,1.28896,-0.918991,-0.620157,0.0135218,-0.00495922,-0.00761528,0.0135218,-0.00495922,-0.00761528,-0.550614,-0.589917,-0.542194,-0.688431,0.403947,-0.404926,0.491937,1
-nan,-nan,-nan,-nan,-nan,-nan,-nan,-nan,-nan,-nan,-nan,-nan,-nan,-nan,1.78146,-1.07391,-1.81999,-1.12081,1.93556,1.11286,-0.916323,1.19994e-05,0,0,1.19776e-05,0,2.39552e-05,2.39552e-05,1.19994e-05,0,0,1.19776e-05,0,2.39552e-05,2.39552e-05,0.538604,-0.456174,0.694916,0.572356,0.182264,0.153001,0.784716,-6.58295e-06,-9.06812e-06,-4.13007e-06,1.28898,-0.918975,-0.620131,0.0084001,0.00374735,0.0087522,0.0084001,0.00374735,0.0087522,-nan,-nan,-nan,-nan,-nan,-nan,-nan,1
-nan,-nan,-nan,-nan,-nan,-nan,-nan,-nan,-nan,-nan,-nan,-nan,-nan,-nan,1.78146,-1.07391,-1.81999,-1.12081,1.93556,1.11286,-0.916323,1.19994e-05,1.19776e-05,0,0,3.83284e-05,0,2.39552e-05,1.19994e-05,1.19776e-05,0,0,3.83284e-05,0,2.39552e-05,0.538604,-0.456174,0.694916,0.572356,0.182264,0.153001,0.784716,-2.96506e-06,-7.20467e-06,-1.27839e-06,1.28895,-0.918961,-0.620131,-0.00768998,0.00364542,-0.00295359,-0.00768998,0.00364542,-0.00295359,-nan,-nan,-nan,-nan,-nan,-nan,-nan,1
-nan,-nan,-nan,-nan,-nan,-nan,-nan,-nan,-nan,-nan,-nan,-nan,-nan,-nan,1.78146,-1.07391,-1.81999,-1.12081,1.93556,1.11286,-0.916323,-1.19776e-05,1.19776e-05,0,0,0,0,0,-1.19776e-05,1.19776e-05,0,0,0,0,0,0.538604,-0.456174,0.694916,0.572356,0.182264,0.153001,0.784716,3.78281e-06,-1.96925e-06,-1.74331e-06,1.28892,-0.91894,-0.620144,-0.0112117,-0.00308237,-0.00961969,-0.0112117,-0.00308237,-0.00961969,-nan,-nan,-nan,-nan,-nan,-nan,-nan,1
-nan,-nan,-nan,-nan,-nan,-nan,-nan,-nan,-nan,-nan,-nan,-nan,-nan,-nan,1.78146,-1.07391,-1.81999,-1.12081,1.93556,1.11286,-0.916323,5.99099e-05,-1.19776e-05,-1.19776e-05,0,-1.91642e-05,0,0,5.99099e-05,-1.19776e-05,-1.19776e-05,0,-1.91642e-05,0,0,0.538604,-0.456174,0.694916,0.572356,0.182264,0.153001,0.784716,2.55385e-06,8.81404e-06,-1.02524e-06,1.28897,-0.918957,-0.620157,-0.00513609,0.0073067,0.00431065,-0.00513609,0.0073067,0.00431065,-nan,-nan,-nan,-nan,-nan,-nan,-nan,1
1.7264,-1.1329,-1.87421,-1.18965,1.97595,1.07237,-0.867129,1.7264,-1.1329,-1.87421,-1.18965,1.97595,1.07237,-0.867129,1.78146,-1.07391,-1.81999,-1.12081,1.93556,1.11286,-0.916323,0,1.19776e-05,0,1.19776e-05,0,0,-2.39552e-05,0,1.19776e-05,0,1.19776e-05,0,0,-2.39552e-05,0.538604,-0.456174,0.694915,0.572356,0.182264,0.153001,0.784716,1.02401e-05,2.42543e-06,-1.27594e-05,1.28897,-0.918942,-0.620115,0.00842802,-0.00634769,0.00817909,0.00842802,-0.00634769,0.00817909,-0.550614,-0.589914,-0.542186,-0.68843,0.403948,-0.404912,0.491938,1
-nan,-nan,-nan,-nan,-nan,-nan,-nan,-nan,-nan,-nan,-nan,-nan,-nan,-nan,1.78146,-1.07391,-1.81999,-1.12081,1.93556,1.11286,-0.916323,-1.19776e-05,2.39771e-05,-1.19776e-05,0,1.91642e-05,2.39771e-05,3.59329e-05,-1.19776e-05,2.39771e-05,-1.19776e-05,0,1.91642e-05,2.39771e-05,3.59329e-05,0.538604,-0.456174,0.694916,0.572356,0.182264,0.153001,0.784716,1.238e-05,1.0753e-05,-7.05076e-06,1.28894,-0.918989,-0.620175,-0.00246211,0.000944763,-0.00395083,-0.00246211,0.000944763,-0.00395083,-nan,-nan,-nan,-nan,-nan,-nan,-nan,1
-nan,-nan,-nan,-nan,-nan,-nan,-nan,-nan,-nan,-nan,-nan,-nan,-nan,-nan,1.78146,-1.07391,-1.81999,-1.12081,1.93556,1.11286,-0.916323,1.1977e-05,-2.39759e-05,0,-1.1977e-05,1.91633e-05,0,-2.39541e-05,1.1977e-05,-2.39759e-05,0,-1.1977e-05,1.91633e-05,0,-2.39541e-05,0.538604,-0.456173,0.694916,0.572356,0.182264,0.153001,0.784716,8.25818e-06,1.20858e-06,-1.5762e-05,1.28896,-0.918931,-0.620133,0.00272418,0.0136537,0.0156887,0.00272418,0.0136537,0.0156887,-nan,-nan,-nan,-nan,-nan,-nan,-nan,1
-nan,-nan,-nan,-nan,-nan,-nan,-nan,-nan,-nan,-nan,-nan,-nan,-nan,-nan,1.78146,-1.07391,-1.81999,-1.12081,1.93556,1.11286,-0.916323,-4.79323e-05,0,0,-2.39771e-05,-1.91642e-05,0,0,-4.79323e-05,0,0,-2.39771e-05,-1.91642e-05,0,0,0.538604,-0.456174,0.694916,0.572356,0.182264,0.153001,0.784716,-1.50117e-07,-8.53544e-06,6.91254e-06,1.28892,-0.918937,-0.620124,-0.0168987,0.00467164,0.0154568,-0.0168987,0.00467164,0.0154568,-nan,-nan,-nan,-nan,-nan,-nan,-nan,1
-nan,-nan,-nan,-nan,-nan,-nan,-nan,-nan,-nan,-nan,-nan,-nan,-nan,-nan,1.78146,-1.07391,-1.81999,-1.12081,1.93556,1.11286,-0.916323,1.19776e-05,0,1.19994e-05,1.19776e-05,-1.91642e-05,0,2.39552e-05,1.19776e-05,0,1.19994e-05,1.19776e-05,-1.91642e-05,0,2.39552e-05,0.538604,-0.456174,0.694916,0.572356,0.182264,0.153001,0.784716,2.44602e-06,7.07399e-06,7.20174e-06,1.28892,-0.918923,-0.620138,-0.01018,0.00419356,0.0038289,-0.01018,0.00419356,0.0038289,-nan,-nan,-nan,-nan,-nan,-nan,-nan,1
-nan,-nan,-nan,-nan,-nan,-nan,-nan,-nan,-nan,-nan,-nan,-nan,-nan,-nan,1.78146,-1.07391,-1.81999,-1.12081,1.93556,1.11286,-0.916323,-5.99317e-05,0,0,-1.19776e-05,1.91642e-05,0,0,-5.99317e-05,0,0,-1.19776e-05,1.91642e-05,0,0,0.538604,-0.456173,0.694916,0.572356,0.182264,0.153001,0.784716,1.16104e-05,1.43517e-05,-4.0109e-07,1.28896,-0.918956,-0.620192,0.000996712,-0.006163,-0.011728,0.000996712,-0.006163,-0.011728,-nan,-nan,-nan,-nan,-nan,-nan,-nan,1
-nan,-nan,-nan,-nan,-nan,-nan,-nan,-nan,-nan,-nan,-nan,-nan,-nan,-nan,1.78146,-1.07391,-1.81999,-1.12081,1.93556,1.11286,-0.916323,-4.793e-05,3.5953e-05,-2.39541e-05,0,3.83266e-05,-2.39759e-05,0,-4.793e-05,3.5953e-05,-2.39541e-05,0,3.83266e-05,-2.39759e-05,0,0.538604,-0.456174,0.694916,0.572356,0.182264,0.153001,0.784716,-8.59926e-06,-5.29304e-06,1.80031e-05,1.28897,-0.918917,-0.620124,0.0117771,0.0140333,0.0174175,0.0117771,0.0140333,0.0174175,-nan,-nan,-nan,-nan,-nan,-nan,-nan,1
-nan,-nan,-nan,-nan,-nan,-nan,-nan,-nan,-nan,-nan,-nan,-nan,-nan,-nan,1.78146,-1.07391,-1.81999,-1.12081,1.93556,1.11286,-0.916323,0,-1.1977e-05,-2.39541e-05,0,1.91633e-05,0,3.59311e-05,0,-1.1977e-05,-2.39541e-05,0,1.91633e-05,0,3.59311e-05,0.538604,-0.456174,0.694916,0.572356,0.182264,0.153001,0.784716,1.71899e-05,1.86847e-05,-1.79074e-05,1.28893,-0.918948,-0.62012,-0.00445765,0.00992841,0.0127183,-0.00445765,0.00992841,0.0127183,-nan,-nan,-nan,-nan,-nan,-nan,-nan,1
-nan,-nan,-nan,-nan,-nan,-nan,-nan,-nan,-nan,-nan,-nan,-nan,-nan,-nan,1.78146,-1.07391,-1.81999,-1.12081,1.93556,1.11286,-0.916323,0,0,2.39759e-05,-2.39759e-05,1.91633e-05,0,0,0,0,2.39759e-05,-2.39759e-05,1.91633e-05,0,0,0.538604,-0.456174,0.694916,0.572356,0.182264,0.153001,0.784716,-5.30429e-06,-6.43628e-06,4.66445e-06,1.28895,-0.918956,-0.620137,0.00524817,0.0170672,0.0165552,0.00524817,0.0170672,0.0165552,-nan,-nan,-nan,-nan,-nan,-nan,-nan,1
-nan,-nan,-nan,-nan,-nan,-nan,-nan,-nan,-nan,-nan,-nan,-nan,-nan,-nan,1.78146,-1.07391,-1.81999,-1.12081,1.93556,1.11286,-0.916323,-1.1977e-05,1.1977e-05,0,-2.39759e-05,0,0,0,-1.1977e-05,1.1977e-05,0,-2.39759e-05,0,0,0,0.538604,-0.456174,0.694916,0.572356,0.182264,0.153001,0.784716,1.05332e-05,-9.19885e-07,-2.22068e-06,1.28893,-0.918884,-0.620106,-0.0147993,0.021299,0.0111995,-0.0147993,0.021299,0.0111995,-nan,-nan,-nan,-nan,-nan,-nan,-nan,1
1.7264,-1.1329,-1.87421,-1.18965,1.97596,1.07236,-0.86713,1.7264,-1.1329,-1.87421,-1.18965,1.97596,1.07236,-0.86713,1.78146,-1.07391,-1.81999,-1.12081,1.93556,1.11286,-0.916323,0,0,2.39759e-05,0,-3.83266e-05,2.39759e-05,2.39541e-05,0,0,2.39759e-05,0,-3.83266e-05,2.39759e-05,2.39541e-05,0.538604,-0.456174,0.694916,0.572356,0.182264,0.153001,0.784716,6.7208e-06,-3.99519e-06,-1.48208e-05,1.28893,-0.919021,-0.620203,-0.0104214,-0.0164703,-0.0246489,-0.0104214,-0.0164703,-0.0246489,-0.55061,-0.589913,-0.542182,-0.688426,0.40396,-0.404925,0.491932,1
-nan,-nan,-nan,-nan,-nan,-nan,-nan,-nan,-nan,-nan,-nan,-nan,-nan,-nan,1.78146,-1.07391,-1.81999,-1.12081,1.93556,1.11286,-0.916323,1.19989e-05,0,0,-2.39759e-05,1.91633e-05,0,0,1.19989e-05,0,0,-2.39759e-05,1.91633e-05,0,0,0.538604,-0.456174,0.694916,0.572356,0.182264,0.153001,0.784716,-1.20439e-06,-9.62943e-06,4.42898e-06,1.28893,-0.91897,-0.620144,-0.00628887,-0.00243048,0.00328115,-0.00628887,-0.00243048,0.00328115,-nan,-nan,-nan,-nan,-nan,-nan,-nan,1
-nan,-nan,-nan,-nan,-nan,-nan,-nan,-nan,-nan,-nan,-nan,-nan,-nan,-nan,1.78146,-1.07391,-1.81999,-1.12081,1.93556,1.11286,-0.916323,-1.19994e-05,0,0,0,0,0,0,-1.19994e-05,0,0,0,0,0,0,0.538604,-0.456174,0.694916,0.572356,0.182264,0.153001,0.784716,-5.494e-06,-6.16534e-06,0,1.28896,-0.918937,-0.620128,-0.00840014,-0.00663396,-0.00215388,-0.00840014,-0.00663396,-0.00215388,-nan,-nan,-nan,-nan,-nan,-nan,-nan,1
-nan,-nan,-nan,-nan,-nan,-nan,-nan,-nan,-nan,-nan,-nan,-nan,-nan,-nan,1.78146,-1.07391,-1.81999,-1.12081,1.93556,1.11286,-0.916323,5.99289e-05,0,0,1.1977e-05,1.91633e-05,3.5953e-05,2.39541e-05,5.99289e-05,0,0,1.1977e-05,1.91633e-05,3.5953e-05,2.39541e-05,0.538604,-0.456174,0.694916,0.572356,0.182264,0.153001,0.784716,5.66183e-06,2.73072e-06,-4.77043e-06,1.28896,-0.918998,-0.620159,0.000400253,-0.022239,-0.00550348,0.000400253,-0.022239,-0.00550348,-nan,-nan,-nan,-nan,-nan,-nan,-nan,1
-nan,-nan,-nan,-nan,-nan,-nan,-nan,-nan,-nan,-nan,-nan,-nan,-nan,-nan,1.78146,-1.07391,-1.81999,-1.12081,1.93556,1.11286,-0.916323,3.5953e-05,3.5953e-05,2.39541e-05,0,-1.91633e-05,0,0,3.5953e-05,3.5953e-05,2.39541e-05,0,-1.91633e-05,0,0,0.538604,-0.456174,0.694916,0.572356,0.182264,0.153001,0.784716,-1.72316e-05,-1.48749e-05,6.64967e-06,1.28896,-0.918901,-0.620098,0.00902706,0.0230609,0.0234309,0.00902706,0.0230609,0.0234309,-nan,-nan,-nan,-nan,-nan,-nan,-nan,1
-nan,-nan,-nan,-nan,-nan,-nan,-nan,-nan,-nan,-nan,-nan,-nan,-nan,-nan,1.78146,-1.07391,-1.81999,-1.12081,1.93556,1.11286,-0.916323,3.5953e-05,-1.1977e-05,1.19989e-05,1.1977e-05,0,0,0,3.5953e-05,-1.1977e-05,1.19989e-05,1.1977e-05,0,0,0,0.538604,-0.456173,0.694916,0.572356,0.182264,0.153001,0.784716,-1.36878e-05,-2.34191e-05,-1.5762e-05,1.28897,-0.918941,-0.620146,0.0115042,0.0196651,0.000790917,0.0115042,0.0196651,0.000790917,-nan,-nan,-nan,-nan,-nan,-nan,-nan,1
-nan,-nan,-nan,-nan,-nan,-nan,-nan,-nan,-nan,-nan,-nan,-nan,-nan,-nan,1.78146,-1.07391,-1.81999,-1.12081,1.93556,1.11286,-0.916323,0,0,0,0,-1.91633e-05,-3.5953e-05,-2.39541e-05,0,0,0,0,-1.91633e-05,-3.5953e-05,-2.39541e-05,0.538604,-0.456174,0.694916,0.572356,0.182264,0.153001,0.784716,-2.76592e-05,-2.94556e-05,2.35965e-06,1.28894,-0.918985,-0.620164,-0.0040323,-0.0102437,-0.00961236,-0.0040323,-0.0102437,-0.00961236,-nan,-nan,-nan,-nan,-nan,-nan,-nan,1
-nan,-nan,-nan,-nan,-nan,-nan,-nan,-nan,-nan,-nan,-nan,-nan,-nan,-nan,1.78146,-1.07391,-1.81999,-1.12081,1.93556,1.11286,-0.916323,-1.19989e-05,0,0,0,0,3.5953e-05,0,-1.19989e-05,0,0,0,0,3.5953e-05,0,0.538604,-0.456174,0.694916,0.572356,0.182264,0.153001,0.784716,3.9535e-06,1.33693e-05,1.33114e-05,1.28894,-0.918902,-0.620153,-0.0158963,0.0229875,0.00951206,-0.0158963,0.0229875,0.00951206,-nan,-nan,-nan,-nan,-nan,-nan,-nan,1
-nan,-nan,-nan,-nan,-nan,-nan,-nan,-nan,-nan,-nan,-nan,-nan,-nan,-nan,1.78146,-1.07391,-1.81999,-1.12081,1.93556,1.11286,-0.916323,-1.1977e-05,0,0,-1.1977e-05,3.83266e-05,0,-3.5953e-05,-1.1977e-05,0,0,-1.1977e-05,3.83266e-05,0,-3.5953e-05,0.538604,-0.456174,0.694916,0.572356,0.182264,0.153001,0.784716,2.17294e-06,-5.17174e-06,-1.37125e-05,1.28892,-0.918938,-0.62013,-0.0072743,-0.00508047,0.0162806,-0.0072743,-0.00508047,0.0162806,-nan,-nan,-nan,-nan,-nan,-nan,-nan,1
-nan,-nan,-nan,-nan,-nan,-nan,-nan,-nan,-nan,-nan,-nan,-nan,-nan,-nan,1.78146,-1.07391,-1.81999,-1.12081,1.93556,1.11286,-0.916323,0,-2.39771e-05,0,0,1.91642e-05,0,3.59547e-05,0,-2.39771e-05,0,0,1.91642e-05,0,3.59547e-05,0.538604,-0.456174,0.694916,0.572356,0.182264,0.153001,0.784716,-2.14173e-06,6.97779e-06,1.53609e-05,1.28896,-0.918929,-0.620134,0.00304001,0.00221486,0.0138972,0.00304001,0.00221486,0.0138972,-nan,-nan,-nan,-nan,-nan,-nan,-nan,1
1.7264,-1.1329,-1.87421,-1.18965,1.97595,1.07237,-0.867129,1.7264,-1.1329,-1.87421,-1.18965,1.97595,1.07237,-0.867129,1.78146,-1.07391,-1.81999,-1.12081,1.93556,1.11286,-0.916323,-3.59547e-05,1.19994e-05,0,1.19776e-05,0,0,-3.59547e-05,-3.59547e-05,1.19994e-05,0,1.19776e-05,0,0,-3.59547e-05,0.538604,-0.456174,0.694916,0.572356,0.182264,0.153001,0.784716,1.86612e-06,4.29067e-06,-2.85167e-06,1.28894,-0.918929,-0.620116,-0.00337696,-0.00225809,0.000366176,-0.00337696,-0.00225809,0.000366176,-0.550614,-0.589919,-0.542197,-0.688433,0.403947,-0.404913,0.491939,1
-nan,-nan,-nan,-nan,-nan,-nan,-nan,-nan,-nan,-nan,-nan,-nan,-nan,-nan,1.78146,-1.07391,-1.81999,-1.12081,1.93556,1.11286,-0.916323,-1.19994e-05,-1.19776e-05,2.39552e-05,-1.19776e-05,5.75275e-05,0,0,-1.19994e-05,-1.19776e-05,2.39552e-05,-1.19776e-05,5.75275e-05,0,0,0.538604,-0.456174,0.694916,0.572356,0.182264,0.153001,0.784716,4.8324e-06,-9.13909e-07,-1.39467e-05,1.28894,-0.918911,-0.620151,0.00206138,0.0162778,0.0129369,0.00206138,0.0162778,0.0129369,-nan,-nan,-nan,-nan,-nan,-nan,-nan,1
-nan,-nan,-nan,-nan,-nan,-nan,-nan,-nan,-nan,-nan,-nan,-nan,-nan,-nan,1.78146,-1.07391,-1.81999,-1.12081,1.93556,1.11286,-0.916323,2.39552e-05,0,0,1.19776e-05,-1.91642e-05,0,2.39552e-05,2.39552e-05,0,0,1.19776e-05,-1.91642e-05,0,2.39552e-05,0.538604,-0.456174,0.694916,0.572356,0.182264,0.153001,0.784716,8.52174e-06,1.27919e-05,4.5672e-06,1.28894,-0.918919,-0.620113,0.0203857,0.00404866,0.0180664,0.0203857,0.00404866,0.0180664,-nan,-nan,-nan,-nan,-nan,-nan,-nan,1
-nan,-nan,-nan,-nan,-nan,-nan,-nan,-nan,-nan,-nan,-nan,-nan,-nan,-nan,1.78146,-1.07391,-1.81999,-1.12081,1.93556,1.11286,-0.916323,0,2.39759e-05,0,-1.1977e-05,1.91633e-05,0,-2.39541e-05,0,2.39759e-05,0,-1.1977e-05,1.91633e-05,0,-2.39541e-05,0.538604,-0.456174,0.694916,0.572356,0.182264,0.153001,0.784716,-3.06823e-07,9.46241e-06,1.08609e-05,1.28899,-0.918912,-0.620128,0.00991368,0.0154932,0.0289938,0.00991368,0.0154932,0.0289938,-nan,-nan,-nan,-nan,-nan,-nan,-nan,1
-nan,-nan,-nan,-nan,-nan,-nan,-nan,-nan,-nan,-nan,-nan,-nan,-nan,-nan,1.78146,-1.07391,-1.81999,-1.12081,1.93556,1.11286,-0.916323,1.19776e-05,0,0,1.19776e-05,-5.75275e-05,-5.99317e-05,-3.59547e-05,1.19776e-05,0,0,1.19776e-05,-5.75275e-05,-5.99317e-05,-3.59547e-05,0.538604,-0.456173,0.694916,0.572356,0.182264,0.153001,0.784716,7.50633e-06,2.07862e-05,1.25422e-05,1.28895,-0.918944,-0.620155,-0.00496849,0.0115093,-0.00176098,-0.00496849,0.0115093,-0.00176098,-nan,-nan,-nan,-nan,-nan,-nan,-nan,1
-nan,-nan,-nan,-nan,-nan,-nan,-nan,-nan,-nan,-nan,-nan,-nan,-nan,-nan,1.78146,-1.07391,-1.81999,-1.12081,1.93556,1.11286,-0.916323,2.39552e-05,0,-2.39552e-05,0,3.83633e-05,2.39771e-05,0,2.39552e-05,0,-2.39552e-05,0,3.83633e-05,2.39771e-05,0,0.538604,-0.456173,0.694916,0.572356,0.182264,0.153001,0.784716,-9.91217e-06,-6.62642e-06,2.31985e-06,1.28893,-0.918964,-0.620139,-0.00791504,-0.0157493,-0.010338,-0.00791504,-0.0157493,-0.010338,-nan,-nan,-nan,-nan,-nan,-nan,-nan,1
-nan,-nan,-nan,-nan,-nan,-nan,-nan,-nan,-nan,-nan,-nan,-nan,-nan,-nan,1.78146,-1.07391,-1.81999,-1.12081,1.93556,1.11286,-0.916323,3.59547e-05,2.39771e-05,0,-1.19776e-05,0,0,0,3.59547e-05,2.39771e-05,0,-1.19776e-05,0,0,0,0.538604,-0.456174,0.694916,0.572356,0.182264,0.153,0.784716,-1.8973e-05,-2.83577e-05,-6.02658e-06,1.28892,-0.918949,-0.620163,-0.00568565,-0.000192734,0.00433651,-0.00568565,-0.000192734,0.00433651,-nan,-nan,-nan,-nan,-nan,-nan,-nan,1
-nan,-nan,-nan,-nan,-nan,-nan,-nan,-nan,-nan,-nan,-nan,-nan,-nan,-nan,1.78146,-1.07391,-1.81999,-1.12081,1.93556,1.11286,-0.916323,2.39771e-05,0,0,-1.19776e-05,5.75275e-05,0,0,2.39771e-05,0,0,-1.19776e-05,5.75275e-05,0,0,0.538604,-0.456174,0.694916,0.572356,0.182264,0.153001,0.784716,-2.92738e-05,-3.3274e-05,4.49935e-06,1.28896,-0.918923,-0.620136,0.0145449,0.037984,0.00572674,0.0145449,0.037984,0.00572674,-nan,-nan,-nan,-nan,-nan,-nan,-nan,1
-nan,-nan,-nan,-nan,-nan,-nan,-nan,-nan,-nan,-nan,-nan,-nan,-nan,-nan,1.78146,-1.07391,-1.81999,-1.12081,1.93556,1.11286,-0.916323,-2.39771e-05,0,2.39771e-05,0,3.83633e-05,0,3.59547e-05,-2.39771e-05,0,2.39771e-05,0,3.83633e-05,0,3.59547e-05,0.538604,-0.456173,0.694916,0.572356,0.182264,0.153001,0.784716,1.26604e-06,4.06818e-06,-8.02911e-07,1.28895,-0.918975,-0.620139,-0.0011564,0.00226023,-0.0134563,-0.0011564,0.00226023,-0.0134563,-nan,-nan,-nan,-nan,-nan,-nan,-nan,1
-nan,-nan,-nan,-nan,-nan,-nan,-nan,-nan,-nan,-nan,-nan,-nan,-nan,-nan,1.78146,-1.07391,-1.81999,-1.12081,1.93556,1.11286,-0.916323,2.39759e-05,-2.39759e-05,0,0,-3.83615e-05,0,-3.5953e-05,2.39759e-05,-2.39759e-05,0,0,-3.83615e-05,0,-3.5953e-05,0.538604,-0.456173,0.694916,0.572356,0.182264,0.153001,0.784716,1.37845e-05,9.18366e-06,-1.41144e-05,1.28891,-0.918961,-0.62014,-0.0327559,-0.00025951,-0.00818897,-0.0327559,-0.00025951,-0.00818897,-nan,-nan,-nan,-nan,-nan,-nan,-nan,1
-nan,-nan,-nan,-nan,-nan,-nan,-nan,-nan,-nan,-nan,-nan,-nan,-nan,-nan,1.78146,-1.07391,-1.81999,-1.12081,1.93556,1.11286,-0.916323,-1.19776e-05,1.19776e-05,0,0,0,5.99317e-05,0,-1.19776e-05,1.19776e-05,0,0,0,5.99317e-05,0,0.538604,-0.456174,0.694916,0.572356,0.182264,0.153001,0.784716,2.20052e-06,-4.71258e-06,7.98916e-07,1.28894,-0.918983,-0.620154,-0.0135372,-0.0315199,-0.026214,-0.0135372,-0.0315199,-0.026214,-nan,-nan,-nan,-nan,-nan,-nan,-nan,1
1.73342,-1.1582,-1.89884,-1.18844,1.96014,1.16668,-0.947014,1.73342,-1.1582,-1.89884,-1.18844,1.96014,1.16668,-0.947014,1.78146,-1.07391,-1.81999,-1.12081,1.93556,1.11286,-0.916323,0,0,-2.39541e-05,0,5.75247e-05,2.39759e-05,3.5953e-05,0,0,-2.39541e-05,0,5.75247e-05,2.39759e-05,3.5953e-05,0.538604,-0.456174,0.694916,0.572356,0.182264,0.153001,0.784716,6.96098e-06,4.01986e-06,-3.76312e-06,1.28896,-0.918935,-0.620138,-0.0176671,0.0308064,0.00399506,-0.0176671,0.0308064,0.00399506,-0.480473,-0.842886,-0.788463,-0.676285,0.245789,0.538242,-0.306916,1
1.7264,-1.1329,-1.87421,-1.18965,1.97596,1.07237,-0.86713,1.7264,-1.1329,-1.87421,-1.18965,1.97596,1.07237,-0.86713,1.78146,-1.07391,-1.81999,-1.12081,1.93556,1.11286,-0.916323,0,-2.39771e-05,0,0,-3.83633e-05,0,2.39552e-05,0,-2.39771e-05,0,0,-3.83633e-05,0,2.39552e-05,0.538604,-0.456174,0.694916,0.572356,0.182264,0.153001,0.784716,2.80654e-06,-3.1358e-06,-1.41144e-05,1.28895,-0.918954,-0.62013,-0.00131751,0.0104083,0.00298636,-0.00131751,0.0104083,0.00298636,-0.550609,-0.589913,-0.542188,-0.688428,0.403958,-0.404916,0.491927,1
-nan,-nan,-nan,-nan,-nan,-nan,-nan,-nan,-nan,-nan,-nan,-nan,-nan,-nan,1.78146,-1.07391,-1.81999,-1.12081,1.93556,1.11286,-0.916323,0,0,0,0,1.91633e-05,3.5953e-05,2.39541e-05,0,0,0,0,1.91633e-05,3.5953e-05,2.39541e-05,0.538604,-0.456174,0.694916,0.572356,0.182264,0.153001,0.784716,1.47737e-05,1.07595e-05,-1.91876e-06,1.2889,-0.918941,-0.620139,-0.0188146,0.0146839,-0.00735391,-0.0188146,0.0146839,-0.00735391,-nan,-nan,-nan,-nan,-nan,-nan,-nan,1
1.7264,-1.1329,-1.87421,-1.18965,1.97596,1.07237,-0.86713,1.7264,-1.1329,-1.87421,-1.18965,1.97596,1.07237,-0.86713,1.78146,-1.07391,-1.81999,-1.12081,1.93556,1.11286,-0.916323,1.1977e-05,2.39759e-05,0,0,-1.91633e-05,0,2.39759e-05,1.1977e-05,2.39759e-05,0,0,-1.91633e-05,0,2.39759e-05,0.538604,-0.456173,0.694916,0.572356,0.182264,0.153001,0.784716,1.0978e-05,1.23195e-05,6.61744e-24,1.28893,-0.918973,-0.620123,-0.0155877,-0.0266604,0.00172003,-0.0155877,-0.0266604,0.00172003,-0.550607,-0.589908,-0.542177,-0.688423,0.40396,-0.404911,0.491933,1
-nan,-nan,-nan,-nan,-nan,-nan,-nan,-nan,-nan,-nan,-nan,-nan,-nan,-nan,1.78146,-1.07391,-1.81999,-1.12081,1.93556,1.11286,-0.916323,-3.59547e-05,0,0,0,5.75275e-05,-3.59547e-05,-2.39771e-05,-3.59547e-05,0,0,0,5.75275e-05,-3.59547e-05,-2.39771e-05,0.538604,-0.456174,0.694916,0.572356,0.182264,0.153001,0.784716,-1.45648e-05,-2.61339e-05,-7.14756e-07,1.28898,-0.918971,-0.620125,0.0100943,0.00719536,0.00690662,0.0100943,0.00719536,0.00690662,-nan,-nan,-nan,-nan,-nan,-nan,-nan,1
-nan,-nan,-nan,-nan,-nan,-nan,-nan,-nan,-nan,-nan,-nan,-nan,-nan,-nan,1.78146,-1.07391,-1.81999,-1.12081,1.93556,1.11286,-0.916323,0,0,2.39771e-05,0,-3.83633e-05,-3.59547e-05,0,0,0,2.39771e-05,0,-3.83633e-05,-3.59547e-05,0,0.538604,-0.456174,0.694916,0.572356,0.182264,0.153001,0.784716,3.96206e-06,7.0266e-06,5.85056e-06,1.28892,-0.918977,-0.62013,-0.003817,-0.0136321,0.0040442,-0.003817,-0.0136321,0.0040442,-nan,-nan,-nan,-nan,-nan,-nan,-nan,1
-nan,-nan,-nan,-nan,-nan,-nan,-nan,-nan,-nan,-nan,-nan,-nan,-nan,-nan,1.78146,-1.07391,-1.81999,-1.12081,1.93556,1.11286,-0.916323,0,-2.39771e-05,0,1.19776e-05,1.91642e-05,-3.59547e-05,-2.39552e-05,0,-2.39771e-05,0,1.19776e-05,1.91642e-05,-3.59547e-05,-2.39552e-05,0.538604,-0.456174,0.694916,0.572356,0.182264,0.153001,0.784716,2.83765e-06,-1.50868e-05,-1.19774e-05,1.28895,-0.918935,-0.620129,0.0065146,0.00809253,0.000180335,0.0065146,0.00809253,0.000180335,-nan,-nan,-nan,-nan,-nan,-nan,-nan,1
-nan,-nan,-nan,-nan,-nan,-nan,-nan,-nan,-nan,-nan,-nan,-nan,-nan,-nan,1.78146,-1.07391,-1.81999,-1.12081,1.93556,1.11286,-0.916323,-2.39771e-05,-2.39771e-05,0,0,-3.83633e-05,0,2.39552e-05,-2.39771e-05,-2.39771e-05,0,0,-3.83633e-05,0,2.39552e-05,0.538604,-0.456174,0.694916,0.572356,0.182264,0.153001,0.784716,-8.17146e-06,-1.54553e-05,-1.41144e-05,1.28893,-0.919016,-0.620153,0.00674782,-0.0231036,-0.00448713,0.00674782,-0.0231036,-0.00448713,-nan,-nan,-nan,-nan,-nan,-nan,-nan,1
-nan,-nan,-nan,-nan,-nan,-nan,-nan,-nan,-nan,-nan,-nan,-nan,-nan,-nan,1.78146,-1.07391,-1.81999,-1.12081,1.93556,1.11286,-0.916323,3.5953e-05,0,1.1977e-05,0,0,3.5953e-05,0,3.5953e-05,0,1.1977e-05,0,0,3.5953e-05,0,0.538604,-0.456174,0.694916,0.572356,0.182264,0.153001,0.784716,1.98048e-06,-3.36318e-06,3.17344e-06,1.28895,-0.918955,-0.620137,0.00354503,0.0115842,0.00315622,0.00354503,0.0115842,0.00315622,-nan,-nan,-nan,-nan,-nan,-nan,-nan,1
1.7264,-1.1329,-1.87421,-1.18965,1.97596,1.07237,-0.867131,1.7264,-1.1329,-1.87421,-1.18965,1.97596,1.07237,-0.867131,1.78146,-1.07391,-1.81999,-1.12081,1.93556,1.11286,-0.916323,0,-2.39759e-05,-2.39759e-05,-1.1977e-05,-1.91633e-05,0,5.99071e-05,0,-2.39759e-05,-2.39759e-05,-1.1977e-05,-1.91633e-05,0,5.99071e-05,0.538604,-0.456174,0.694916,0.572356,0.182264,0.153001,0.784716,-2.13136e-05,-2.25955e-05,-4.0109e-07,1.28893,-0.918932,-0.620116,0.00716236,0.0494754,0.0195037,0.00716236,0.0494754,0.0195037,-0.550605,-0.589914,-0.54218,-0.688428,0.403966,-0.404909,0.491913,1
-nan,-nan,-nan,-nan,-nan,-nan,-nan,-nan,-nan,-nan,-nan,-nan,-nan,-nan,1.78146,-1.07391,-1.81999,-1.12081,1.93556,1.11286,-0.916323,0,-2.39759e-05,1.1977e-05,-1.1977e-05,-1.91633e-05,-3.5953e-05,3.5953e-05,0,-2.39759e-05,1.1977e-05,-1.1977e-05,-1.91633e-05,-3.5953e-05,3.5953e-05,0.538604,-0.456174,0.694916,0.572356,0.182264,0.153001,0.784716,-5.22186e-06,1.11008e-06,2.12553e-05,1.28896,-0.918962,-0.620137,0.0093872,-0.00832965,0.00463419,0.0093872,-0.00832965,0.00463419,-nan,-nan,-nan,-nan,-nan,-nan,-nan,1
1.7264,-1.1329,-1.87421,-1.18965,1.97595,1.07237,-0.867131,1.7264,-1.1329,-1.87421,-1.18965,1.97595,1.07237,-0.867131,1.78146,-1.07391,-1.81999,-1.12081,1.93556,1.11286,-0.916323,0,1.1977e-05,-2.39759e-05,-1.1977e-05,7.6688e-05,-3.5953e-05,2.39541e-05,0,1.1977e-05,-2.39759e-05,-1.1977e-05,7.6688e-05,-3.5953e-05,2.39541e-05,0.538604,-0.456174,0.694916,0.572356,0.182264,0.153001,0.784716,3.46105e-06,-6.32159e-06,-5.08791e-06,1.28893,-0.918938,-0.620122,-0.0027539,0.00632086,0.00288504,-0.0027539,0.00632086,0.00288504,-0.550609,-0.589906,-0.54217,-0.688427,0.403947,-0.40488,0.49192,1
-nan,-nan,-nan,-nan,-nan,-nan,-nan,-nan,-nan,-nan,-nan,-nan,-nan,-nan,1.78146,-1.07391,-1.81999,-1.12081,1.93556,1.11286,-0.916323,0,0,-2.39759e-05,-1.1977e-05,1.91633e-05,-3.5953e-05,0,0,0,-2.39759e-05,-1.1977e-05,1.91633e-05,-3.5953e-05,0,0.538604,-0.456174,0.694916,0.572356,0.182264,0.153001,0.784716,6.12909e-06,-3.81988e-06,-1.29416e-05,1.28893,-0.918889,-0.620139,0.00133668,0.0104442,0.00557327,0.00133668,0.0104442,0.00557327,-nan,-nan,-nan,-nan,-nan,-nan,-nan,1
1.7264,-1.1329,-1.87421,-1.18965,1.97596,1.07237,-0.86713,1.7264,-1.1329,-1.87421,-1.18965,1.97596,1.07237,-0.86713,1.78146,-1.07391,-1.81999,-1.12081,1.93556,1.11286,-0.916323,-1.19776e-05,0,-2.39771e-05,0,0,0,0,-1.19776e-05,0,-2.39771e-05,0,0,0,0,0.538604,-0.456174,0.694916,0.572356,0.182264,0.153001,0.784716,-4.38431e-06,-1.06725e-05,-8.57223e-06,1.28893,-0.918966,-0.620128,-0.00453621,0.0011034,0.00017164,-0.00453621,0.0011034,0.00017164,-0.550612,-0.589916,-0.542186,-0.688431,0.403955,-0.40491,0.491927,1
-nan,-nan,-nan,-nan,-nan,-nan,-nan,-nan,-nan,-nan,-nan,-nan,-nan,-nan,1.78146,-1.07391,-1.81999,-1.12081,1.93556,1.11286,-0.916323,0,2.39771e-05,0,0,-1.91642e-05,2.39771e-05,0,0,2.39771e-05,0,0,-1.91642e-05,2.39771e-05,0,0.538604,-0.456174,0.694916,0.572356,0.182264,0.153001,0.784716,-3.4393e-06,1.02765e-05,1.41899e-05,1.28896,-0.918961,-0.620162,0.00515266,0.00665552,-0.00806295,0.00515266,0.00665552,-0.00806295,-nan,-nan,-nan,-nan,-nan,-nan,-nan,1
-nan,-nan,-nan,-nan,-nan,-nan,-nan,-nan,-nan,-nan,-nan,-nan,-nan,-nan,1.78146,-1.07391,-1.81999,-1.12081,1.93556,1.11286,-0.916323,0,0,-1.19776e-05,-2.39771e-05,0,0,0,0,0,-1.19776e-05,-2.39771e-05,0,0,0,0.538604,-0.456173,0.694916,0.572356,0.182264,0.153001,0.784716,4.28499e-06,6.33202e-06,-9.99076e-06,1.28895,-0.91895,-0.620119,-0.00302628,-0.000595724,0.00247821,-0.00302628,-0.000595724,0.00247821,-nan,-nan,-nan,-nan,-nan,-nan,-nan,1
-nan,-nan,-nan,-nan,-nan,-nan,-nan,-nan,-nan,-nan,-nan,-nan,-nan,-nan,1.78146,-1.07391,-1.81999,-1.12081,1.93556,1.11286,-0.916323,0,-2.39771e-05,2.39771e-05,-1.19776e-05,0,-2.39771e-05,0,0,-2.39771e-05,2.39771e-05,-1.19776e-05,0,-2.39771e-05,0,0.538604,-0.456174,0.694916,0.572356,0.182264,0.153001,0.784716,4.83816e-06,5.64776e-07,-8.87045e-06,1.28894,-0.918916,-0.620119,-0.00028236,0.00363538,-0.00150592,-0.00028236,0.00363538,-0.00150592,-nan,-nan,-nan,-nan,-nan,-nan,-nan,1
1.80747,-1.1423,-1.86815,-1.04357,1.87784,1.18612,-0.887992,1.80747,-1.1423,-1.86815,-1.04357,1.87784,1.18612,-0.887992,1.78146,-1.07391,-1.81999,-1.12081,1.93556,1.11286,-0.916323,-2.39771e-05,2.39771e-05,-1.19994e-05,0,-5.74926e-05,3.59547e-05,0,-2.39771e-05,2.39771e-05,-1.19994e-05,0,-5.74926e-05,3.59547e-05,0,0.538604,-0.456173,0.694916,0.572356,0.182264,0.153001,0.784716,-1.38665e-05,2.7994e-07,9.73691e-06,1.28896,-0.91892,-0.620099,0.00706435,0.0115578,0.0133239,0.00706435,0.0115578,0.0133239,0.260045,-0.683856,-0.481555,0.772406,-0.577156,0.732664,0.283306,1
-nan,-nan,-nan,-nan,-nan,-nan,-nan,-nan,-nan,-nan,-nan,-nan,-nan,-nan,1.78146,-1.07391,-1.81999,-1.12081,1.93556,1.11286,-0.916323,3.59547e-05,2.39771e-05,0,2.39771e-05,0,3.59547e-05,3.59547e-05,3.59547e-05,2.39771e-05,0,2.39771e-05,0,3.59547e-05,3.59547e-05,0.538604,-0.456173,0.694916,0.572356,0.182264,0.153001,0.784716,7.39015e-06,1.86484e-05,2.09387e-05,1.28895,-0.91897,-0.620124,0.00331914,-0.00281205,-0.00207446,0.00331914,-0.00281205,-0.00207446,-nan,-nan,-nan,-nan,-nan,-nan,-nan,1
-nan,-nan,-nan,-nan,-nan,-nan,-nan,-nan,-nan,-nan,-nan,-nan,-nan,-nan,1.78146,-1.07391,-1.81999,-1.12081,1.93556,1.11286,-0.916323,0,-3.59547e-05,-2.39552e-05,0,3.83633e-05,-3.59547e-05,0,0,-3.59547e-05,-2.39552e-05,0,3.83633e-05,-3.59547e-05,0,0.538604,-0.456174,0.694916,0.572356,0.182264,0.153001,0.784716,5.93842e-06,-2.09451e-05,-2.96414e-05,1.28892,-0.918931,-0.620152,-0.0086816,-0.00204351,-0.0149323,-0.0086816,-0.00204351,-0.0149323,-nan,-nan,-nan,-nan,-nan,-nan,-nan,1
-nan,-nan,-nan,-nan,-nan,-nan,-nan,-nan,-nan,-nan,-nan,-nan,-nan,-nan,1.78146,-1.07391,-1.81999,-1.12081,1.93556,1.11286,-0.916323,0,0,0,0,5.75275e-05,2.39771e-05,0,0,0,0,0,5.75275e-05,2.39771e-05,0,0.538604,-0.456174,0.694916,0.572356,0.182264,0.153001,0.784716,-4.42973e-06,-5.06014e-06,2.48356e-06,1.28897,-0.918943,-0.620141,0.00322662,-0.00187099,-0.00956782,0.00322662,-0.00187099,-0.00956782,-nan,-nan,-nan,-nan,-nan,-nan,-nan,1
1.7264,-1.1329,-1.87421,-1.18965,1.97596,1.07237,-0.86713,1.7264,-1.1329,-1.87421,-1.18965,1.97596,1.07237,-0.86713,1.78146,-1.07391,-1.81999,-1.12081,1.93556,1.11286,-0.916323,1.19776e-05,0,2.39771e-05,-4.79541e-05,-3.83633e-05,0,3.59547e-05,1.19776e-05,0,2.39771e-05,-4.79541e-05,-3.83633e-05,0,3.59547e-05,0.538604,-0.456174,0.694916,0.572356,0.182264,0.153001,0.784716,-2.95276e-06,-7.1944e-06,-1.27956e-06,1.28891,-0.918983,-0.620192,-0.00396331,-0.00701361,-0.00813413,-0.00396331,-0.00701361,-0.00813413,-0.550608,-0.589913,-0.542181,-0.688424,0.403971,-0.404917,0.49193,1
-nan,-nan,-nan,-nan,-nan,-nan,-nan,-nan,-nan,-nan,-nan,-nan,-nan,-nan,1.78146,-1.07391,-1.81999,-1.12081,1.93556,1.11286,-0.916323,0,0,-2.39759e-05,4.79518e-05,1.91633e-05,0,0,0,0,-2.39759e-05,4.79518e-05,1.91633e-05,0,0,0.538604,-0.456174,0.694916,0.572356,0.182264,0.153001,0.784716,-7.00403e-06,-2.37289e-05,3.24595e-06,1.28891,-0.918961,-0.620175,-0.0115729,-0.00884633,-0.011168,-0.0115729,-0.00884633,-0.011168,-nan,-nan,-nan,-nan,-nan,-nan,-nan,1
1.7264,-1.1329,-1.87421,-1.18965,1.97596,1.07236,-0.86713,1.7264,-1.1329,-1.87421,-1.18965,1.97596,1.07236,-0.86713,1.78146,-1.07391,-1.81999,-1.12081,1.93556,1.11286,-0.916323,5.99317e-05,0,-2.39552e-05,-2.39771e-05,-1.91642e-05,3.59547e-05,2.39552e-05,5.99317e-05,0,-2.39552e-05,-2.39771e-05,-1.91642e-05,3.59547e-05,2.39552e-05,0.538604,-0.456174,0.694916,0.572356,0.182264,0.153001,0.784716,5.69451e-06,-4.63246e-06,-2.79723e-06,1.28897,-0.918947,-0.620116,0.00217875,0.0106058,0.0138488,0.00217875,0.0106058,0.0138488,-0.550614,-0.589914,-0.542177,-0.688426,0.403959,-0.404935,0.491932,1
-nan,-nan,-nan,-nan,-nan,-nan,-nan,-nan,-nan,-nan,-nan,-nan,-nan,-nan,1.78146,-1.07391,-1.81999,-1.12081,1.93556,1.11286,-0.916323,-2.39771e-05,-1.19776e-05,0,-2.39771e-05,1.91642e-05,-3.59547e-05,2.39552e-05,-2.39771e-05,-1.19776e-05,0,-2.39771e-05,1.91642e-05,-3.59547e-05,2.39552e-05,0.538604,-0.456173,0.694916,0.572356,0.182264,0.153001,0.784716,-9.35674e-06,-9.11232e-06,1.19571e-05,1.28893,-0.918943,-0.620113,-0.00348586,0.00161426,-0.000233951,-0.00348586,0.00161426,-0.000233951,-nan,-nan,-nan,-nan,-nan,-nan,-nan,1
-nan,-nan,-nan,-nan,-nan,-nan,-nan,-nan,-nan,-nan,-nan,-nan,-nan,-nan,1.78146,-1.07391,-1.81999,-1.12081,1.93556,1.11286,-0.916323,1.1977e-05,-1.1977e-05,0,-2.39759e-05,0,0,2.39541e-05,1.1977e-05,-1.1977e-05,0,-2.39759e-05,0,0,2.39541e-05,0.538604,-0.456173,0.694916,0.572356,0.182264,0.153001,0.784716,6.89506e-06,1.09749e-05,1.50799e-05,1.28896,-0.918916,-0.620114,0.012555,0.00825119,0.0121712,0.012555,0.00825119,0.0121712,-nan,-nan,-nan,-nan,-nan,-nan,-nan,1
1.7264,-1.1329,-1.87421,-1.18965,1.97596,1.07237,-0.867131,1.7264,-1.1329,-1.87421,-1.18965,1.97596,1.07237,-0.867131,1.78146,-1.07391,-1.81999,-1.12081,1.93556,1.11286,-0.916323,1.1977e-05,1.1977e-05,0,0,0,-3.5953e-05,5.99071e-05,1.1977e-05,1.1977e-05,0,0,0,-3.5953e-05,5.99071e-05,0.538604,-0.456173,0.694916,0.572356,0.182264,0.153001,0.784716,-8.11994e-06,-1.92616e-05,-2.86368e-06,1.28892,-0.918945,-0.620166,-0.00558711,-0.00337107,-0.00835381,-0.00558711,-0.00337107,-0.00835381,-0.550601,-0.589905,-0.542166,-0.688423,0.403967,-0.404884,0.491916,1
1.7264,-1.1329,-1.87421,-1.18965,1.97596,1.07237,-0.86713,1.7264,-1.1329,-1.87421,-1.18965,1.97596,1.07237,-0.86713,1.78146,-1.07391,-1.81999,-1.12081,1.93556,1.11286,-0.916323,0,0,0,0,-5.75247e-05,0,2.39541e-05,0,0,0,0,-5.75247e-05,0,2.39541e-05,0.538604,-0.456173,0.694916,0.572356,0.182264,0.153001,0.784716,-4.12586e-06,2.4796e-06,3.84132e-06,1.28897,-0.918924,-0.620143,-0.00198897,0.000552492,0.000883987,-0.00198897,0.000552492,0.000883987,-0.550606,-0.589914,-0.542188,-0.688426,0.403966,-0.404917,0.49193,1
1.7264,-1.1329,-1.87421,-1.18965,1.97596,1.07237,-0.86713,1.7264,-1.1329,-1.87421,-1.18965,1.97596,1.07237,-0.86713,1.78146,-1.07391,-1.81999,-1.12081,1.93556,1.11286,-0.916323,0,2.39541e-05,0,2.39759e-05,-3.83615e-05,0,2.39541e-05,0,2.39541e-05,0,2.39759e-05,-3.83615e-05,0,2.39541e-05,0.538604,-0.456173,0.694916,0.572356,0.182264,0.153001,0.784716,1.28151e-05,1.48082e-05,-4.50454e-06,1.28895,-0.918962,-0.620144,0.00951144,0.000933715,0.000199193,0.00951144,0.000933715,0.000199193,-0.550605,-0.589908,-0.542179,-0.688423,0.40396,-0.404911,0.491933,1
-nan,-nan,-nan,-nan,-nan,-nan,-nan,-nan,-nan,-nan,-nan,-nan,-nan,-nan,1.78146,-1.07391,-1.81999,-1.12081,1.93556,1.11286,-0.916323,0,0,0,2.39759e-05,0,-5.99289e-05,0,0,0,0,2.39759e-05,0,-5.99289e-05,0,0.538604,-0.456173,0.694916,0.572356,0.182264,0.153001,0.784716,-9.50055e-06,-1.39556e-05,-1.69254e-05,1.28896,-0.918917,-0.620094,0.00214233,0.00695039,0.00172847,0.00214233,0.00695039,0.00172847,-nan,-nan,-nan,-nan,-nan,-nan,-nan,1
1.7264,-1.1329,-1.87421,-1.18965,1.97596,1.07237,-0.867129,1.7264,-1.1329,-1.87421,-1.18965,1.97596,1.07237,-0.867129,1.78146,-1.07391,-1.81999,-1.12081,1.93556,1.11286,-0.916323,2.39759e-05,0,2.39759e-05,-2.39759e-05,0,0,0,2.39759e-05,0,2.39759e-05,-2.39759e-05,0,0,0,0.538604,-0.456173,0.694916,0.572356,0.182264,0.153001,0.784716,-2.69602e-06,-2.95843e-06,-6.65347e-06,1.28897,-0.918886,-0.620115,0.000742215,0.0190007,0.00341419,0.000742215,0.0190007,0.00341419,-0.550614,-0.589913,-0.542182,-0.688428,0.403955,-0.404913,0.491935,1
-nan,-nan,-nan,-nan,-nan,-nan,-nan,-nan,-nan,-nan,-nan,-nan,-nan,-nan,1.78146,-1.07391,-1.81999,-1.12081,1.93556,1.11286,-0.916323,-2.39771e-05,0,0,0,0,0,0,-2.39771e-05,0,0,0,0,0,0,0.538604,-0.456173,0.694916,0.572356,0.182264,0.153001,0.784716,-1.0978e-05,-1.23195e-05,0,1.28894,-0.918977,-0.620125,-0.00484253,-0.00544458,0.00225112,-0.00484253,-0.00544458,0.00225112,-nan,-nan,-nan,-nan,-nan,-nan,-nan,1
-nan,-nan,-nan,-nan,-nan,-nan,-nan,-nan,-nan,-nan,-nan,-nan,-nan,-nan,1.78146,-1.07391,-1.81999,-1.12081,1.93556,1.11286,-0.916323,0,0,-2.39541e-05,-2.39759e-05,0,0,2.39541e-05,0,0,-2.39541e-05,-2.39759e-05,0,0,2.39541e-05,0.538604,-0.456173,0.694916,0.572356,0.182264,0.153001,0.784716,-1.82612e-05,-2.02335e-05,1.9767e-05,1.28893,-0.918951,-0.62016,-0.00705476,-0.00264072,0.00127217,-0.00705476,-0.00264072,0.00127217,-nan,-nan,-nan,-nan,-nan,-nan,-nan,1
-nan,-nan,-nan,-nan,-nan,-nan,-nan,-nan,-nan,-nan,-nan,-nan,-nan,-nan,1.78146,-1.07391,-1.81999,-1.12081,1.93556,1.11286,-0.916323,2.39759e-05,-1.19989e-05,0,0,-3.83615e-05,0,2.39541e-05,2.39759e-05,-1.19989e-05,0,0,-3.83615e-05,0,2.39541e-05,0.538604,-0.456173,0.694916,0.572356,0.182264,0.153001,0.784716,-5.60529e-06,-4.69622e-07,2.09348e-05,1.28897,-0.918959,-0.620133,0.0031133,-0.0087297,-0.000597754,0.0031133,-0.0087297,-0.000597754,-nan,-nan,-nan,-nan,-nan,-nan,-nan,1
1.7264,-1.1329,-1.87421,-1.18965,1.97596,1.07237,-0.867129,1.7264,-1.1329,-1.87421,-1.18965,1.97596,1.07237,-0.867129,1.78146,-1.07391,-1.81999,-1.12081,1.93556,1.11286,-0.916323,0,0,0,0,-3.83266e-05,-3.5953e-05,-5.99071e-05,0,0,0,0,-3.83266e-05,-3.5953e-05,-5.99071e-05,0.538604,-0.456173,0.694916,0.572356,0.182264,0.153001,0.784716,-1.16104e-05,-1.43517e-05,4.0109e-07,1.28892,-0.918967,-0.62018,-0.00187793,-0.0104028,-0.0156906,-0.00187793,-0.0104028,-0.0156906,-0.550615,-0.589922,-0.542202,-0.688435,0.403956,-0.404906,0.491941,1
-nan,-nan,-nan,-nan,-nan,-nan,-nan,-nan,-nan,-nan,-nan,-nan,-nan,-nan,1.78146,-1.07391,-1.81999,-1.12081,1.93556,1.11286,-0.916323,0,0,0,-2.39759e-05,-3.83615e-05,0,0,0,0,0,-2.39759e-05,-3.83615e-05,0,0,0.538604,-0.456173,0.694916,0.572356,0.182264,0.153001,0.784716,-1.89849e-06,-6.10042e-06,1.204e-06,1.28895,-0.918922,-0.620112,0.0084634,0.01295,0.0111911,0.0084634,0.01295,0.0111911,-nan,-nan,-nan,-nan,-nan,-nan,-nan,1
-nan,-nan,-nan,-nan,-nan,-nan,-nan,-nan,-nan,-nan,-nan,-nan,-nan,-nan,1.78146,-1.07391,-1.81999,-1.12081,1.93556,1.11286,-0.916323,-3.5953e-05,-1.1977e-05,0,-2.39759e-05,0,-3.5953e-05,-3.5953e-05,-3.5953e-05,-1.1977e-05,0,-2.39759e-05,0,-3.5953e-05,-3.5953e-05,0.538604,-0.456173,0.694916,0.572356,0.182264,0.153001,0.784716,1.83681e-05,3.09678e-05,2.09387e-05,1.28894,-0.918954,-0.620131,-0.000537586,0.00227252,0.000733072,-0.000537586,0.00227252,0.000733072,-nan,-nan,-nan,-nan,-nan,-nan,-nan,1
1.6987,-1.00615,-1.77763,-1.12663,1.98431,1.03771,-0.884778,1.6987,-1.00615,-1.77763,-1.12663,1.98431,1.03771,-0.884778,1.78146,-1.07391,-1.81999,-1.12081,1.93556,1.11286,-0.916323,2.39759e-05,2.39759e-05,0,-2.39759e-05,5.75247e-05,-3.5953e-05,0,2.39759e-05,2.39759e-05,0,-2.39759e-05,5.75247e-05,-3.5953e-05,0,0.538604,-0.456173,0.694916,0.572356,0.182264,0.153001,0.784716,-6.12795e-06,-8.60224e-06,5.64431e-07,1.28894,-0.918996,-0.620211,0.00696426,0.00218487,-0.00611762,0.00696426,0.00218487,-0.00611762,-0.827651,0.677595,0.423611,-0.0582042,0.487527,-0.751509,0.315449,1
1.6987,-1.00607,-1.77767,-1.12619,1.98427,1.03771,-0.884515,1.6987,-1.00607,-1.77767,-1.12619,1.98427,1.03771,-0.884515,1.78146,-1.07391,-1.81999,-1.12081,1.93556,1.11286,-0.916323,-2.39759e-05,0,-2.39541e-05,0,-3.83615e-05,1.1977e-05,0,-2.39759e-05,0,-2.39541e-05,0,-3.83615e-05,1.1977e-05,0,0.538604,-0.456173,0.694916,0.572356,0.182264,0.153001,0.784716,-9.87773e-06,-1.22459e-05,-8.72814e-06,1.28897,-0.918931,-0.620128,0.00808164,-0.0040898,0.00176327,0.00808164,-0.0040898,0.00176327,-0.827598,0.678422,0.423293,-0.0537923,0.487101,-0.751472,0.31808,1
1.69871,-1.00603,-1.7777,-1.12584,1.98427,1.03771,-0.884367,1.69871,-1.00603,-1.7777,-1.12584,1.98427,1.03771,-0.884367,1.78146,-1.07391,-1.81999,-1.12081,1.93556,1.11286,-0.916323,1.19776e-05,-2.39771e-05,2.39552e-05,1.19776e-05,0,3.59547e-05,-3.59547e-05,1.19776e-05,-2.39771e-05,2.39552e-05,1.19776e-05,0,3.59547e-05,-3.59547e-05,0.538604,-0.456173,0.694916,0.572356,0.182264,0.153001,0.784716,-7.19185e-06,-7.53258e-06,5.54993e-06,1.28892,-0.918993,-0.62019,-0.00258594,-0.0092271,-0.00805168,-0.00258594,-0.0092271,-0.00805168,-0.827563,0.678747,0.422949,-0.0503617,0.487146,-0.751477,0.319564,1
1.69871,-1.00615,-1.7778,-1.12621,1.98439,1.03769,-0.884496,1.69871,-1.00615,-1.7778,-1.12621,1.98439,1.03769,-0.884496,1.78146,-1.07391,-1.81999,-1.12081,1.93556,1.11286,-0.916323,4.79323e-05,1.19776e-05,0,0,0,0,0,4.79323e-05,1.19776e-05,0,0,0,0,0,0.538604,-0.456173,0.694916,0.572356,0.182264,0.153001,0.784716,2.54159e-05,3.20888e-05,-5.55724e-06,1.28897,-0.918994,-0.620129,0.00946638,-0.00565469,0.00100528,0.00946638,-0.00565469,0.00100528,-0.827505,0.677567,0.421928,-0.0540464,0.488326,-0.751662,0.318273,1
1.69872,-1.00612,-1.77778,-1.12604,1.98442,1.0377,-0.884363,1.69872,-1.00612,-1.77778,-1.12604,1.98442,1.0377,-0.884363,1.78146,-1.07391,-1.81999,-1.12081,1.93556,1.11286,-0.916323,0,1.19776e-05,2.39552e-05,0,0,0,0,0,1.19776e-05,2.39552e-05,0,0,0,0,0.538604,-0.456173,0.694916,0.572356,0.182264,0.153001,0.784716,-5.78028e-06,-1.54459e-05,-8.96951e-06,1.28893,-0.918936,-0.620146,-0.00585595,-0.0034345,-0.00469464,-0.00585595,-0.0034345,-0.00469464,-0.82743,0.677901,0.422097,-0.0522978,0.488607,-0.75161,0.319594,1
1.69873,-1.00611,-1.77776,-1.12596,1.98451,1.0377,-0.884253,1.69873,-1.00611,-1.77776,-1.12596,1.98451,1.0377,-0.884253,1.78146,-1.07391,-1.81999,-1.12081,1.93556,1.11286,-0.916323,0,1.19776e-05,2.39552e-05,0,-3.83633e-05,0,0,0,1.19776e-05,2.39552e-05,0,-3.83633e-05,0,0,0.538604,-0.456173,0.694916,0.572356,0.182264,0.153001,0.784716,-1.09982e-05,-2.65216e-05,-1.40101e-05,1.28897,-0.918974,-0.620178,0.00770629,0.00889373,-0.000823943,0.00770629,0.00889373,-0.000823943,-0.827324,0.677988,0.422363,-0.051502,0.489514,-0.751583,0.320696,1
1.69875,-1.00617,-1.77773,-1.12629,1.98471,1.0377,-0.884245,1.69875,-1.00617,-1.77773,-1.12629,1.98471,1.0377,-0.884245,1.78146,-1.07391,-1.81999,-1.12081,1.93556,1.11286,-0.916323,0,0,4.79323e-05,1.19776e-05,-3.83284e-05,0,3.59547e-05,0,0,4.79323e-05,1.19776e-05,-3.83284e-05,0,3.59547e-05,0.538604,-0.456173,0.694916,0.572356,0.182264,0.153001,0.784716,4.66256e-07,-6.5465e-06,-8.16334e-06,1.28893,-0.918939,-0.620127,-0.00537004,0.00788103,0.0110633,-0.00537004,0.00788103,0.0110633,-0.827155,0.677387,0.422622,-0.0547932,0.491513,-0.751618,0.320779,1
1.69877,-1.00618,-1.77767,-1.12646,1.98488,1.0377,-0.884149,1.69877,-1.00618,-1.77767,-1.12646,1.98488,1.0377,-0.884149,1.78146,-1.07391,-1.81999,-1.12081,1.93556,1.11286,-0.916323,-2.39759e-05,2.39759e-05,-2.39759e-05,0,5.75247e-05,0,-3.5953e-05,-2.39759e-05,2.39759e-05,-2.39759e-05,0,5.75247e-05,0,-3.5953e-05,0.538604,-0.456173,0.694916,0.572356,0.182264,0.153001,0.784716,-1.33173e-05,-1.57343e-05,5.94322e-06,1.28899,-0.91893,-0.620129,0.0120972,0.00797989,-0.000375524,0.0120972,0.00797989,-0.000375524,-0.826976,0.677246,0.423271,-0.0565497,0.493185,-0.751575,0.32174,1
1.69878,-1.00622,-1.77765,-1.12669,1.98499,1.0377,-0.884126,1.69878,-1.00622,-1.77765,-1.12669,1.98499,1.0377,-0.884126,1.78146,-1.07391,-1.81999,-1.12081,1.93556,1.11286,-0.916323,2.39771e-05,1.19776e-05,0,0,0,0,0,2.39771e-05,1.19776e-05,0,0,0,0,0,0.538604,-0.456173,0.694916,0.572356,0.182264,0.153001,0.784716,-3.90171e-06,-4.76013e-06,1.03043e-05,1.28893,-0.918978,-0.620126,0.00225297,-0.00702645,0.00456227,0.00225297,-0.00702645,0.00456227,-0.82686,0.67692,0.423491,-0.0588444,0.494313,-0.751569,0.321974,1
1.69878,-1.00627,-1.77769,-1.12698,1.985,1.0377,-0.88419,1.69878,-1.00627,-1.77769,-1.12698,1.985,1.0377,-0.88419,1.78146,-1.07391,-1.81999,-1.12081,1.93556,1.11286,-0.916323,2.39771e-05,0,0,-1.19776e-05,1.91642e-05,3.59547e-05,0,2.39771e-05,0,0,-1.19776e-05,1.91642e-05,3.59547e-05,0,0.538604,-0.456173,0.694916,0.572356,0.182264,0.153001,0.784716,-8.30996e-06,-9.81776e-06,-7.85367e-06,1.28891,-0.918981,-0.620167,-0.00875425,-0.00925449,-0.00728131,-0.00875425,-0.00925449,-0.00728131,-0.826838,0.676431,0.423041,-0.0617566,0.494398,-0.75161,0.321332,1
1.69877,-1.00649,-1.77791,-1.12724,1.98511,1.03766,-0.88447,1.69877,-1.00649,-1.77791,-1.12724,1.98511,1.03766,-0.88447,1.78146,-1.07391,-1.81999,-1.12081,1.93556,1.11286,-0.916323,2.39771e-05,0,0,-2.39771e-05,1.91642e-05,-1.19776e-05,3.59547e-05,2.39771e-05,0,0,-2.39771e-05,1.91642e-05,-1.19776e-05,3.59547e-05,0.538604,-0.456173,0.694916,0.572356,0.182264,0.153001,0.784716,-1.23174e-05,-2.87216e-05,-1.68485e-06,1.28895,-0.91894,-0.620126,0.00723945,0.00779228,-0.000842409,0.00723945,0.00779228,-0.000842409,-0.826928,0.674216,0.420826,-0.0643703,0.495506,-0.752006,0.318526,1
1.69872,-1.00678,-1.77846,-1.12749,1.98488,1.03761,-0.885043,1.69872,-1.00678,-1.77846,-1.12749,1.98488,1.03761,-0.885043,1.78146,-1.07391,-1.81999,-1.12081,1.93556,1.11286,-0.916323,0,1.1977e-05,0,0,1.91633e-05,0,0,0,1.1977e-05,0,0,1.91633e-05,0,0,0.538604,-0.456173,0.694916,0.572356,0.182264,0.153001,0.784716,-1.402e-06,1.56648e-06,7.05076e-06,1.28892,-0.918915,-0.620151,-0.000794641,0.0128173,-0.00426751,-0.000794641,0.0128173,-0.00426751,-0.827431,0.671263,0.41532,-0.0668666,0.493237,-0.752521,0.312796,1
1.69871,-1.00589,-1.77774,-1.12552,1.98391,1.03775,-0.883907,1.69871,-1.00589,-1.77774,-1.12552,1.98391,1.03775,-0.883907,1.78146,-1.07391,-1.81999,-1.12081,1.93556,1.11286,-0.916323,-2.39552e-05,0,2.39552e-05,1.19776e-05,0,0,0,-2.39552e-05,0,2.39552e-05,1.19776e-05,0,0,0,0.538604,-0.456173,0.694916,0.572356,0.182264,0.153001,0.784716,2.45817e-05,2.53197e-05,-9.50134e-06,1.28893,-0.918977,-0.620235,-0.0127862,-0.0211236,-0.0361178,-0.0127862,-0.0211236,-0.0361178,-0.827502,0.680235,0.422498,-0.0471068,0.483486,-0.751043,0.324162,1
1.76667,-1.12907,-1.87062,-1.09811,1.95079,1.10114,-0.887515,1.76667,-1.12907,-1.87062,-1.09811,1.95079,1.10114,-0.887515,1.78146,-1.07391,-1.81999,-1.12081,1.93556,1.11286,-0.916323,2.39541e-05,0,-2.39541e-05,0,0,0,-3.5953e-05,2.39541e-05,0,-2.39541e-05,0,0,0,-3.5953e-05,0.538604,-0.456173,0.694916,0.572356,0.182264,0.153001,0.784716,1.20667e-05,7.794e-06,-8.56443e-06,1.289,-0.918936,-0.620133,0.0121043,0.00538396,0.00711865,0.0121043,0.00538396,0.00711865,-0.147903,-0.551611,-0.506238,0.22697,0.152287,-0.117151,0.288081,1
1.7264,-1.1329,-1.87421,-1.18965,1.97596,1.07236,-0.867129,1.7264,-1.1329,-1.87421,-1.18965,1.97596,1.07236,-0.867129,1.78146,-1.07391,-1.81999,-1.12081,1.93556,1.11286,-0.916323,9.58818e-05,1.1977e-05,0,-1.1977e-05,0,3.5953e-05,0,9.58818e-05,1.1977e-05,0,-1.1977e-05,0,3.5953e-05,0,0.538604,-0.456173,0.694916,0.572356,0.182264,0.153001,0.784716,-9.04839e-06,-1.81701e-05,9.32921e-07,1.28898,-0.918914,-0.620111,0.0129598,0.00830139,0.00157968,0.0129598,0.00830139,0.00157968,-0.550618,-0.589915,-0.54217,-0.688428,0.403956,-0.404932,0.491936,1
