Afshin1997/kuka_rl_ros2/src/catch_and_throw/output_files/tm/nn_ema5.00_jvws1_realball_D24H10M12S38/recorded_data.csv
pure_target_joint_0,pure_target_joint_1,pure_target_joint_2,pure_target_joint_3,pure_target_joint_4,pure_target_joint_5,pure_target_joint_6,target_joint_0,target_joint_1,target_joint_2,target_joint_3,target_joint_4,target_joint_5,target_joint_6,pos_joint_0,pos_joint_1,pos_joint_2,pos_joint_3,pos_joint_4,pos_joint_5,pos_joint_6,vel_joint_0,vel_joint_1,vel_joint_2,vel_joint_3,vel_joint_4,vel_joint_5,vel_joint_6,vel_smooth_joint_0,vel_smooth_joint_1,vel_smooth_joint_2,vel_smooth_joint_3,vel_smooth_joint_4,vel_smooth_joint_5,vel_smooth_joint_6,ee_pos_x,ee_pos_y,ee_pos_z,ee_or_w,ee_or_x,ee_or_y,ee_or_z,ee_vel_x,ee_vel_y,ee_vel_z,ball_pos_x,ball_pos_y,ball_pos_z,ball_raw_vx,ball_raw_vy,ball_raw_vz,ball_ema_vx,ball_ema_vy,ball_ema_vz,action_0,action_1,action_2,action_3,action_4,action_5,action_6,command_published
1.71076,-1.01486,-1.76923,-1.17722,2.01368,1.16861,-0.943539,1.76287,-1.05222,-1.80362,-1.13204,1.95634,1.12986,-0.923041,1.78024,-1.06467,-1.81508,-1.11698,1.93723,1.11694,-0.916208,0,0,0,0,0,0,0,0,0,0,0,0,0,0,0.531033,-0.454437,0.694313,0.574515,0.17513,0.152569,0.784847,0,0,0,2.9704,-0.462152,0.280833,-3.29225,0.361937,5.23035,-3.24657,0.338842,5.20437,-0.694847,0.49814,0.458472,-0.602354,0.764576,0.516654,-0.273308,1
1.71008,-1.01198,-1.77073,-1.17654,2.01324,1.16591,-0.943595,1.72796,-1.02659,-1.78107,-1.16199,1.99446,1.15502,-0.93672,1.78024,-1.06467,-1.81508,-1.11698,1.93723,1.11694,-0.916208,-5.18838e-07,2.1824e-07,4.16171e-07,4.29801e-07,5.21472e-07,-1.27577e-08,-2.93312e-07,-5.18838e-07,2.1824e-07,4.16171e-07,4.29801e-07,5.21472e-07,-1.27577e-08,-2.93312e-07,0.531033,-0.454437,0.694313,0.574515,0.17513,0.152569,0.784847,-3.55465e-07,-3.27299e-07,3.81645e-07,2.93853,-0.459025,0.332041,-3.18661,0.312728,5.12072,-3.26352,0.346386,5.10479,-0.701604,0.526958,0.443454,-0.595579,0.760129,0.489653,-0.273867,1
1.70746,-1.00543,-1.7691,-1.18033,2.01641,1.17003,-0.948458,1.7096,-1.01106,-1.76995,-1.17766,2.01414,1.16761,-0.944796,1.77678,-1.06219,-1.8128,-1.11998,1.94103,1.11952,-0.917569,-0.326925,0.234373,0.215712,-0.283407,0.359734,0.243085,-0.128592,-0.326925,0.234373,0.215712,-0.283407,0.359734,0.243085,-0.128592,0.529081,-0.454261,0.696075,0.574978,0.173579,0.150969,0.785162,-0.167644,0.0203893,0.157516,2.90664,-0.455772,0.382372,-3.18952,0.325328,5.03318,-3.25099,0.33944,4.99068,-0.693248,0.567582,0.436986,-0.60348,0.753784,0.505164,-0.308883,1
1.69794,-0.991911,-1.76802,-1.18814,2.02625,1.17896,-0.950616,1.70573,-1.00369,-1.76924,-1.18134,2.01808,1.17123,-0.947782,1.76705,-1.0551,-1.80647,-1.12835,1.95168,1.12659,-0.921385,-0.91881,0.66998,0.597082,-0.790561,1.00542,0.668113,-0.360414,-0.91881,0.66998,0.597082,-0.790561,1.00542,0.668113,-0.360414,0.523622,-0.453713,0.701008,0.576306,0.169281,0.146608,0.785953,-0.52478,0.0678752,0.49487,2.87475,-0.452458,0.431526,-3.18882,0.331381,4.91533,-3.20905,0.33008,4.87531,-0.69111,0.631855,0.384563,-0.597911,0.74574,0.523716,-0.292311,1
1.68625,-0.978789,-1.76335,-1.19391,2.0382,1.18602,-0.952112,1.6974,-0.992011,-1.76712,-1.18763,2.02678,1.1785,-0.950451,1.7556,-1.04632,-1.7992,-1.13818,1.96413,1.13477,-0.92605,-1.08136,0.828758,0.687388,-0.927899,1.17556,0.772069,-0.440595,-1.08136,0.828758,0.687388,-0.927899,1.17556,0.772069,-0.440595,0.517234,-0.452852,0.70688,0.577983,0.164198,0.141789,0.786683,-0.548731,0.0950073,0.524469,2.84268,-0.449199,0.479466,-3.20759,0.325885,4.79404,-3.19234,0.324736,4.76751,-0.693561,0.675324,0.358508,-0.557299,0.740699,0.512579,-0.260622,1
1.67516,-0.968095,-1.75939,-1.20139,2.04904,1.18936,-0.956292,1.6864,-0.979396,-1.76353,-1.19434,2.03792,1.18509,-0.952783,1.74567,-1.03783,-1.79323,-1.14678,1.97488,1.14203,-0.93038,-0.93854,0.802372,0.563836,-0.812249,1.0154,0.686344,-0.408982,-0.93854,0.802372,0.563836,-0.812249,1.0154,0.686344,-0.408982,0.511684,-0.451718,0.712221,0.579634,0.159528,0.138084,0.787089,-0.476972,0.114773,0.479282,2.81069,-0.446164,0.526751,-3.19824,0.303495,4.72854,-3.19647,0.322945,4.66516,-0.705088,0.697307,0.338331,-0.546146,0.741648,0.47327,-0.259115,1
1.66449,-0.957073,-1.7565,-1.20706,2.05921,1.19178,-0.961532,1.67526,-0.968013,-1.75966,-1.20094,2.04887,1.18913,-0.956557,1.73605,-1.0287,-1.78802,-1.15492,1.98522,1.1493,-0.93438,-0.908431,0.862246,0.491329,-0.768874,0.976793,0.686234,-0.37772,-0.908431,0.862246,0.491329,-0.768874,0.976793,0.686234,-0.37772,0.506276,-0.450359,0.717627,0.581377,0.154776,0.134957,0.787294,-0.465342,0.132183,0.486965,2.7791,-0.443001,0.573028,-3.15938,0.316331,4.62769,-3.19139,0.318357,4.56538,-0.715628,0.716238,0.315196,-0.521421,0.73992,0.424817,-0.271522,1
1.65388,-0.946181,-1.75313,-1.21346,2.0697,1.19458,-0.966848,1.6645,-0.957106,-1.75638,-1.20724,2.05929,1.19188,-0.961551,1.72616,-1.01887,-1.78314,-1.16277,1.99572,1.15643,-0.938047,-0.934401,0.927837,0.461067,-0.741873,0.991865,0.673642,-0.346355,-0.934401,0.927837,0.461067,-0.741873,0.991865,0.673642,-0.346355,0.500732,-0.448982,0.72325,0.583271,0.150003,0.132057,0.787308,-0.478702,0.132911,0.508018,2.74748,-0.43948,0.618355,-3.16217,0.352141,4.53267,-3.18123,0.321553,4.47221,-0.722793,0.726919,0.30011,-0.506907,0.73982,0.381539,-0.288016,1
1.64335,-0.935272,-1.74985,-1.22111,2.08028,1.19655,-0.97113,1.6539,-0.946177,-1.75316,-1.21377,2.06973,1.19437,-0.96659,1.71601,-1.00874,-1.77846,-1.17038,2.00631,1.16295,-0.941735,-0.957801,0.957178,0.441956,-0.718262,1.00032,0.615412,-0.348361,-0.957801,0.957178,0.441956,-0.718262,1.00032,0.615412,-0.348361,0.497788,-0.448312,0.726236,0.584385,0.147622,0.130628,0.787171,-0.483164,0.125762,0.510679,2.71545,-0.435932,0.662559,-3.20275,0.35474,4.42038,-3.17666,0.332189,4.37789,-0.726615,0.734664,0.2861,-0.507305,0.739728,0.336011,-0.293945,1
1.63288,-0.924368,-1.7471,-1.22994,2.09081,1.1948,-0.976219,1.64337,-0.935273,-1.74998,-1.2214,2.08027,1.19562,-0.971332,1.70575,-0.99845,-1.77406,-1.17772,2.01687,1.16871,-0.945684,-0.969469,0.971729,0.415538,-0.693819,0.997074,0.544451,-0.372933,-0.969469,0.971729,0.415538,-0.693819,0.997074,0.544451,-0.372933,0.489677,-0.446476,0.734414,0.587737,0.141373,0.126945,0.786425,-0.479145,0.118379,0.502759,2.68369,-0.432045,0.705537,-3.17576,0.388667,4.29777,-3.1765,0.353064,4.27101,-0.728695,0.740821,0.269681,-0.522132,0.739431,0.260885,-0.305353,1
1.62281,-0.913313,-1.74279,-1.23881,2.10124,1.18892,-0.981846,1.63298,-0.92433,-1.74671,-1.22995,2.09079,1.19377,-0.976354,1.69542,-0.988034,-1.7699,-1.18491,2.0274,1.17382,-0.94985,-0.975853,0.98378,0.393493,-0.678462,0.994756,0.482978,-0.393447,-0.975853,0.98378,0.393493,-0.678462,0.994756,0.482978,-0.393447,0.484297,-0.445283,0.739826,0.590281,0.137583,0.124778,0.785538,-0.472074,0.116957,0.493391,2.65228,-0.428129,0.747488,-3.14164,0.391668,4.19515,-3.17431,0.371785,4.16101,-0.726073,0.747206,0.271099,-0.539018,0.738414,0.150908,-0.319966,1
1.61345,-0.902345,-1.73477,-1.24862,2.11177,1.17501,-0.987276,1.62299,-0.913335,-1.74186,-1.23904,2.10127,1.18691,-0.981797,1.68505,-0.977521,-1.76593,-1.19218,2.03794,1.17817,-0.95413,-0.979618,0.992953,0.37478,-0.686872,0.995009,0.410183,-0.404293,-0.979618,0.992953,0.37478,-0.686872,0.995009,0.410183,-0.404293,0.479105,-0.444026,0.745048,0.592852,0.13425,0.122886,0.784476,-0.458243,0.123349,0.477327,2.6207,-0.424279,0.788595,-3.15771,0.384951,4.11066,-3.16731,0.382039,4.05408,-0.715929,0.751756,0.311635,-0.564445,0.738367,-0.0315938,-0.331454,1
1.60512,-0.891446,-1.72204,-1.26011,2.1222,1.15279,-0.991662,1.61371,-0.902362,-1.73359,-1.24904,2.11175,1.17293,-0.987015,1.67467,-0.966922,-1.7621,-1.1997,2.04847,1.18128,-0.958558,-0.979854,1.00104,0.361745,-0.710795,0.994668,0.293551,-0.418243,-0.979854,1.00104,0.361745,-0.710795,0.994668,0.293551,-0.418243,0.47422,-0.442654,0.750027,0.595374,0.131611,0.121354,0.783251,-0.435041,0.135066,0.456843,2.58948,-0.421583,0.828938,-3.12235,0.269678,4.03437,-3.14943,0.364654,3.95817,-0.695485,0.754763,0.400615,-0.604062,0.737345,-0.284893,-0.331036,1
1.59549,-0.880208,-1.71048,-1.27019,2.131,1.13376,-0.999352,1.6048,-0.891361,-1.72233,-1.25976,2.12179,1.15359,-0.992488,1.66437,-0.956244,-1.75807,-1.20754,2.05899,1.1824,-0.963189,-0.97271,1.00855,0.380936,-0.7404,0.993738,0.106038,-0.437365,-0.97271,1.00855,0.380936,-0.7404,0.993738,0.106038,-0.437365,0.469779,-0.441079,0.754823,0.597743,0.129915,0.120237,0.781901,-0.400704,0.155826,0.442414,2.55754,-0.418226,0.868131,-3.19402,0.33569,3.91921,-3.15115,0.34186,3.86638,-0.688804,0.760359,0.475831,-0.626448,0.720073,-0.486375,-0.361635,1
1.58681,-0.867623,-1.70143,-1.27798,2.13872,1.12259,-1.00713,1.59573,-0.879871,-1.71111,-1.26962,2.13073,1.13572,-0.999374,1.65428,-0.945507,-1.75319,-1.21581,2.0695,1.18051,-0.967937,-0.95352,1.0141,0.460676,-0.781027,0.992969,-0.17821,-0.448423,-0.95352,1.0141,0.460676,-0.781027,0.992969,-0.17821,-0.448423,0.465971,-0.439119,0.759559,0.599697,0.129466,0.119565,0.780581,-0.350623,0.19499,0.44008,2.52576,-0.414901,0.906124,-3.17729,0.332472,3.79932,-3.16192,0.325094,3.76807,-0.674676,0.778848,0.517594,-0.62171,0.692206,-0.579234,-0.391908,1
1.57496,-0.855994,-1.7041,-1.28053,2.14609,1.11692,-1.01311,1.58602,-0.867862,-1.70436,-1.27667,2.13863,1.12396,-1.00668,1.64442,-0.934718,-1.74704,-1.22457,2.07992,1.17515,-0.972829,-0.931252,1.01908,0.580771,-0.827099,0.984173,-0.506771,-0.462079,-0.931252,1.01908,0.580771,-0.827099,0.984173,-0.506771,-0.462079,0.462868,-0.436646,0.764328,0.601121,0.130343,0.119391,0.779365,-0.294347,0.246543,0.446537,2.49419,-0.41149,0.94308,-3.15692,0.341046,3.69562,-3.16725,0.322593,3.66156,-0.694594,0.78724,0.429356,-0.559652,0.66168,-0.582304,-0.402854,1
1.56243,-0.844552,-1.71661,-1.28021,2.15282,1.11333,-1.01686,1.57479,-0.856041,-1.70656,-1.27982,2.14593,1.11744,-1.01255,1.63472,-0.923789,-1.73988,-1.23355,2.09005,1.16729,-0.978118,-0.916363,1.03227,0.676266,-0.847852,0.956241,-0.741959,-0.499596,-0.916363,1.03227,0.676266,-0.847852,0.956241,-0.741959,-0.499596,0.460268,-0.433708,0.769187,0.602317,0.132036,0.119743,0.778102,-0.254265,0.291287,0.457573,2.46243,-0.407959,0.979305,-3.176,0.353122,3.62251,-3.17427,0.339818,3.55683,-0.722869,0.792371,0.232669,-0.466675,0.627715,-0.539647,-0.387442,1
1.55304,-0.832147,-1.73302,-1.27865,2.16055,1.1086,-1.0191,1.56321,-0.844311,-1.71759,-1.2799,2.15307,1.11304,-1.01648,1.62501,-0.912645,-1.7328,-1.24214,2.09973,1.15866,-0.98381,-0.916547,1.0526,0.668489,-0.81168,0.91445,-0.815463,-0.537566,-0.916547,1.0526,0.668489,-0.81168,0.91445,-0.815463,-0.537566,0.457818,-0.430689,0.774045,0.603811,0.133927,0.120593,0.776488,-0.243605,0.297445,0.458701,2.43046,-0.40438,1.0143,-3.19741,0.357908,3.4997,-3.17482,0.346326,3.45524,-0.719732,0.804981,-0.00221932,-0.365157,0.608252,-0.500575,-0.352904,1
1.54759,-0.819597,-1.74039,-1.28169,2.17106,1.10185,-1.01814,1.55402,-0.832111,-1.73076,-1.2798,2.16125,1.10809,-1.0183,1.615,-0.901366,-1.72757,-1.24965,2.10893,1.15044,-0.989537,-0.945244,1.06534,0.493856,-0.709116,0.869571,-0.77581,-0.541003,-0.945244,1.06534,0.493856,-0.709116,0.869571,-0.77581,-0.541003,0.455207,-0.428383,0.778525,0.606191,0.135936,0.121925,0.774072,-0.261956,0.228745,0.424841,2.39872,-0.400798,1.04814,-3.17352,0.358176,3.3836,-3.17811,0.353153,3.35251,-0.674148,0.817691,-0.128157,-0.320455,0.621267,-0.48598,-0.285988,1
1.54261,-0.807485,-1.73996,-1.29089,2.18267,1.09111,-1.01515,1.54771,-0.819706,-1.73844,-1.28323,2.17134,1.10085,-1.01763,1.60468,-0.889997,-1.72558,-1.25568,2.11773,1.14299,-0.994907,-0.974744,1.07381,0.18793,-0.569462,0.830668,-0.703929,-0.507171,-0.974744,1.07381,0.18793,-0.569462,0.830668,-0.703929,-0.507171,0.452393,-0.427331,0.782289,0.609724,0.138315,0.123773,0.770575,-0.286763,0.110283,0.360097,2.36705,-0.397212,1.08087,-3.16749,0.358653,3.27276,-3.17997,0.35718,3.24405,-0.620797,0.825115,-0.143769,-0.352091,0.649451,-0.518802,-0.202452,1
1.53656,-0.795729,-1.72554,-1.30121,2.19297,1.08061,-1.01567,1.54234,-0.807574,-1.73646,-1.29117,2.18234,1.09117,-1.01603,1.59459,-0.878462,-1.72662,-1.26048,2.1264,1.13604,-0.999568,-0.953472,1.08947,-0.0974692,-0.454107,0.819037,-0.656808,-0.44027,-0.953472,1.08947,-0.0974692,-0.454107,0.819037,-0.656808,-0.44027,0.449632,-0.427214,0.785392,0.613923,0.141174,0.126031,0.766345,-0.287666,0.0225033,0.300811,2.33544,-0.393876,1.11273,-3.16117,0.333548,3.18673,-3.17401,0.353339,3.13419,-0.580299,0.827335,0.010774,-0.40731,0.665722,-0.554279,-0.160998,1
1.52849,-0.784492,-1.71094,-1.31186,2.20113,1.07001,-1.0246,1.53605,-0.795859,-1.72549,-1.30129,2.19244,1.08058,-1.01777,1.58525,-0.866754,-1.72897,-1.26502,2.13535,1.12903,-1.00317,-0.882399,1.10584,-0.222559,-0.428127,0.845752,-0.662242,-0.339959,-0.882399,1.10584,-0.222559,-0.428127,0.845752,-0.662242,-0.339959,0.44726,-0.42715,0.788132,0.617758,0.14448,0.128419,0.76224,-0.254712,0.0179588,0.268429,2.30368,-0.390536,1.14324,-3.17602,0.334036,3.05054,-3.1685,0.346103,3.02467,-0.567621,0.822624,0.180335,-0.468387,0.657758,-0.590161,-0.214302,1
1.52254,-0.773005,-1.69667,-1.3206,2.21216,1.06027,-1.03104,1.52902,-0.78443,-1.71102,-1.31138,2.20185,1.07022,-1.02398,1.5767,-0.854962,-1.73047,-1.27023,2.14472,1.12148,-1.00573,-0.80756,1.11383,-0.140972,-0.492218,0.88441,-0.712493,-0.24203,-0.80756,1.11383,-0.140972,-0.492218,0.88441,-0.712493,-0.24203,0.445411,-0.426311,0.790895,0.620447,0.148012,0.13068,0.758987,-0.205464,0.0910918,0.270476,2.27191,-0.387539,1.17287,-3.17652,0.299716,2.9636,-3.16996,0.33195,2.91845,-0.541605,0.819568,0.337987,-0.503747,0.674454,-0.612129,-0.253105,1
1.51642,-0.761412,-1.68783,-1.32996,2.22288,1.05145,-1.03523,1.5225,-0.772979,-1.69802,-1.32076,2.21208,1.0605,-1.03048,1.5686,-0.843185,-1.72947,-1.27642,2.15423,1.11333,-1.00813,-0.764977,1.11237,0.0935498,-0.584663,0.898116,-0.769727,-0.226633,-0.764977,1.11237,0.0935498,-0.584663,0.898116,-0.769727,-0.226633,0.443948,-0.424291,0.794051,0.622042,0.15131,0.132726,0.756672,-0.165415,0.201254,0.306007,2.24058,-0.384231,1.20146,-3.13315,0.330833,2.85881,-3.16463,0.323002,2.81335,-0.521772,0.817727,0.416495,-0.535442,0.686547,-0.618792,-0.270988,1
1.50772,-0.749787,-1.68463,-1.33803,2.2331,1.04369,-1.03599,1.51577,-0.761404,-1.68924,-1.32964,2.22276,1.05172,-1.03437,1.56071,-0.831477,-1.7258,-1.28338,2.16372,1.10474,-1.01129,-0.744959,1.10583,0.347316,-0.658053,0.896298,-0.81134,-0.298245,-0.744959,1.10583,0.347316,-0.658053,0.896298,-0.81134,-0.298245,0.442725,-0.421158,0.797687,0.623013,0.154137,0.134611,0.754968,-0.138269,0.304527,0.349046,2.20927,-0.380755,1.22925,-3.13089,0.347516,2.77904,-3.15428,0.325475,2.71264,-0.529945,0.816901,0.411673,-0.546443,0.693884,-0.61054,-0.247021,1
1.49727,-0.738257,-1.68402,-1.34376,2.24271,1.03697,-1.03618,1.50728,-0.749811,-1.68528,-1.33745,2.23295,1.04395,-1.03585,1.5531,-0.819821,-1.72026,-1.29083,2.17335,1.09593,-1.01511,-0.719226,1.10094,0.522692,-0.703314,0.910297,-0.832642,-0.361148,-0.719226,1.10094,0.522692,-0.703314,0.910297,-0.832642,-0.361148,0.441728,-0.417195,0.801621,0.62355,0.156619,0.136369,0.753697,-0.114023,0.381635,0.375744,2.17776,-0.377309,1.25611,-3.15104,0.344595,2.68613,-3.14473,0.332366,2.6213,-0.558218,0.815639,0.36242,-0.529281,0.69361,-0.589552,-0.210734,1
1.49206,-0.726495,-1.67786,-1.34892,2.25295,1.02892,-1.0364,1.49858,-0.738199,-1.68263,-1.34362,2.24287,1.03664,-1.03619,1.54566,-0.80818,-1.71408,-1.29856,2.1832,1.08712,-1.01895,-0.702401,1.09939,0.58392,-0.730357,0.929771,-0.832041,-0.362485,-0.702401,1.09939,0.58392,-0.730357,0.929771,-0.832041,-0.362485,0.440908,-0.412831,0.805536,0.623752,0.15905,0.138089,0.752707,-0.0966493,0.418865,0.373451,2.14616,-0.373744,1.28171,-3.16062,0.356576,2.55946,-3.14333,0.345114,2.5232,-0.535968,0.816851,0.362173,-0.50353,0.697547,-0.581935,-0.17455,1
1.48814,-0.714803,-1.66721,-1.35675,2.26336,1.0188,-1.03752,1.49239,-0.726513,-1.67674,-1.34959,2.25299,1.0284,-1.03663,1.53801,-0.79655,-1.70834,-1.30631,2.19311,1.07852,-1.02232,-0.722253,1.09851,0.542094,-0.731734,0.93635,-0.812396,-0.318039,-0.722253,1.09851,0.542094,-0.731734,0.93635,-0.812396,-0.318039,0.440082,-0.408622,0.809169,0.62392,0.161658,0.139863,0.751684,-0.098454,0.404432,0.347691,2.11517,-0.370116,1.30622,-3.09861,0.362799,2.45129,-3.13939,0.352414,2.41974,-0.4987,0.817465,0.41127,-0.504394,0.702449,-0.597186,-0.15205,1
1.48561,-0.703202,-1.65457,-1.36877,2.2742,1.00789,-1.03964,1.48849,-0.714826,-1.66671,-1.3578,2.26347,1.0186,-1.03777,1.53016,-0.784922,-1.70322,-1.31375,2.20303,1.07017,-1.02508,-0.742076,1.09816,0.483809,-0.702071,0.936475,-0.788121,-0.261113,-0.742076,1.09816,0.483809,-0.702071,0.936475,-0.788121,-0.261113,0.439184,-0.404715,0.812581,0.624159,0.16439,0.141648,0.750558,-0.105958,0.376476,0.32745,2.08412,-0.366244,1.33003,-3.10519,0.387192,2.38037,-3.12901,0.36217,2.31652,-0.4455,0.817209,0.486519,-0.55029,0.711695,-0.622839,-0.145559,1
1.48499,-0.691688,-1.64454,-1.37893,2.28488,0.998258,-1.0411,1.48609,-0.703223,-1.65522,-1.36831,2.27416,1.00821,-1.03947,1.52263,-0.773284,-1.69794,-1.32089,2.21298,1.06185,-1.02738,-0.710828,1.09927,0.498316,-0.67453,0.940377,-0.786056,-0.217324,-0.710828,1.09927,0.498316,-0.67453,0.940377,-0.786056,-0.217324,0.438431,-0.400634,0.816007,0.624141,0.167064,0.1434,0.74965,-0.0916428,0.392183,0.328813,2.05264,-0.363018,1.35276,-3.14767,0.322548,2.27298,-3.1228,0.360821,2.21599,-0.376413,0.815958,0.533993,-0.580397,0.718967,-0.635909,-0.137217,1
1.48185,-0.680284,-1.63836,-1.38526,2.29529,0.991123,-1.03498,1.48436,-0.691715,-1.6455,-1.37797,2.28481,0.998881,-1.03921,1.51583,-0.761635,-1.69172,-1.32824,2.22304,1.05323,-1.02945,-0.642533,1.10017,0.587709,-0.694672,0.950069,-0.813911,-0.195519,-0.642533,1.10017,0.587709,-0.694672,0.950069,-0.813911,-0.195519,0.438096,-0.395828,0.819508,0.623451,0.16967,0.145195,0.749292,-0.0521869,0.458706,0.335447,2.02131,-0.359869,1.37471,-3.13299,0.314966,2.19525,-3.12218,0.348474,2.12531,-0.33972,0.813508,0.533588,-0.570199,0.722494,-0.621078,-0.0552773,1
1.47833,-0.66891,-1.63232,-1.39006,2.30542,0.985632,-1.02647,1.48176,-0.680292,-1.6384,-1.38488,2.29522,0.991534,-1.03438,1.5099,-0.749996,-1.68445,-1.33623,2.23323,1.04426,-1.03145,-0.559723,1.0993,0.686877,-0.754013,0.961977,-0.847343,-0.188626,-0.559723,1.0993,0.686877,-0.754013,0.961977,-0.847343,-0.188626,0.438323,-0.390083,0.822947,0.621925,0.172303,0.147153,0.749578,-0.000274032,0.544695,0.329812,1.98975,-0.356566,1.39558,-3.15621,0.330228,2.08738,-3.13647,0.334738,2.03402,-0.315748,0.810855,0.521311,-0.538378,0.721899,-0.58627,0.0498189,1
1.47977,-0.657628,-1.62508,-1.3934,2.31572,0.978348,-1.0217,1.47957,-0.668933,-1.63202,-1.3897,2.30546,0.985184,-1.0274,1.50481,-0.738383,-1.67669,-1.34454,2.24351,1.03522,-1.03299,-0.480682,1.09684,0.73292,-0.785675,0.970816,-0.854012,-0.145983,-0.480682,1.09684,0.73292,-0.785675,0.970816,-0.854012,-0.145983,0.439006,-0.383668,0.826249,0.619659,0.174969,0.149232,0.750425,0.0415209,0.605589,0.316984,1.95813,-0.353198,1.41538,-3.16201,0.336808,1.97997,-3.1487,0.325429,1.93537,-0.250384,0.807548,0.516094,-0.488586,0.722171,-0.568698,0.112968,1
1.4827,-0.651904,-1.62319,-1.39051,2.32178,0.974091,-1.01598,1.48014,-0.659018,-1.62642,-1.39184,2.31466,0.979105,-1.02146,1.50239,-0.732274,-1.67266,-1.34879,2.24894,1.03062,-1.03314,-0.484913,1.22181,0.805379,-0.848339,1.08768,-0.918773,-0.02919,-0.484913,1.22181,0.805379,-0.848339,1.08768,-0.918773,-0.02919,0.439437,-0.380205,0.82796,0.618169,0.176344,0.150274,0.751124,0.0600071,0.689336,0.351849,1.92651,-0.349927,1.43418,-3.16173,0.32714,1.87985,-3.15441,0.328532,1.83522,-0.196849,0.803694,0.49468,-0.417231,0.728388,-0.565324,0.171595,1
1.49485,-0.640598,-1.61592,-1.38973,2.33271,0.964311,-1.01168,1.48501,-0.650509,-1.62185,-1.39104,2.323,0.97271,-1.01633,1.49805,-0.720721,-1.66516,-1.35648,2.25924,1.02217,-1.03265,-0.434269,1.21725,0.779034,-0.780659,1.08637,-0.869258,0.123426,-0.434269,1.21725,0.779034,-0.780659,1.08637,-0.869258,0.123426,0.440292,-0.373612,0.831167,0.615086,0.178886,0.152181,0.752669,0.0667968,0.690637,0.351725,1.89536,-0.346414,1.45208,-3.11513,0.351307,1.79025,-3.15139,0.335492,1.73347,-0.0319659,0.801233,0.492425,-0.332417,0.734686,-0.578562,0.209771,1
1.52059,-0.631332,-1.61094,-1.39126,2.33902,0.956433,-1.01238,1.49825,-0.641108,-1.61649,-1.39031,2.33156,0.964786,-1.01293,1.49436,-0.710402,-1.65856,-1.3631,2.26845,1.0148,-1.03161,-0.347735,0.974694,0.623802,-0.625103,0.869897,-0.696047,0.0988316,-0.347735,0.974694,0.623802,-0.625103,0.869897,-0.696047,0.0988316,0.441099,-0.367675,0.833973,0.612112,0.181127,0.153852,0.754216,0.0570106,0.557675,0.270087,1.86361,-0.343015,1.46879,-3.17513,0.339857,1.67093,-3.15049,0.338867,1.63121,0.262255,0.790702,0.47618,-0.281613,0.705687,-0.58364,0.192286,1
1.5352,-0.621727,-1.60823,-1.38677,2.34805,0.952412,-1.00133,1.51781,-0.631247,-1.61151,-1.38976,2.3397,0.957397,-1.00944,1.49153,-0.700163,-1.65215,-1.36883,2.27766,1.00769,-1.02959,-0.267653,0.967094,0.604932,-0.540944,0.869699,-0.671768,0.190971,-0.267653,0.967094,0.604932,-0.540944,0.869699,-0.671768,0.190971,0.442037,-0.361649,0.836906,0.608755,0.183157,0.155332,0.756136,0.071305,0.564955,0.281499,1.83202,-0.339584,1.48451,-3.15857,0.343144,1.57189,-3.15114,0.341406,1.5287,0.436666,0.784356,0.439225,-0.179388,0.703914,-0.552729,0.28253,1
1.53536,-0.612178,-1.61155,-1.37054,2.35665,0.94787,-0.994657,1.53159,-0.621741,-1.60974,-1.38383,2.34794,0.952282,-1.00243,1.49023,-0.690269,-1.64611,-1.37325,2.2867,1.00072,-1.02695,-0.122791,0.934535,0.570412,-0.417951,0.853337,-0.65826,0.249407,-0.122791,0.934535,0.570412,-0.417951,0.853337,-0.65826,0.249407,0.443272,-0.355516,0.839984,0.605046,0.184919,0.156611,0.758418,0.10107,0.573957,0.294588,1.80056,-0.336372,1.49904,-3.1461,0.321186,1.45323,-3.15235,0.339399,1.42154,0.451333,0.78091,0.34566,0.0271662,0.699582,-0.528462,0.322882,1
1.53245,-0.602853,-1.61716,-1.35265,2.36547,0.941162,-0.991724,1.53459,-0.612234,-1.61212,-1.37012,2.35671,0.947328,-0.995593,1.49183,-0.680473,-1.64021,-1.37665,2.29563,0.993557,-1.02415,0.150879,0.925201,0.557466,-0.32091,0.844297,-0.676192,0.263795,0.150879,0.925201,0.557466,-0.32091,0.844297,-0.676192,0.263795,0.445353,-0.34841,0.843248,0.600492,0.18636,0.158011,0.761388,0.180917,0.66148,0.311975,1.7688,-0.333384,1.51266,-3.17612,0.298765,1.36185,-3.16165,0.327023,1.31409,0.40623,0.776201,0.23051,0.239994,0.69835,-0.523946,0.324283,1
1.52877,-0.593936,-1.64063,-1.34029,2.37365,0.937594,-0.993443,1.53226,-0.602955,-1.62162,-1.35403,2.36531,0.941947,-0.992887,1.497,-0.670664,-1.63449,-1.37926,2.30442,0.986351,-1.02122,0.488912,0.926424,0.540212,-0.246601,0.829342,-0.680513,0.276847,0.488912,0.926424,0.540212,-0.246601,0.829342,-0.680513,0.276847,0.448494,-0.33989,0.846652,0.594785,0.187386,0.159704,0.765253,0.279836,0.788936,0.324883,1.73746,-0.329989,1.52514,-3.13445,0.339526,1.248,-3.15527,0.32252,1.2085,0.31764,0.767282,-0.0613374,0.389757,0.692324,-0.487573,0.277778,1
1.52895,-0.583956,-1.64974,-1.33411,2.38195,0.936415,-0.996129,1.52974,-0.59367,-1.63704,-1.34183,2.37368,0.938191,-0.993685,1.5039,-0.660915,-1.62956,-1.38017,2.31309,0.979563,-1.01748,0.650841,0.920727,0.465884,-0.0860322,0.819219,-0.641186,0.35373,0.650841,0.920727,0.465884,-0.0860322,0.819219,-0.641186,0.35373,0.451765,-0.331257,0.850385,0.5888,0.187939,0.161147,0.769432,0.295381,0.798079,0.354626,1.70617,-0.326884,1.53681,-3.12871,0.310516,1.16655,-3.14813,0.317828,1.10691,0.250579,0.769595,-0.20178,0.46068,0.688604,-0.431475,0.213472,1
1.53023,-0.573682,-1.6463,-1.33044,2.3908,0.933016,-0.999924,1.52923,-0.583882,-1.6466,-1.33473,2.38209,0.93586,-0.996406,1.51001,-0.651215,-1.62608,-1.37817,2.32178,0.97314,-1.01312,0.577743,0.916185,0.328172,0.189139,0.820887,-0.606646,0.411839,0.577743,0.916185,0.328172,0.189139,0.820887,-0.606646,0.411839,0.454121,-0.324221,0.854741,0.584094,0.188093,0.161819,0.772832,0.21621,0.652838,0.411343,1.67512,-0.32363,1.54721,-3.10524,0.325403,1.04036,-3.13522,0.319846,1.00481,0.202158,0.775335,-0.202188,0.477357,0.690192,-0.401233,0.13191,1
1.532,-0.563656,-1.63494,-1.32761,2.40007,0.930433,-1.00554,1.53035,-0.573744,-1.64432,-1.33065,2.3909,0.93322,-1.00038,1.51445,-0.641599,-1.6252,-1.37336,2.33045,0.966924,-1.00908,0.41867,0.908257,0.0839536,0.454289,0.81922,-0.587043,0.380696,0.41867,0.908257,0.0839536,0.454289,0.81922,-0.587043,0.380696,0.455409,-0.319626,0.859375,0.581645,0.188271,0.161841,0.774629,0.11885,0.431926,0.437519,1.64331,-0.320488,1.5569,-3.18096,0.314179,0.968707,-3.13327,0.321517,0.905416,0.17556,0.779424,-0.0974498,0.45756,0.696162,-0.364906,0.0354287,1
1.53109,-0.554163,-1.62326,-1.32243,2.40871,0.927135,-1.01326,1.53133,-0.563789,-1.63486,-1.32702,2.39991,0.930255,-1.00607,1.51749,-0.632048,-1.62756,-1.36708,2.33907,0.961199,-1.00602,0.287758,0.902011,-0.222859,0.593359,0.813479,-0.540748,0.289824,0.287758,0.902011,-0.222859,0.593359,0.813479,-0.540748,0.289824,0.456013,-0.31722,0.863668,0.581386,0.188806,0.161636,0.774737,0.0530193,0.23372,0.407175,1.61253,-0.31707,1.56578,-3.0777,0.341845,0.888646,-3.12714,0.322347,0.813761,0.135956,0.778854,0.0429723,0.446451,0.696417,-0.340633,-0.0724708,1
1.52776,-0.544707,-1.61728,-1.31734,2.41789,0.919915,-1.01356,1.53048,-0.554172,-1.62468,-1.32245,2.40884,0.926155,-1.01141,1.51983,-0.622451,-1.63135,-1.36063,2.34764,0.95615,-1.0041,0.22083,0.90648,-0.358438,0.608739,0.809623,-0.476869,0.180855,0.22083,0.90648,-0.358438,0.608739,0.809623,-0.476869,0.180855,0.456297,-0.315601,0.867708,0.582288,0.189315,0.161449,0.773973,0.0226029,0.161856,0.383813,1.58139,-0.313718,1.57332,-3.11375,0.335109,0.753272,-3.12139,0.32891,0.715933,0.0792852,0.777441,0.140751,0.43292,0.702527,-0.362349,-0.0946189,1
1.52688,-0.534905,-1.6133,-1.31281,2.42717,0.912704,-1.00598,1.52837,-0.54462,-1.61778,-1.31748,2.41792,0.919917,-1.01159,1.52193,-0.612745,-1.63394,-1.35466,2.35626,0.951581,-1.00336,0.198035,0.916659,-0.244109,0.564375,0.814252,-0.431531,0.0700369,0.198035,0.916659,-0.244109,0.564375,0.814252,-0.431531,0.0700369,0.456435,-0.313368,0.871989,0.58328,0.189235,0.161289,0.773279,0.0125263,0.217098,0.404203,1.55063,-0.310375,1.57997,-3.0764,0.334325,0.665557,-3.1089,0.332787,0.61943,0.0495246,0.778397,0.206378,0.418516,0.709076,-0.388766,-0.0261804,1
1.53458,-0.525513,-1.6099,-1.30883,2.43704,0.90437,-0.994553,1.52902,-0.535008,-1.61344,-1.31295,2.42732,0.912423,-1.00502,1.5238,-0.60299,-1.63412,-1.34915,2.36496,0.947331,-1.0039,0.176957,0.921347,-0.0174224,0.52015,0.821527,-0.401356,-0.0509658,0.176957,0.921347,-0.0174224,0.52015,0.821527,-0.401356,-0.0509658,0.456406,-0.310087,0.876781,0.584052,0.188319,0.161077,0.772964,0.00239516,0.311767,0.448656,1.51969,-0.307038,1.58569,-3.09371,0.333747,0.572228,-3.09132,0.335948,0.517824,0.107812,0.774765,0.242172,0.403174,0.720843,-0.429608,0.093458,1
1.54436,-0.516582,-1.6097,-1.30636,2.44653,0.897642,-0.986475,1.5351,-0.525629,-1.6107,-1.30921,2.43695,0.904772,-0.99539,1.52513,-0.593262,-1.63224,-1.34383,2.3737,0.943111,-1.0054,0.125779,0.918752,0.177591,0.502441,0.825938,-0.39854,-0.141311,0.125779,0.918752,0.177591,0.502441,0.825938,-0.39854,-0.141311,0.456118,-0.306146,0.882027,0.584744,0.186803,0.160752,0.772876,-0.017781,0.371776,0.488493,1.48877,-0.303677,1.59054,-3.09185,0.336057,0.484467,-3.09215,0.334655,0.418882,0.192281,0.766804,0.225357,0.37472,0.728281,-0.454693,0.189199,1
1.55125,-0.507318,-1.61024,-1.30297,2.45535,0.892523,-0.982731,1.54364,-0.516499,-1.60989,-1.30613,2.44636,0.898045,-0.987559,1.52578,-0.58357,-1.62936,-1.33858,2.38251,0.93849,-1.00663,0.0609538,0.915443,0.272187,0.49591,0.832064,-0.436515,-0.116614,0.0609538,0.915443,0.272187,0.49591,0.832064,-0.436515,-0.116614,0.45562,-0.302077,0.887435,0.585233,0.185288,0.16031,0.772963,-0.036718,0.384237,0.503193,1.45757,-0.300366,1.59447,-3.12027,0.331089,0.392663,-3.095,0.334024,0.328653,0.254752,0.762521,0.191217,0.356156,0.728398,-0.459665,0.238993,1
1.55399,-0.497648,-1.612,-1.29617,2.46345,0.889236,-0.982675,1.55021,-0.507216,-1.61054,-1.30212,2.45517,0.892981,-0.983653,1.52642,-0.573893,-1.62619,-1.33347,2.39144,0.933296,-1.00631,0.0611114,0.913938,0.299508,0.482421,0.84322,-0.49057,0.030341,0.0611114,0.913938,0.299508,0.482421,0.84322,-0.49057,0.030341,0.455203,-0.297831,0.892777,0.58491,0.18414,0.159789,0.773589,-0.0308781,0.401225,0.497661,1.42609,-0.297075,1.59751,-3.14815,0.329116,0.304866,-3.112,0.332717,0.238559,0.275662,0.76245,0.141836,0.372986,0.720095,-0.440599,0.236334,1
1.5549,-0.488219,-1.61983,-1.2868,2.47138,0.887343,-0.983824,1.55353,-0.497708,-1.61352,-1.29553,2.46341,0.889584,-0.982976,1.52815,-0.564276,-1.6231,-1.32864,2.40051,0.927612,-1.00413,0.163284,0.908338,0.291424,0.456658,0.856406,-0.536819,0.205492,0.163284,0.908338,0.291424,0.456658,0.856406,-0.536819,0.205492,0.455217,-0.293059,0.897896,0.583304,0.183423,0.159287,0.775075,0.00712663,0.449614,0.478035,1.39461,-0.293733,1.59934,-3.14751,0.334251,0.182939,-3.1284,0.332123,0.142739,0.267434,0.760566,0.0326943,0.418361,0.708756,-0.402691,0.203093,1
1.55459,-0.478328,-1.62821,-1.27939,2.48009,0.884011,-0.985205,1.55459,-0.488104,-1.61997,-1.28729,2.47158,0.886983,-0.983882,1.53124,-0.554756,-1.62047,-1.32415,2.40965,0.92172,-1.00083,0.291446,0.899205,0.248705,0.423629,0.863053,-0.556483,0.311944,0.291446,0.899205,0.248705,0.423629,0.863053,-0.556483,0.311944,0.455728,-0.287767,0.902682,0.580685,0.183053,0.15891,0.777202,0.0509735,0.497016,0.44797,1.36372,-0.290342,1.60039,-3.08943,0.339016,0.104153,-3.13064,0.333031,0.0457046,0.233527,0.764279,-0.0774156,0.44765,0.704428,-0.377089,0.156251,1
1.55497,-0.468559,-1.63044,-1.27368,2.48912,0.880318,-0.986098,1.55476,-0.478358,-1.62667,-1.27982,2.48017,0.883921,-0.985083,1.53502,-0.545283,-1.61849,-1.31976,2.41872,0.915994,-0.997407,0.357128,0.89473,0.186762,0.414751,0.856837,-0.540894,0.323293,0.357128,0.89473,0.186762,0.414751,0.856837,-0.540894,0.323293,0.456433,-0.282338,0.907228,0.577871,0.182771,0.158647,0.779417,0.0680914,0.509181,0.426187,1.33216,-0.287087,1.60029,-3.15548,0.325534,-0.00933409,-3.13181,0.33291,-0.0547673,0.199508,0.76724,-0.119488,0.460793,0.704052,-0.356755,0.113095,1
1.55828,-0.458978,-1.62659,-1.26956,2.49844,0.876846,-0.987895,1.5557,-0.468606,-1.62892,-1.27408,2.48919,0.880373,-0.986324,1.53871,-0.535803,-1.6175,-1.31493,2.42762,0.910731,-0.994532,0.348426,0.895393,0.0935805,0.456083,0.84114,-0.497044,0.271609,0.348426,0.895393,0.0935805,0.456083,0.84114,-0.497044,0.271609,0.45696,-0.277327,0.911713,0.575708,0.182334,0.158375,0.781174,0.0522086,0.470546,0.420241,1.3007,-0.283821,1.5993,-3.14687,0.326651,-0.0994325,-3.13235,0.331545,-0.154853,0.195732,0.768246,-0.0909234,0.453771,0.70815,-0.338849,0.0663686,1
1.56198,-0.449662,-1.61999,-1.26577,2.50734,0.874277,-0.993645,1.55838,-0.459044,-1.6259,-1.26964,2.49833,0.877072,-0.988883,1.54187,-0.526298,-1.61799,-1.30943,2.43638,0.905999,-0.99241,0.29897,0.897744,-0.0464711,0.520239,0.827248,-0.446958,0.200441,0.29897,0.897744,-0.0464711,0.520239,0.827248,-0.446958,0.200441,0.457152,-0.273174,0.916141,0.574668,0.181773,0.158018,0.782142,0.0215294,0.392149,0.414886,1.2696,-0.281071,1.59689,-3.10979,0.274923,-0.240886,-3.13055,0.318443,-0.259974,0.201016,0.766366,-0.0199795,0.436565,0.709575,-0.317219,-0.0123571,1
1.5664,-0.440508,-1.61409,-1.26203,2.51632,0.872891,-0.995828,1.56216,-0.449703,-1.62017,-1.26578,2.50736,0.874573,-0.992753,1.54444,-0.516746,-1.61972,-1.30353,2.44511,0.9016,-0.99095,0.242574,0.90227,-0.163379,0.557288,0.82416,-0.415531,0.137896,0.242574,0.90227,-0.163379,0.557288,0.82416,-0.415531,0.137896,0.457068,-0.269763,0.920466,0.574582,0.181214,0.157608,0.782417,-0.00430814,0.324791,0.405514,1.23815,-0.278078,1.5935,-3.14462,0.299355,-0.339174,-3.13702,0.30545,-0.371797,0.219617,0.762378,0.0562825,0.414908,0.712167,-0.287085,-0.0487799,1
1.57097,-0.431474,-1.61143,-1.25671,2.52544,0.873244,-0.991895,1.56644,-0.440538,-1.6149,-1.26164,2.51636,0.873326,-0.994299,1.54669,-0.507153,-1.62155,-1.29766,2.45389,0.89737,-0.990028,0.211949,0.90603,-0.173125,0.554231,0.829737,-0.399497,0.0870602,0.211949,0.90603,-0.173125,0.554231,0.829737,-0.399497,0.0870602,0.456847,-0.266443,0.924774,0.574825,0.180563,0.157188,0.782474,-0.0166878,0.316565,0.403628,1.20686,-0.275089,1.58929,-3.12958,0.29889,-0.420785,-3.13161,0.297392,-0.47806,0.242787,0.75679,0.101227,0.40946,0.715469,-0.241259,-0.0186668,1
1.57585,-0.422472,-1.60984,-1.25254,2.53501,0.8725,-0.985568,1.57105,-0.431482,-1.6117,-1.257,2.52555,0.87297,-0.991296,1.54902,-0.497567,-1.62242,-1.29207,2.46275,0.893326,-0.9898,0.220042,0.90545,-0.0818482,0.527292,0.836447,-0.382028,0.021544,0.220042,0.90545,-0.0818482,0.527292,0.836447,-0.382028,0.021544,0.456603,-0.262569,0.929188,0.574901,0.179588,0.156791,0.782722,-0.0168445,0.366791,0.412238,1.17566,-0.272044,1.58389,-3.11912,0.304541,-0.539649,-3.12804,0.295367,-0.584092,0.268373,0.750952,0.125792,0.395387,0.72261,-0.208255,0.0423161,1
1.5827,-0.41376,-1.60843,-1.24991,2.54464,0.869817,-0.980049,1.57634,-0.422545,-1.60989,-1.25292,2.53502,0.872015,-0.98577,1.55164,-0.488029,-1.62197,-1.28684,2.47164,0.889589,-0.990389,0.24737,0.90085,0.0424375,0.494849,0.839643,-0.352937,-0.0555869,0.24737,0.90085,0.0424375,0.494849,0.839643,-0.352937,-0.0555869,0.456371,-0.257907,0.933742,0.574654,0.178156,0.156429,0.783303,-0.0130504,0.437834,0.423611,1.1448,-0.26895,1.57766,-3.0867,0.309318,-0.623357,-3.12087,0.302764,-0.680638,0.310691,0.74269,0.135394,0.369296,0.729983,-0.197722,0.103395,1
1.59046,-0.405397,-1.60668,-1.24688,2.55387,0.868315,-0.977163,1.58293,-0.413847,-1.60835,-1.24981,2.54454,0.870112,-0.980707,1.55458,-0.478566,-1.62056,-1.28181,2.48055,0.886348,-0.991168,0.278591,0.893829,0.133057,0.474254,0.841655,-0.306081,-0.0735979,0.278591,0.893829,0.133057,0.474254,0.841655,-0.306081,-0.0735979,0.456119,-0.252615,0.938399,0.573964,0.176296,0.156001,0.784314,-0.0121169,0.494452,0.431596,1.11417,-0.265878,1.57049,-3.06321,0.307247,-0.71696,-3.1003,0.305385,-0.776448,0.358782,0.73169,0.138815,0.349314,0.733233,-0.180334,0.140046,1
1.59522,-0.397205,-1.60756,-1.24328,2.5627,0.868074,-0.979004,1.58971,-0.40544,-1.60734,-1.24674,2.55377,0.86863,-0.978345,1.55787,-0.469184,-1.6188,-1.27687,2.48952,0.883682,-0.991193,0.309834,0.886161,0.166814,0.467064,0.847022,-0.251792,-0.00242254,0.309834,0.886161,0.166814,0.467064,0.847022,-0.251792,-0.00242254,0.455824,-0.246975,0.943085,0.572672,0.17417,0.155391,0.785854,-0.0137618,0.525687,0.43287,1.08333,-0.262663,1.56251,-3.08374,0.321493,-0.798178,-3.08555,0.310177,-0.869661,0.37357,0.719788,0.112405,0.335891,0.73185,-0.156082,0.121893,1
1.59856,-0.388599,-1.61077,-1.23774,2.57147,0.868987,-0.981649,1.59487,-0.397102,-1.60814,-1.2428,2.56269,0.868363,-0.979205,1.56155,-0.459891,-1.61702,-1.2721,2.49858,0.881358,-0.990113,0.347791,0.877795,0.167691,0.450707,0.85648,-0.219587,0.10207,0.347791,0.877795,0.167691,0.450707,0.85648,-0.219587,0.10207,0.455572,-0.241103,0.947664,0.570676,0.172037,0.154637,0.787921,-0.00897866,0.54677,0.422495,1.05221,-0.259591,1.55338,-3.11226,0.307229,-0.912917,-3.08388,0.311931,-0.961797,0.37015,0.712916,0.0624928,0.343567,0.728864,-0.123707,0.084636,1
1.60208,-0.38003,-1.61439,-1.23299,2.58066,0.868339,-0.984716,1.59861,-0.388608,-1.61087,-1.23794,2.57158,0.868597,-0.981755,1.56581,-0.450716,-1.61529,-1.26766,2.50774,0.879117,-0.988239,0.402465,0.866571,0.16326,0.419517,0.864897,-0.211651,0.177016,0.402465,0.866571,0.16326,0.419517,0.864897,-0.211651,0.177016,0.455479,-0.234945,0.952034,0.567998,0.170051,0.153869,0.790433,0.00522128,0.572925,0.40324,1.02149,-0.256274,1.54342,-3.072,0.331694,-0.99591,-3.08584,0.316405,-1.0559,0.36274,0.706858,0.00903063,0.346673,0.729243,-0.107779,0.0352251,1
1.60699,-0.372021,-1.6148,-1.22945,2.5902,0.867446,-0.987091,1.60243,-0.38017,-1.61359,-1.23329,2.58075,0.868278,-0.984543,1.57057,-0.441694,-1.61371,-1.26349,2.51691,0.877027,-0.986267,0.449887,0.852091,0.149713,0.393675,0.866269,-0.197358,0.1862,0.449887,0.852091,0.149713,0.393675,0.866269,-0.197358,0.1862,0.455503,-0.228601,0.956197,0.564998,0.168136,0.153132,0.793132,0.0156087,0.589891,0.383987,0.990672,-0.253066,1.53236,-3.08137,0.320765,-1.10575,-3.0883,0.320128,-1.15343,0.36418,0.696732,-0.0109085,0.340387,0.732889,-0.0958131,-0.00823566,1
1.61574,-0.359534,-1.60614,-1.22118,2.60463,0.876191,-0.99021,1.60795,-0.370902,-1.61253,-1.22827,2.59143,0.869855,-0.987277,1.57785,-0.42816,-1.61242,-1.25711,2.53082,0.874596,-0.984533,0.487838,0.929647,0.0363035,0.450666,0.95789,-0.141001,0.0653142,0.487838,0.929647,0.0363035,0.450666,0.95789,-0.141001,0.0653142,0.455474,-0.22242,0.960201,0.562292,0.166162,0.152394,0.795609,0.010967,0.57486,0.369182,0.959938,-0.250072,1.52051,-3.07341,0.299373,-1.18539,-3.08314,0.317058,-1.25016,0.378924,0.686261,0.0628029,0.359322,0.738113,0.0159547,-0.0567631,1
1.61849,-0.359488,-1.60113,-1.21988,2.60939,0.887815,-0.990567,1.61424,-0.362644,-1.60705,-1.22292,2.60221,0.876911,-0.989519,1.58003,-0.424001,-1.61225,-1.2551,2.53511,0.873965,-0.984241,0.436516,0.831845,0.0324843,0.403255,0.857117,-0.126167,0.0584429,0.436516,0.831845,0.0324843,0.403255,0.857117,-0.126167,0.0584429,0.455291,-0.216659,0.964095,0.560242,0.164106,0.151618,0.797628,-0.00281228,0.536556,0.358719,0.929285,-0.247094,1.5077,-3.06532,0.297812,-1.28103,-3.0739,0.311942,-1.34273,0.384586,0.645127,0.1112,0.352182,0.74282,0.138499,-0.0632615,1
1.62082,-0.354257,-1.5971,-1.21844,2.61908,0.899978,-0.986369,1.61839,-0.358192,-1.60138,-1.21984,2.61062,0.88795,-0.989428,1.5845,-0.415267,-1.61252,-1.25075,2.5442,0.872832,-0.984301,0.421462,0.824897,-0.0250869,0.410335,0.858977,-0.107032,-0.00568057,0.421462,0.824897,-0.0250869,0.410335,0.858977,-0.107032,-0.00568057,0.455007,-0.211229,0.967875,0.558702,0.16205,0.150817,0.799279,-0.0121619,0.506628,0.348206,0.898258,-0.243756,1.49382,-3.10272,0.333844,-1.38813,-3.07844,0.310077,-1.43871,0.363232,0.610098,0.154153,0.323069,0.748791,0.27146,-0.0206771,1
1.62492,-0.348584,-1.599,-1.21746,2.62897,0.902822,-0.98234,1.62126,-0.354147,-1.59859,-1.21856,2.61913,0.897648,-0.986411,1.58917,-0.406427,-1.61252,-1.24627,2.55361,0.872239,-0.984894,0.441413,0.834958,-0.000201513,0.423148,0.888722,-0.0560108,-0.0559991,0.441413,0.834958,-0.000201513,0.423148,0.888722,-0.0560108,-0.0559991,0.454574,-0.205522,0.971796,0.557162,0.159603,0.149846,0.801027,-0.0232604,0.532056,0.360042,0.867343,-0.240528,1.47895,-3.09149,0.322732,-1.48677,-3.08339,0.313918,-1.53518,0.357475,0.578425,0.135217,0.288139,0.753534,0.305832,0.025542,1
1.62495,-0.343604,-1.60524,-1.21691,2.63883,0.900593,-0.98482,1.6239,-0.348758,-1.60009,-1.21757,2.62896,0.901553,-0.983967,1.59417,-0.397703,-1.61143,-1.24162,2.5633,0.87317,-0.985816,0.47186,0.823981,0.102959,0.43943,0.914689,0.0879301,-0.0870456,0.47186,0.823981,0.102959,0.43943,0.914689,0.0879301,-0.0870456,0.4538,-0.19925,0.976031,0.555226,0.156192,0.148402,0.803309,-0.0473896,0.582995,0.385523,0.836396,-0.237591,1.46316,-3.09466,0.293726,-1.57868,-3.09026,0.31528,-1.63441,0.307802,0.540985,0.0619691,0.247077,0.755373,0.274231,0.00995607,1
1.62155,-0.342329,-1.61415,-1.21569,2.64809,0.89362,-0.99564,1.62409,-0.34453,-1.6059,-1.21674,2.63868,0.899407,-0.986905,1.59899,-0.38983,-1.60943,-1.23728,2.57273,0.876115,-0.986536,0.45584,0.743586,0.189226,0.409778,0.890692,0.278159,-0.0679866,0.45584,0.743586,0.189226,0.409778,0.890692,0.278159,-0.0679866,0.452669,-0.19302,0.980197,0.552864,0.152006,0.146368,0.806109,-0.0732862,0.577782,0.375753,0.805683,-0.234593,1.4465,-3.07134,0.299807,-1.66572,-3.09066,0.311667,-1.7304,0.225565,0.475011,-0.0471658,0.2159,0.753655,0.175049,-0.0910435,1
1.62199,-0.347079,-1.62543,-1.20935,2.65683,0.887622,-1.00444,1.62251,-0.343835,-1.61474,-1.21441,2.64796,0.893863,-0.995135,1.60343,-0.382719,-1.60727,-1.23355,2.58197,0.880405,-0.986511,0.41912,0.671548,0.204054,0.352381,0.873289,0.405256,0.00234054,0.41912,0.671548,0.204054,0.352381,0.873289,0.405256,0.00234054,0.451368,-0.187192,0.984016,0.550117,0.147669,0.143924,0.809229,-0.0858365,0.540702,0.342089,0.774605,-0.231677,1.42883,-3.10774,0.29157,-1.76762,-3.08965,0.30092,-1.8242,0.185605,0.356403,-0.181626,0.242007,0.748573,0.072164,-0.179291,1
1.63346,-0.357521,-1.6302,-1.1967,2.66546,0.899494,-1.01207,1.62475,-0.348502,-1.6238,-1.20777,2.6568,0.892089,-1.00415,1.60751,-0.375952,-1.60584,-1.23036,2.59134,0.884619,-0.986004,0.385249,0.639161,0.135179,0.30077,0.884316,0.398004,0.0478695,0.385249,0.639161,0.135179,0.30077,0.884316,0.398004,0.0478695,0.450162,-0.181961,0.987373,0.547356,0.143908,0.14142,0.812215,-0.0797551,0.487572,0.300387,0.743387,-0.228475,1.40993,-3.12188,0.320278,-1.88985,-3.09703,0.300214,-1.92371,0.259538,0.184308,-0.243613,0.336647,0.741258,0.148742,-0.260709,1
1.64954,-0.399942,-1.63924,-1.18659,2.67425,0.926728,-1.01948,1.63461,-0.365516,-1.63127,-1.19734,2.6655,0.903334,-1.01202,1.61081,-0.369691,-1.60585,-1.22765,2.60077,0.887566,-0.986184,0.312048,0.591357,-0.00126488,0.25637,0.891032,0.278295,-0.0169582,0.312048,0.591357,-0.00126488,0.25637,0.891032,0.278295,-0.0169582,0.449209,-0.177967,0.990091,0.545482,0.141363,0.1391,0.81432,-0.0640455,0.377426,0.244316,0.712434,-0.225696,1.38988,-3.09526,0.277837,-2.00455,-3.10221,0.299083,-2.0313,0.387282,-0.302516,-0.33386,0.410553,0.734809,0.391622,-0.333007,1
1.663,-0.404146,-1.64338,-1.19891,2.68466,0.935762,-1.0125,1.64889,-0.390388,-1.63801,-1.1922,2.67466,0.922178,-1.01588,1.61314,-0.364539,-1.60762,-1.22501,2.61017,0.888821,-0.987967,0.220113,0.486605,-0.167289,0.249181,0.888149,0.118518,-0.168466,0.220113,0.486605,-0.167289,0.249181,0.888149,0.118518,-0.168466,0.448492,-0.17588,0.99216,0.545135,0.140244,0.136802,0.815135,-0.0510953,0.20674,0.187307,0.681695,-0.222763,1.36897,-3.0739,0.293304,-2.09137,-3.10147,0.296409,-2.14012,0.498513,-0.396073,-0.357623,0.26097,0.744861,0.469413,-0.245283,1
1.66934,-0.403741,-1.65231,-1.20704,2.69367,0.934726,-0.9941,1.66122,-0.402994,-1.64458,-1.19787,2.68431,0.933245,-1.00964,1.61546,-0.361343,-1.61085,-1.22158,2.61947,0.889472,-0.991192,0.218402,0.301811,-0.304502,0.324459,0.877571,0.0615113,-0.304534,0.218402,0.301811,-0.304502,0.324459,0.877571,0.0615113,-0.304534,0.447788,-0.175793,0.993907,0.545921,0.139853,0.133816,0.815171,-0.0520449,0.0279716,0.157474,0.650994,-0.21966,1.34735,-3.07004,0.310326,-2.16254,-3.08913,0.297463,-2.23926,0.53885,-0.423977,-0.414681,0.145355,0.742026,0.45254,-0.0290827,1
1.6682,-0.415598,-1.65459,-1.2069,2.70178,0.93454,-0.988156,1.66747,-0.406806,-1.65065,-1.20497,2.69344,0.934939,-0.997213,1.61927,-0.362175,-1.61491,-1.21675,2.62864,0.892234,-0.995342,0.360562,-0.0785319,-0.38431,0.45621,0.866391,0.260887,-0.39196,0.360562,-0.0785319,-0.38431,0.45621,0.866391,0.260887,-0.39196,0.446805,-0.178134,0.995425,0.546825,0.139167,0.128688,0.815509,-0.0666746,-0.189017,0.129756,0.620485,-0.216971,1.32475,-3.05096,0.268924,-2.25993,-3.07243,0.290441,-2.32907,0.489283,-0.534234,-0.396788,0.0984491,0.731359,0.423059,0.0718515,1
1.66981,-0.431843,-1.65797,-1.21647,2.70864,0.935373,-1.00608,1.66889,-0.416695,-1.65487,-1.20933,2.70146,0.934795,-0.994122,1.62517,-0.367797,-1.61952,-1.21185,2.63781,0.898201,-0.999435,0.557313,-0.530999,-0.434746,0.461959,0.866086,0.563566,-0.386639,0.557313,-0.530999,-0.434746,0.461959,0.866086,0.563566,-0.386639,0.44588,-0.18281,0.996066,0.546785,0.138415,0.121195,0.81681,-0.0482481,-0.396476,0.0399277,0.589912,-0.214301,1.30084,-3.0573,0.26698,-2.39105,-3.06254,0.285832,-2.42323,0.446378,-0.640463,-0.384495,-0.046132,0.708273,0.371723,-0.0664009,1
1.67785,-0.443479,-1.6708,-1.21731,2.71454,0.944196,-1.02675,1.67142,-0.430691,-1.66033,-1.21429,2.7084,0.937371,-1.00676,1.63236,-0.37481,-1.62451,-1.20907,2.64707,0.905184,-1.00147,0.678378,-0.662443,-0.471689,0.263284,0.875196,0.659551,-0.192136,0.678378,-0.662443,-0.471689,0.263284,0.875196,0.659551,-0.192136,0.445739,-0.187644,0.995468,0.545006,0.138557,0.113465,0.819082,0.0225586,-0.408015,-0.0751473,0.559353,-0.211557,1.27613,-3.05587,0.2744,-2.47071,-3.05766,0.277717,-2.52195,0.45492,-0.686686,-0.462848,-0.0824554,0.674612,0.390121,-0.252831,1
1.68755,-0.448591,-1.68243,-1.22438,2.72242,0.954119,-1.03208,1.67827,-0.441848,-1.6705,-1.21887,2.71503,0.944471,-1.02291,1.63935,-0.381186,-1.62972,-1.20825,2.65631,0.911113,-1.00062,0.660864,-0.6022,-0.491974,0.0770392,0.87269,0.56001,0.0801084,0.660864,-0.6022,-0.491974,0.0770392,0.87269,0.56001,0.0801084,0.446328,-0.191942,0.994023,0.541827,0.139936,0.10655,0.821881,0.0796513,-0.358392,-0.149216,0.528801,-0.208638,1.25062,-3.05522,0.291899,-2.5511,-3.05519,0.274579,-2.62074,0.481983,-0.674055,-0.527081,-0.161241,0.66108,0.430063,-0.314571,1
1.68923,-0.456277,-1.68799,-1.2354,2.73132,0.955988,-1.02207,1.68555,-0.449235,-1.68091,-1.22536,2.72267,0.952106,-1.02825,1.64524,-0.388261,-1.63473,-1.20847,2.66531,0.915832,-0.999326,0.555894,-0.668314,-0.473285,-0.0202489,0.849751,0.445716,0.12232,0.555894,-0.668314,-0.473285,-0.0202489,0.849751,0.445716,0.12232,0.447262,-0.196934,0.991884,0.538595,0.142455,0.0998632,0.824408,0.103103,-0.419604,-0.211144,0.498468,-0.205414,1.22407,-3.03328,0.322427,-2.65474,-3.05144,0.287771,-2.7157,0.439929,-0.680154,-0.532609,-0.269296,0.660052,0.40156,-0.227483,1
1.68258,-0.467746,-1.69276,-1.24675,2.73919,0.956339,-1.01409,1.68715,-0.457223,-1.68779,-1.23548,2.73106,0.955609,-1.02258,1.65046,-0.396716,-1.63983,-1.20963,2.6739,0.920124,-1.00081,0.49273,-0.798554,-0.481813,-0.109562,0.810894,0.40538,-0.140004,0.49273,-0.798554,-0.481813,-0.109562,0.810894,0.40538,-0.140004,0.44853,-0.202929,0.98891,0.536583,0.145777,0.0933052,0.825907,0.128387,-0.508603,-0.287807,0.467837,-0.202651,1.19642,-3.06316,0.276275,-2.76505,-3.05035,0.294433,-2.8089,0.321228,-0.710295,-0.529325,-0.371229,0.652916,0.362156,-0.132864,1
1.67558,-0.480128,-1.70163,-1.2586,2.74449,0.962859,-1.02202,1.68249,-0.467974,-1.69379,-1.24687,2.73855,0.957881,-1.01807,1.656,-0.405709,-1.64594,-1.21147,2.68209,0.924975,-1.00521,0.523403,-0.849421,-0.577137,-0.17393,0.774224,0.458238,-0.416056,0.523403,-0.849421,-0.577137,-0.17393,0.774224,0.458238,-0.416056,0.450119,-0.209301,0.985286,0.535925,0.149269,0.0870659,0.826392,0.156153,-0.542483,-0.347989,0.437684,-0.199917,1.16792,-3.01524,0.273396,-2.85034,-3.04302,0.29267,-2.90622,0.195871,-0.744194,-0.556868,-0.471298,0.624005,0.378838,-0.168041,1
1.6556,-0.491596,-1.71396,-1.27064,2.74968,0.978949,-1.03161,1.67234,-0.4799,-1.70249,-1.25865,2.74446,0.965252,-1.02243,1.66188,-0.414382,-1.65291,-1.21424,2.69018,0.930381,-1.0098,0.556137,-0.819185,-0.65814,-0.261563,0.763771,0.510615,-0.433491,0.556137,-0.819185,-0.65814,-0.261563,0.763771,0.510615,-0.433491,0.452039,-0.215406,0.981141,0.535396,0.152929,0.0812419,0.826658,0.184428,-0.518638,-0.395337,0.407341,-0.197007,1.13846,-3.03435,0.291044,-2.94517,-3.03704,0.287596,-3.0046,-0.0628934,-0.772137,-0.610465,-0.56401,0.594964,0.485676,-0.218057,1
1.6297,-0.500734,-1.72659,-1.28083,2.75304,0.995405,-1.04182,1.65412,-0.491014,-1.71403,-1.27018,2.74922,0.979041,-1.03176,1.66692,-0.422919,-1.65986,-1.21847,2.69833,0.935408,-1.01235,0.475479,-0.806295,-0.656542,-0.399797,0.769419,0.474799,-0.240486,0.475479,-0.806295,-0.656542,-0.399797,0.769419,0.474799,-0.240486,0.454269,-0.221501,0.976314,0.534059,0.157421,0.0757222,0.827204,0.205864,-0.517124,-0.456161,0.376945,-0.193984,1.108,-3.03958,0.302267,-3.04681,-3.03542,0.28504,-3.10102,-0.372229,-0.778157,-0.667271,-0.623644,0.547101,0.599973,-0.294696,1
1.61761,-0.509328,-1.73392,-1.29218,2.75047,1.00706,-1.04562,1.63315,-0.500598,-1.72526,-1.28112,2.75155,0.994204,-1.04022,1.67002,-0.431896,-1.66662,-1.22413,2.70634,0.939886,-1.01349,0.293118,-0.847982,-0.63852,-0.534571,0.756993,0.422965,-0.107684,0.293118,-0.847982,-0.63852,-0.534571,0.756993,0.422965,-0.107684,0.456582,-0.22835,0.97069,0.532538,0.162904,0.0703205,0.827599,0.205141,-0.584589,-0.528084,0.346439,-0.191495,1.07701,-3.05057,0.248869,-3.09836,-3.03534,0.282446,-3.18734,-0.524118,-0.774319,-0.673008,-0.680527,0.441307,0.671716,-0.321315,1
1.6097,-0.519748,-1.73984,-1.30236,2.74509,1.01153,-1.04365,1.61865,-0.509785,-1.73357,-1.29189,2.74977,1.00526,-1.04418,1.67048,-0.441462,-1.67377,-1.23101,2.71394,0.944941,-1.01527,0.0435362,-0.903459,-0.675166,-0.649622,0.717503,0.477397,-0.168363,0.0435362,-0.903459,-0.675166,-0.649622,0.717503,0.477397,-0.168363,0.458571,-0.236561,0.964264,0.532317,0.168836,0.064918,0.826994,0.169882,-0.708814,-0.602053,0.3187,-0.192113,1.06069,-2.77395,-0.0617519,-1.63232,-2.98871,0.211199,-2.95905,-0.607822,-0.782868,-0.660707,-0.713495,0.311574,0.66592,-0.283801,1
1.5943,-0.529146,-1.75209,-1.30979,2.73089,1.01271,-1.02984,1.60783,-0.519493,-1.74142,-1.30167,2.74289,1.01071,-1.04069,1.66722,-0.451336,-1.68179,-1.23881,2.72097,0.951735,-1.01856,-0.308011,-0.932609,-0.757784,-0.737206,0.66407,0.64179,-0.310389,-0.308011,-0.932609,-0.757784,-0.737206,0.66407,0.64179,-0.310389,0.459639,-0.246653,0.957197,0.534543,0.174573,0.0593447,0.824782,0.0825871,-0.881906,-0.662518,0.29529,-0.194679,1.06064,-2.34102,-0.256619,-0.00457764,-2.82348,0.065265,-2.22948,-0.729188,-0.778104,-0.702947,-0.709746,0.0992338,0.60974,-0.11279,1
1.58271,-0.531922,-1.76363,-1.30857,2.7104,1.0206,-0.9974,1.59526,-0.527491,-1.75191,-1.30763,2.72932,1.01439,-1.02518,1.66043,-0.461152,-1.69045,-1.24724,2.72706,0.960198,-1.02287,-0.641275,-0.927165,-0.818166,-0.796307,0.575676,0.799302,-0.407637,-0.641275,-0.927165,-0.818166,-0.796307,0.575676,0.799302,-0.407637,0.459614,-0.258227,0.949754,0.539007,0.179806,0.0537727,0.821127,-0.0193721,-1.0199,-0.69844,0.271153,-0.197444,1.06106,-2.41366,-0.276516,0.0419497,-2.62734,-0.101041,-1.30235,-0.777182,-0.707706,-0.731726,-0.613293,-0.166618,0.604051,0.254731,1
1.56767,-0.52497,-1.77031,-1.21318,2.67538,1.03055,-1.00269,1.58185,-0.52949,-1.76241,-1.28503,2.70677,1.02112,-1.00683,1.65211,-0.470843,-1.69905,-1.25614,2.73159,0.969178,-1.02712,-0.786264,-0.915273,-0.811395,-0.840232,0.427317,0.848131,-0.400947,-0.786264,-0.915273,-0.811395,-0.840232,0.427317,0.848131,-0.400947,0.459031,-0.270009,0.942098,0.544243,0.184673,0.0487234,0.816898,-0.0720477,-1.04283,-0.717885,0.247387,-0.200059,1.05952,-2.37657,-0.261447,-0.154519,-2.45651,-0.22458,-0.546158,-0.844347,-0.541273,-0.712645,0.429593,-0.562055,0.613725,0.244282,1
1.55953,-0.508297,-1.77294,-1.19586,2.67099,1.03068,-1.0644,1.5694,-0.52254,-1.7693,-1.2327,2.68304,1.0281,-1.0168,1.64328,-0.480537,-1.70749,-1.26521,2.73384,0.977453,-1.02982,-0.833329,-0.915596,-0.79753,-0.856899,0.212678,0.781598,-0.255415,-0.833329,-0.915596,-0.79753,-0.856899,0.212678,0.781598,-0.255415,0.458274,-0.281543,0.934264,0.549267,0.189512,0.044577,0.812652,-0.0914861,-1.02563,-0.732913,0.224375,-0.203255,1.0568,-2.3012,-0.319603,-0.272083,-2.36551,-0.276634,-0.289102,-0.837501,-0.277606,-0.654531,0.693494,-0.628472,0.532243,-0.345773,1
1.55057,-0.446363,-1.78625,-1.20137,2.6755,1.00709,-1.0751,1.55933,-0.496982,-1.77561,-1.20157,2.67321,1.02475,-1.05165,1.63371,-0.489893,-1.71634,-1.27366,2.73294,0.984813,-1.0289,-0.903906,-0.883671,-0.835997,-0.798225,-0.0850575,0.695121,0.0873542,-0.903906,-0.883671,-0.835997,-0.798225,-0.0850575,0.695121,0.0873542,0.457121,-0.292983,0.926576,0.553842,0.194019,0.041486,0.808637,-0.131393,-1.0259,-0.71837,0.201136,-0.205803,1.0544,-2.32396,-0.254855,-0.239861,-2.35086,-0.280589,-0.367563,-0.831411,0.435299,-0.699103,0.722924,-0.574414,0.222779,-0.461978,1
1.53917,-0.511261,-1.79603,-1.2076,2.68536,0.979915,-1.06299,1.54996,-0.478071,-1.78537,-1.20155,2.67684,1.00619,-1.0694,1.62338,-0.497783,-1.72552,-1.27593,2.72772,0.992047,-1.0245,-0.976056,-0.745219,-0.867069,-0.213877,-0.492514,0.683229,0.415283,-0.976056,-0.745219,-0.867069,-0.213877,-0.492514,0.683229,0.415283,0.454024,-0.304502,0.921732,0.559558,0.195213,0.0388643,0.804535,-0.293674,-1.0499,-0.458915,0.177137,-0.209198,1.05042,-2.39985,-0.33951,-0.397909,-2.34283,-0.292529,-0.464068,-0.842085,-0.134776,-0.705121,0.683246,-0.423628,-0.121318,-0.384921,1
1.52784,-0.484503,-1.80641,-1.20338,2.69125,0.975625,-1.05567,1.53919,-0.488347,-1.79618,-1.20499,2.68437,0.985637,-1.06419,1.61262,-0.502716,-1.73424,-1.26731,2.71882,0.99923,-1.02297,-1.01592,-0.465921,-0.823865,0.813573,-0.840964,0.678427,0.145022,-1.01592,-0.465921,-0.823865,0.813573,-0.840964,0.678427,0.145022,0.447828,-0.315684,0.922283,0.569623,0.190689,0.0366009,0.798641,-0.54892,-1.03758,0.0331235,0.154573,-0.211906,1.04584,-2.25641,-0.270768,-0.458252,-2.32867,-0.296383,-0.537398,-0.847827,0.182132,-0.721661,0.639363,-0.27571,-0.236051,-0.327077,1
1.51663,-0.458794,-1.81555,-1.19655,2.72827,0.992751,-1.02726,1.52787,-0.484765,-1.8061,-1.20273,2.69903,0.980979,-1.0504,1.60102,-0.499585,-1.74351,-1.25421,2.71011,1.00236,-1.03055,-1.19998,0.505647,-0.98376,1.23767,-0.782112,0.0900154,-0.913081,-1.19998,0.505647,-0.98376,1.23767,-0.782112,0.0900154,-0.913081,0.440417,-0.323513,0.926908,0.585148,0.183865,0.0380163,0.788892,-0.676805,-0.722375,0.454933,0.13081,-0.214943,1.04023,-2.37633,-0.303683,-0.560427,-2.33694,-0.294791,-0.616906,-0.843895,0.407907,-0.720385,0.576639,0.181555,-0.0961317,0.0328385,1
1.50724,-0.453937,-1.82188,-1.19376,2.74979,1.00292,-1.04729,1.51708,-0.464007,-1.81485,-1.19756,2.72439,0.991013,-1.03937,1.59085,-0.495298,-1.75185,-1.24372,2.70348,1.00313,-1.03829,-0.96087,0.404891,-0.787734,0.991052,-0.626267,0.0720787,-0.731138,-0.96087,0.404891,-0.787734,0.991052,-0.626267,0.0720787,-0.731138,0.434285,-0.329391,0.930919,0.598725,0.178861,0.0402083,0.779692,-0.554229,-0.562708,0.366149,0.107825,-0.217833,1.03382,-2.29848,-0.289033,-0.641477,-2.32949,-0.298044,-0.713482,-0.836088,0.413606,-0.700225,0.499613,0.463099,-0.00202104,-0.0900413,1
1.49869,-0.449465,-1.82771,-1.19124,2.76023,1.0031,-1.04245,1.50745,-0.454034,-1.82175,-1.19383,2.74702,1.00043,-1.04107,1.58055,-0.493913,-1.76069,-1.236,2.69967,0.999642,-1.04345,-0.972169,0.13082,-0.834257,0.72889,-0.359757,-0.329168,-0.487446,-0.972169,0.13082,-0.834257,0.72889,-0.359757,-0.329168,-0.487446,0.4293,-0.337192,0.932482,0.609789,0.178347,0.0413278,0.77113,-0.471707,-0.722659,0.1476,0.0841047,-0.22028,1.02585,-2.37202,-0.244728,-0.796914,-2.32813,-0.280914,-0.811606,-0.818635,0.444474,-0.670229,0.447596,0.605603,0.0345987,0.0100055,1
1.49015,-0.447807,-1.83544,-1.1846,2.76297,1.02159,-1.05432,1.49869,-0.450169,-1.82818,-1.19021,2.75831,1.00768,-1.04663,1.57005,-0.49209,-1.76974,-1.22937,2.69955,0.995923,-1.04483,-0.991467,0.172158,-0.854703,0.626227,-0.0120738,-0.351234,-0.130825,-0.991467,0.172158,-0.854703,0.626227,-0.0120738,-0.351234,-0.130825,0.424255,-0.345146,0.933696,0.618668,0.178934,0.0409815,0.763907,-0.478592,-0.725854,0.117153,0.0600868,-0.223209,1.01743,-2.40179,-0.292911,-0.841713,-2.35677,-0.279447,-0.911944,-0.79907,0.442833,-0.656997,0.447747,0.634277,0.256703,-0.0948643,1
1.48018,-0.450039,-1.84523,-1.17408,2.76527,1.04304,-1.07142,1.48979,-0.448779,-1.83595,-1.18363,2.76286,1.02233,-1.05563,1.5595,-0.486494,-1.77873,-1.22303,2.7045,0.994944,-1.04375,-0.996906,0.528518,-0.848993,0.598724,0.467662,-0.0924099,0.102784,-0.996906,0.528518,-0.848993,0.598724,0.467662,-0.0924099,0.102784,0.418475,-0.351251,0.93627,0.626205,0.178002,0.039232,0.758052,-0.531226,-0.551008,0.241132,0.0363636,-0.226406,1.00699,-2.37232,-0.319694,-1.04414,-2.3663,-0.283037,-1.02871,-0.79316,0.364553,-0.665025,0.489548,0.607731,0.481001,-0.276753,1
1.46983,-0.448926,-1.85579,-1.16901,2.77357,1.04276,-1.07311,1.48009,-0.449203,-1.84542,-1.17544,2.76677,1.03761,-1.06757,1.54913,-0.480026,-1.7873,-1.21721,2.71297,0.996037,-1.04321,-0.979612,0.610907,-0.809789,0.54965,0.800311,0.103152,0.0502862,-0.979612,0.610907,-0.809789,0.54965,0.800311,0.103152,0.0502862,0.41231,-0.356747,0.939162,0.633253,0.176399,0.0361016,0.752709,-0.555821,-0.489065,0.26833,0.0137182,-0.229144,0.996093,-2.26454,-0.273748,-1.08969,-2.35954,-0.287476,-1.14308,-0.792936,0.310998,-0.684915,0.482012,0.605965,0.467209,-0.298928,1
1.45932,-0.442953,-1.86544,-1.16691,2.7808,1.0432,-1.06752,1.46979,-0.447711,-1.85556,-1.16975,2.7733,1.04294,-1.07129,1.53908,-0.474077,-1.79545,-1.21183,2.722,0.998357,-1.04389,-0.949228,0.561913,-0.76943,0.508193,0.85325,0.219133,-0.0642503,-0.949228,0.561913,-0.76943,0.508193,0.85325,0.219133,-0.0642503,0.406063,-0.362058,0.941886,0.640299,0.174426,0.0325511,0.747351,-0.558493,-0.471682,0.251018,-0.0100908,-0.231807,0.984439,-2.3809,-0.26634,-1.16541,-2.34759,-0.289883,-1.24157,-0.797537,0.311231,-0.699936,0.449202,0.587982,0.448465,-0.236211,1
1.44861,-0.467519,-1.87636,-1.16877,2.7795,1.05126,-1.06414,1.45927,-0.450588,-1.86576,-1.1679,2.77867,1.0451,-1.06807,1.52926,-0.469036,-1.80352,-1.20621,2.73015,1.00313,-1.04623,-0.927549,0.476091,-0.762332,0.530794,0.768945,0.451234,-0.220833,-0.927549,0.476091,-0.762332,0.530794,0.768945,0.451234,-0.220833,0.39938,-0.367408,0.944581,0.648064,0.171221,0.0287834,0.741531,-0.590195,-0.479652,0.244567,-0.0331594,-0.235089,0.972154,-2.30686,-0.328158,-1.22851,-2.32947,-0.291597,-1.33106,-0.806499,0.0151682,-0.728431,0.374453,0.493513,0.481215,-0.179109,1
1.43774,-0.503214,-1.88676,-1.17414,2.76735,1.05982,-1.05747,1.44857,-0.470301,-1.87623,-1.16964,2.77679,1.05138,-1.06332,1.51946,-0.465084,-1.81187,-1.20008,2.73744,1.01,-1.05048,-0.925409,0.373277,-0.788655,0.579143,0.689298,0.648859,-0.401552,-0.925409,0.373277,-0.788655,0.579143,0.689298,0.648859,-0.401552,0.392128,-0.373158,0.94719,0.65682,0.16698,0.0247558,0.73491,-0.635608,-0.51993,0.233633,-0.0560292,-0.237814,0.958863,-2.28699,-0.272538,-1.32906,-2.31663,-0.287607,-1.40193,-0.817218,-0.381299,-0.748954,0.259434,0.299027,0.498197,-0.069899,1
1.42716,-0.511109,-1.89615,-1.16731,2.73048,1.07258,-1.06942,1.43781,-0.496264,-1.88651,-1.17109,2.76117,1.06087,-1.06213,1.50956,-0.461622,-1.82057,-1.19404,2.74459,1.01657,-1.05463,-0.93474,0.326968,-0.822379,0.570789,0.674875,0.619896,-0.391547,-0.93474,0.326968,-0.822379,0.570789,0.674875,0.619896,-0.391547,0.384754,-0.379179,0.949524,0.665546,0.163022,0.0207338,0.728041,-0.648672,-0.54503,0.208941,-0.0786777,-0.241187,0.944449,-2.26485,-0.337237,-1.44147,-2.3073,-0.300924,-1.48865,-0.824004,-0.494871,-0.755808,0.267248,-0.141135,0.560118,-0.147953,1
1.4173,-0.514059,-1.9055,-1.14689,2.69669,1.08605,-1.0855,1.42734,-0.509873,-1.89614,-1.16391,2.73125,1.07276,-1.07046,1.49954,-0.459423,-1.82958,-1.18883,2.75138,1.02225,-1.05731,-0.946512,0.207671,-0.850395,0.491918,0.641387,0.537107,-0.252971,-0.946512,0.207671,-0.850395,0.491918,0.641387,0.537107,-0.252971,0.377531,-0.385877,0.950993,0.673532,0.160134,0.016634,0.721412,-0.641079,-0.605255,0.130495,-0.102257,-0.243291,0.928693,-2.35794,-0.210413,-1.57561,-2.29851,-0.290647,-1.59199,-0.822412,-0.546355,-0.759208,0.419342,-0.546857,0.638003,-0.281913,1
1.4072,-0.522338,-1.91479,-1.14796,2.694,1.08629,-1.07328,1.41724,-0.515391,-1.90549,-1.15227,2.70447,1.08274,-1.07843,1.48938,-0.461591,-1.83887,-1.18501,2.75644,1.02806,-1.05851,-0.959353,-0.204731,-0.878056,0.361053,0.47817,0.548271,-0.11314,-0.959353,-0.204731,-0.878056,0.361053,0.47817,0.548271,-0.11314,0.370392,-0.394878,0.950317,0.680721,0.158867,0.0118297,0.71501,-0.64061,-0.811778,-0.0691772,-0.126626,-0.246062,0.912678,-2.43693,-0.277141,-1.60147,-2.33162,-0.274231,-1.69123,-0.821855,-0.607466,-0.759185,0.370418,-0.624388,0.582283,-0.147751,1
1.39642,-0.533118,-1.92266,-1.15698,2.69214,1.08868,-1.05039,1.40703,-0.522963,-1.91443,-1.14995,2.69421,1.08683,-1.07061,1.47911,-0.4685,-1.84837,-1.18223,2.75738,1.0346,-1.05923,-0.970661,-0.652574,-0.89656,0.261954,0.0889157,0.617553,-0.0681971,-0.970661,-0.652574,-0.89656,0.261954,0.0889157,0.617553,-0.0681971,0.36324,-0.406045,0.947501,0.687874,0.158615,0.00716379,0.708251,-0.649226,-1.01139,-0.270645,-0.150625,-0.249266,0.894611,-2.39985,-0.320372,-1.80668,-2.3714,-0.277788,-1.80275,-0.826872,-0.646177,-0.742898,0.252554,-0.652438,0.5408,0.088391,1
1.38616,-0.54438,-1.93226,-1.18257,2.68564,1.09375,-1.03501,1.39655,-0.533238,-1.92309,-1.16112,2.69098,1.08935,-1.05227,1.46879,-0.476744,-1.85789,-1.17858,2.75218,1.0422,-1.06146,-0.974306,-0.77867,-0.8992,0.34478,-0.491897,0.718247,-0.21132,-0.974306,-0.77867,-0.8992,0.34478,-0.491897,0.718247,-0.21132,0.355794,-0.417068,0.944573,0.69652,0.157146,0.00461809,0.700103,-0.679123,-1.01485,-0.284686,-0.173306,-0.252425,0.875578,-2.26815,-0.315872,-1.90328,-2.37625,-0.284511,-1.91822,-0.826301,-0.676363,-0.743764,-0.0399138,-0.665361,0.515504,0.264549,1
1.37646,-0.554618,-1.94122,-1.20775,2.67546,1.10332,-1.03314,1.3863,-0.544124,-1.9321,-1.18247,2.68472,1.09488,-1.03839,1.45852,-0.484445,-1.86737,-1.17334,2.74267,1.05028,-1.06484,-0.970254,-0.727371,-0.895872,0.495291,-0.897923,0.763044,-0.319221,-0.970254,-0.727371,-0.895872,0.495291,-0.897923,0.763044,-0.319221,0.347983,-0.427082,0.942469,0.706392,0.154137,0.00405803,0.690822,-0.713481,-0.938603,-0.210405,-0.197162,-0.255032,0.856513,-2.38556,-0.260776,-1.90653,-2.3649,-0.298457,-2.01459,-0.82064,-0.701733,-0.738515,-0.34411,-0.672093,0.530422,0.31707,1
1.36728,-0.562893,-1.94891,-1.21198,2.66358,1.11808,-1.03792,1.37659,-0.554127,-1.9409,-1.20251,2.67503,1.10462,-1.0348,1.44826,-0.49212,-1.87675,-1.16868,2.73301,1.05756,-1.06599,-0.969092,-0.724941,-0.88578,0.440191,-0.912037,0.687837,-0.108552,-0.969092,-0.724941,-0.88578,0.440191,-0.912037,0.687837,-0.108552,0.340343,-0.436859,0.940044,0.71518,0.151761,0.00374404,0.682255,-0.703334,-0.916164,-0.238743,-0.219888,-0.258674,0.836118,-2.27263,-0.364172,-2.03952,-2.33061,-0.309904,-2.11219,-0.809764,-0.707728,-0.721625,-0.433022,-0.69437,0.605178,0.280757,1
1.35863,-0.570506,-1.95566,-1.20539,2.65326,1.12948,-1.04329,1.36741,-0.562727,-1.94868,-1.20927,2.66397,1.11724,-1.03807,1.43796,-0.500313,-1.88598,-1.16717,2.72464,1.0639,-1.06326,-0.973213,-0.773879,-0.872206,0.142192,-0.791086,0.598239,0.258354,-0.973213,-0.773879,-0.872206,0.142192,-0.791086,0.598239,0.258354,0.333516,-0.446777,0.936073,0.721645,0.151483,0.00314467,0.675479,-0.639139,-0.919368,-0.37943,-0.242359,-0.261658,0.815111,-2.2471,-0.298366,-2.10063,-2.30051,-0.310332,-2.1846,-0.793282,-0.701923,-0.696782,-0.382179,-0.713748,0.65585,0.199684,1
1.34913,-0.580793,-1.9645,-1.20837,2.64635,1.13692,-1.041,1.35842,-0.571174,-1.95618,-1.20778,2.65411,1.12849,-1.04138,1.42766,-0.509043,-1.89517,-1.17022,2.71668,1.07007,-1.0583,-0.972208,-0.824554,-0.86797,-0.287882,-0.751287,0.583062,0.468114,-0.972208,-0.824554,-0.86797,-0.287882,-0.751287,0.583062,0.468114,0.32789,-0.456626,0.930031,0.726292,0.153429,0.00285991,0.670038,-0.541818,-0.903877,-0.56953,-0.265826,-0.264471,0.793211,-2.34672,-0.281328,-2.18999,-2.30237,-0.307182,-2.26135,-0.785371,-0.717496,-0.693275,-0.381481,-0.703312,0.668515,0.172984,1
1.33835,-0.590824,-1.97528,-1.22208,2.63879,1.14317,-1.02765,1.34881,-0.580729,-1.96499,-1.21105,2.64619,1.13662,-1.03824,1.41749,-0.518027,-1.90429,-1.17665,2.70838,1.07695,-1.05362,-0.961251,-0.848523,-0.860714,-0.607776,-0.783882,0.65026,0.442322,-0.961251,-0.848523,-0.860714,-0.607776,-0.783882,0.65026,0.442322,0.323109,-0.4661,0.922537,0.730297,0.156522,0.00317131,0.664949,-0.472412,-0.865257,-0.703886,-0.289028,-0.267242,0.769387,-2.32021,-0.277099,-2.38245,-2.29671,-0.302162,-2.37158,-0.791366,-0.72797,-0.709916,-0.454209,-0.69598,0.662208,0.259693,1
1.32823,-0.600147,-1.98507,-1.23739,2.63052,1.15105,-1.02047,1.33851,-0.590647,-1.97503,-1.22248,2.63861,1.14358,-1.02919,1.40751,-0.526934,-1.91313,-1.18315,2.69953,1.08498,-1.05052,-0.942421,-0.841303,-0.835481,-0.613934,-0.835941,0.758239,0.292731,-0.942421,-0.841303,-0.835481,-0.613934,-0.835941,0.758239,0.292731,0.318207,-0.47505,0.91508,0.734707,0.159013,0.00377553,0.659474,-0.48073,-0.820054,-0.701489,-0.3129,-0.269993,0.745202,-2.38715,-0.275102,-2.41852,-2.32693,-0.282221,-2.47556,-0.792796,-0.732133,-0.719371,-0.542337,-0.690089,0.660643,0.300519,1
1.31867,-0.609679,-1.99413,-1.24779,2.62265,1.15949,-1.01949,1.32837,-0.600199,-1.98489,-1.23616,2.63062,1.15119,-1.02202,1.39773,-0.535749,-1.92171,-1.18806,2.69048,1.09365,-1.0487,-0.923907,-0.8326,-0.810252,-0.463485,-0.854813,0.818842,0.172101,-0.923907,-0.8326,-0.810252,-0.463485,-0.854813,0.818842,0.172101,0.312745,-0.483654,0.908293,0.739665,0.16048,0.00430683,0.653546,-0.526079,-0.792363,-0.640509,-0.336112,-0.272358,0.720262,-2.32122,-0.236484,-2.49394,-2.3458,-0.269222,-2.57708,-0.79058,-0.739295,-0.724194,-0.597238,-0.678349,0.658389,0.292081,1
1.30936,-0.619657,-2.00276,-1.25421,2.61452,1.16899,-1.01951,1.31873,-0.60979,-1.99402,-1.24679,2.62259,1.15975,-1.01974,1.38798,-0.544712,-1.93033,-1.19264,2.68166,1.10221,-1.04661,-0.920648,-0.846511,-0.814435,-0.432643,-0.83363,0.80875,0.196875,-0.920648,-0.846511,-0.814435,-0.432643,-0.83363,0.80875,0.196875,0.307039,-0.492241,0.901481,0.744443,0.161987,0.0046599,0.647722,-0.548145,-0.789378,-0.642886,-0.359638,-0.276041,0.693418,-2.35262,-0.368273,-2.6844,-2.34708,-0.28255,-2.68711,-0.78619,-0.749444,-0.724245,-0.615639,-0.671316,0.667782,0.271052,1
1.29538,-0.633504,-2.01551,-1.25479,2.61069,1.17605,-1.01384,1.30819,-0.620624,-2.00379,-1.25275,2.6156,1.16838,-1.01809,1.37706,-0.55487,-1.94028,-1.20003,2.67224,1.11126,-1.04239,-1.14429,-1.06539,-1.04847,-0.849246,-0.978164,0.938536,0.478733,-1.14429,-1.06539,-1.04847,-0.849246,-0.978164,0.938536,0.478733,0.301126,-0.501795,0.892736,0.74858,0.165073,0.00507196,0.642147,-0.623308,-0.962734,-0.942847,-0.382872,-0.278996,0.665714,-2.32339,-0.295535,-2.77044,-2.34426,-0.295555,-2.79129,-0.816799,-0.786339,-0.752334,-0.54761,-0.615488,0.647945,0.285485,1
1.28893,-0.640077,-2.02201,-1.26763,2.59716,1.18683,-1.01122,1.29726,-0.631685,-2.01395,-1.25785,2.60827,1.17698,-1.0146,1.36735,-0.563902,-1.94916,-1.20723,2.66395,1.11921,-1.03833,-0.916275,-0.853101,-0.839553,-0.680023,-0.783253,0.751521,0.383339,-0.916275,-0.853101,-0.839553,-0.680023,-0.783253,0.751521,0.383339,0.295901,-0.510102,0.884614,0.751911,0.168189,0.00547479,0.637426,-0.513008,-0.754284,-0.761943,-0.40701,-0.28151,0.638697,-2.41373,-0.251427,-2.70168,-2.34979,-0.296725,-2.87557,-0.784243,-0.761749,-0.72845,-0.604041,-0.667901,0.676117,0.271044,1
1.27961,-0.649615,-2.03026,-1.27638,2.58907,1.19609,-1.01378,1.28821,-0.640818,-2.02245,-1.26661,2.59852,1.18645,-1.01252,1.35767,-0.573046,-1.9581,-1.21511,2.6557,1.12729,-1.03462,-0.915077,-0.863613,-0.844189,-0.744614,-0.778388,0.762974,0.349863,-0.915077,-0.863613,-0.844189,-0.744614,-0.778388,0.762974,0.349863,0.290696,-0.518256,0.876095,0.755104,0.171624,0.00591482,0.632715,-0.512813,-0.737624,-0.798428,-0.42735,-0.286184,0.608361,-2.034,-0.46742,-3.0336,-2.29846,-0.331227,-2.98523,-0.780515,-0.76569,-0.721618,-0.612672,-0.666378,0.687998,0.208423,1
1.26975,-0.659755,-2.03957,-1.28676,2.58258,1.20429,-1.00734,1.27948,-0.649766,-2.03053,-1.27679,2.58947,1.19582,-1.01153,1.34781,-0.582527,-1.96721,-1.22261,2.64771,1.13548,-1.03133,-0.931108,-0.895413,-0.859796,-0.708315,-0.754822,0.7733,0.311251,-0.931108,-0.895413,-0.859796,-0.708315,-0.754822,0.7733,0.311251,0.285042,-0.526541,0.867468,0.75844,0.175044,0.00606438,0.627767,-0.552808,-0.747565,-0.808545,-0.451361,-0.288288,0.578188,-2.40111,-0.210333,-3.01728,-2.27922,-0.316828,-3.07813,-0.780607,-0.772287,-0.723616,-0.641544,-0.65131,0.68813,0.239921,1
1.25931,-0.670258,-2.04892,-1.29473,2.57563,1.21297,-1.00521,1.2696,-0.659846,-2.03958,-1.28616,2.58246,1.20441,-1.00842,1.33773,-0.592322,-1.97652,-1.22963,2.63985,1.14375,-1.028,-0.951287,-0.925164,-0.879645,-0.663275,-0.742399,0.781037,0.31479,-0.951287,-0.925164,-0.879645,-0.663275,-0.742399,0.781037,0.31479,0.278896,-0.53495,0.858765,0.761835,0.178418,0.00594464,0.622687,-0.596894,-0.757224,-0.815814,-0.474332,-0.291679,0.548124,-2.29712,-0.339127,-3.00649,-2.2727,-0.321437,-3.1569,-0.784293,-0.779356,-0.723976,-0.650971,-0.642249,0.692235,0.227897,1
1.25008,-0.680032,-2.05793,-1.30296,2.56769,1.22183,-1.00422,1.25961,-0.670076,-2.04883,-1.2948,2.57538,1.21302,-1.00549,1.32787,-0.601986,-1.98567,-1.237,2.63162,1.15226,-1.02491,-0.932014,-0.912697,-0.864372,-0.695851,-0.777923,0.803601,0.291305,-0.932014,-0.912697,-0.864372,-0.695851,-0.777923,0.803601,0.291305,0.272867,-0.542891,0.84996,0.765075,0.18176,0.00609216,0.617727,-0.586763,-0.714753,-0.825072,-0.497748,-0.295428,0.516319,-2.34165,-0.37494,-3.18046,-2.2846,-0.33331,-3.24994,-0.777876,-0.78046,-0.7226,-0.659611,-0.639249,0.695778,0.206941,1
