Afshin1997/kuka_rl_ros2/src/catch_and_throw/output_files/tm/nn_ema2.00_jvws1_realball_D24H15M17S31/recorded_data.csv
pure_target_joint_0,pure_target_joint_1,pure_target_joint_2,pure_target_joint_3,pure_target_joint_4,pure_target_joint_5,pure_target_joint_6,target_joint_0,target_joint_1,target_joint_2,target_joint_3,target_joint_4,target_joint_5,target_joint_6,pos_joint_0,pos_joint_1,pos_joint_2,pos_joint_3,pos_joint_4,pos_joint_5,pos_joint_6,vel_joint_0,vel_joint_1,vel_joint_2,vel_joint_3,vel_joint_4,vel_joint_5,vel_joint_6,vel_smooth_joint_0,vel_smooth_joint_1,vel_smooth_joint_2,vel_smooth_joint_3,vel_smooth_joint_4,vel_smooth_joint_5,vel_smooth_joint_6,ee_pos_x,ee_pos_y,ee_pos_z,ee_or_w,ee_or_x,ee_or_y,ee_or_z,ee_vel_x,ee_vel_y,ee_vel_z,ball_pos_x,ball_pos_y,ball_pos_z,ball_raw_vx,ball_raw_vy,ball_raw_vz,ball_ema_vx,ball_ema_vy,ball_ema_vz,action_0,action_1,action_2,action_3,action_4,action_5,action_6,command_published
1.71178,-1.01721,-1.76791,-1.17249,2.01248,1.17584,-0.940989,1.71178,-1.01721,-1.76791,-1.17249,2.01248,1.17584,-0.940989,1.78023,-1.0647,-1.81512,-1.11711,1.93723,1.11687,-0.91625,0,0,0,0,0,0,0,0,0,0,0,0,0,0,0.531064,-0.454419,0.694248,0.57449,0.175206,0.152603,0.784842,0,0,0,2.97564,-0.473197,0.305842,-3.22583,0.216424,5.13962,-3.22583,0.216424,5.13962,-0.684483,0.47487,0.472105,-0.553799,0.752463,0.589717,-0.24739,1
1.71236,-1.01686,-1.76672,-1.17052,2.01214,1.17697,-0.940507,1.71236,-1.01686,-1.76672,-1.17052,2.01214,1.17697,-0.940507,1.78023,-1.0647,-1.81512,-1.11711,1.93723,1.11687,-0.91625,0,0,0,0,0,0,0,0,0,0,0,0,0,0,0.531064,-0.454419,0.694248,0.57449,0.175206,0.152603,0.784842,0,0,0,2.94367,-0.47137,0.355912,-3.19679,0.182748,5.00702,-3.19679,0.182748,5.00702,-0.678719,0.478327,0.483958,-0.534074,0.749118,0.601018,-0.242562,1
1.71263,-1.01632,-1.76578,-1.1692,2.01238,1.17642,-0.940632,1.71263,-1.01632,-1.76578,-1.1692,2.01238,1.17642,-0.940632,1.78023,-1.0647,-1.81512,-1.11711,1.93723,1.11687,-0.91625,-1.77839e-07,5.04243e-07,9.17022e-07,-3.18932e-07,1.55511e-07,-8.23739e-07,-6.01362e-07,-1.77839e-07,5.04243e-07,9.17022e-07,-3.18932e-07,1.55511e-07,-8.23739e-07,-6.01362e-07,0.531064,-0.454419,0.694248,0.57449,0.175206,0.152603,0.784842,-2.58922e-08,2.99941e-07,4.87975e-07,2.91199,-0.46959,0.404545,-3.16851,0.178006,4.86325,-3.16851,0.178006,4.86325,-0.675991,0.483744,0.493409,-0.520917,0.751527,0.595472,-0.243814,1
1.70211,-0.990754,-1.76219,-1.17449,2.02429,1.18958,-0.944751,1.70211,-0.990754,-1.76219,-1.17449,2.02429,1.18958,-0.944751,1.76659,-1.05523,-1.80571,-1.12814,1.95222,1.12862,-0.92118,-1.28826,0.893746,0.888542,-1.0423,1.4162,1.1099,-0.465609,-1.28826,0.893746,0.888542,-1.0423,1.4162,1.1099,-0.465609,0.523001,-0.453889,0.701418,0.576371,0.168232,0.145734,0.786293,-0.686556,0.0694613,0.634222,2.88081,-0.467775,0.452311,-3.11825,0.18149,4.77667,-3.11825,0.18149,4.77667,-0.64477,0.644801,0.435196,-0.463471,0.720714,0.609532,-0.235707,1
1.69069,-0.981871,-1.75385,-1.18571,2.03737,1.19772,-0.948677,1.69069,-0.981871,-1.75385,-1.18571,2.03737,1.19772,-0.948677,1.75578,-1.04759,-1.79794,-1.13659,1.96416,1.13826,-0.925031,-1.02071,0.722163,0.733799,-0.797483,1.12771,0.910004,-0.363745,-1.02071,0.722163,0.733799,-0.797483,1.12771,0.910004,-0.363745,0.516493,-0.453341,0.707285,0.577886,0.162383,0.140189,0.787418,-0.552574,0.0653089,0.520864,2.8499,-0.465931,0.499632,-3.09103,0.184333,4.73204,-3.09103,0.184333,4.73204,-0.650934,0.657166,0.440869,-0.49118,0.732039,0.594676,-0.236462,1
1.67889,-0.974217,-1.75076,-1.19633,2.04779,1.19971,-0.95403,1.67889,-0.974217,-1.75076,-1.19633,2.04779,1.19971,-0.95403,1.74718,-1.04136,-1.79153,-1.14309,1.97377,1.14586,-0.92814,-0.812182,0.588458,0.605366,-0.613811,0.907531,0.718237,-0.29362,-0.812182,0.588458,0.605366,-0.613811,0.907531,0.718237,-0.29362,0.511264,-0.452831,0.712096,0.579133,0.157622,0.135731,0.78825,-0.443469,0.0582039,0.428928,2.81821,-0.463594,0.546136,-3.16851,0.233701,4.65042,-3.16851,0.233701,4.65042,-0.682921,0.671411,0.407685,-0.532479,0.740234,0.538503,-0.258907,1
1.67017,-0.959864,-1.74508,-1.19851,2.05722,1.20632,-0.960786,1.67017,-0.959864,-1.74508,-1.19851,2.05722,1.20632,-0.960786,1.7382,-1.03127,-1.78569,-1.14934,1.98384,1.15457,-0.93145,-0.848286,0.952413,0.552231,-0.591074,0.950899,0.822743,-0.312632,-0.848286,0.952413,0.552231,-0.591074,0.950899,0.822743,-0.312632,0.505454,-0.451216,0.718817,0.581085,0.151222,0.132348,0.788642,-0.492073,0.151203,0.606147,2.78652,-0.461381,0.591335,-3.16861,0.221351,4.51986,-3.16861,0.221351,4.51986,-0.680301,0.714103,0.406039,-0.491707,0.733848,0.517444,-0.293365,1
1.66141,-0.949464,-1.73859,-1.20536,2.06783,1.21577,-0.963299,1.66141,-0.949464,-1.73859,-1.20536,2.06783,1.21577,-0.963299,1.72874,-1.02143,-1.77934,-1.15659,1.9945,1.16317,-0.934883,-0.894245,0.929806,0.599089,-0.684352,1.00744,0.812171,-0.324239,-0.894245,0.929806,0.599089,-0.684352,1.00744,0.812171,-0.324239,0.499604,-0.449465,0.725236,0.582713,0.145139,0.128691,0.789189,-0.496019,0.166483,0.578501,2.75531,-0.459417,0.635152,-3.12104,0.196421,4.3817,-3.12104,0.196421,4.3817,-0.673236,0.719659,0.407521,-0.487666,0.733234,0.525982,-0.284162,1
1.65126,-0.936654,-1.73644,-1.20908,2.07863,1.22498,-0.967578,1.65126,-0.936654,-1.73644,-1.20908,2.07863,1.22498,-0.967578,1.71789,-1.01051,-1.77305,-1.16474,2.00611,1.17115,-0.939408,-1.12143,1.19041,0.657359,-0.793853,1.20122,0.826606,-0.502446,-1.12143,1.19041,0.657359,-0.793853,1.20122,0.826606,-0.502446,0.49334,-0.447741,0.73183,0.584949,0.139378,0.125271,0.789123,-0.600179,0.188353,0.698936,2.72427,-0.457899,0.678054,-3.10392,0.151756,4.29024,-3.10392,0.151756,4.29024,-0.666221,0.738592,0.366153,-0.443457,0.725129,0.538341,-0.281693,1
1.64026,-0.926412,-1.73336,-1.21724,2.08924,1.23032,-0.969637,1.64026,-0.926412,-1.73336,-1.21724,2.08924,1.23032,-0.969637,1.70838,-1.00042,-1.76748,-1.17147,2.0163,1.17815,-0.943668,-0.897969,0.95321,0.526372,-0.635668,0.961861,0.661895,-0.402328,-0.897969,0.95321,0.526372,-0.635668,0.961861,0.661895,-0.402328,0.487783,-0.446043,0.737894,0.587165,0.134065,0.122445,0.788841,-0.476379,0.160906,0.550224,2.69281,-0.456252,0.720052,-3.14696,0.164697,4.19976,-3.14696,0.164697,4.19976,-0.681169,0.740085,0.341163,-0.457734,0.729461,0.521627,-0.259686,1
1.63086,-0.915623,-1.72759,-1.22458,2.0996,1.23531,-0.974869,1.63086,-0.915623,-1.72759,-1.22458,2.0996,1.23531,-0.974869,1.69902,-0.990267,-1.76172,-1.17822,2.02657,1.18565,-0.94758,-0.88392,0.958996,0.543645,-0.637758,0.969776,0.707901,-0.369446,-0.88392,0.958996,0.543645,-0.637758,0.969776,0.707901,-0.369446,0.482249,-0.444075,0.743966,0.58911,0.128517,0.119533,0.788762,-0.472007,0.185006,0.550768,2.66156,-0.454433,0.761119,-3.125,0.181872,4.10671,-3.125,0.181872,4.10671,-0.681561,0.746443,0.341313,-0.463578,0.7303,0.496597,-0.27289,1
1.6209,-0.904325,-1.72453,-1.23117,2.11009,1.23909,-0.981094,1.6209,-0.904325,-1.72453,-1.23117,2.11009,1.23909,-0.981094,1.6895,-0.979584,-1.75668,-1.18437,2.03694,1.19349,-0.951565,-0.898762,1.009,0.475882,-0.580838,0.979785,0.740206,-0.376358,-0.898762,1.009,0.475882,-0.580838,0.979785,0.740206,-0.376358,0.476561,-0.442219,0.750114,0.591481,0.122805,0.116837,0.788301,-0.486213,0.173169,0.558494,2.63018,-0.452456,0.800947,-3.13799,0.197738,3.98281,-3.13799,0.197738,3.98281,-0.686036,0.752588,0.321508,-0.467959,0.731454,0.45599,-0.295298,1
1.61048,-0.893533,-1.72186,-1.24026,2.12101,1.23959,-0.98607,1.61048,-0.893533,-1.72186,-1.24026,2.12101,1.23959,-0.98607,1.67969,-0.968989,-1.75204,-1.19092,2.04736,1.20083,-0.955166,-0.926735,1.00069,0.438912,-0.618631,0.984367,0.693146,-0.340116,-0.926735,1.00069,0.438912,-0.618631,0.984367,0.693146,-0.340116,0.470993,-0.440418,0.755839,0.593683,0.117662,0.114342,0.787796,-0.479144,0.168752,0.520808,2.59889,-0.449968,0.839621,-3.12867,0.24876,3.86747,-3.12867,0.24876,3.86747,-0.692087,0.754557,0.301799,-0.493375,0.736513,0.387655,-0.309039,1
1.60272,-0.882347,-1.7141,-1.24698,2.13089,1.25194,-0.989855,1.60272,-0.882347,-1.7141,-1.24698,2.13089,1.25194,-0.989855,1.66996,-0.958355,-1.74716,-1.19763,2.05777,1.2077,-0.959092,-0.918941,1.00435,0.460064,-0.633441,0.983037,0.648979,-0.37081,-0.918941,1.00435,0.460064,-0.633441,0.983037,0.648979,-0.37081,0.465605,-0.438376,0.761483,0.595842,0.112709,0.111991,0.787227,-0.463781,0.191164,0.514267,2.56781,-0.448076,0.877406,-3.10783,0.189242,3.77849,-3.10783,0.189242,3.77849,-0.672463,0.760077,0.330646,-0.493529,0.73115,0.442399,-0.307629,1
1.59151,-0.871023,-1.7146,-1.24946,2.14142,1.25678,-0.992804,1.59151,-0.871023,-1.7146,-1.24946,2.14142,1.25678,-0.992804,1.66019,-0.947589,-1.74266,-1.20431,2.0682,1.21395,-0.963476,-0.923343,1.01684,0.425946,-0.631205,0.984561,0.590734,-0.414088,-0.923343,1.01684,0.425946,-0.631205,0.984561,0.590734,-0.414088,0.460379,-0.436327,0.766932,0.598238,0.108148,0.109936,0.786339,-0.452183,0.192093,0.497609,2.53659,-0.446194,0.914577,-3.12161,0.188205,3.71707,-3.12161,0.188205,3.71707,-0.686769,0.765657,0.280598,-0.451494,0.732208,0.428316,-0.293278,1
1.58171,-0.859395,-1.71592,-1.25446,2.15118,1.26103,-0.998722,1.58171,-0.859395,-1.71592,-1.25446,2.15118,1.26103,-0.998722,1.65028,-0.936817,-1.73851,-1.21147,2.07872,1.21906,-0.967978,-0.935405,1.01733,0.391435,-0.676533,0.994047,0.482538,-0.425209,-0.935405,1.01733,0.391435,-0.676533,0.994047,0.482538,-0.425209,0.45547,-0.434249,0.77197,0.600579,0.104424,0.108235,0.785294,-0.429031,0.196171,0.461381,2.50521,-0.444294,0.950587,-3.1384,0.190017,3.60096,-3.1384,0.190017,3.60096,-0.685701,0.774228,0.22588,-0.42984,0.724575,0.41966,-0.307442,1
1.5751,-0.847954,-1.70888,-1.25962,2.16104,1.27154,-1.00398,1.5751,-0.847954,-1.70888,-1.25962,2.16104,1.27154,-1.00398,1.6408,-0.925964,-1.73365,-1.21855,2.08911,1.22561,-0.972337,-0.895194,1.02513,0.4594,-0.668235,0.98176,0.618731,-0.411717,-0.895194,1.02513,0.4594,-0.668235,0.98176,0.618731,-0.411717,0.45052,-0.431598,0.777263,0.60259,0.0997623,0.106288,0.784625,-0.425614,0.246424,0.48327,2.47416,-0.442596,0.985393,-3.10533,0.169724,3.4806,-3.10533,0.169724,3.4806,-0.657004,0.780093,0.247674,-0.410679,0.719295,0.459293,-0.316447,1
1.56435,-0.836651,-1.70648,-1.26622,2.17203,1.27244,-1.00732,1.56435,-0.836651,-1.70648,-1.26622,2.17203,1.27244,-1.00732,1.63098,-0.915016,-1.72985,-1.22471,2.09954,1.23182,-0.976416,-0.927726,1.03398,0.358544,-0.581748,0.984306,0.586647,-0.38518,-0.927726,1.03398,0.358544,-0.581748,0.984306,0.586647,-0.38518,0.445449,-0.429541,0.782362,0.605122,0.0954633,0.104526,0.783447,-0.440341,0.191706,0.466829,2.44329,-0.440914,1.01934,-3.08707,0.16827,3.39428,-3.08707,0.16827,3.39428,-0.666291,0.783654,0.233754,-0.41508,0.724912,0.40616,-0.309044,1
1.55428,-0.825155,-1.70673,-1.27139,2.18164,1.27681,-1.01311,1.55428,-0.825155,-1.70673,-1.27139,2.18164,1.27681,-1.01311,1.62116,-0.903933,-1.72708,-1.23064,2.10983,1.23764,-0.98086,-0.927246,1.04679,0.26212,-0.559882,0.971883,0.54961,-0.419812,-0.927246,1.04679,0.26212,-0.559882,0.971883,0.54961,-0.419812,0.440559,-0.42766,0.787125,0.608063,0.0915958,0.103194,0.781806,-0.428196,0.174582,0.43698,2.41233,-0.439276,1.05254,-3.09522,0.163773,3.32078,-3.09522,0.163773,3.32078,-0.668821,0.787776,0.203423,-0.407563,0.718131,0.391722,-0.322513,1
1.54556,-0.813475,-1.70905,-1.27497,2.19153,1.28003,-1.01849,1.54556,-0.813475,-1.70905,-1.27497,2.19153,1.28003,-1.01849,1.61199,-0.892778,-1.72345,-1.23641,2.12003,1.2444,-0.985468,-0.866852,1.05351,0.342447,-0.545411,0.963914,0.637973,-0.435147,-0.866852,1.05351,0.342447,-0.545411,0.963914,0.637973,-0.435147,0.435769,-0.42514,0.792171,0.610687,0.086949,0.101642,0.780493,-0.412542,0.231692,0.462269,2.38044,-0.437125,1.08454,-3.18918,0.21511,3.20003,-3.18918,0.21511,3.20003,-0.664293,0.793029,0.14401,-0.38554,0.714953,0.356285,-0.330223,1
1.53751,-0.801855,-1.70458,-1.28081,2.20161,1.28699,-1.02272,1.53751,-0.801855,-1.70458,-1.28081,2.20161,1.28699,-1.02272,1.60249,-0.881594,-1.72007,-1.24235,2.13039,1.24998,-0.989822,-0.896459,1.05632,0.319455,-0.560934,0.97855,0.527749,-0.411257,-0.896459,1.05632,0.319455,-0.560934,0.97855,0.527749,-0.411257,0.431151,-0.422762,0.796957,0.613283,0.0830699,0.100315,0.779051,-0.40211,0.220525,0.439507,2.34885,-0.435093,1.11525,-3.159,0.203237,3.07057,-3.159,0.203237,3.07057,-0.649855,0.797396,0.154902,-0.384579,0.712156,0.370027,-0.328954,1
1.52794,-0.790411,-1.70388,-1.28542,2.21186,1.29149,-1.02665,1.52794,-0.790411,-1.70388,-1.28542,2.21186,1.29149,-1.02665,1.59289,-0.870348,-1.71741,-1.24814,2.1406,1.25533,-0.994463,-0.907401,1.06223,0.250961,-0.546605,0.964502,0.504959,-0.438333,-0.907401,1.06223,0.250961,-0.546605,0.964502,0.504959,-0.438333,0.426637,-0.420549,0.801462,0.616225,0.0795042,0.0993013,0.777229,-0.396067,0.204492,0.414495,2.31744,-0.433226,1.1448,-3.14145,0.1867,2.95533,-3.14145,0.1867,2.95533,-0.64947,0.79937,0.135284,-0.372828,0.712528,0.361548,-0.321849,1
1.5191,-0.778792,-1.70472,-1.29107,2.22154,1.29621,-1.03092,1.5191,-0.778792,-1.70472,-1.29107,2.22154,1.29621,-1.03092,1.58346,-0.859015,-1.71574,-1.25348,2.15075,1.26025,-0.999251,-0.890805,1.07039,0.157372,-0.504922,0.958417,0.464774,-0.452213,-0.890805,1.07039,0.157372,-0.504922,0.958417,0.464774,-0.452213,0.422326,-0.418555,0.805701,0.619498,0.0763457,0.0986029,0.77503,-0.381226,0.183951,0.390896,2.28619,-0.431444,1.17327,-3.12517,0.178182,2.8469,-3.12517,0.178182,2.8469,-0.643602,0.802235,0.110243,-0.375902,0.707904,0.359632,-0.316668,1
1.51164,-0.767134,-1.70289,-1.29518,2.23144,1.30296,-1.03534,1.51164,-0.767134,-1.70289,-1.29518,2.23144,1.30296,-1.03534,1.5743,-0.847625,-1.71352,-1.25893,2.16089,1.26558,-1.00393,-0.864768,1.07582,0.210174,-0.514281,0.957174,0.503193,-0.441667,-0.864768,1.07582,0.210174,-0.514281,0.957174,0.503193,-0.441667,0.418123,-0.416139,0.81003,0.622454,0.0728634,0.0978065,0.773095,-0.368366,0.222047,0.39885,2.25495,-0.42968,1.20086,-3.12326,0.176409,2.75874,-3.12326,0.176409,2.75874,-0.626577,0.804911,0.106315,-0.362555,0.705574,0.373813,-0.31416,1
1.50053,-0.754206,-1.71165,-1.29349,2.24269,1.30601,-1.03956,1.50053,-0.754206,-1.71165,-1.29349,2.24269,1.30601,-1.03956,1.56413,-0.835003,-1.71169,-1.2648,2.17206,1.27124,-1.0089,-1.05856,1.3212,0.163753,-0.617506,1.16303,0.587053,-0.517433,-1.05856,1.3212,0.163753,-0.617506,1.16303,0.587053,-0.517433,0.413602,-0.413617,0.814555,0.62583,0.0693422,0.0971237,0.770775,-0.436408,0.252969,0.452558,2.22355,-0.427968,1.22766,-3.13997,0.17117,2.68028,-3.13997,0.17117,2.68028,-0.635988,0.807971,0.000376411,-0.286923,0.7063,0.347726,-0.306552,1
1.49399,-0.742682,-1.70824,-1.30276,2.25179,1.31178,-1.04357,1.49399,-0.742682,-1.70824,-1.30276,2.25179,1.31178,-1.04357,1.55516,-0.823802,-1.7103,-1.27004,2.18192,1.27621,-1.01329,-0.84763,1.05794,0.131123,-0.49446,0.931278,0.470075,-0.414328,-0.84763,1.05794,0.131123,-0.49446,0.931278,0.470075,-0.414328,0.409722,-0.411348,0.818393,0.62883,0.0663616,0.0966366,0.768655,-0.342912,0.207999,0.354245,2.19236,-0.426051,1.2535,-3.11899,0.191724,2.58393,-3.11899,0.191724,2.58393,-0.611705,0.811203,0.0205576,-0.327196,0.698679,0.355687,-0.302831,1
1.48712,-0.73124,-1.70369,-1.30612,2.26241,1.31431,-1.04739,1.48712,-0.73124,-1.70369,-1.30612,2.26241,1.31431,-1.04739,1.54649,-0.81251,-1.70882,-1.27505,2.19179,1.28154,-1.01768,-0.819002,1.06654,0.139484,-0.47329,0.932055,0.503362,-0.415053,-0.819002,1.06654,0.139484,-0.47329,0.932055,0.503362,-0.415053,0.40593,-0.408869,0.822282,0.631756,0.0631323,0.0961058,0.766591,-0.332814,0.226584,0.358936,2.16117,-0.424118,1.27801,-3.11904,0.193229,2.4506,-3.11904,0.193229,2.4506,-0.593646,0.812704,0.0512985,-0.310743,0.706167,0.327703,-0.297016,1
1.47599,-0.719647,-1.70359,-1.31191,2.27316,1.31465,-1.05105,1.47599,-0.719647,-1.70359,-1.31191,2.27316,1.31465,-1.05105,1.53733,-0.800892,-1.70938,-1.27872,2.20193,1.28642,-1.02204,-0.864884,1.09734,-0.0532137,-0.347178,0.958026,0.46048,-0.411692,-0.864884,1.09734,-0.0532137,-0.347178,0.958026,0.46048,-0.411692,0.401907,-0.407381,0.825996,0.635718,0.0604064,0.0958277,0.763565,-0.360108,0.135258,0.344294,2.13036,-0.422322,1.30151,-3.08173,0.179684,2.34997,-3.08173,0.179684,2.34997,-0.613358,0.812457,0.0579592,-0.331861,0.712326,0.282353,-0.290065,1
1.46965,-0.706506,-1.70694,-1.3063,2.28252,1.32641,-1.05924,1.46965,-0.706506,-1.70694,-1.3063,2.28252,1.32641,-1.05924,1.52797,-0.78809,-1.70868,-1.28387,2.21298,1.29174,-1.02673,-0.960139,1.33623,0.117217,-0.523109,1.16165,0.530605,-0.485409,-0.960139,1.33623,0.117217,-0.523109,1.16165,0.530605,-0.485409,0.398028,-0.404696,0.83006,0.639109,0.0573045,0.0955617,0.761002,-0.373768,0.284678,0.431354,2.09925,-0.420929,1.32426,-3.11079,0.139305,2.27492,-3.11079,0.139305,2.27492,-0.58322,0.815844,0.0173715,-0.224303,0.695353,0.346675,-0.325061,1
1.46198,-0.695593,-1.71149,-1.30846,2.29302,1.33444,-1.06118,1.46198,-0.695593,-1.71149,-1.30846,2.29302,1.33444,-1.06118,1.51983,-0.776762,-1.70768,-1.2883,2.22283,1.29624,-1.03085,-0.768819,1.06997,0.09386,-0.418873,0.930177,0.424875,-0.388685,-0.768819,1.06997,0.09386,-0.418873,0.930177,0.424875,-0.388685,0.394706,-0.402157,0.833709,0.641977,0.0545601,0.0952627,0.758824,-0.29303,0.232548,0.337819,2.06831,-0.419227,1.34601,-3.09336,0.170162,2.1751,-3.09336,0.170162,2.1751,-0.57857,0.811691,-0.03802,-0.201582,0.701851,0.382,-0.303277,1
1.45205,-0.684027,-1.71043,-1.31983,2.3037,1.32987,-1.0631,1.45205,-0.684027,-1.71043,-1.31983,2.3037,1.32987,-1.0631,1.5111,-0.765381,-1.70687,-1.293,2.23286,1.29991,-1.03487,-0.82506,1.07496,0.0770912,-0.444333,0.947314,0.346619,-0.380186,-0.82506,1.07496,0.0770912,-0.444333,0.947314,0.346619,-0.380186,0.39141,-0.399844,0.837142,0.64498,0.0524271,0.0951213,0.756442,-0.295255,0.213353,0.318408,2.03747,-0.417172,1.3666,-3.08459,0.205526,2.05901,-3.08459,0.205526,2.05901,-0.590458,0.813538,-0.0355868,-0.268239,0.70839,0.299667,-0.282239,1
1.4427,-0.670812,-1.71275,-1.31845,2.31417,1.33362,-1.06883,1.4427,-0.670812,-1.71275,-1.31845,2.31417,1.33362,-1.06883,1.50203,-0.752502,-1.70736,-1.29588,2.24386,1.30603,-1.03993,-0.941488,1.33761,-0.0969701,-0.295638,1.1554,0.667651,-0.499319,-0.941488,1.33761,-0.0969701,-0.295638,1.1554,0.667651,-0.499319,0.387312,-0.397688,0.841337,0.649321,0.048725,0.0946949,0.753021,-0.400063,0.199406,0.41639,2.00623,-0.415308,1.38605,-3.12421,0.186396,1.94564,-3.12421,0.186396,1.94564,-0.593355,0.816901,-0.0539239,-0.225674,0.703066,0.275839,-0.289002,1
1.43504,-0.658093,-1.71038,-1.31926,2.32558,1.33565,-1.07328,1.43504,-0.658093,-1.71038,-1.31926,2.32558,1.33565,-1.07328,1.49301,-0.739946,-1.70807,-1.29958,2.25478,1.31121,-1.04437,-0.962614,1.31433,-0.0553628,-0.475871,1.14987,0.438629,-0.440236,-0.962614,1.31433,-0.0553628,-0.475871,1.14987,0.438629,-0.440236,0.383649,-0.395534,0.844984,0.653202,0.0459174,0.0945192,0.749857,-0.33907,0.230911,0.350968,1.97548,-0.413374,1.40466,-3.07456,0.19342,1.86086,-3.07456,0.19342,1.86086,-0.57961,0.818526,-0.0231161,-0.196737,0.708055,0.244331,-0.289074,1
1.42785,-0.647342,-1.70729,-1.32396,2.3355,1.34005,-1.07988,1.42785,-0.647342,-1.70729,-1.32396,2.3355,1.34005,-1.07988,1.48485,-0.728803,-1.70854,-1.30362,2.26453,1.31493,-1.0481,-0.770764,1.05238,-0.044329,-0.381029,0.9207,0.35121,-0.352497,-0.770764,1.05238,-0.044329,-0.381029,0.9207,0.35121,-0.352497,0.380701,-0.393483,0.84794,0.656363,0.0440717,0.0945868,0.747194,-0.266068,0.188103,0.274835,1.94475,-0.411669,1.42246,-3.07308,0.170454,1.78025,-3.07308,0.170454,1.78025,-0.569982,0.814607,0.0124684,-0.203463,0.709736,0.251148,-0.317821,1
1.41792,-0.634264,-1.7142,-1.31515,2.34648,1.34775,-1.08009,1.41792,-0.634264,-1.7142,-1.31515,2.34648,1.34775,-1.08009,1.47564,-0.71591,-1.70913,-1.30666,2.27562,1.31887,-1.0527,-0.95416,1.35889,-0.029428,-0.296121,1.17435,0.394335,-0.483623,-0.95416,1.35889,-0.029428,-0.296121,1.17435,0.394335,-0.483623,0.377144,-0.391345,0.851774,0.66051,0.0416011,0.0945578,0.743676,-0.353118,0.227369,0.414138,1.91391,-0.410025,1.43944,-3.08367,0.16444,1.69761,-3.08367,0.16444,1.69761,-0.577195,0.81646,-0.0506755,-0.0848982,0.708652,0.28879,-0.273926,1
1.40901,-0.621672,-1.727,-1.30556,2.35628,1.35729,-1.08418,1.40901,-0.621672,-1.727,-1.30556,2.35628,1.35729,-1.08418,1.4668,-0.703259,-1.70906,-1.30966,2.28662,1.32267,-1.05749,-0.915417,1.31422,0.0414042,-0.336108,1.1489,0.408303,-0.526209,-0.915417,1.31422,0.0414042,-0.336108,1.1489,0.408303,-0.526209,0.373785,-0.388926,0.855628,0.664423,0.0390389,0.0944012,0.740342,-0.324513,0.261003,0.395613,1.88253,-0.408344,1.45533,-3.13841,0.168023,1.58932,-3.13841,0.168023,1.58932,-0.577829,0.815866,-0.179482,0.0410625,0.696676,0.346158,-0.266888,1
1.39911,-0.609714,-1.72963,-1.30789,2.36918,1.36279,-1.08634,1.39911,-0.609714,-1.72963,-1.30789,2.36918,1.36279,-1.08634,1.45799,-0.690741,-1.70943,-1.31159,2.29751,1.32695,-1.06198,-0.941738,1.3274,-0.112061,-0.0837169,1.15097,0.488907,-0.425746,-0.941738,1.3274,-0.112061,-0.0837169,1.15097,0.488907,-0.425746,0.370201,-0.386823,0.859598,0.668591,0.0361078,0.094063,0.736773,-0.389083,0.166971,0.435149,1.85191,-0.406896,1.4702,-3.06196,0.144872,1.48686,-3.06196,0.144872,1.48686,-0.58878,0.810274,-0.201968,0.0369936,0.71665,0.358418,-0.243595,1
1.39274,-0.598591,-1.72447,-1.3195,2.37949,1.36146,-1.09155,1.39274,-0.598591,-1.72447,-1.3195,2.37949,1.36146,-1.09155,1.45001,-0.679488,-1.71038,-1.3123,2.30727,1.33109,-1.06559,-0.754085,1.0629,-0.0897317,-0.0670352,0.921626,0.391486,-0.34091,-0.754085,1.0629,-0.0897317,-0.0670352,0.921626,0.391486,-0.34091,0.366739,-0.385273,0.863287,0.672612,0.0332088,0.0936571,0.733293,-0.306902,0.139526,0.343964,1.82092,-0.405276,1.48405,-3.09874,0.161999,1.38446,-3.09874,0.161999,1.38446,-0.572623,0.80897,-0.140894,-0.0720531,0.722231,0.303648,-0.259668,1
1.38436,-0.587217,-1.72072,-1.32217,2.38987,1.35969,-1.09916,1.38436,-0.587217,-1.72072,-1.32217,2.38987,1.35969,-1.09916,1.44184,-0.667967,-1.71369,-1.31095,2.31704,1.33631,-1.06929,-0.771509,1.08808,-0.312845,0.126817,0.922442,0.493071,-0.349977,-0.771509,1.08808,-0.312845,0.126817,0.922442,0.493071,-0.349977,0.36266,-0.384676,0.867117,0.677843,0.0297396,0.0932307,0.728665,-0.36349,0.0484784,0.358177,1.78955,-0.403653,1.49708,-3.13767,0.162247,1.3032,-3.13767,0.162247,1.3032,-0.574803,0.807502,-0.0702651,-0.112224,0.728374,0.23379,-0.298724,1
1.37537,-0.575263,-1.71471,-1.3275,2.40045,1.35378,-1.103,1.37537,-0.575263,-1.71471,-1.3275,2.40045,1.35378,-1.103,1.43332,-0.656359,-1.71687,-1.31034,2.32743,1.34159,-1.07269,-0.804088,1.09632,-0.299884,0.0577115,0.981279,0.498282,-0.320778,-0.804088,1.09632,-0.299884,0.0577115,0.981279,0.498282,-0.320778,0.358611,-0.383977,0.870759,0.682794,0.0265224,0.092649,0.724227,-0.361167,0.0595689,0.340231,1.7586,-0.401839,1.50881,-3.09455,0.181377,1.17269,-3.09455,0.181377,1.17269,-0.579533,0.810963,0.0215807,-0.171553,0.730191,0.121935,-0.303146,1
1.36972,-0.563514,-1.71064,-1.32659,2.40992,1.35322,-1.10822,1.36972,-0.563514,-1.71064,-1.32659,2.40992,1.35322,-1.10822,1.42524,-0.644848,-1.71838,-1.31217,2.3378,1.34555,-1.07645,-0.763717,1.08721,-0.143068,-0.172374,0.979896,0.373926,-0.355037,-0.763717,1.08721,-0.143068,-0.172374,0.979896,0.373926,-0.355037,0.355538,-0.382215,0.873907,0.686655,0.0242437,0.0924109,0.720679,-0.275006,0.160608,0.293599,1.72742,-0.400262,1.51971,-3.11847,0.157735,1.09,-3.11847,0.157735,1.09,-0.555223,0.813343,0.0773974,-0.14422,0.721146,0.076717,-0.317747,1
1.36383,-0.551893,-1.71085,-1.33012,2.41987,1.35765,-1.11068,1.36383,-0.551893,-1.71085,-1.33012,2.41987,1.35765,-1.11068,1.41709,-0.633365,-1.71885,-1.31416,2.34818,1.34836,-1.08097,-0.76937,1.08462,-0.0439763,-0.188357,0.980009,0.266193,-0.427533,-0.76937,1.08462,-0.0439763,-0.188357,0.980009,0.266193,-0.427533,0.352702,-0.38015,0.877171,0.690491,0.0222525,0.0922143,0.717094,-0.254338,0.190412,0.304427,1.69619,-0.398436,1.52935,-3.12266,0.182596,0.964582,-3.12266,0.182596,0.964582,-0.532658,0.814712,0.0800334,-0.159599,0.716895,0.09287,-0.297027,1
1.3588,-0.540368,-1.71534,-1.33679,2.4292,1.3691,-1.11629,1.3588,-0.540368,-1.71534,-1.33679,2.4292,1.3691,-1.11629,1.40878,-0.621787,-1.71802,-1.31682,2.35859,1.34944,-1.08536,-0.78519,1.09346,0.0778842,-0.250982,0.98368,0.10193,-0.414581,-0.78519,1.09346,0.0778842,-0.250982,0.98368,0.10193,-0.414581,0.350295,-0.377645,0.880458,0.693838,0.0209657,0.0922258,0.713894,-0.218292,0.234074,0.306687,1.66513,-0.396682,1.53794,-3.10566,0.175422,0.858438,-3.10566,0.175422,0.858438,-0.499813,0.814195,0.0268389,-0.199701,0.706107,0.196566,-0.309241,1
1.35582,-0.529238,-1.71968,-1.333,2.43968,1.38279,-1.11582,1.35582,-0.529238,-1.71968,-1.333,2.43968,1.38279,-1.11582,1.401,-0.610175,-1.71655,-1.31876,2.36882,1.3502,-1.08992,-0.735161,1.0967,0.138907,-0.183877,0.965908,0.0710279,-0.430196,-0.735161,1.0967,0.138907,-0.183877,0.965908,0.0710279,-0.430196,0.348051,-0.37479,0.884067,0.697047,0.0193674,0.0921895,0.71081,-0.200756,0.265764,0.336807,1.63424,-0.394669,1.54569,-3.08936,0.201303,0.775743,-3.08936,0.201303,0.775743,-0.451754,0.809378,-0.0313003,-0.142387,0.708603,0.325904,-0.258967,1
1.34983,-0.517784,-1.71921,-1.32761,2.45036,1.39216,-1.1179,1.34983,-0.517784,-1.71921,-1.32761,2.45036,1.39216,-1.1179,1.39359,-0.598562,-1.71542,-1.32103,2.37899,1.35168,-1.09405,-0.69951,1.09687,0.107425,-0.213713,0.960713,0.140318,-0.39067,-0.69951,1.09687,0.107425,-0.213713,0.960713,0.140318,-0.39067,0.345998,-0.371758,0.887427,0.699957,0.0176416,0.0921929,0.70799,-0.182204,0.280816,0.313394,1.6032,-0.392906,1.55267,-3.10401,0.176293,0.69809,-3.10401,0.176293,0.69809,-0.437601,0.807783,-0.0378935,-0.0658015,0.713728,0.404819,-0.238466,1
1.34029,-0.506055,-1.71535,-1.32918,2.4612,1.39369,-1.12117,1.34029,-0.506055,-1.71535,-1.32918,2.4612,1.39369,-1.12117,1.38666,-0.586966,-1.7154,-1.32417,2.389,1.35515,-1.09848,-0.654768,1.09521,0.00142538,-0.296614,0.944987,0.327825,-0.418422,-0.654768,1.09521,0.00142538,-0.296614,0.944987,0.327825,-0.418422,0.344121,-0.368611,0.890177,0.70286,0.0155552,0.0923075,0.705142,-0.164617,0.288117,0.256041,1.57237,-0.391285,1.55829,-3.08247,0.162107,0.561821,-3.08247,0.162107,0.561821,-0.463664,0.809109,0.000554924,-0.050148,0.721999,0.385348,-0.22688,1
1.32931,-0.494448,-1.71217,-1.33655,2.47204,1.38319,-1.12697,1.32931,-0.494448,-1.71217,-1.33655,2.47204,1.38319,-1.12697,1.38051,-0.575463,-1.71625,-1.32593,2.3991,1.36066,-1.10194,-0.580368,1.0865,-0.0806026,-0.166291,0.9539,0.520091,-0.326168,-0.580368,1.0865,-0.0806026,-0.166291,0.9539,0.520091,-0.326168,0.341917,-0.365571,0.893147,0.705647,0.0123162,0.0919208,0.702468,-0.186417,0.274332,0.276439,1.54168,-0.389508,1.56298,-3.06947,0.17764,0.468516,-3.06947,0.17764,0.468516,-0.511988,0.810147,0.0407976,-0.106256,0.729434,0.22531,-0.250293,1
1.32263,-0.482877,-1.71194,-1.33758,2.48185,1.3735,-1.13431,1.32263,-0.482877,-1.71194,-1.33758,2.48185,1.3735,-1.13431,1.3744,-0.56397,-1.71684,-1.32626,2.40931,1.36694,-1.10512,-0.577478,1.08557,-0.0555402,-0.0316001,0.96491,0.592944,-0.300441,-0.577478,1.08557,-0.0555402,-0.0316001,0.96491,0.592944,-0.300441,0.339296,-0.362551,0.896621,0.708541,0.0081703,0.0910752,0.69972,-0.218087,0.270549,0.323372,1.51101,-0.387867,1.56678,-3.06675,0.164148,0.37998,-3.06675,0.164148,0.37998,-0.517718,0.810924,0.0490124,-0.113158,0.725355,0.0655915,-0.291959,1
1.31806,-0.46946,-1.71169,-1.34605,2.49255,1.37991,-1.13582,1.31806,-0.46946,-1.71169,-1.34605,2.49255,1.37991,-1.13582,1.36645,-0.551209,-1.71621,-1.32762,2.42079,1.37116,-1.10893,-0.872814,1.33412,0.094867,-0.209991,1.20457,0.282683,-0.424022,-0.872814,1.33412,0.094867,-0.209991,1.20457,0.282683,-0.424022,0.336707,-0.359197,0.900306,0.711698,0.00496254,0.0904925,0.696615,-0.225682,0.334476,0.360762,1.48009,-0.386202,1.5696,-3.09246,0.166517,0.282025,-3.09246,0.166517,0.282025,-0.483909,0.817491,0.0451757,-0.184326,0.71757,0.0874422,-0.268955,1
1.31623,-0.459312,-1.70718,-1.34515,2.50431,1.37853,-1.13463,1.31623,-0.459312,-1.70718,-1.34515,2.50431,1.37853,-1.13463,1.35905,-0.539899,-1.71541,-1.3294,2.431,1.37356,-1.11252,-0.698895,1.06828,0.0759635,-0.168148,0.964545,0.226355,-0.33953,-0.698895,1.06828,0.0759635,-0.168148,0.964545,0.226355,-0.33953,0.334711,-0.356256,0.903336,0.714503,0.00293873,0.0902483,0.693781,-0.174188,0.27098,0.282546,1.44957,-0.384383,1.57152,-3.05134,0.181857,0.192332,-3.05134,0.181857,0.192332,-0.428195,0.805866,0.0822679,-0.157526,0.733047,0.049723,-0.221058,1
1.31019,-0.446076,-1.70896,-1.34296,2.5142,1.38942,-1.13561,1.31019,-0.446076,-1.70896,-1.34296,2.5142,1.38942,-1.13561,1.35131,-0.527125,-1.71469,-1.33192,2.44226,1.37422,-1.11702,-0.781604,1.3554,0.070435,-0.332154,1.18199,0.133652,-0.441875,-0.781604,1.3554,0.070435,-0.332154,1.18199,0.133652,-0.441875,0.333213,-0.352823,0.906429,0.71758,0.00179354,0.0905501,0.690562,-0.129737,0.383402,0.300569,1.4187,-0.382862,1.57223,-3.08778,0.152165,0.0712991,-3.08778,0.152165,0.0712991,-0.411153,0.810492,0.0572664,-0.110413,0.719406,0.152032,-0.185887,1
1.30881,-0.4342,-1.7063,-1.34313,2.52644,1.39744,-1.1337,1.30881,-0.4342,-1.7063,-1.34313,2.52644,1.39744,-1.1337,1.34449,-0.514568,-1.71362,-1.33464,2.45352,1.37521,-1.12064,-0.664307,1.29875,0.151331,-0.247046,1.19381,0.0780911,-0.328693,-0.664307,1.29875,0.151331,-0.247046,1.19381,0.0780911,-0.328693,0.332109,-0.349003,0.909382,0.719879,0.000568887,0.0907171,0.688145,-0.0955219,0.407594,0.321674,1.3881,-0.380942,1.57196,-3.0596,0.19193,-0.0271916,-3.0596,0.19193,-0.0271916,-0.35679,0.803674,0.0732029,-0.0849238,0.729227,0.222346,-0.130525,1
1.31057,-0.424356,-1.703,-1.35404,2.53671,1.40446,-1.14018,1.31057,-0.424356,-1.703,-1.35404,2.53671,1.40446,-1.14018,1.33886,-0.503557,-1.71234,-1.33674,2.46364,1.37587,-1.12343,-0.531935,1.03996,0.121176,-0.197819,0.955924,0.0625305,-0.263197,-0.531935,1.03996,0.121176,-0.197819,0.955924,0.0625305,-0.263197,0.331275,-0.345484,0.912076,0.721595,-0.000531962,0.0906974,0.686348,-0.0709233,0.328212,0.251156,1.35809,-0.379383,1.57094,-3.00071,0.155956,-0.102103,-3.00071,0.155956,-0.102103,-0.282859,0.792015,0.0933588,-0.173041,0.730745,0.285937,-0.167451,1
1.30165,-0.41276,-1.69842,-1.35697,2.548,1.39336,-1.13924,1.30165,-0.41276,-1.69842,-1.35697,2.548,1.39336,-1.13924,1.33315,-0.492103,-1.71166,-1.33798,2.47371,1.37857,-1.12586,-0.539501,1.08184,0.0634636,-0.117172,0.951633,0.255075,-0.229272,-0.539501,1.08184,0.0634636,-0.117172,0.951633,0.255075,-0.229272,0.329995,-0.341853,0.915021,0.723501,-0.00286046,0.0905158,0.684357,-0.105184,0.33283,0.27481,1.32786,-0.377359,1.56914,-3.02285,0.202394,-0.180387,-3.02285,0.202394,-0.180387,-0.315016,0.793437,0.13239,-0.189948,0.742827,0.147887,-0.13386,1
1.2875,-0.398936,-1.70918,-1.35063,2.55756,1.37706,-1.14774,1.2875,-0.398936,-1.70918,-1.35063,2.55756,1.37706,-1.14774,1.32848,-0.47953,-1.71025,-1.34015,2.4853,1.38307,-1.1281,-0.420966,1.29684,0.170359,-0.32645,1.20842,0.502859,-0.283801,-0.420966,1.29684,0.170359,-0.32645,1.20842,0.502859,-0.283801,0.329171,-0.33694,0.918034,0.724488,-0.00593797,0.0899073,0.683373,-0.0198827,0.53196,0.2737,1.29684,-0.375682,1.56634,-3.1023,0.167707,-0.279737,-3.1023,0.167707,-0.279737,-0.409883,0.805938,0.0106946,-0.104795,0.722609,-0.0600627,-0.196346,1
1.29147,-0.388212,-1.71158,-1.34274,2.56818,1.35914,-1.1385,1.29147,-0.388212,-1.71158,-1.34274,2.56818,1.35914,-1.1385,1.32491,-0.468536,-1.7088,-1.34292,2.49554,1.38733,-1.13051,-0.337083,1.03843,0.136413,-0.261401,0.96763,0.402658,-0.22725,-0.337083,1.03843,0.136413,-0.261401,0.96763,0.402658,-0.22725,0.328844,-0.332298,0.920322,0.725086,-0.00849375,0.0894096,0.682777,-0.0118973,0.426744,0.212106,1.26619,-0.374026,1.56233,-3.06553,0.16557,-0.400984,-3.06553,0.16557,-0.400984,-0.334443,0.803239,-0.0277678,0.00181053,0.726388,-0.281888,-0.0799675,1
1.29064,-0.374973,-1.69569,-1.34966,2.58068,1.35173,-1.12502,1.29064,-0.374973,-1.69569,-1.34966,2.58068,1.35173,-1.12502,1.31879,-0.455968,-1.70787,-1.34505,2.507,1.38682,-1.13314,-0.735565,1.3405,-0.0308382,-0.131124,1.18836,-0.229321,-0.343041,-0.735565,1.3405,-0.0308382,-0.131124,1.18836,-0.229321,-0.343041,0.328382,-0.328402,0.923053,0.726948,-0.0090119,0.0897199,0.680746,-0.0827929,0.32389,0.297874,1.23582,-0.372383,1.55737,-3.03651,0.164267,-0.495899,-3.03651,0.164267,-0.495899,-0.28154,0.80995,0.121736,-0.0461102,0.736795,-0.350896,0.0811619,1
1.28401,-0.364479,-1.69629,-1.37344,2.58833,1.33415,-1.13096,1.28401,-0.364479,-1.69629,-1.37344,2.58833,1.33415,-1.13096,1.31255,-0.444604,-1.70813,-1.34616,2.51708,1.38488,-1.13605,-0.588994,1.07339,-0.0246933,-0.104996,0.951561,-0.183626,-0.274685,-0.588994,1.07339,-0.0246933,-0.104996,0.951561,-0.183626,-0.274685,0.32778,-0.325638,0.92554,0.729549,-0.0088686,0.0903621,0.677875,-0.0611154,0.261057,0.233197,1.205,-0.370637,1.55152,-3.08224,0.174621,-0.585103,-3.08224,0.174621,-0.585103,-0.285397,0.801246,0.118422,-0.272785,0.712563,-0.507255,0.050842,1
1.29268,-0.35383,-1.71231,-1.37185,2.59847,1.32956,-1.12895,1.29268,-0.35383,-1.71231,-1.37185,2.59847,1.32956,-1.12895,1.30827,-0.431975,-1.70714,-1.34621,2.52857,1.37897,-1.13512,-0.414343,1.33973,0.269164,-0.0811768,1.22469,-0.640192,0.237292,-0.414343,1.33973,0.269164,-0.0811768,1.22469,-0.640192,0.237292,0.328323,-0.321663,0.928872,0.730047,-0.00755324,0.0911629,0.677247,0.0904673,0.504291,0.35006,1.17418,-0.368886,1.54468,-3.08226,0.17513,-0.683641,-3.08226,0.17513,-0.683641,-0.155866,0.781444,-0.0516712,-0.256413,0.698941,-0.494122,0.0616611,1
1.29189,-0.344305,-1.72574,-1.34359,2.60813,1.32951,-1.12282,1.29189,-0.344305,-1.72574,-1.34359,2.60813,1.32951,-1.12282,1.30475,-0.420617,-1.70486,-1.3469,2.53896,1.37354,-1.13311,-0.33178,1.07277,0.21553,-0.0650013,0.980652,-0.512626,0.190009,-0.33178,1.07277,0.21553,-0.0650013,0.980652,-0.512626,0.190009,0.329228,-0.31741,0.931792,0.729447,-0.00629641,0.0918541,0.677812,0.0771573,0.40625,0.273052,1.14315,-0.36761,1.53678,-3.10204,0.127614,-0.790465,-3.10204,0.127614,-0.790465,-0.128615,0.763121,-0.208776,0.0330722,0.691757,-0.440342,0.10284,1
1.2724,-0.332797,-1.72737,-1.34625,2.62027,1.31852,-1.11254,1.2724,-0.332797,-1.72737,-1.34625,2.62027,1.31852,-1.11254,1.30062,-0.409431,-1.70315,-1.35219,2.5488,1.36569,-1.13268,-0.390289,1.0565,0.161428,-0.499572,0.929242,-0.741334,0.0403505,-0.390289,1.0565,0.161428,-0.499572,0.929242,-0.741334,0.0403505,0.331499,-0.313478,0.932752,0.729025,-0.00198025,0.0940016,0.677999,0.1797,0.384489,0.089064,1.11208,-0.36602,1.52793,-3.10777,0.15893,-0.884593,-3.10777,0.15893,-0.884593,-0.28217,0.766339,-0.242148,0.0594264,0.714726,-0.471702,0.201432,1
1.27693,-0.320477,-1.72595,-1.35227,2.63028,1.30588,-1.11312,1.27693,-0.320477,-1.72595,-1.35227,2.63028,1.30588,-1.11312,1.29904,-0.398352,-1.70498,-1.35611,2.55869,1.35849,-1.13194,-0.149458,1.04639,-0.172359,-0.37007,0.934832,-0.680068,0.0701448,-0.149458,1.04639,-0.172359,-0.37007,0.934832,-0.680068,0.0701448,0.333918,-0.310118,0.933558,0.728898,0.00218945,0.0961032,0.67784,0.192751,0.330113,0.0765091,1.08127,-0.36462,1.51785,-3.08037,0.140074,-1.00781,-3.08037,0.140074,-1.00781,-0.221082,0.77875,-0.209715,0.0383622,0.715879,-0.526109,0.188147,1
1.29795,-0.310134,-1.72763,-1.36479,2.63691,1.3039,-1.13165,1.29795,-0.310134,-1.72763,-1.36479,2.63691,1.3039,-1.13165,1.29769,-0.388478,-1.70785,-1.35627,2.56764,1.35272,-1.1307,-0.136244,1.03823,-0.420437,0.298033,0.951821,-0.545599,0.185084,-0.136244,1.03823,-0.420437,0.298033,0.951821,-0.545599,0.185084,0.335074,-0.307731,0.935303,0.729493,0.00456107,0.0973294,0.677012,0.0136556,0.200444,0.285976,1.05029,-0.362741,1.5066,-3.09812,0.187913,-1.12542,-3.09812,0.187913,-1.12542,0.0026118,0.783448,-0.197802,-0.0851437,0.692745,-0.488248,-0.00952666,1
1.30003,-0.29871,-1.73317,-1.36222,2.64879,1.30525,-1.11318,1.30003,-0.29871,-1.73317,-1.36222,2.64879,1.30525,-1.11318,1.29313,-0.376088,-1.71159,-1.35491,2.57918,1.34458,-1.12714,-0.380659,1.30704,-0.337469,0.0619917,1.20114,-0.909484,0.329471,-0.380659,1.30704,-0.337469,0.0619917,1.20114,-0.909484,0.329471,0.33535,-0.305936,0.938037,0.730841,0.00762268,0.0985381,0.675355,0.0625774,0.262948,0.265841,1.01988,-0.360816,1.49468,-3.04096,0.192469,-1.19253,-3.04096,0.192469,-1.19253,0.0690165,0.773778,-0.21579,-0.0730951,0.696108,-0.393327,0.139637,1
1.28473,-0.286579,-1.7228,-1.37534,2.65987,1.28855,-1.10717,1.28473,-0.286579,-1.7228,-1.37534,2.65987,1.28855,-1.10717,1.2899,-0.365006,-1.71445,-1.35438,2.58936,1.33687,-1.12435,-0.304808,1.0466,-0.270224,0.0496391,0.961798,-0.728258,0.26382,-0.304808,1.0466,-0.270224,0.0496391,0.961798,-0.728258,0.26382,0.336153,-0.303828,0.940248,0.731633,0.0106526,0.0997942,0.674271,0.051459,0.212116,0.209822,0.989867,-0.358728,1.48173,-3.00155,0.208813,-1.29424,-3.00155,0.208813,-1.29424,-0.0517176,0.78427,-0.0834947,-0.209587,0.705065,-0.483126,0.17175,1
1.29135,-0.275052,-1.72985,-1.3639,2.66991,1.28306,-1.12249,1.29135,-0.275052,-1.72985,-1.3639,2.66991,1.28306,-1.12249,1.29172,-0.352871,-1.71766,-1.35618,2.60008,1.33044,-1.12386,0.195221,1.27297,-0.36452,-0.141775,1.14469,-0.592142,0.251086,0.195221,1.27297,-0.36452,-0.141775,1.14469,-0.592142,0.251086,0.338986,-0.299394,0.941715,0.731175,0.0135336,0.101526,0.674457,0.245028,0.465995,0.17088,0.959426,-0.357016,1.46787,-3.04415,0.171214,-1.38658,-3.04415,0.171214,-1.38658,-0.00373232,0.778189,-0.121844,-0.0771147,0.698228,-0.473841,0.0137251,1
1.30036,-0.268048,-1.74738,-1.36806,2.6804,1.28452,-1.13302,1.30036,-0.268048,-1.74738,-1.36806,2.6804,1.28452,-1.13302,1.29338,-0.342079,-1.72075,-1.35739,2.60979,1.32542,-1.12173,0.156321,1.01931,-0.291885,-0.113525,0.916596,-0.47415,0.201054,0.156321,1.01931,-0.291885,-0.113525,0.916596,-0.47415,0.201054,0.341259,-0.295495,0.943119,0.730311,0.015742,0.102811,0.675151,0.194364,0.374357,0.133782,0.929141,-0.355405,1.45298,-3.02851,0.161067,-1.48865,-3.02851,0.161067,-1.48865,0.0698369,0.740304,-0.266294,-0.106745,0.706112,-0.408954,-0.112828,1
1.27482,-0.258134,-1.74372,-1.35557,2.69137,1.27874,-1.10382,1.27482,-0.258134,-1.74372,-1.35557,2.69137,1.27874,-1.10382,1.29165,-0.33102,-1.72116,-1.36096,2.61977,1.31807,-1.11883,-0.162785,1.04449,-0.0385889,-0.33789,0.94246,-0.693786,0.273995,-0.162785,1.04449,-0.0385889,-0.33789,0.94246,-0.693786,0.273995,0.343707,-0.291738,0.943937,0.729172,0.0197271,0.104592,0.676003,0.199611,0.367518,0.078123,0.898792,-0.353937,1.43696,-3.03488,0.146821,-1.60156,-3.03488,0.146821,-1.60156,-0.168297,0.728854,-0.225598,0.0539459,0.716028,-0.393303,0.150077,1
1.2693,-0.245953,-1.74,-1.365,2.70343,1.26024,-1.09431,1.2693,-0.245953,-1.74,-1.365,2.70343,1.26024,-1.09431,1.29159,-0.319867,-1.72289,-1.36155,2.62976,1.3111,-1.11956,-0.00573662,1.05331,-0.16346,-0.0551814,0.943621,-0.65904,-0.0688306,-0.00573662,1.05331,-0.16346,-0.0551814,0.943621,-0.65904,-0.0688306,0.345752,-0.287919,0.945716,0.729564,0.0222389,0.10596,0.675289,0.170781,0.369666,0.169141,0.868922,-0.352278,1.41995,-2.98705,0.16582,-1.70125,-2.98705,0.16582,-1.70125,-0.222925,0.739143,-0.171086,-0.0345205,0.736738,-0.50854,0.252503,1
1.30014,-0.237726,-1.75058,-1.38098,2.71198,1.25648,-1.11133,1.30014,-0.237726,-1.75058,-1.38098,2.71198,1.25648,-1.11133,1.29334,-0.309542,-1.72777,-1.36285,2.63985,1.3058,-1.12224,0.165012,0.975236,-0.460905,-0.12257,0.953076,-0.500083,-0.253224,0.165012,0.975236,-0.460905,-0.12257,0.953076,-0.500083,-0.253224,0.347804,-0.284993,0.946656,0.730829,0.0248406,0.107069,0.673653,0.170354,0.287835,0.0910764,0.838132,-0.350814,1.40237,-3.07894,0.146493,-1.75872,-3.07894,0.146493,-1.75872,0.0680524,0.71816,-0.228063,-0.181348,0.721264,-0.49318,0.109103,1
1.30292,-0.230842,-1.76715,-1.37746,2.72169,1.26609,-1.13202,1.30292,-0.230842,-1.76715,-1.37746,2.72169,1.26609,-1.13202,1.28965,-0.299298,-1.73095,-1.3614,2.65012,1.30041,-1.11857,-0.348472,0.967487,-0.300161,0.136945,0.96962,-0.509225,0.346619,-0.348472,0.967487,-0.300161,0.136945,0.96962,-0.509225,0.346619,0.347766,-0.283435,0.948873,0.73168,0.0266704,0.107298,0.672621,-0.0150741,0.159246,0.209653,0.807914,-0.349256,1.38363,-3.02177,0.155789,-1.87312,-3.02177,0.155789,-1.87312,0.132698,0.684558,-0.361971,-0.16059,0.715777,-0.343195,-0.134456,1
1.2797,-0.222976,-1.76643,-1.34713,2.7328,1.26852,-1.10622,1.2797,-0.222976,-1.76643,-1.34713,2.7328,1.26852,-1.10622,1.28559,-0.288668,-1.73275,-1.36211,2.66074,1.29241,-1.11374,-0.383006,1.004,-0.170338,-0.0678351,1.00346,-0.755987,0.45662,-0.383006,1.004,-0.170338,-0.0678351,1.00346,-0.755987,0.45662,0.348718,-0.281484,0.95039,0.731526,0.0304509,0.108148,0.672492,0.064962,0.202656,0.144543,0.777793,-0.347669,1.36409,-3.01215,0.158623,-1.9546,-3.01215,0.158623,-1.9546,-0.0589545,0.656927,-0.336766,0.149878,0.720588,-0.238802,0.0751559,1
1.26821,-0.213454,-1.76969,-1.3597,2.74481,1.24886,-1.10249,1.26821,-0.213454,-1.76969,-1.3597,2.74481,1.24886,-1.10249,1.28849,-0.278518,-1.7363,-1.36587,2.67095,1.28525,-1.11326,0.27384,0.958785,-0.335477,-0.355084,0.96431,-0.676091,0.0452822,0.27384,0.958785,-0.335477,-0.355084,0.96431,-0.676091,0.0452822,0.352009,-0.277891,0.950361,0.730594,0.034879,0.109661,0.673045,0.275813,0.356777,0.000520668,0.747747,-0.346035,1.34351,-3.00463,0.163478,-2.05795,-3.00463,0.163478,-2.05795,-0.202801,0.65064,-0.333892,0.0617225,0.738567,-0.363839,0.107705,1
1.29601,-0.210573,-1.77987,-1.38214,2.75606,1.23831,-1.12154,1.29601,-0.210573,-1.77987,-1.38214,2.75606,1.23831,-1.12154,1.29137,-0.269018,-1.74245,-1.36818,2.68106,1.28143,-1.117,0.271501,0.897287,-0.58047,-0.217972,0.95505,-0.360562,-0.353067,0.271501,0.897287,-0.58047,-0.217972,0.95505,-0.360562,-0.353067,0.354039,-0.275393,0.950558,0.732086,0.0374296,0.110413,0.671162,0.170112,0.249278,0.0213718,0.717553,-0.344278,1.32193,-3.01933,0.175619,-2.15738,-3.01933,0.175619,-2.15738,0.0464429,0.584442,-0.374235,-0.139608,0.749998,-0.431168,-0.0453953,1
1.29844,-0.22327,-1.80003,-1.34922,2.76407,1.25665,-1.14195,1.29844,-0.22327,-1.80003,-1.34922,2.76407,1.25665,-1.14195,1.28904,-0.259843,-1.74723,-1.36399,2.69137,1.27886,-1.11485,-0.219625,0.866548,-0.451306,0.39627,0.973751,-0.242881,0.202778,-0.219625,0.866548,-0.451306,0.39627,0.973751,-0.242881,0.202778,0.352946,-0.274316,0.953525,0.733836,0.0370308,0.109306,0.669452,-0.0957159,0.110314,0.278121,0.687,-0.343143,1.29948,-3.05528,0.113535,-2.245,-3.05528,0.113535,-2.245,0.0940244,0.365734,-0.527996,0.147658,0.727011,-0.222129,-0.271014,1
1.26589,-0.242159,-1.8042,-1.34598,2.77691,1.25936,-1.11186,1.26589,-0.242159,-1.8042,-1.34598,2.77691,1.25936,-1.11186,1.28489,-0.250599,-1.7517,-1.36313,2.70202,1.27288,-1.11239,-0.392025,0.873093,-0.422819,0.0806399,1.00571,-0.564533,0.232658,-0.392025,0.873093,-0.422819,0.0806399,1.00571,-0.564533,0.232658,0.35265,-0.274043,0.955111,0.735521,0.0397648,0.109057,0.667483,-0.0426616,0.0468672,0.150773,0.657341,-0.341294,1.27583,-2.96593,0.184906,-2.36558,-2.96593,0.184906,-2.36558,-0.190038,0.0844097,-0.524924,0.171568,0.748879,-0.135238,0.00526633,1
1.30545,-0.221462,-1.81261,-1.35151,2.7846,1.28512,-1.13014,1.30545,-0.221462,-1.81261,-1.35151,2.7846,1.28512,-1.13014,1.28711,-0.242624,-1.75732,-1.36692,2.71279,1.26599,-1.11421,0.209289,0.753324,-0.530161,-0.357783,1.01713,-0.650608,-0.172203,0.209289,0.753324,-0.530161,-0.357783,1.01713,-0.650608,-0.172203,0.354949,-0.272843,0.954451,0.736217,0.0448796,0.109388,0.666336,0.184723,0.143321,-0.0587683,0.627049,-0.339646,1.25145,-3.02926,0.164843,-2.43835,-3.02926,0.164843,-2.43835,0.183464,0.211616,-0.552939,0.154133,0.718171,0.191262,-0.159331,1
1.33929,-0.299482,-1.82716,-1.36136,2.79491,1.31451,-1.16458,1.33929,-0.299482,-1.82716,-1.36136,2.79491,1.31451,-1.16458,1.28937,-0.238767,-1.76583,-1.36339,2.723,1.26413,-1.11974,0.213374,0.364259,-0.803842,0.33313,0.965217,-0.175933,-0.522119,0.213374,0.364259,-0.803842,0.33313,0.965217,-0.175933,-0.522119,0.353744,-0.274558,0.955939,0.739985,0.0455905,0.106452,0.66258,-0.103466,-0.13522,0.136747,0.59687,-0.338074,1.22591,-3.01781,0.157195,-2.55363,-3.01781,0.157195,-2.55363,0.499264,-0.60715,-0.613362,0.0203802,0.719012,0.503816,-0.448397,1
1.31716,-0.303926,-1.83583,-1.39215,2.80515,1.31614,-1.13218,1.31716,-0.303926,-1.83583,-1.39215,2.80515,1.31614,-1.13218,1.28469,-0.239443,-1.77347,-1.35992,2.73375,1.26318,-1.11817,-0.441888,-0.0638261,-0.722135,0.327817,1.01445,-0.0898315,0.148264,-0.441888,-0.0638261,-0.722135,0.327817,1.01445,-0.0898315,0.148264,0.34974,-0.281016,0.956774,0.743328,0.0477186,0.100884,0.659552,-0.361571,-0.559993,0.0700876,0.566465,-0.336401,1.19956,-3.04052,0.167269,-2.6348,-3.04052,0.167269,-2.6348,0.324733,-0.644831,-0.623579,-0.322253,0.714025,0.529575,-0.140144,1
1.3301,-0.297097,-1.84846,-1.40416,2.80681,1.31886,-1.16433,1.3301,-0.297097,-1.84846,-1.40416,2.80681,1.31886,-1.16433,1.28883,-0.23586,-1.78127,-1.35825,2.74388,1.26755,-1.12055,0.39083,0.338414,-0.736608,0.158389,0.957185,0.412928,-0.225377,0.39083,0.338414,-0.736608,0.158389,0.957185,0.412928,-0.225377,0.348605,-0.281345,0.957694,0.74492,0.0462071,0.0972826,0.658403,-0.078866,-0.0183652,0.0802978,0.535509,-0.335143,1.17221,-3.0956,0.125846,-2.73557,-3.0956,0.125846,-2.73557,0.412755,-0.612373,-0.671834,-0.459187,0.629341,0.51304,-0.437746,1
1.32595,-0.32338,-1.85835,-1.41536,2.80381,1.31511,-1.164,1.32595,-0.32338,-1.85835,-1.41536,2.80381,1.31511,-1.164,1.29888,-0.248538,-1.79042,-1.35887,2.75405,1.27691,-1.12933,0.949831,-1.19742,-0.863727,-0.0585266,0.96037,0.883843,-0.828555,0.949831,-1.19742,-0.863727,-0.0585266,0.96037,0.883843,-0.828555,0.346074,-0.289349,0.954731,0.746633,0.0473323,0.0869134,0.657834,-0.175211,-0.6911,-0.304935,0.505403,-0.333716,1.14362,-3.01061,0.142655,-2.85853,-3.01061,0.142655,-2.85853,0.270711,-0.748422,-0.679363,-0.564914,0.497643,0.381964,-0.346758,1
1.25791,-0.335095,-1.87,-1.43615,2.80339,1.3424,-1.15333,1.25791,-0.335095,-1.87,-1.43615,2.80339,1.3424,-1.15333,1.30252,-0.259574,-1.79947,-1.3655,2.76423,1.28473,-1.12989,0.344033,-1.04246,-0.854743,-0.626405,0.961758,0.738305,-0.053756,0.344033,-1.04246,-0.854743,-0.626405,0.961758,0.738305,-0.053756,0.343726,-0.298764,0.949382,0.746958,0.0521424,0.0781319,0.658202,-0.192683,-0.807694,-0.521301,0.475356,-0.331982,1.11442,-3.00471,0.173369,-2.91953,-3.00471,0.173369,-2.91953,-0.446155,-0.755201,-0.705303,-0.706504,0.391569,0.576724,-0.234363,1
1.26041,-0.334859,-1.87267,-1.44922,2.74186,1.35979,-1.17443,1.26041,-0.334859,-1.87267,-1.44922,2.74186,1.35979,-1.17443,1.30802,-0.267051,-1.80923,-1.3732,2.77271,1.29153,-1.13676,0.51902,-0.706213,-0.922024,-0.727747,0.801468,0.642352,-0.648064,0.51902,-0.706213,-0.922024,-0.727747,0.801468,0.642352,-0.648064,0.34298,-0.305515,0.944012,0.74894,0.0565353,0.0721988,0.656262,-0.0570729,-0.573014,-0.515448,0.445337,-0.330096,1.08403,-3.0019,0.188661,-3.03994,-3.0019,0.188661,-3.03994,-0.476137,-0.67808,-0.634402,-0.760213,-0.308564,0.682661,-0.376783,1
1.26671,-0.352047,-1.88414,-1.4577,2.72017,1.36702,-1.17972,1.26671,-0.352047,-1.88414,-1.4577,2.72017,1.36702,-1.17972,1.31159,-0.278276,-1.81902,-1.3816,2.77891,1.29622,-1.14218,0.337512,-1.0601,-0.924532,-0.793346,0.585234,0.443756,-0.512757,0.337512,-1.0601,-0.924532,-0.793346,0.585234,0.443756,-0.512757,0.341733,-0.314912,0.937344,0.750988,0.0631413,0.0661317,0.653955,-0.115038,-0.805795,-0.638132,0.415202,-0.328231,1.05267,-3.01345,0.186512,-3.1352,-3.01345,0.186512,-3.1352,-0.448867,-0.737714,-0.651202,-0.761011,-0.587388,0.707967,-0.375303,1
1.2357,-0.367289,-1.90061,-1.46565,2.73882,1.36312,-1.15913,1.2357,-0.367289,-1.90061,-1.46565,2.73882,1.36312,-1.15913,1.30116,-0.289573,-1.82946,-1.39385,2.77732,1.30725,-1.14663,-0.95782,-1.06439,-1.01563,-1.30155,-0.833412,1.23481,-0.653603,-0.95782,-1.06439,-1.01563,-1.30155,-0.833412,1.23481,-0.653603,0.336517,-0.327556,0.928903,0.757354,0.0679589,0.0629855,0.646397,-0.453282,-1.04204,-0.866128,0.385445,-0.326717,1.02004,-2.97578,0.151363,-3.26364,-2.97578,0.151363,-3.26364,-0.654566,-0.77716,-0.711509,-0.717996,-0.385019,0.558637,-0.125023,1
1.22488,-0.37698,-1.90737,-1.47958,2.72469,1.3839,-1.17065,1.22488,-0.37698,-1.90737,-1.47958,2.72469,1.3839,-1.17065,1.29304,-0.298597,-1.83807,-1.40488,2.77025,1.31772,-1.15217,-0.766962,-0.852293,-0.81325,-1.0422,-0.667344,0.98876,-0.523364,-0.766962,-0.852293,-0.81325,-1.0422,-0.667344,0.98876,-0.523364,0.332758,-0.336548,0.921481,0.763084,0.0707482,0.0632455,0.639295,-0.377807,-0.8179,-0.701327,0.355575,-0.325376,0.987611,-2.98696,0.134131,-3.24263,-2.98696,0.134131,-3.24263,-0.68161,-0.783835,-0.69301,-0.747005,-0.455657,0.661722,-0.184848,1
1.21472,-0.264181,-1.89492,-1.35273,2.72262,1.37296,-1.16644,1.21472,-0.264181,-1.89492,-1.35273,2.72262,1.37296,-1.16644,1.28779,-0.309247,-1.84725,-1.41541,2.76027,1.32755,-1.15766,-0.495559,-1.00593,-0.867041,-0.994115,-0.942498,0.927788,-0.518467,-0.495559,-1.00593,-0.867041,-0.994115,-0.942498,0.927788,-0.518467,0.329725,-0.345194,0.913667,0.76802,0.0737079,0.0643566,0.632907,-0.312723,-0.78896,-0.738344,0.339022,-0.324182,0.989201,-1.65534,0.119409,0.159037,-1.65534,0.119409,0.159037,-0.730678,0.45066,-0.476718,0.626773,-0.376516,0.454086,-0.0878599,1
1.19469,-0.263343,-1.89238,-1.35604,2.81559,1.35107,-1.14162,1.19469,-0.263343,-1.89238,-1.35604,2.81559,1.35107,-1.14162,1.27741,-0.320813,-1.85788,-1.42542,2.756,1.33463,-1.15795,-0.980317,-1.09234,-1.00424,-0.945502,-0.403822,0.669457,-0.0276947,-0.980317,-1.09234,-1.00424,-0.945502,-0.403822,0.669457,-0.0276947,0.324094,-0.357394,0.905533,0.773007,0.0794011,0.0623582,0.626312,-0.558546,-1.08699,-0.769713,0.328222,-0.32369,1.01003,-1.08001,0.0491649,2.08326,-1.08001,0.0491649,2.08326,-0.827191,0.574702,-0.345031,0.693774,0.595901,0.164385,0.163318,1
1.18122,-0.279053,-1.93005,-1.37315,2.80055,1.33192,-1.14549,1.18122,-0.279053,-1.93005,-1.37315,2.80055,1.33192,-1.14549,1.26694,-0.332005,-1.86774,-1.43621,2.74976,1.34445,-1.16048,-0.988701,-1.05707,-0.931365,-1.01937,-0.58927,0.927088,-0.239052,-0.988701,-1.05707,-0.931365,-1.01937,-0.58927,0.927088,-0.239052,0.318375,-0.368354,0.897199,0.778386,0.0836087,0.0612124,0.619175,-0.562535,-0.982795,-0.787952,0.31764,-0.323216,1.03058,-1.05811,0.0473529,2.05474,-1.05811,0.0473529,2.05474,-0.857209,0.529521,-0.623138,0.630604,0.507877,-0.125293,0.149889,1
1.17467,-0.249963,-1.93218,-1.3671,2.82542,1.38048,-1.14207,1.17467,-0.249963,-1.93218,-1.3671,2.82542,1.38048,-1.14207,1.25443,-0.318402,-1.87289,-1.41992,2.75413,1.34783,-1.15906,-1.40406,1.29408,-0.458152,1.50148,1.44451,0.0762399,0.409903,-1.40406,1.29408,-0.458152,1.50148,1.44451,0.0762399,0.409903,0.310789,-0.367157,0.906822,0.785845,0.0727499,0.0617085,0.611021,-0.781683,-0.101503,0.89004,0.307354,-0.322577,1.04976,-1.02861,0.06392,1.91816,-1.02861,0.06392,1.91816,-0.797579,0.684386,-0.592901,0.52826,0.712974,0.326465,0.169831,1
1.16149,-0.249974,-1.93041,-1.36004,2.83951,1.38903,-1.13073,1.16149,-0.249974,-1.93041,-1.36004,2.83951,1.38903,-1.13073,1.24111,-0.309083,-1.88074,-1.40899,2.76479,1.34646,-1.15599,-1.40758,0.705805,-1.15916,0.842441,0.840331,-0.341746,0.246749,-1.40758,0.705805,-1.15916,0.842441,0.840331,-0.341746,0.246749,0.302818,-0.37039,0.912762,0.79249,0.0689422,0.0589318,0.603104,-0.817224,-0.563873,0.378262,0.296503,-0.321929,1.06816,-1.08514,0.0648022,1.83989,-1.08514,0.0648022,1.83989,-0.796262,0.591084,-0.496727,0.489522,0.747198,0.425656,0.252607,1
1.14579,-0.22735,-1.94605,-1.35106,2.84168,1.35745,-1.14147,1.14579,-0.22735,-1.94605,-1.35106,2.84168,1.35745,-1.14147,1.22849,-0.30004,-1.89079,-1.40121,2.77453,1.34867,-1.15354,-1.26484,1.17696,-0.97288,0.801861,1.19613,0.747534,0.269442,-1.26484,1.17696,-0.97288,0.801861,1.19613,0.747534,0.269442,0.294892,-0.373551,0.917193,0.799255,0.06494,0.056724,0.594775,-0.775344,-0.141596,0.533218,0.286235,-0.32111,1.08555,-1.02676,0.0819415,1.73857,-1.02676,0.0819415,1.73857,-0.826965,0.726895,-0.55262,0.501521,0.671512,0.0878191,0.120658,1
1.13382,-0.218965,-1.95878,-1.34076,2.8514,1.3492,-1.14638,1.13382,-0.218965,-1.95878,-1.34076,2.84842,1.3492,-1.14638,1.21638,-0.290063,-1.89885,-1.39367,2.78616,1.35591,-1.15006,-1.29018,0.942205,-0.741763,0.790489,1.25406,0.778427,0.454365,-1.29018,0.942205,-0.741763,0.790489,1.25406,0.778427,0.454365,0.286905,-0.374774,0.922174,0.804913,0.0581191,0.0534641,0.588114,-0.785682,-0.166636,0.497441,0.27581,-0.320395,1.10168,-1.04252,0.0714332,1.61343,-1.04252,0.0714332,1.61343,-0.825603,0.710975,-0.599294,0.529182,0.652432,-0.0670305,0.0368529,1
1.12263,-0.214928,-1.96838,-1.32984,2.86091,1.36892,-1.14779,1.12263,-0.214928,-1.96838,-1.32984,2.84842,1.36892,-1.14779,1.20544,-0.282075,-1.90514,-1.38697,2.79679,1.36251,-1.14621,-1.0331,0.754459,-0.593957,0.632974,1.00418,0.623316,0.363827,-1.0331,0.754459,-0.593957,0.632974,1.00418,0.623316,0.363827,0.279685,-0.375872,0.926479,0.809398,0.052011,0.0500847,0.582805,-0.629578,-0.114228,0.397975,0.264028,-0.319457,1.11733,-1.17819,0.0938654,1.56455,-1.17819,0.0938654,1.56455,-0.828076,0.671468,-0.63242,0.571361,0.641213,0.0641406,-0.0157632,1
1.11428,-0.208129,-1.97278,-1.34441,2.88148,1.39599,-1.11219,1.11428,-0.208129,-1.97278,-1.34441,2.84842,1.39599,-1.11219,1.1923,-0.270288,-1.91463,-1.37873,2.80644,1.36063,-1.14578,-1.37441,1.20626,-1.03767,0.892585,0.986533,-0.268596,-0.0139849,-1.37441,1.20626,-1.03767,0.892585,0.986533,-0.268596,-0.0139849,0.272573,-0.377083,0.931832,0.8164,0.0484895,0.0496879,0.573298,-0.73411,-0.159471,0.557973,0.253361,-0.318882,1.13123,-1.06676,0.0574708,1.39025,-1.06676,0.0574708,1.39025,-0.780194,0.621593,-0.581556,0.343198,0.75035,0.353549,0.335883,1
1.09804,-0.198662,-1.98001,-1.32394,2.88818,1.3957,-1.11057,1.09804,-0.198662,-1.98001,-1.32394,2.84842,1.3957,-1.11057,1.17947,-0.259637,-1.92443,-1.37002,2.81481,1.36043,-1.14605,-1.33579,1.05081,-1.03283,0.944386,0.789954,0.199599,-0.0408405,-1.33579,1.05081,-1.03283,0.944386,0.789954,0.199599,-0.0408405,0.265102,-0.378258,0.93711,0.82352,0.0440143,0.0493227,0.563423,-0.785635,-0.136543,0.548347,0.242622,-0.317889,1.14446,-1.07384,0.0993431,1.32327,-1.07384,0.0993431,1.32327,-0.814263,0.609754,-0.555724,0.460781,0.733742,0.352704,0.354821,1
1.08425,-0.184101,-1.99387,-1.31276,2.88561,1.37023,-1.14225,1.08425,-0.184101,-1.99387,-1.31276,2.84842,1.37023,-1.14225,1.16726,-0.250013,-1.93365,-1.36354,2.8215,1.36497,-1.14265,-1.24543,0.98446,-0.919699,0.44965,0.632576,0.729111,0.715905,-1.24543,0.98446,-0.919699,0.44965,0.632576,0.729111,0.715905,0.257898,-0.378751,0.941369,0.828983,0.0382836,0.0491589,0.555792,-0.677773,-0.0485334,0.352302,0.232137,-0.316826,1.15657,-1.04855,0.106257,1.21114,-1.04855,0.106257,1.21114,-0.830132,0.65912,-0.602183,0.507858,0.641099,0.0526272,0.00400792,1
1.07274,-0.175265,-2.00619,-1.30566,2.89006,1.37476,-1.13153,1.07274,-0.175265,-2.00619,-1.30566,2.84842,1.37476,-1.13153,1.155,-0.240672,-1.94221,-1.35758,2.82687,1.37112,-1.13641,-1.33874,0.987421,-0.888377,0.790673,0.506527,0.577764,0.607473,-1.33874,0.987421,-0.888377,0.790673,0.506527,0.577764,0.607473,0.250877,-0.378656,0.945428,0.833378,0.0318724,0.049491,0.549559,-0.739891,-0.0232557,0.489118,0.221925,-0.316032,1.16809,-1.02121,0.0793517,1.15156,-1.02121,0.0793517,1.15156,-0.822531,0.654061,-0.639822,0.519145,0.631989,0.0363811,0.0487679,1
1.06298,-0.173371,-2.01398,-1.32011,2.90401,1.40515,-1.09309,1.06298,-0.173371,-2.01398,-1.32011,2.84842,1.40515,-1.09309,1.1422,-0.230769,-1.9512,-1.3497,2.83116,1.37334,-1.13459,-1.36203,1.09691,-1.00299,0.868295,0.405595,-0.0730475,-0.179985,-1.36203,1.09691,-1.00299,0.868295,0.405595,-0.0730475,-0.179985,0.243907,-0.378477,0.950286,0.839299,0.0261612,0.0508951,0.54065,-0.69875,-0.0279902,0.531045,0.21118,-0.315775,1.17809,-1.07443,0.0257134,1.00023,-1.07443,0.0257134,1.00023,-0.792231,0.573987,-0.627809,0.295937,0.728479,0.318152,0.414983,1
1.05245,-0.168286,-2.01819,-1.30718,2.90746,1.41192,-1.09687,1.05245,-0.168286,-2.01819,-1.30718,2.84842,1.41192,-1.09687,1.13065,-0.22147,-1.9597,-1.34234,2.8346,1.37272,-1.13612,-1.09063,0.878336,-0.803129,0.695276,0.324775,-0.0584919,-0.144121,-1.09063,0.878336,-0.803129,0.695276,0.324775,-0.0584919,-0.144121,0.237951,-0.378272,0.954796,0.845482,0.0219773,0.0528117,0.530931,-0.556459,-0.00337249,0.426669,0.200274,-0.315411,1.18789,-1.09062,0.0364721,0.980306,-1.09062,0.0364721,0.980306,-0.782008,0.531842,-0.584916,0.351594,0.728668,0.391975,0.392478,1
1.04632,-0.15907,-2.02156,-1.32385,2.91092,1.40838,-1.10765,1.04632,-0.15907,-2.02156,-1.32385,2.84842,1.40838,-1.10765,1.11911,-0.212263,-1.96897,-1.33503,2.83735,1.37312,-1.1352,-1.08985,0.869611,-0.874978,0.690243,0.26006,0.0383514,0.0862871,-1.08985,0.869611,-0.874978,0.690243,0.26006,0.0383514,0.0862871,0.23182,-0.377924,0.95921,0.851074,0.0174058,0.0550292,0.521864,-0.573985,0.00604939,0.418108,0.190124,-0.315064,1.19643,-1.01498,0.0346333,0.853813,-1.01498,0.0346333,0.853813,-0.727917,0.531933,-0.525975,0.11177,0.735639,0.352591,0.275503,1
1.02814,-0.150995,-2.03648,-1.29195,2.89744,1.38194,-1.16621,1.02814,-0.150995,-2.03648,-1.29195,2.84842,1.38194,-1.16621,1.10793,-0.204513,-1.97794,-1.33206,2.83956,1.37951,-1.12681,-1.05656,0.731992,-0.847208,0.280898,0.20824,0.602801,0.792558,-1.05656,0.731992,-0.847208,0.280898,0.20824,0.602801,0.792558,0.225884,-0.377689,0.961625,0.854117,0.0124414,0.0569306,0.516806,-0.552319,-0.0112167,0.229077,0.179694,-0.314159,1.20399,-1.04303,0.0905693,0.755727,-1.04303,0.0905693,0.755727,-0.79782,0.535181,-0.585397,0.401073,0.578874,0.0243686,-0.39399,1
1.01717,-0.149975,-2.05466,-1.27442,2.89723,1.37076,-1.14697,1.01717,-0.149975,-2.05466,-1.27442,2.84842,1.37076,-1.14697,1.09687,-0.197295,-1.98596,-1.3271,2.84132,1.38596,-1.12085,-1.0441,0.681832,-0.757694,0.468217,0.166745,0.609973,0.563555,-1.0441,0.681832,-0.757694,0.468217,0.166745,0.609973,0.563555,0.219795,-0.376991,0.964758,0.857585,0.00641803,0.0587723,0.510932,-0.561672,0.0261905,0.296578,0.168895,-0.313675,1.21055,-1.07988,0.0483364,0.65614,-1.07988,0.0483364,0.65614,-0.796989,0.473197,-0.686979,0.526752,0.559116,-0.152029,-0.261201,1
1.00444,-0.132286,-2.06109,-1.26702,2.90335,1.39587,-1.09976,1.00444,-0.132286,-2.06109,-1.26702,2.84842,1.39587,-1.09976,1.0868,-0.189678,-1.99305,-1.32645,2.84274,1.39043,-1.11822,-0.95142,0.719422,-0.670137,0.0610922,0.133519,0.421947,0.248297,-0.95142,0.719422,-0.670137,0.0610922,0.133519,0.421947,0.248297,0.215576,-0.376293,0.966336,0.861083,0.00310444,0.0613928,0.504735,-0.403368,0.0383547,0.151531,0.15859,-0.313071,1.21568,-1.03051,0.060463,0.512969,-1.03051,0.060463,0.512969,-0.823575,0.573914,-0.6804,0.594359,0.606153,0.0544192,0.18458,1
0.996594,-0.137107,-2.06312,-1.3015,2.9198,1.40552,-1.08214,0.996594,-0.137107,-2.06312,-1.3015,2.84842,1.40552,-1.08214,1.07511,-0.18197,-2.00171,-1.31958,2.84387,1.38874,-1.12778,-1.10393,0.728038,-0.817253,0.649381,0.106914,-0.159759,-0.903295,-1.10393,0.728038,-0.817253,0.649381,0.106914,-0.159759,-0.903295,0.209829,-0.376145,0.970254,0.86876,-0.000353788,0.0641546,0.491061,-0.550574,-0.00651418,0.373428,0.147223,-0.312279,1.22054,-1.13676,0.079143,0.485873,-1.13676,0.079143,0.485873,-0.785175,0.448624,-0.61413,0.180759,0.759331,0.167828,0.456441,1
0.991245,-0.127232,-2.05871,-1.30002,2.92136,1.40373,-1.09789,0.991245,-0.127232,-2.05871,-1.30002,2.84842,1.40373,-1.09789,1.06357,-0.175594,-2.01226,-1.31058,2.84477,1.38516,-1.1316,-1.09045,0.602172,-0.996571,0.849823,0.0856098,-0.338375,-0.361085,-1.09045,0.602172,-0.996571,0.849823,0.0856098,-0.338375,-0.361085,0.203055,-0.376931,0.974576,0.875399,-0.00319783,0.0665095,0.478792,-0.648935,-0.0868574,0.412006,0.136427,-0.311417,1.22401,-1.07954,0.0862509,0.346899,-1.07954,0.0862509,0.346899,-0.723218,0.483628,-0.464562,0.105591,0.76586,0.185681,0.337109,1
0.981345,-0.122729,-2.08388,-1.28783,2.90771,1.40541,-1.16279,0.981345,-0.122729,-2.08388,-1.28783,2.84842,1.40541,-1.16279,1.05179,-0.166965,-2.02199,-1.3019,2.8455,1.38729,-1.12526,-1.11278,0.815095,-0.919143,0.819899,0.068551,0.201681,0.599339,-1.11278,0.815095,-0.919143,0.819899,0.068551,0.201681,0.599339,0.196736,-0.375285,0.97935,0.879168,-0.00909222,0.0698041,0.471284,-0.596196,0.114806,0.455075,0.125692,-0.310935,1.22644,-1.07356,0.0481695,0.243378,-1.07356,0.0481695,0.243378,-0.704408,0.442362,-0.618886,0.14065,0.622132,0.181218,-0.37528,1
0.967595,-0.169548,-2.09499,-1.2728,2.90169,1.38435,-1.16615,0.967595,-0.169548,-2.09499,-1.2728,2.84842,1.38435,-1.16615,1.04079,-0.161015,-2.03018,-1.30182,2.84608,1.39093,-1.11667,-1.03875,0.56194,-0.774115,0.00749159,0.0548914,0.343103,0.811585,-1.03875,0.56194,-0.774115,0.00749159,0.0548914,0.343103,0.811585,0.191809,-0.37563,0.980264,0.881382,-0.010943,0.0724544,0.466686,-0.479058,-0.0493718,0.090289,0.114822,-0.309728,1.22785,-1.08693,0.12067,0.140512,-1.08693,0.12067,0.140512,-0.731927,-0.0853268,-0.648079,0.290182,0.55608,-0.0657904,-0.494826,1
0.954541,-0.109875,-2.09684,-1.26762,2.92216,1.406,-1.07679,0.954541,-0.109875,-2.09684,-1.26762,2.84842,1.406,-1.07679,1.02987,-0.15381,-2.03852,-1.30018,2.84655,1.39365,-1.11975,-1.14061,0.730515,-1.06615,0.290161,0.0439515,0.276423,-1.01151,-1.14061,0.730515,-1.06615,0.290161,0.0439515,0.276423,-1.01151,0.187119,-0.375058,0.982066,0.886313,-0.013833,0.0756172,0.456662,-0.588237,-0.00515274,0.223811,0.104535,-0.308913,1.22847,-1.02873,0.0815034,0.0626564,-1.02873,0.0815034,0.0626564,-0.753334,0.439346,-0.583291,0.325649,0.756149,0.123491,0.429646,1
0.937879,-0.13757,-2.11055,-1.26025,2.91651,1.41831,-1.08258,0.937879,-0.13757,-2.11055,-1.26025,2.84842,1.41831,-1.08258,1.0202,-0.147617,-2.04755,-1.29772,2.84692,1.396,-1.12833,-0.913332,0.58495,-0.853703,0.232343,0.0351936,0.221342,-0.809955,-0.913332,0.58495,-0.853703,0.232343,0.0351936,0.221342,-0.809955,0.182293,-0.374778,0.983925,0.892281,-0.0168621,0.0783712,0.444307,-0.469347,0.00611058,0.180482,0.0943977,-0.30828,1.22784,-1.01373,0.0633031,-0.0637889,-1.01373,0.0633031,-0.0637889,-0.823259,0.100462,-0.629944,0.374713,0.695879,0.223163,0.457419,1
0.937845,-0.0939637,-2.12235,-1.26042,2.8972,1.40879,-1.17777,0.937845,-0.0939637,-2.12235,-1.26042,2.84842,1.40879,-1.17777,1.00835,-0.145711,-2.0572,-1.29221,2.84722,1.39595,-1.12647,-1.26465,0.842267,-0.931738,0.578044,0.0281808,0.236202,1.16763,-1.26465,0.842267,-0.931738,0.578044,0.0281808,0.236202,1.16763,0.174709,-0.377037,0.985984,0.896704,-0.0185126,0.0794207,0.435053,-0.594195,0.129518,0.370816,0.083038,-0.308343,1.2266,-1.13598,-0.00626743,-0.123239,-1.13598,-0.00626743,-0.123239,-0.705039,0.517478,-0.651495,0.317877,0.499783,0.128383,-0.513034,1
0.93344,-0.182122,-2.13623,-1.25262,2.89546,1.42815,-1.17067,0.93344,-0.182122,-2.13623,-1.25262,2.84842,1.42815,-1.17067,0.997627,-0.138571,-2.0651,-1.28731,2.84746,1.39796,-1.11657,-1.01265,0.674434,-0.746078,0.462861,0.0225654,0.189136,0.934966,-1.01265,0.674434,-0.746078,0.462861,0.0225654,0.189136,0.934966,0.16985,-0.37549,0.989067,0.898456,-0.0221456,0.0827757,0.430621,-0.469792,0.115967,0.296788,0.0729872,-0.307862,1.22452,-1.00508,0.0481248,-0.20839,-1.00508,0.0481248,-0.20839,-0.641867,-0.435512,-0.71132,0.346914,0.48001,0.301964,-0.541052,1
0.909688,-0.123883,-2.14129,-1.23627,2.90117,1.42613,-1.1552,0.909688,-0.123883,-2.14129,-1.23627,2.84842,1.42613,-1.1552,0.985721,-0.138371,-2.07416,-1.28192,2.84765,1.40201,-1.10979,-1.12446,0.0188254,-0.855322,0.509266,0.018069,0.383136,0.639538,-1.12446,0.0188254,-0.855322,0.509266,0.018069,0.383136,0.639538,0.161569,-0.377603,0.990705,0.901497,-0.0251748,0.083334,0.42394,-0.780148,-0.210987,0.156374,0.0628747,-0.307534,1.22125,-1.01124,0.0327617,-0.327313,-1.01124,0.0327617,-0.327313,-0.760331,0.144887,-0.671364,0.456517,0.535261,0.241168,-0.454055,1
0.893988,-0.150844,-2.14888,-1.22893,2.91402,1.37919,-1.10657,0.893988,-0.150844,-2.14888,-1.22893,2.84842,1.37919,-1.10657,0.975718,-0.138793,-2.08522,-1.27681,2.8478,1.4054,-1.12259,-0.993669,-1.01836,-1.19897,0.568672,0.0144685,0.53477,-1.13,-0.993669,-1.01836,-1.19897,0.568672,0.0144685,0.53477,-1.13,0.15326,-0.380131,0.991995,0.908554,-0.0282587,0.083542,0.408352,-1.20872,-0.73537,-0.0840896,0.0518037,-0.306933,1.21724,-1.1071,0.0600845,-0.40096,-1.1071,0.0600845,-0.40096,-0.817301,-0.120507,-0.636598,0.478791,0.662185,-0.262133,0.16027,1
0.881655,-0.113502,-2.16306,-1.23366,2.91371,1.3989,-1.10235,0.881655,-0.113502,-2.16306,-1.23366,2.84842,1.3989,-1.10235,0.964796,-0.141303,-2.09592,-1.27027,2.84792,1.40972,-1.13055,-1.29521,0.409426,-1.06649,0.799276,0.0115855,0.385661,-0.579449,-1.29521,0.409426,-1.06649,0.799276,0.0115855,0.385661,-0.579449,0.143645,-0.383197,0.993336,0.914572,-0.0317544,0.0829894,0.39454,-0.820321,0.0105392,0.348343,0.0410806,-0.306444,1.21154,-1.07231,0.0488997,-0.569689,-1.07231,0.0488997,-0.569689,-0.831411,0.278002,-0.671449,0.366169,0.657828,-0.108187,0.281938,1
0.871578,-0.1643,-2.17465,-1.22409,2.91343,1.39666,-1.1246,0.871578,-0.1643,-2.17465,-1.22409,2.84842,1.39666,-1.1246,0.953815,-0.137831,-2.10496,-1.2635,2.84802,1.41299,-1.13546,-1.03712,0.327843,-0.853977,0.64001,0.00927693,0.308814,-0.463986,-1.03712,0.327843,-0.853977,0.64001,0.00927693,0.308814,-0.463986,0.136782,-0.382649,0.996231,0.919298,-0.0364511,0.084987,0.382544,-0.652825,0.0251302,0.278758,0.0305489,-0.305727,1.20542,-1.05317,0.0716984,-0.612175,-1.05317,0.0716984,-0.612175,-0.822367,-0.264683,-0.696921,0.394079,0.654127,-0.163283,0.108579,1
0.891733,-0.125953,-2.1654,-1.27442,2.91879,1.41402,-1.17897,0.891733,-0.125953,-2.1654,-1.27442,2.84842,1.41402,-1.17897,0.941894,-0.140424,-2.11371,-1.25661,2.8481,1.40625,-1.1297,-1.12594,-0.244897,-0.826593,0.650454,0.00742838,-0.63619,0.543762,-1.12594,-0.244897,-0.826593,0.650454,0.00742838,-0.63619,0.543762,0.12791,-0.386793,0.997888,0.922566,-0.0341601,0.0844409,0.374934,-0.849683,-0.35862,0.153524,0.0192306,-0.305014,1.19856,-1.13183,0.0713587,-0.685453,-1.13183,0.0713587,-0.685453,-0.501606,0.144713,-0.516873,-0.17815,0.706946,0.0776337,-0.492695,1
0.879531,-0.179622,-2.19225,-1.23766,2.91064,1.44927,-1.17722,0.879531,-0.179622,-2.19225,-1.23766,2.84842,1.44927,-1.17722,0.92989,-0.13506,-2.12354,-1.25204,2.84816,1.40479,-1.12425,-1.13369,0.50667,-0.92879,0.431988,0.00594818,-0.138373,0.514707,-1.13369,0.50667,-0.92879,0.431988,0.00594818,-0.138373,0.514707,0.121757,-0.386404,1.00045,0.925492,-0.0353371,0.0874667,0.366831,-0.603544,0.0310289,0.247363,0.00860072,-0.304541,1.19046,-1.06299,0.0472844,-0.810528,-1.06299,0.0472844,-0.810528,-0.503593,-0.445623,-0.687062,0.143727,0.624767,0.444849,-0.529653,1
0.877651,-0.154882,-2.18082,-1.28567,2.92229,1.40675,-1.15093,0.877651,-0.154882,-2.18082,-1.28567,2.84842,1.40675,-1.15093,0.918271,-0.140886,-2.13373,-1.24647,2.84821,1.40317,-1.12432,-1.09743,-0.550293,-0.961823,0.525967,0.00476293,-0.152956,-0.00657043,-1.09743,-0.550293,-0.961823,0.525967,0.00476293,-0.152956,-0.00657043,0.111064,-0.391553,1.00069,0.929796,-0.0342075,0.0856929,0.356323,-1.0107,-0.454836,0.0171935,-0.00228165,-0.303778,1.18125,-1.08824,0.0763118,-0.920498,-1.08824,0.0763118,-0.920498,-0.406196,-0.13996,-0.470943,-0.392028,0.740798,0.0357555,-0.266074,1
0.851086,-0.160243,-2.20403,-1.20829,2.92002,1.36266,-1.09411,0.851086,-0.160243,-2.20403,-1.20829,2.84842,1.36266,-1.09411,0.912983,-0.137911,-2.14004,-1.25204,2.84825,1.40533,-1.13521,-0.499442,0.281042,-0.596021,-0.526162,0.00381386,0.204158,-1.0285,-0.499442,0.281042,-0.596021,-0.526162,0.00381386,0.204158,-1.0285,0.108807,-0.392547,0.999021,0.933417,-0.0329373,0.0872057,0.346473,-0.235572,-0.0812862,-0.15606,-0.0126161,-0.302332,1.17045,-1.03345,0.144568,-1.08001,-1.03345,0.144568,-1.08001,-0.618972,-0.22332,-0.639924,0.437461,0.717711,-0.426736,0.411053,1
0.828805,-0.102307,-2.20567,-1.21864,2.91522,1.36283,-1.13208,0.828805,-0.102307,-2.20567,-1.21864,2.84842,1.36283,-1.13208,0.90612,-0.143621,-2.14924,-1.25422,2.84829,1.40961,-1.14082,-0.669096,-0.264689,-0.742273,-0.739127,0.0030539,-0.0674499,-0.237666,-0.669096,-0.264689,-0.742273,-0.739127,0.0030539,-0.0674499,-0.237666,0.100934,-0.397512,0.996315,0.937115,-0.0314947,0.0854393,0.336933,-0.529844,-0.449151,-0.381123,-0.0231109,-0.3017,1.15946,-1.04948,0.0632167,-1.09928,-1.04948,0.0632167,-1.09928,-0.773145,0.413137,-0.564321,0.355824,0.669322,-0.467868,0.0873797,1
0.886958,-0.18403,-2.2249,-1.2894,2.91659,1.44191,-1.19149,0.886958,-0.18403,-2.2249,-1.2894,2.84842,1.44191,-1.19149,0.897653,-0.146428,-2.15797,-1.25235,2.84831,1.40441,-1.13686,-1.09454,-0.324698,-1.08253,1.03559,0.00244549,-0.98129,1.00482,-1.09454,-0.324698,-1.08253,1.03559,0.00244549,-0.98129,1.00482,0.0935963,-0.401559,0.995963,0.939584,-0.0276561,0.0846828,0.330525,-1.01064,-0.327558,0.264404,-0.033624,-0.301611,1.14706,-1.05131,0.00887811,-1.2399,-1.05131,0.00887811,-1.2399,-0.106951,-0.376013,-0.669253,-0.370493,0.682808,0.375014,-0.546298,1
0.92136,-0.170526,-2.22561,-1.23366,2.91282,1.46101,-1.1754,0.92136,-0.170526,-2.22561,-1.23366,2.84842,1.46101,-1.1754,0.888374,-0.149181,-2.16715,-1.24357,2.84833,1.39609,-1.12834,-0.876441,-0.259998,-0.866825,0.829236,0.00195819,-0.785756,0.8046,-0.876441,-0.259998,-0.866825,0.829236,0.00195819,-0.785756,0.8046,0.0850361,-0.404491,0.998215,0.941685,-0.0253969,0.0839801,0.324856,-0.814428,-0.245589,0.20961,-0.0448689,-0.301743,1.13462,-1.12449,-0.0132084,-1.24431,-1.12449,-0.0132084,-1.24431,0.329859,-0.213445,-0.58454,0.0991045,0.644831,0.649245,-0.470587,1
0.908205,-0.185117,-2.24085,-1.20509,2.91878,1.4567,-1.1523,0.908205,-0.185117,-2.24085,-1.20509,2.84842,1.4567,-1.1523,0.878601,-0.145293,-2.17467,-1.23763,2.84835,1.38944,-1.12551,-1.17042,1.01035,-0.728629,0.44636,0.001568,-0.625596,-0.154403,-1.17042,1.01035,-0.728629,0.44636,0.001568,-0.625596,-0.154403,0.0798219,-0.404076,1.00118,0.944134,-0.0247172,0.0859318,0.3172,-0.353343,0.312463,0.410928,-0.0540992,-0.301419,1.12067,-0.923032,0.0323772,-1.39517,-0.923032,0.0323772,-1.39517,0.296043,-0.398241,-0.661759,0.325396,0.704286,0.672513,-0.267938,1
0.829364,-0.211674,-2.24858,-1.23736,2.91825,1.35516,-1.11949,0.829364,-0.211674,-2.24858,-1.23736,2.84842,1.35516,-1.11949,0.880266,-0.153011,-2.18468,-1.24795,2.84836,1.3999,-1.13866,0.157291,-0.729064,-0.94531,-0.974364,0.00125556,0.987414,-1.24173,0.157291,-0.729064,-0.94531,-0.974364,0.00125556,0.987414,-1.24173,0.0747815,-0.409964,0.99467,0.947227,-0.0223875,0.0833305,0.308733,-0.464507,-0.520429,-0.62404,-0.0651347,-0.300954,1.10558,-1.10356,0.046584,-1.50878,-1.10356,0.046584,-1.50878,-0.509018,-0.586628,-0.63903,0.105901,0.698896,-0.447339,0.191622,1
0.831067,-0.223564,-2.26498,-1.25917,2.90156,1.34711,-1.19542,0.831067,-0.223564,-2.26498,-1.25917,2.84842,1.34711,-1.19542,0.888455,-0.156501,-2.19284,-1.2451,2.84837,1.41208,-1.14598,0.773421,-0.32963,-0.770232,0.268846,0.00100537,1.15022,-0.691477,0.773421,-0.32963,-0.770232,0.268846,0.00100537,1.15022,-0.691477,0.0732865,-0.409556,0.994256,0.948126,-0.0286469,0.082881,0.30556,-0.12168,-0.00825473,-0.0389299,-0.0759185,-0.300312,1.0898,-1.07837,0.0642002,-1.57775,-1.07837,0.0642002,-1.57775,-0.573875,-0.670629,-0.721433,-0.14076,0.531867,-0.64967,-0.494407,1
0.822272,-0.18822,-2.24024,-1.28761,2.91578,1.37268,-1.1786,0.822272,-0.18822,-2.24024,-1.28761,2.84842,1.37268,-1.1786,0.884099,-0.164996,-2.20322,-1.24052,2.84838,1.41029,-1.14379,-1.28651,-1.09714,-1.06634,0.0743785,0.000805038,-1.29569,0.571002,-1.28651,-1.09714,-1.06634,0.0743785,0.000805038,-1.29569,0.571002,0.0641466,-0.414772,0.993132,0.950403,-0.0263095,0.0800445,0.299392,-1.29857,-0.866865,-0.329693,-0.0864642,-0.299782,1.07248,-1.05457,0.0530005,-1.73246,-1.05457,0.0530005,-1.73246,-0.618274,-0.23224,-0.370206,-0.47089,0.673988,-0.376097,-0.348131,1
0.82096,-0.121099,-2.24217,-1.28831,2.91511,1.37549,-1.16119,0.82096,-0.121099,-2.24217,-1.28831,2.84842,1.37549,-1.16119,0.873193,-0.174297,-2.21226,-1.23989,2.84839,1.39931,-1.13895,-1.03016,-0.878522,-0.853861,0.0595576,0.000644624,-1.03751,0.457223,-1.03016,-0.878522,-0.853861,0.0595576,0.000644624,-1.03751,0.457223,0.0530023,-0.422919,0.990358,0.95319,-0.0170575,0.0761618,0.292125,-1.05561,-0.671848,-0.276589,-0.0978381,-0.299356,1.05544,-1.1374,0.0425637,-1.70407,-1.1374,0.0425637,-1.70407,-0.522331,0.531988,-0.299146,-0.484243,0.66723,-0.238154,-0.22247,1
0.81426,-0.149999,-2.25335,-1.20805,2.92221,1.37873,-1.09383,0.81426,-0.149999,-2.25335,-1.20805,2.84842,1.37873,-1.09383,0.864799,-0.184114,-2.22276,-1.24373,2.84839,1.3889,-1.1502,-0.792836,-0.927244,-0.992283,-0.362975,0.000516174,-0.982381,-1.06284,-0.792836,-0.927244,-0.992283,-0.362975,0.000516174,-0.982381,-1.06284,0.0424989,-0.432091,0.985484,0.957826,-0.00631278,0.0717664,0.278172,-0.993813,-0.752066,-0.475985,-0.108706,-0.298315,1.03601,-1.08675,0.10407,-1.94229,-1.08675,0.10407,-1.94229,-0.505384,0.341157,-0.305916,0.356807,0.738173,-0.101786,0.56371,1
0.786075,-0.162055,-2.29759,-1.26462,2.92512,1.34861,-1.10286,0.786075,-0.162055,-2.29759,-1.26462,2.84842,1.34861,-1.10286,0.856325,-0.184932,-2.22624,-1.25247,2.8484,1.38567,-1.15586,-0.80039,-0.0772737,-0.328895,-0.825794,0.00041332,-0.305357,-0.534535,-0.80039,-0.0772737,-0.328895,-0.825794,0.00041332,-0.305357,-0.534535,0.0382903,-0.435793,0.981692,0.960066,0.000251328,0.0710372,0.270604,-0.411291,-0.287925,-0.360767,-0.119428,-0.298019,1.01659,-1.07226,0.0296563,-1.94272,-1.07226,0.0296563,-1.94272,-0.702497,0.228775,-0.713495,-0.121481,0.767201,-0.370639,0.53003,1
0.790223,-0.201907,-2.30062,-1.22045,2.92465,1.3448,-1.14377,0.790223,-0.201907,-2.30062,-1.22045,2.84842,1.3448,-1.14377,0.849278,-0.172213,-2.22942,-1.25962,2.8484,1.38364,-1.15692,-0.665599,1.20141,-0.299759,-0.674511,0.000330961,-0.191629,-0.100411,-0.665599,1.20141,-0.299759,-0.674511,0.000330961,-0.191629,-0.100411,0.0402774,-0.43226,0.982593,0.961096,0.00181926,0.0760489,0.265534,0.144798,0.336168,0.0880109,-0.130916,-0.297311,0.995502,-1.14878,0.0707328,-2.1085,-1.14878,0.0707328,-2.1085,-0.590547,-0.296943,-0.712048,0.391684,0.762457,-0.388393,0.131493,1
0.849435,-0.230334,-2.30258,-1.25816,2.9065,1.40162,-1.21083,0.849435,-0.230334,-2.30258,-1.25816,2.84842,1.40162,-1.21083,0.84293,-0.165067,-2.23314,-1.25689,2.8484,1.38236,-1.15069,-0.673876,0.354168,-0.475227,1.14802,0.000265013,-0.0853815,1.33647,-0.673876,0.354168,-0.475227,1.14802,0.000265013,-0.0853815,1.33647,0.0390866,-0.429061,0.985568,0.961483,7.23366e-05,0.0792193,0.263202,-0.411804,0.301901,0.52534,-0.140736,-0.29609,0.973068,-0.982016,0.1221,-2.24342,-0.982016,0.1221,-2.24342,0.0650433,-0.652669,-0.694412,-0.0126215,0.580947,0.19263,-0.601436,1
0.851959,-0.219165,-2.31192,-1.26356,2.90752,1.43967,-1.19889,0.851959,-0.219165,-2.31192,-1.26356,2.84842,1.43967,-1.19889,0.831601,-0.164467,-2.24598,-1.25843,2.84841,1.37563,-1.14116,-1.07007,0.0566838,-1.21317,-0.145466,0.000212206,-0.635219,0.900259,-1.07007,0.0566838,-1.21317,-0.145466,0.000212206,-0.635219,0.900259,0.0302773,-0.432014,0.984511,0.963344,0.00617932,0.0793716,0.256183,-0.852039,-0.216355,-0.0993514,-0.151068,-0.295476,0.950134,-1.03315,0.0613928,-2.29341,-1.03315,0.0613928,-2.29341,0.203579,-0.546983,-0.659362,-0.0512676,0.591101,0.6404,-0.577309,1
0.78392,-0.248495,-2.32235,-1.29739,2.90316,1.35324,-1.11563,0.78392,-0.248495,-2.32235,-1.29739,2.84842,1.35324,-1.11563,0.829583,-0.174916,-2.25707,-1.25483,2.84841,1.37547,-1.14873,0.466585,-1.30248,-1.06948,-0.0781685,0.000169913,0.614763,-1.4596,0.466585,-1.30248,-1.06948,-0.0781685,0.000169913,0.614763,-1.4596,0.0206964,-0.437301,0.98215,0.966204,0.00833872,0.0756738,0.246281,-0.701355,-0.596842,-0.496707,-0.162217,-0.29574,0.92645,-1.11489,-0.0263214,-2.36833,-1.11489,-0.0263214,-2.36833,-0.456634,-0.735787,-0.652733,-0.425559,0.54753,-0.222295,0.331031,1
0.756434,-0.267803,-2.34192,-1.31216,2.85344,1.4104,-1.12991,0.756434,-0.267803,-2.34192,-1.31216,2.84842,1.4104,-1.12991,0.833539,-0.185959,-2.26614,-1.25549,2.84841,1.38068,-1.16111,0.373612,-1.04295,-0.85637,-0.0625925,0.000136056,0.492264,-1.16875,0.373612,-1.04295,-0.85637,-0.0625925,0.000136056,0.492264,-1.16875,0.0145101,-0.442586,0.977924,0.968421,0.00954676,0.0719718,0.238518,-0.554196,-0.476284,-0.409316,-0.172151,-0.295915,0.902104,-0.993395,-0.0174969,-2.43464,-0.993395,-0.0174969,-2.43464,-0.77105,-0.818438,-0.7578,-0.566714,0.0502921,0.297187,0.311915,1
0.769517,-0.274696,-2.34792,-1.3188,2.84144,1.432,-1.19335,0.769517,-0.274696,-2.34792,-1.3188,2.84144,1.432,-1.19335,0.837209,-0.192576,-2.27526,-1.2571,2.84841,1.39243,-1.16863,0.346674,-0.624933,-0.861489,-0.151837,0.000108945,1.11031,-0.711075,0.346674,-0.624933,-0.861489,-0.151837,0.000108945,1.11031,-0.711075,0.0101438,-0.444885,0.974635,0.969858,0.00702815,0.07062,0.233108,-0.394928,-0.230621,-0.315244,-0.182193,-0.295618,0.876664,-1.00428,0.0296414,-2.54402,-1.00428,0.0296414,-2.54402,-0.676917,-0.8212,-0.726572,-0.616952,-0.0697214,0.395633,-0.2472,1
0.764301,-0.253422,-2.318,-1.33068,2.82309,1.44037,-1.20724,0.764301,-0.253422,-2.318,-1.33068,2.82309,1.44037,-1.20724,0.826591,-0.203718,-2.28464,-1.26513,2.84841,1.38462,-1.15807,-1.00291,-1.0524,-0.886134,-0.758174,8.72362e-05,-0.737691,0.99758,-1.00291,-1.0524,-0.886134,-0.758174,8.72362e-05,-0.737691,0.99758,-0.00187497,-0.454087,0.967258,0.970909,0.0196767,0.0651991,0.22956,-1.12296,-0.73898,-0.709738,-0.192912,-0.294952,0.850168,-1.07185,0.0665754,-2.64961,-1.07185,0.0665754,-2.64961,-0.622899,-0.497039,-0.333532,-0.655558,-0.253183,0.557504,-0.491715,1
0.735424,-0.297387,-2.36233,-1.3428,2.80187,1.44237,-1.11239,0.735424,-0.297387,-2.36233,-1.3428,2.80187,1.44237,-1.11239,0.812611,-0.216488,-2.29606,-1.2745,2.84841,1.38976,-1.15246,-1.32035,-1.20607,-1.07794,-0.885222,6.98533e-05,0.485057,0.529932,-1.32035,-1.20607,-1.07794,-0.885222,6.98533e-05,0.485057,0.529932,-0.0169953,-0.461871,0.958493,0.972893,0.0271879,0.0600668,0.221659,-1.40649,-0.635954,-0.839395,-0.203657,-0.294356,0.822401,-1.07451,0.0596702,-2.77663,-1.07451,0.0596702,-2.77663,-0.771866,-0.808989,-0.662713,-0.683019,-0.465474,0.526132,0.400711,1
0.723052,-0.308428,-2.37548,-1.35144,2.8091,1.45935,-1.11119,0.723052,-0.308428,-2.37548,-1.35144,2.8091,1.45935,-1.11119,0.804024,-0.228087,-2.30639,-1.28333,2.84702,1.39817,-1.16061,-0.811017,-1.09547,-0.976041,-0.833635,-0.131243,0.794921,-0.769607,-0.811017,-1.09547,-0.976041,-0.833635,-0.131243,0.794921,-0.769607,-0.028673,-0.468024,0.950229,0.975521,0.0319183,0.0565892,0.210091,-1.08322,-0.515007,-0.788316,-0.214801,-0.294058,0.794935,-1.11441,0.0298142,-2.74663,-1.11441,0.0298142,-2.74663,-0.809724,-0.803415,-0.690934,-0.681135,-0.379255,0.611713,0.494196,1
0.720687,-0.309568,-2.37263,-1.3662,2.78929,1.46613,-1.13818,0.720687,-0.309568,-2.37263,-1.3662,2.78929,1.46613,-1.13818,0.796109,-0.233135,-2.3087,-1.29276,2.84226,1.40658,-1.1699,-0.747591,-0.476815,-0.218422,-0.891254,-0.450355,0.794168,-0.877645,-0.747591,-0.476815,-0.218422,-0.891254,-0.450355,0.794168,-0.877645,-0.0338232,-0.470666,0.944455,0.977178,0.0344295,0.0570659,0.201696,-0.493676,-0.219752,-0.544725,-0.225571,-0.293046,0.764882,-1.07699,0.101176,-3.00531,-1.07699,0.101176,-3.00531,-0.754216,-0.764328,-0.639304,-0.734325,-0.529647,0.59544,0.317183,1
0.706446,-0.32568,-2.38324,-1.37011,2.78939,1.47723,-1.1622,0.706446,-0.32568,-2.38324,-1.37011,2.78939,1.47723,-1.1622,0.784017,-0.245938,-2.31939,-1.30273,2.83421,1.41371,-1.15844,-1.14208,-1.20922,-1.00921,-0.941732,-0.760127,0.67353,1.08237,-1.14208,-1.20922,-1.00921,-0.941732,-0.760127,0.67353,1.08237,-0.0466754,-0.477103,0.934905,0.97781,0.0420505,0.0556461,0.19754,-1.2164,-0.521302,-0.906459,-0.236378,-0.293124,0.734624,-1.08072,-0.00777543,-3.02574,-1.08072,-0.00777543,-3.02574,-0.775703,-0.797421,-0.638493,-0.673742,-0.44812,0.635129,-0.0376271,1
0.69579,-0.340498,-2.3966,-1.38173,2.78617,1.48362,-1.1298,0.69579,-0.340498,-2.3966,-1.38173,2.78617,1.48362,-1.1298,0.771869,-0.25839,-2.33057,-1.31244,2.8292,1.42281,-1.14903,-1.14736,-1.17606,-1.05571,-0.916649,-0.472553,0.858784,0.88928,-1.14736,-1.17606,-1.05571,-0.916649,-0.472553,0.858784,0.88928,-0.0601658,-0.482588,0.925469,0.978682,0.048223,0.0530485,0.192463,-1.26308,-0.440035,-0.896107,-0.247262,-0.292589,0.703721,-1.08837,0.0534147,-3.09035,-1.08837,0.0534147,-3.09035,-0.760786,-0.821076,-0.660337,-0.692926,-0.430379,0.608151,0.192305,1
0.685171,-0.350998,-2.40517,-1.3929,2.7808,1.49327,-1.11667,0.685171,-0.350998,-2.40517,-1.3929,2.7808,1.49327,-1.11667,0.76167,-0.268588,-2.33895,-1.32315,2.82125,1.43144,-1.14687,-0.963233,-0.963166,-0.791706,-1.01169,-0.751164,0.815282,0.204061,-0.963233,-0.963166,-0.791706,-1.01169,-0.751164,0.815282,0.204061,-0.0702286,-0.487037,0.9165,0.979628,0.0542109,0.0526712,0.186051,-0.954832,-0.353051,-0.84714,-0.257495,-0.292066,0.670185,-1.02331,0.0523478,-3.3536,-1.02331,0.0523478,-3.3536,-0.764989,-0.824099,-0.66216,-0.697469,-0.404457,0.618263,0.301941,1
0.673555,-0.363238,-2.417,-1.40341,2.78346,1.50343,-1.11951,0.673555,-0.363238,-2.417,-1.40341,2.78346,1.50343,-1.11951,0.750666,-0.279964,-2.34777,-1.33251,2.8149,1.44056,-1.14992,-1.03931,-1.07447,-0.833522,-0.883733,-0.59952,0.861732,-0.288675,-1.03931,-1.07447,-0.833522,-0.883733,-0.59952,0.861732,-0.288675,-0.0817172,-0.49124,0.907518,0.981152,0.059439,0.0512959,0.176569,-1.07788,-0.331061,-0.849798,-0.267669,-0.291429,0.635993,-1.01742,0.0636399,-3.41924,-1.01742,0.0636399,-3.41924,-0.771106,-0.832735,-0.692254,-0.709014,-0.314441,0.62871,0.30414,1
0.665303,-0.374463,-2.42233,-1.41478,2.77768,1.51181,-1.12764,0.665303,-0.374463,-2.42233,-1.41478,2.77768,1.51181,-1.12764,0.739731,-0.292026,-2.3575,-1.34232,2.80918,1.44914,-1.14591,-1.03276,-1.13924,-0.918903,-0.926399,-0.54083,0.810372,0.378777,-1.03276,-1.13924,-0.918903,-0.926399,-0.54083,0.810372,0.378777,-0.0938701,-0.495543,0.897887,0.981978,0.0655879,0.0489909,0.170342,-1.13442,-0.332002,-0.911165,-0.27856,-0.29081,0.601382,-1.08905,0.0619739,-3.46104,-1.08905,0.0619739,-3.46104,-0.744281,-0.824362,-0.648273,-0.724619,-0.314928,0.626696,0.182701,1
0.657509,-0.38571,-2.42963,-1.42355,2.77982,1.52096,-1.14009,0.657509,-0.38571,-2.42963,-1.42355,2.77982,1.52096,-1.14009,0.729859,-0.302789,-2.3662,-1.35135,2.80403,1.45703,-1.14132,-1.05031,-1.13306,-0.91593,-0.976638,-0.54581,0.851708,0.579325,-1.05031,-1.13306,-0.91593,-0.976638,-0.54581,0.851708,0.579325,-0.104742,-0.499053,0.889072,0.982551,0.0711383,0.0468346,0.165343,-1.13273,-0.296243,-0.938439,-0.288842,-0.291153,0.566356,-1.02818,-0.034371,-3.50264,-1.02818,-0.034371,-3.50264,-0.723498,-0.82921,-0.634347,-0.722037,-0.242039,0.639321,0.0123147,1
0.645955,-0.397812,-2.43986,-1.43385,2.77779,1.52803,-1.1271,0.645955,-0.397812,-2.43986,-1.43385,2.77779,1.52803,-1.1271,0.718639,-0.314834,-2.37632,-1.36172,2.79993,1.46627,-1.13697,-1.05968,-1.1377,-0.956197,-0.979899,-0.387124,0.873407,0.410523,-1.05968,-1.1377,-0.956197,-0.979899,-0.387124,0.873407,0.410523,-0.117376,-0.502537,0.878983,0.983253,0.077108,0.0435901,0.159275,-1.16969,-0.25402,-0.953488,-0.297875,-0.29117,0.530813,-0.90338,-0.00161529,-3.55429,-0.90338,-0.00161529,-3.55429,-0.72684,-0.829775,-0.635449,-0.721261,-0.221379,0.617579,0.098772,1
0.632972,-0.409736,-2.45229,-1.44437,2.76103,1.53629,-1.10856,0.632972,-0.409736,-2.45229,-1.44437,2.76103,1.53629,-1.10856,0.708012,-0.326716,-2.38549,-1.37229,2.7955,1.47535,-1.13511,-1.00384,-1.12226,-0.865993,-0.998616,-0.418675,0.857065,0.175643,-1.00384,-1.12226,-0.865993,-0.998616,-0.418675,0.857065,0.175643,-0.1292,-0.505685,0.868841,0.983928,0.0830355,0.0405146,0.152803,-1.09294,-0.224566,-0.957152,-0.308339,-0.290536,0.493774,-1.04632,0.0634074,-3.70392,-1.04632,0.0634074,-3.70392,-0.750396,-0.830205,-0.668054,-0.720784,-0.344626,0.609423,0.265525,1
0.623897,-0.421244,-2.4603,-1.45585,2.75743,1.54763,-1.12018,0.623897,-0.421244,-2.4603,-1.45585,2.75743,1.54763,-1.12018,0.697948,-0.338471,-2.39428,-1.38251,2.79237,1.48444,-1.13611,-0.950504,-1.11032,-0.830805,-0.96469,-0.294971,0.858439,-0.0936236,-0.950504,-1.11032,-0.830805,-0.96469,-0.294971,0.858439,-0.0936236,-0.140752,-0.508405,0.858857,0.984715,0.0884471,0.0369675,0.145418,-1.06095,-0.188683,-0.942207,-0.318847,-0.290271,0.455873,-1.05079,0.0264585,-3.7901,-1.05079,0.0264585,-3.7901,-0.740514,-0.827732,-0.660206,-0.733476,-0.349447,0.631888,0.159211,1
0.613485,-0.433219,-2.47018,-1.46588,2.74963,1.55568,-1.11216,0.613485,-0.433219,-2.47018,-1.46588,2.74963,1.55568,-1.11216,0.687588,-0.350296,-2.40337,-1.39274,2.78947,1.49312,-1.13431,-0.978549,-1.11684,-0.857863,-0.966261,-0.274453,0.820501,0.169553,-0.978549,-1.11684,-0.857863,-0.966261,-0.274453,0.820501,0.169553,-0.152581,-0.510801,0.848697,0.98523,0.0941349,0.033037,0.139172,-1.08397,-0.155784,-0.957763,-0.329912,-0.289624,0.416463,-1.10655,0.06468,-3.94096,-1.10655,0.06468,-3.94096,-0.741026,-0.829237,-0.668121,-0.731425,-0.398383,0.625509,0.221535,1
0.602426,-0.444943,-2.47944,-1.47579,2.74401,1.56512,-1.10548,0.602426,-0.444943,-2.47944,-1.47579,2.74401,1.56512,-1.10548,0.676705,-0.36214,-2.41312,-1.40302,2.7838,1.50173,-1.12918,-1.02792,-1.11873,-0.920847,-0.97181,-0.53515,0.812437,0.484612,-1.02792,-1.11873,-0.920847,-0.97181,-0.53515,0.812437,0.484612,-0.164409,-0.512829,0.838276,0.985406,0.100449,0.0301504,0.134076,-1.093,-0.117378,-0.980029,-0.340657,-0.288919,0.377184,-1.07449,0.070551,-3.9279,-1.07449,0.070551,-3.9279,-0.742793,-0.828027,-0.663229,-0.727604,-0.39792,0.633952,0.236962,1
0.592554,-0.456826,-2.4885,-1.48667,2.74071,1.57393,-1.10671,0.592554,-0.456826,-2.4885,-1.48667,2.74071,1.57393,-1.10671,0.666182,-0.373917,-2.42252,-1.41355,2.77855,1.51087,-1.12739,-0.993895,-1.1124,-0.888132,-0.994279,-0.496366,0.863883,0.169299,-0.993895,-1.1124,-0.888132,-0.994279,-0.496366,0.863883,0.169299,-0.175862,-0.514453,0.82775,0.985697,0.106416,0.0272145,0.127818,-1.05453,-0.0825678,-0.98932,-0.351043,-0.288383,0.335772,-1.03865,0.0535905,-4.14118,-1.03865,0.0535905,-4.14118,-0.736288,-0.829084,-0.659847,-0.731235,-0.378408,0.630553,0.206789,1
0.583523,-0.468683,-2.49726,-1.49749,2.73951,1.58451,-1.11652,0.583523,-0.468683,-2.49726,-1.49749,2.73951,1.58451,-1.11652,0.655682,-0.385734,-2.43201,-1.42398,2.77278,1.5198,-1.12435,-0.991801,-1.11612,-0.896995,-0.984836,-0.54425,0.843233,0.286647,-0.991801,-1.11612,-0.896995,-0.984836,-0.54425,0.843233,0.286647,-0.187201,-0.51576,0.817131,0.9858,0.112555,0.0243307,0.122224,-1.04385,-0.0519812,-0.996938,-0.361476,-0.288566,0.294397,-1.04322,-0.0182986,-4.1375,-1.04322,-0.0182986,-4.1375,-0.721589,-0.829489,-0.652434,-0.735121,-0.332788,0.647088,0.0782755,1
0.571345,-0.480514,-2.50867,-1.50729,2.72786,1.59107,-1.09617,0.571345,-0.480514,-2.50867,-1.50729,2.72786,1.59107,-1.09617,0.64507,-0.397532,-2.44146,-1.4343,2.76705,1.52883,-1.12059,-1.00233,-1.11436,-0.892542,-0.975051,-0.541566,0.852986,0.355129,-1.00233,-1.11436,-0.892542,-0.975051,-0.541566,0.852986,0.355129,-0.198488,-0.516646,0.806486,0.985791,0.118582,0.0213244,0.117045,-1.03732,-0.0136339,-0.998491,-0.372163,-0.287581,0.251438,-1.06869,0.0984341,-4.29589,-1.06869,0.0984341,-4.29589,-0.737252,-0.829822,-0.672019,-0.729864,-0.391933,0.622364,0.244183,1
0.561642,-0.491997,-2.51631,-1.51807,2.71847,1.60115,-1.09515,0.561642,-0.491997,-2.51631,-1.51807,2.71847,1.60115,-1.09515,0.634605,-0.409347,-2.45084,-1.44474,2.7618,1.53782,-1.11783,-0.988402,-1.11596,-0.885301,-0.985712,-0.495836,0.848761,0.261314,-0.988402,-1.11596,-0.885301,-0.985712,-0.495836,0.848761,0.261314,-0.209647,-0.51721,0.795724,0.985752,0.124566,0.0180215,0.111585,-1.02136,0.0163038,-1.00879,-0.382594,-0.286984,0.207952,-1.04313,0.0597715,-4.34864,-1.04313,0.0597715,-4.34864,-0.729629,-0.826501,-0.654684,-0.733348,-0.433282,0.633329,0.226737,1
0.553044,-0.503871,-2.52509,-1.52877,2.71561,1.6108,-1.10578,0.553044,-0.503871,-2.52509,-1.52877,2.71561,1.6108,-1.10578,0.624427,-0.42117,-2.46009,-1.45525,2.75736,1.54712,-1.11757,-0.961415,-1.11675,-0.873679,-0.992854,-0.419619,0.878778,0.0244864,-0.961415,-1.11675,-0.873679,-0.992854,-0.419619,0.878778,0.0244864,-0.220615,-0.517411,0.784895,0.985783,0.13024,0.0144575,0.105171,-0.998839,0.0476519,-1.01475,-0.392931,-0.287058,0.162293,-1.03374,-0.00740886,-4.56592,-1.03374,-0.00740886,-4.56592,-0.713826,-0.827002,-0.650017,-0.735226,-0.417451,0.63679,0.117829,1
0.54281,-0.515885,-2.5347,-1.53916,2.71487,1.62024,-1.10459,0.54281,-0.515885,-2.5347,-1.53916,2.71487,1.62024,-1.10459,0.613849,-0.432995,-2.46977,-1.46562,2.75148,1.55588,-1.1133,-0.999045,-1.1169,-0.914297,-0.979414,-0.555238,0.827108,0.402622,-0.999045,-1.1169,-0.914297,-0.979414,-0.555238,0.827108,0.402622,-0.231622,-0.517275,0.773953,0.985479,0.13644,0.0111328,0.100452,-1.00577,0.0830656,-1.0233,-0.402774,-0.287002,0.114954,-0.984299,0.00554323,-4.7339,-0.984299,0.00554323,-4.7339,-0.710392,-0.828901,-0.649281,-0.735454,-0.366136,0.643672,0.0871731,1
0.551405,-0.507154,-2.57886,-1.4635,2.77952,1.66861,-1.0857,0.551405,-0.507154,-2.57886,-1.4635,2.77952,1.66861,-1.0857,0.548293,-0.509453,-2.52966,-1.53346,2.71749,1.61524,-1.10506,-0.128861,-0.151173,-0.118382,-0.133952,-0.0616381,0.117671,0.0110096,-0.128861,-0.151173,-0.118382,-0.133952,-0.0616381,0.117671,0.0110096,-0.297178,-0.508541,0.702122,0.98254,0.17368,-0.0127641,0.0654752,-0.117836,0.0369753,-0.141137,-0.481973,-0.310299,0.118122,-0.444317,-0.258127,2.17221,-0.444317,-0.258127,2.17221,0.0311193,0.0229945,-0.491966,0.699684,0.620338,0.533732,0.193532,1
0.573839,-0.524088,-2.57091,-1.46435,2.77486,1.68039,-1.11078,0.573839,-0.524088,-2.57091,-1.46435,2.77486,1.68039,-1.11078,0.5472,-0.510735,-2.53066,-1.5346,2.71697,1.61624,-1.10496,-0.103184,-0.12105,-0.094793,-0.10726,-0.049356,0.0942235,0.00881578,-0.103184,-0.12105,-0.094793,-0.10726,-0.049356,0.0942235,0.00881578,-0.29822,-0.508278,0.700906,0.982466,0.174283,-0.0132135,0.0649002,-0.0941323,0.0299444,-0.113034,-0.485683,-0.313845,0.138425,-0.371015,-0.354642,2.03025,-0.371015,-0.354642,2.03025,0.266387,-0.133524,-0.402462,0.702526,0.578967,0.64151,-0.0582286,1
0.576746,-0.514479,-2.57624,-1.46263,2.77188,1.68029,-1.11132,0.576746,-0.514479,-2.57624,-1.46263,2.77188,1.68029,-1.11132,0.546325,-0.511761,-2.53147,-1.53551,2.71655,1.61703,-1.10489,-0.0826229,-0.096929,-0.0759043,-0.0858873,-0.0395212,0.0754483,0.00705913,-0.0826229,-0.096929,-0.0759043,-0.0858873,-0.0395212,0.0754483,0.00705913,-0.299052,-0.508065,0.699932,0.982405,0.174765,-0.0135742,0.0644405,-0.0752313,0.0241932,-0.0905239,-0.489501,-0.318155,0.156712,-0.381804,-0.430962,1.82873,-0.381804,-0.430962,1.82873,0.304203,-0.0271707,-0.447692,0.728814,0.553334,0.632551,-0.0643128,1
0.539263,-0.510462,-2.56442,-1.4477,2.78329,1.69672,-1.09999,0.539263,-0.510462,-2.56442,-1.4477,2.78329,1.69672,-1.09999,0.547338,-0.510843,-2.54091,-1.52116,2.7291,1.62731,-1.10106,0.0955959,0.0867145,-0.891909,1.35535,1.18524,0.970719,0.361083,0.0955959,0.0867145,-0.891909,1.35535,1.18524,0.970719,0.361083,-0.304499,-0.504212,0.705717,0.984668,0.163572,-0.0134988,0.0590823,-0.495504,0.281658,0.514967,-0.493775,-0.321747,0.175513,-0.427401,-0.359228,1.88007,-0.427401,-0.359228,1.88007,-0.0807507,0.00381754,-0.235107,0.73461,0.541986,0.694058,0.0107436,1
0.519651,-0.48028,-2.56804,-1.43528,2.79786,1.69812,-1.08212,0.519651,-0.48028,-2.56804,-1.43528,2.79786,1.69812,-1.08212,0.552618,-0.513482,-2.54689,-1.50984,2.73822,1.63789,-1.103,0.498779,-0.249267,-0.564621,1.06925,0.861365,0.998911,-0.182948,0.498779,-0.249267,-0.564621,1.06925,0.861365,0.998911,-0.182948,-0.306719,-0.50294,0.708801,0.986368,0.154281,-0.0132665,0.0556824,-0.200284,0.0477032,0.265087,-0.497699,-0.324945,0.192061,-0.392461,-0.319827,1.65485,-0.392461,-0.319827,1.65485,-0.32967,0.332025,-0.211561,0.745633,0.596472,0.602298,0.208843,1
0.564192,-0.471342,-2.52236,-1.43044,2.81173,1.70647,-1.0852,0.564192,-0.471342,-2.52236,-1.43044,2.81173,1.70647,-1.0852,0.557426,-0.513681,-2.55273,-1.50043,2.74492,1.64634,-1.10466,0.454099,-0.0187473,-0.552362,0.888556,0.63361,0.798042,-0.156538,0.454099,-0.0187473,-0.552362,0.888556,0.63361,0.798042,-0.156538,-0.307863,-0.501594,0.712232,0.987728,0.146585,-0.011781,0.0526006,-0.110795,0.0663501,0.304096,-0.496149,-0.328412,0.213209,0.155056,-0.346652,2.11479,0.155056,-0.346652,2.11479,0.0676553,0.423387,0.303709,0.69993,0.668033,0.601327,0.194575,1
