Afshin1997/kuka_rl_ros2/src/catch_and_throw/output_files/ft/old/idealpd_5/ft_received_joint_effort_np.csv
joint_0,joint_1,joint_2,joint_3,joint_4,joint_5,joint_6
0.428569,-3.14535,0.0441152,20.7945,-0.631655,-0.171273,0.021211
0.427177,-3.14506,0.0440004,20.7944,-0.630881,-0.171305,0.0209933
0.427527,-3.14511,0.0438991,20.7949,-0.630819,-0.171412,0.0211148
0.428152,-3.14516,0.044327,20.795,-0.631074,-0.171546,0.0211436
0.431074,-3.146,0.0523596,20.7984,-0.634919,-0.170134,0.0212083
0.481195,-3.11183,0.13693,20.9152,-0.618451,-0.152849,0.0307166
0.840861,-2.88218,0.555834,21.511,-0.609505,-0.155635,0.046402
1.64571,-2.37371,1.36713,22.2874,-0.630678,-0.184446,0.0581266
2.42722,-1.58002,2.15344,22.6272,-0.666535,-0.264973,0.0663166
2.86149,-0.526885,2.57281,22.1266,-0.69011,-0.34686,0.0638577
2.82758,0.520656,2.50884,20.8184,-0.711226,-0.393047,0.0292946
2.33564,1.25651,1.96835,19.0574,-0.713205,-0.403021,-0.01309
1.54801,1.50454,1.0658,17.2248,-0.705952,-0.361391,-0.0433567
0.433553,1.10314,-0.138902,15.5267,-0.728102,-0.340182,-0.0889304
-0.996325,-0.0959836,-1.54787,14.2142,-0.674927,-0.319543,-0.0830299
-2.4024,-1.68335,-2.91469,13.5864,-0.607207,-0.199327,-0.155315
-3.53711,-3.6552,-4.03836,14.1367,-0.601443,-0.174062,-0.201381
-4.73246,-6.07487,-5.26181,15.3675,-0.687597,-0.173688,-0.143364
-6.22646,-8.86431,-6.72447,17.0111,-0.715628,-0.059355,-0.210089
-7.61899,-11.7832,-8.19691,19.0746,-0.788365,0.0295434,-0.201757
-8.55441,-14.4189,-9.12517,21.1108,-0.8419,0.0657594,-0.228992
-8.88695,-16.5846,-9.43509,23.2379,-0.881696,0.0978376,-0.259106
-8.83197,-17.9667,-9.37942,25.2912,-0.968023,0.0762626,-0.218935
-8.02843,-18.4031,-8.52589,27.06,-1.02972,0.00365259,-0.252427
-6.68307,-17.4751,-7.17101,28.3868,-1.08562,-0.0357974,-0.238727
-5.14025,-15.6008,-5.62051,29.266,-1.16578,-0.0389638,-0.249814
-3.56721,-13.2066,-3.96234,29.7885,-1.15604,-0.0716415,-0.253167
-1.68998,-9.73613,-2.10704,29.8863,-1.23082,-0.117029,-0.269225
0.514448,-6.74294,0.0944421,29.983,-1.28688,-0.168182,-0.254492
2.21534,-3.6066,1.89677,29.9204,-1.36283,-0.155087,-0.266786
3.40188,-1.10004,3.26283,30.0056,-1.35063,-0.110078,-0.279949
4.32533,1.0297,4.31963,30.1251,-1.30675,-0.118713,-0.2698
5.16933,2.99433,5.20528,30.065,-1.38213,-0.194139,-0.274844
5.61452,4.21412,5.62604,30.1104,-1.42786,-0.179053,-0.293256
5.09774,5.16975,5.21282,29.9462,-1.43222,-0.106875,-0.292446
4.30936,5.3688,4.45992,29.4578,-1.36055,-0.0867086,-0.288397
3.72149,5.39362,3.81359,28.7373,-1.34344,-0.118286,-0.293177
3.19986,5.39861,3.24062,28.1582,-1.37313,-0.09623,-0.311043
2.22948,4.99219,2.2584,27.6271,-1.36219,-0.0770793,-0.313594
1.08945,4.3751,1.21035,27.007,-1.29223,-0.0702576,-0.318433
0.871718,3.90919,0.990031,25.899,-1.14877,-0.0756103,-0.316861
1.17618,3.87727,1.27073,24.8912,-1.13709,-0.0936679,-0.321551
1.08694,4.50113,1.16486,24.5015,-1.20044,-0.136153,-0.328946
1.60177,5.32179,1.66408,24.1606,-1.16987,-0.190079,-0.326138
2.45937,6.55021,2.56663,23.3402,-1.13358,-0.244099,-0.324052
2.7128,7.72068,2.79645,22.4116,-1.15131,-0.266555,-0.324447
3.16912,8.3581,3.18288,22.1144,-1.1413,-0.327668,-0.32405
3.51906,9.05947,3.44788,21.7869,-1.10743,-0.334932,-0.328327
2.88189,8.89766,2.81102,21.448,-1.04227,-0.296126,-0.324259
2.28532,8.15843,2.17441,21.0777,-1.02014,-0.251683,-0.32557
1.55778,6.76715,1.33557,20.9289,-0.967721,-0.19305,-0.33159
0.605185,4.93929,0.107966,21.1109,-0.961906,-0.0890299,-0.336394
0.354955,2.84714,-0.420093,21.1563,-0.927395,-0.0842159,-0.342593
-0.244645,0.920259,-1.21289,21.459,-0.978456,-0.0346328,-0.344456
-0.748834,-1.27855,-1.90053,21.9132,-0.947379,0.0736359,-0.343747
-0.809162,-2.82631,-2.08686,22.1828,-0.968161,0.0649442,-0.342534
-0.997294,-3.85593,-2.38195,22.064,-0.923088,0.050254,-0.339423
-0.554882,-4.18519,-1.98496,22.004,-0.884242,0.00089674,-0.335267
0.0372511,-3.99653,-1.36701,21.6231,-0.84365,-0.0882309,-0.335089
-0.295511,-3.93192,-1.57661,21.3441,-0.860896,-0.0920208,-0.334108
0.0808656,-4.03127,-1.13564,20.9039,-0.798634,-0.109013,-0.338851
1.0731,-3.30391,-0.129209,20.6491,-0.841756,-0.208246,-0.336016
1.81544,-2.59931,0.668548,20.4935,-0.796329,-0.267151,-0.335475
2.72185,-1.95555,1.6078,20.118,-0.782722,-0.399099,-0.328096
3.25529,-1.0055,2.25287,19.4927,-0.805472,-0.419499,-0.330173
3.43494,-0.0557227,2.48542,19.4301,-0.818825,-0.352599,-0.335456
4.16385,0.520247,3.1366,19.3397,-0.77061,-0.439798,-0.325177
4.54428,1.38725,3.45741,18.7153,-0.76406,-0.476751,-0.326773
4.00336,1.56132,2.88543,18.3089,-0.745245,-0.418104,-0.330809
3.45319,0.991662,2.28136,18.1635,-0.730296,-0.365799,-0.331939
2.81555,-0.277132,1.52885,17.9085,-0.676552,-0.36466,-0.330662
1.83932,-2.28943,0.314219,17.7115,-0.61071,-0.301458,-0.336201
1.20825,-4.59032,-0.570449,18.0019,-0.658431,-0.268075,-0.338463
0.935174,-6.50365,-1.05552,18.1298,-0.677579,-0.19481,-0.348694
0.252075,-8.44914,-1.88692,18.2001,-0.592272,-0.141526,-0.347683
-0.730478,-10.4349,-3.01032,18.1666,-0.540368,-0.10117,-0.348909
-1.00383,-11.9563,-3.4549,18.3882,-0.569561,-0.121087,-0.352422
-0.766781,-12.7879,-3.38431,18.7123,-0.547325,-0.0770933,-0.353013
-0.910453,-13.1706,-3.48671,18.6714,-0.533081,-0.032661,-0.341769
-0.852753,-13.3014,-3.362,18.1843,-0.523407,-0.104708,-0.344945
-0.00290494,-12.6515,-2.57914,18.1243,-0.51787,-0.165583,-0.341982
0.994597,-11.4808,-1.70598,18.4725,-0.492811,-0.195775,-0.33478
1.61284,-10.1812,-1.10974,18.3797,-0.551696,-0.29799,-0.343914
2.3472,-9.08185,-0.431694,17.8103,-0.580385,-0.350625,-0.344249
2.98626,-7.87965,0.181886,17.7005,-0.575187,-0.345035,-0.336074
3.3321,-6.81951,0.483681,17.8125,-0.577221,-0.352101,-0.339253
3.16818,-6.30504,0.326504,17.8106,-0.645532,-0.397358,-0.340685
2.70888,-6.81296,-0.117476,17.3383,-0.539163,-0.371727,-0.34038
2.05003,-7.47964,-0.749387,17.1445,-0.528671,-0.305067,-0.336974
1.55199,-8.82269,-1.31925,17.1812,-0.511343,-0.327026,-0.338752
0.816003,-10.1104,-2.1055,17.3974,-0.50774,-0.242716,-0.341145
0.431697,-11.6298,-2.54891,17.1273,-0.418494,-0.15992,-0.342433
0.34022,-12.6747,-2.7263,17.0153,-0.453421,-0.159992,-0.336158
0.428659,-13.4525,-2.78953,17.2483,-0.447211,-0.167978,-0.33964
0.227761,-14.1743,-3.07716,17.5625,-0.396628,-0.138985,-0.334124
-0.173194,-14.6506,-3.43495,17.2464,-0.378161,-0.10528,-0.33561
-0.057913,-14.7571,-3.35585,16.7371,-0.411414,-0.13946,-0.336843
0.333351,-14.3907,-2.99876,16.6192,-0.380347,-0.156643,-0.331538
0.634571,-13.9518,-2.77829,16.7655,-0.341862,-0.165335,-0.327406
0.845903,-13.6394,-2.61983,16.8476,-0.406173,-0.210302,-0.336034
1.00302,-13.506,-2.62854,16.6225,-0.387722,-0.173669,-0.333138
1.04817,-13.2502,-2.69012,16.5189,-0.376198,-0.147419,-0.337015
1.22323,-13.1552,-2.55237,16.5805,-0.338717,-0.169157,-0.32918
1.28925,-13.0433,-2.51056,16.7458,-0.348985,-0.160418,-0.333404
1.24707,-13.2843,-2.54307,16.8075,-0.352357,-0.195217,-0.334268
1.0552,-13.4566,-2.69042,16.6193,-0.32854,-0.162906,-0.336717
1.00482,-13.5792,-2.62587,16.2068,-0.293142,-0.134705,-0.327859
0.972517,-13.7605,-2.55246,15.8501,-0.296248,-0.187075,-0.328081
0.696657,-13.9283,-2.77846,15.6348,-0.325989,-0.138935,-0.330943
0.457318,-14.2211,-2.99983,15.4896,-0.289236,-0.126453,-0.33143
0.297121,-14.3303,-3.15837,15.4627,-0.277284,-0.157047,-0.335232
0.518567,-14.4533,-3.01794,15.208,-0.242944,-0.181536,-0.340274
0.709885,-14.6209,-2.82946,14.9376,-0.232811,-0.159342,-0.336135
0.811277,-14.9028,-2.73678,14.7571,-0.243523,-0.115873,-0.333816
1.07245,-15.0256,-2.55754,14.8006,-0.221736,-0.113434,-0.332122
1.74331,-14.4412,-2.09368,14.8888,-0.225888,-0.104615,-0.342353
2.51288,-13.373,-1.49088,15.2096,-0.255724,-0.0736163,-0.343656
3.22709,-12.0354,-0.960975,15.4847,-0.273364,-0.0113567,-0.337708
4.00522,-10.8006,-0.398375,15.6187,-0.285208,0.0162138,-0.336851
4.68213,-9.92293,0.0510504,15.5675,-0.321005,0.09737,-0.34335
5.20905,-9.53804,0.41715,15.5393,-0.318768,0.137264,-0.342379
5.73202,-9.64269,0.742301,15.6586,-0.262898,0.15243,-0.342502
6.09846,-10.1111,0.894454,15.7734,-0.209973,0.183814,-0.349827
6.25125,-10.7223,0.898489,15.5081,-0.219955,0.169079,-0.344683
6.40172,-11.1923,0.923877,15.2764,-0.210764,0.193056,-0.337006
6.54225,-11.6031,0.890421,15.4831,-0.207619,0.0823292,-0.342232
6.57576,-12.2235,0.820138,15.8436,-0.179085,0.0758319,-0.343314
6.45496,-13.1078,0.613392,16.2229,-0.165904,-0.00178655,-0.34223
6.33888,-14.2789,0.394939,16.6777,-0.174858,-0.0147535,-0.345626
6.24671,-15.6238,0.0773986,17.2514,-0.189794,-0.0156867,-0.343211
6.04895,-17.1991,-0.332242,17.909,-0.170492,-0.00831385,-0.35159
5.98958,-18.7694,-0.766265,18.5786,-0.149735,0.0241542,-0.344827
6.11931,-19.9758,-1.0356,19.3059,-0.15014,-0.00292002,-0.346585
6.51195,-20.606,-1.14698,20.0526,-0.176567,0.0211101,-0.344175
6.83586,-20.7486,-1.27765,20.2137,-0.18675,0.0650231,-0.350009
7.13467,-20.4272,-1.24649,19.5754,-0.171944,0.050755,-0.345903
7.48398,-19.5281,-1.03392,18.726,-0.122775,0.0298496,-0.344239
7.71105,-18.3365,-0.902705,18.2469,-0.156038,-0.0648371,-0.349164
7.79866,-17.3248,-0.785152,18.2512,-0.236805,-0.0354531,-0.356451
8.07927,-16.3572,-0.523035,18.8284,-0.275185,-0.00395314,-0.351039
8.66018,-15.3592,-0.014376,19.6697,-0.306574,-0.089452,-0.341243
9.22165,-14.1676,0.381652,20.2954,-0.332515,-0.136237,-0.342676
9.61352,-12.9696,0.712836,20.1802,-0.352615,-0.164504,-0.352648
9.70567,-11.6954,0.88852,19.4664,-0.379974,-0.150783,-0.357055
9.97433,-10.412,1.20959,19.0106,-0.403807,-0.1013,-0.363023
10.5109,-9.20069,1.75269,19.2584,-0.427737,-0.129672,-0.353936
10.8197,-8.06224,2.11291,19.6222,-0.461062,-0.216438,-0.352898
10.5518,-6.87576,1.97553,19.0949,-0.437506,-0.17579,-0.362099
10.6568,-5.56381,2.23684,17.7732,-0.479303,-0.178821,-0.365318
11.1051,-3.94605,2.76724,16.8736,-0.549292,-0.209575,-0.367413
11.0757,-2.78975,2.83724,16.7689,-0.478024,-0.180087,-0.371614
11.0898,-2.20922,2.98292,16.976,-0.542267,-0.198457,-0.361793
11.4382,-1.77067,3.26634,17.494,-0.58241,-0.14196,-0.359008
11.3608,-1.63164,3.19339,17.9492,-0.556802,-0.126926,-0.362236
11.3632,-1.65979,3.23236,17.5608,-0.574547,-0.195387,-0.36336
10.9705,-1.6096,3.00027,17.0742,-0.648344,-0.153565,-0.371999
10.5742,-2.05844,2.70597,16.6029,-0.579713,-0.08348,-0.373505
10.5794,-2.59686,2.89386,16.5983,-0.612766,-0.164811,-0.372206
10.2293,-2.94344,2.59303,17.2186,-0.599212,-0.119954,-0.380943
10.2062,-3.99451,2.53713,18.512,-0.52932,-0.126134,-0.368927
10.0317,-4.55342,2.01381,20.0516,-0.681154,-0.0029569,-0.376677
9.74524,-6.13654,1.20688,21.504,-0.640426,0.155238,-0.376849
9.58782,-8.3839,0.304215,22.9484,-0.659518,0.21296,-0.378844
8.8659,-11.2918,-1.28106,24.2398,-0.686711,0.376295,-0.387271
8.14351,-15.4343,-2.80203,25.584,-0.595055,0.582322,-0.381179
7.25044,-19.2275,-4.37351,26.5193,-0.591236,0.724688,-0.388469
6.05526,-23.24,-5.97779,27.1685,-0.49942,0.828639,-0.378196
5.26887,-26.6563,-7.06232,27.5871,-0.382703,0.945631,-0.375366
4.60475,-28.7347,-7.85121,27.5711,-0.460939,0.983069,-0.377222
3.56265,-30.218,-8.59799,27.1458,-0.395398,0.99556,-0.390506
2.22632,-31.3699,-9.34536,26.283,-0.236594,1.02568,-0.385289
1.18222,-32.5049,-9.73037,25.4707,-0.29031,1.02556,-0.387782
0.221469,-33.2709,-10.0182,24.6383,-0.28537,1.082,-0.376963
-0.940714,-33.9896,-10.3821,23.4598,-0.307906,1.09094,-0.385141
-1.94596,-35.2494,-10.463,21.8749,-0.172521,0.9844,-0.387338
-3.11614,-36.057,-10.7752,20.7591,-0.100112,0.929633,-0.375943
-4.07,-36.4241,-10.8071,20.0666,-0.035487,0.918127,-0.375613
-4.35136,-36.3621,-10.2222,19.3095,0.0100616,0.816127,-0.362694
-4.81606,-35.7097,-9.88206,18.0167,0.0681543,0.737446,-0.386
-5.05793,-34.9383,-9.5465,17.0872,0.0771112,0.683657,-0.364566
-5.20757,-33.8554,-9.16854,16.3467,0.0569816,0.642542,-0.374122
-5.13049,-33.2919,-8.76795,15.7319,0.124871,0.556727,-0.370398
-4.83629,-33.2237,-8.33779,15.0362,0.182404,0.509624,-0.361582
-4.91025,-32.6656,-8.26292,14.0707,0.106662,0.551196,-0.372901
-4.72864,-32.2236,-7.85382,12.6497,0.156921,0.489292,-0.353947
-4.95693,-31.6549,-7.75317,10.6108,0.207791,0.371561,-0.374594
-5.67554,-31.4785,-7.81662,8.35704,0.255167,0.373864,-0.369364
-6.0941,-31.3155,-7.44134,6.4068,0.260046,0.322012,-0.369454
-6.85615,-30.3738,-7.17264,4.64724,0.26011,0.211231,-0.377298
-7.90475,-30.2527,-6.8452,2.87388,0.384613,0.0638973,-0.38477
-9.26119,-30.363,-6.94117,1.46655,0.334144,0.0141134,-0.371716
-10.5427,-30.6733,-7.11854,0.746683,0.334915,0.0114354,-0.36651
-11.0992,-30.851,-6.8106,0.353777,0.387629,-0.121481,-0.371524
-11.0291,-30.6658,-6.52105,0.482274,0.357288,-0.191797,-0.362615
-11.3089,-31.0075,-6.68407,1.02777,0.348098,-0.149534,-0.358949
-11.5375,-31.7992,-7.1781,1.53668,0.410436,-0.176083,-0.368224
-10.8489,-32.0077,-7.24219,2.22093,0.374104,-0.160961,-0.372526
-9.44567,-31.8162,-6.91176,3.03157,0.330146,-0.116243,-0.372637
-8.76777,-31.8387,-7.14731,3.96233,0.32549,-0.110427,-0.371833
-8.24946,-32.4838,-7.58929,4.68711,0.356864,-0.0589017,-0.372966
-7.31282,-33.0644,-7.72785,5.54096,0.348138,0.0209628,-0.363456
-6.02912,-32.8521,-7.75021,6.57234,0.27361,0.0267351,-0.361456
-4.72077,-32.7733,-7.58197,7.36387,0.282632,0.0351626,-0.364632
-4.12358,-32.9129,-7.75926,7.6153,0.260801,0.0602083,-0.37873
-3.77378,-33.6108,-8.16047,8.16253,0.21526,0.0901935,-0.385249
-3.35688,-34.5474,-8.26337,9.02831,0.27531,0.0716345,-0.376806
-2.78632,-34.9034,-8.1148,9.32954,0.306062,0.0578445,-0.363864
-2.55243,-35.1982,-8.0323,9.37193,0.287478,0.106657,-0.365698
-3.04844,-35.7538,-8.49639,9.47347,0.302526,0.146675,-0.3652
-3.47953,-36.5317,-8.96223,9.71029,0.359356,0.0755956,-0.364916
-3.23826,-37.2081,-8.93161,10.3021,0.403405,0.00243647,-0.356235
-3.13102,-37.0348,-8.86641,10.4046,0.391589,0.0600735,-0.360848
-3.4559,-37.0863,-8.90467,10.4862,0.40392,0.048191,-0.350801
-3.81036,-37.3285,-9.16974,10.5637,0.505629,0.0172335,-0.355386
-3.88578,-37.715,-9.40935,10.8381,0.409182,0.0393661,-0.361315
-3.84287,-38.2635,-9.53939,10.9437,0.37186,0.0939579,-0.365096
-4.13402,-38.1716,-9.82702,11.0449,0.397268,0.152645,-0.367217
-4.12243,-38.3787,-9.8214,11.0297,0.409966,0.134827,-0.365873
-3.91082,-38.6397,-9.79058,11.1883,0.375552,0.17679,-0.367079
-3.80068,-39.2249,-10.0869,11.3009,0.390595,0.217038,-0.370536
-3.92604,-39.8751,-10.5018,11.3686,0.430456,0.190202,-0.36692
-3.8795,-40.0347,-10.7213,11.4889,0.493047,0.183422,-0.357179
-3.63483,-40.3272,-10.7264,11.5787,0.454147,0.181713,-0.356348
-3.69881,-40.9284,-11.0353,11.5067,0.482817,0.172753,-0.364987
-4.14209,-41.6678,-11.5435,11.4317,0.519497,0.198573,-0.366533
-4.31689,-42.2519,-11.7604,11.5814,0.516488,0.223438,-0.368759
-4.38222,-42.2199,-11.7813,11.6262,0.496764,0.273303,-0.364136
-4.60557,-42.4388,-11.8337,11.4779,0.496012,0.273151,-0.354448
-5.26264,-42.8083,-12.2006,11.2262,0.553383,0.300194,-0.358801
-5.84439,-43.1227,-12.4318,11.3059,0.587978,0.325432,-0.351622
-6.16035,-43.38,-12.462,11.2512,0.532337,0.321037,-0.351483
-6.68669,-43.339,-12.5539,11.0714,0.456958,0.343904,-0.356302
-7.32114,-43.5956,-12.6498,10.5758,0.562779,0.279611,-0.339181
-8.14278,-43.7058,-12.8269,10.2701,0.657097,0.187695,-0.340268
-8.7535,-43.9061,-12.9881,10.2258,0.5803,0.197994,-0.345385
-9.18664,-44.0068,-13.127,10.3125,0.518526,0.282105,-0.341626
-9.37429,-43.7432,-13.1755,10.3475,0.529907,0.25484,-0.337289
-9.42979,-43.7091,-13.0628,10.0621,0.60295,0.174109,-0.342168
-9.83559,-43.699,-13.2996,9.71641,0.601928,0.173142,-0.335767
-10.2444,-43.9483,-13.6477,9.51504,0.639922,0.160915,-0.343491
-10.2184,-44.0913,-13.7254,9.63173,0.626901,0.130987,-0.341052
-9.96033,-43.8239,-13.5871,9.72696,0.596272,0.131753,-0.342548
-9.90322,-44.0027,-13.537,9.82082,0.550311,0.127174,-0.351397
-10.0969,-44.0412,-13.7476,9.67472,0.545337,0.150075,-0.342068
-9.90666,-43.9898,-13.7111,9.54983,0.620601,0.107852,-0.344111
-9.42527,-43.6918,-13.419,9.35479,0.652159,0.0589815,-0.335952
-9.35458,-43.5935,-13.3674,9.27607,0.6227,0.0414232,-0.330909
-9.35837,-44.2223,-13.5122,9.1855,0.656599,0.0573408,-0.343126
-8.97205,-44.9132,-13.5439,9.30357,0.636239,0.0425244,-0.34175
-8.2473,-45.474,-13.5205,9.60753,0.651063,0.0423905,-0.334653
-7.55116,-45.7623,-13.5837,9.73394,0.663629,0.0730184,-0.333723
-6.80051,-46.249,-13.5809,9.69788,0.712994,0.0301238,-0.326393
-5.80983,-46.8904,-13.6129,9.85971,0.806729,-0.0132602,-0.332356
-4.60085,-47.5044,-13.6027,10.5347,0.78197,-0.0197807,-0.33452
-3.20871,-47.9856,-13.4318,11.0852,0.738499,0.0289763,-0.328547
-2.15595,-47.9454,-13.2528,11.4134,0.736136,0.0324737,-0.343708
-1.03435,-47.6528,-12.7864,11.3152,0.804704,-0.0249907,-0.332107
0.185912,-47.1555,-12.0653,11.3843,0.7447,-0.0100539,-0.330104
1.53258,-46.5199,-11.245,11.9706,0.714712,0.0856009,-0.329395
3.03817,-45.6498,-10.3971,13.446,0.698075,0.046522,-0.308377
4.84798,-44.8385,-9.57711,15.183,0.723116,-0.0222405,-0.311555
6.69281,-44.0529,-8.99208,17.0199,0.673423,0.00382455,-0.299574
8.60186,-43.3303,-8.64833,18.747,0.631949,0.0667496,-0.298845
10.5396,-42.72,-8.54339,20.2266,0.583968,0.0534552,-0.29377
12.2222,-42.6073,-8.8717,21.5567,0.597694,0.0805868,-0.291526
13.4248,-42.9772,-9.46629,22.4734,0.639496,0.140375,-0.295939
14.2094,-43.7331,-9.96609,22.7557,0.656317,0.100115,-0.298892
14.319,-44.5882,-10.601,22.6384,0.669714,0.0747819,-0.294439
13.6079,-45.847,-11.5229,22.1747,0.732846,0.0601515,-0.314157
12.6486,-47.3907,-12.1625,21.5778,0.759284,0.00692524,-0.307361
11.6428,-48.7437,-12.5975,20.9677,0.776409,-0.0510667,-0.312462
10.0377,-50.1168,-13.2081,20.2929,0.840142,-0.10695,-0.317473
8.25753,-51.595,-13.729,19.4837,0.837421,-0.12058,-0.317112
6.82665,-52.5359,-14.0618,18.8272,0.821779,-0.0975095,-0.316008
5.48161,-53.2731,-14.4966,18.3425,0.837975,-0.0152654,-0.316799
4.02073,-54.1421,-14.9117,17.4164,0.873784,0.0305689,-0.307535
2.38701,-54.6007,-15.3556,16.1608,0.901868,0.080155,-0.317126
0.795986,-54.8438,-15.8406,15.4794,0.908446,0.0757563,-0.316766
-0.29976,-54.9937,-15.9528,15.2163,0.921699,0.034893,-0.321428
-0.876133,-54.5822,-15.8198,14.9917,0.906292,0.0423619,-0.312406
-1.50325,-54.0473,-15.8551,14.7215,0.915453,0.0774247,-0.311502
-2.30418,-53.5562,-16.0542,14.2032,0.86478,0.107544,-0.31996
-2.65609,-52.8622,-15.9699,13.4312,0.83413,0.04118,-0.321188
-2.49752,-52.0254,-15.6263,13.1409,0.861495,0.0104581,-0.313174
-2.43798,-51.4289,-15.4344,13.3278,0.816956,0.00777825,-0.309513
-2.22859,-51.1788,-15.2247,13.8614,0.753133,0.0645131,-0.305812
-1.69805,-50.658,-14.9412,14.3311,0.791773,0.0777567,-0.317762
-1.22858,-50.1592,-14.7913,14.3849,0.80146,0.0128929,-0.317013
-0.990078,-49.571,-14.8566,14.1328,0.748251,0.0993414,-0.315215
-0.465904,-48.8942,-14.6873,13.9679,0.740811,0.148062,-0.320844
0.573997,-48.0168,-14.2856,14.5847,0.738797,0.195882,-0.317498
1.73669,-47.212,-14.0843,15.7953,0.670606,0.365342,-0.314035
2.61871,-46.6476,-14.1084,16.7792,0.654186,0.480967,-0.321019
3.37451,-45.8797,-14.018,16.8362,0.665247,0.485081,-0.333966
3.91324,-45.0962,-13.7623,16.3502,0.614078,0.431808,-0.331353
4.05648,-44.3262,-13.5004,16.0135,0.610611,0.413698,-0.328027
3.8801,-43.893,-13.374,16.108,0.632999,0.399951,-0.331758
3.65021,-43.6928,-13.1934,16.7567,0.573929,0.420173,-0.335601
3.3374,-43.3762,-12.9617,17.1444,0.571456,0.445392,-0.322716
2.69504,-42.7605,-12.7051,16.8338,0.565755,0.405645,-0.330366
1.97148,-42.2409,-12.4867,15.7283,0.563104,0.300214,-0.33194
1.17704,-41.9004,-12.3344,14.891,0.538006,0.233212,-0.329918
0.767525,-41.7322,-12.0472,14.6322,0.556718,0.169023,-0.332996
0.818864,-41.4959,-11.6791,15.2645,0.510543,0.158614,-0.329869
1.16144,-41.0297,-11.3844,16.0365,0.51531,0.23845,-0.334914
1.3175,-40.504,-11.3464,16.2849,0.496139,0.309767,-0.329993
1.27863,-39.8971,-11.5605,15.9125,0.479323,0.389961,-0.342827
1.4871,-39.7161,-11.6118,15.6849,0.500379,0.484222,-0.334741
1.95002,-39.5935,-11.5988,16.0233,0.498789,0.526503,-0.337095
2.42915,-39.4864,-11.4966,16.3393,0.525523,0.471265,-0.33984
2.45062,-39.1758,-11.4266,16.3623,0.551392,0.377026,-0.338889
2.0344,-38.739,-11.5712,16.5087,0.570497,0.343039,-0.339854
1.74765,-38.3515,-11.4955,16.7503,0.532427,0.383556,-0.339608
1.66282,-38.1956,-11.2463,17.0043,0.454762,0.460687,-0.352214
1.34612,-38.2684,-11.1227,17.0185,0.465877,0.522637,-0.34879
0.584093,-38.338,-11.1367,16.3357,0.455824,0.515423,-0.344042
-0.256301,-38.1907,-11.1791,15.6156,0.440745,0.521802,-0.348245
-0.802241,-37.8046,-11.1095,15.5928,0.491783,0.483352,-0.336738
-0.880618,-37.5779,-10.8294,15.9904,0.489444,0.330593,-0.340505
-0.851065,-37.28,-10.4921,16.1189,0.380623,0.226295,-0.345162
-1.13457,-36.7953,-10.2438,15.5817,0.408622,0.0766419,-0.337037
-1.57953,-36.2557,-10.1252,14.8028,0.461675,-0.0939372,-0.34222
-1.75153,-35.7362,-10.0657,14.4665,0.443944,-0.0119168,-0.334597
-1.35807,-35.4096,-9.81896,14.8288,0.397468,0.074937,-0.334615
-0.680882,-35.0187,-9.52371,15.3861,0.393592,0.0943286,-0.338004
-0.18072,-34.6132,-9.34239,15.5222,0.393791,0.124736,-0.346485
0.132729,-34.2718,-9.33682,15.6499,0.39045,0.206082,-0.34142
0.612633,-34.2367,-9.41042,16.0408,0.354605,0.27587,-0.341617
1.09727,-34.5563,-9.44196,16.3921,0.370558,0.334672,-0.342889
1.40129,-34.8081,-9.53031,16.7999,0.396015,0.332996,-0.343619
1.59898,-34.7959,-9.58646,17.1867,0.426964,0.273475,-0.332303
1.72985,-34.4111,-9.4319,16.8834,0.413311,0.229027,-0.333257
1.62657,-33.9041,-9.23157,16.1737,0.357297,0.191135,-0.342492
1.07041,-33.4991,-9.27606,15.8421,0.338796,0.131106,-0.341975
0.56602,-33.3696,-9.22936,15.8893,0.390227,0.101112,-0.333283
0.248207,-33.5333,-8.98104,15.9103,0.406752,0.127232,-0.331377
-0.210276,-33.5545,-8.83628,15.7633,0.345716,0.187068,-0.330519
-0.67475,-33.4533,-8.72146,15.51,0.378748,0.194853,-0.325526
-0.972342,-33.2062,-8.61485,15.3316,0.394243,0.10223,-0.324179
-0.938487,-32.8396,-8.42891,15.4166,0.380504,0.024176,-0.332676
-0.619397,-32.6591,-8.23193,16.0517,0.333207,0.0343553,-0.331234
-0.250927,-32.5128,-8.14964,16.5731,0.324778,0.0787513,-0.332471
-0.0731241,-32.4116,-8.21429,16.4235,0.32727,0.0901258,-0.336386
-0.123606,-32.385,-8.43293,15.9886,0.331435,0.127929,-0.341881
-0.155521,-32.3949,-8.67284,15.8472,0.368524,0.154036,-0.344063
0.196509,-32.5881,-8.63537,16.027,0.37022,0.181977,-0.34144
0.682503,-32.5818,-8.49088,16.7348,0.311822,0.262126,-0.343634
1.0738,-32.4409,-8.37082,17.4591,0.351733,0.31776,-0.340983
1.13638,-32.34,-8.36138,17.4682,0.324989,0.271245,-0.344094
0.923399,-32.2343,-8.37022,16.8258,0.32518,0.275688,-0.346918
0.742554,-32.2173,-8.26806,16.3967,0.356797,0.26051,-0.341724
0.657987,-32.4515,-8.17221,16.5614,0.36401,0.219977,-0.342277
0.559348,-32.793,-8.11329,16.852,0.385685,0.288524,-0.339825
0.211676,-32.832,-8.15821,16.7664,0.381744,0.249092,-0.334013
-0.235407,-32.488,-8.21151,16.6844,0.378577,0.215509,-0.338257
-0.285143,-32.0035,-8.04969,16.9589,0.356127,0.240541,-0.346512
0.0448411,-31.5937,-7.73682,17.3128,0.357936,0.301495,-0.344464
0.226905,-31.4332,-7.56229,17.3926,0.327463,0.324384,-0.333205
0.0426054,-31.4184,-7.70413,17.1433,0.346191,0.343289,-0.338485
-0.202806,-31.4301,-7.82972,16.6853,0.362719,0.248871,-0.345419
-0.0507175,-31.6264,-7.68773,16.5472,0.343684,0.152646,-0.356048
0.324853,-31.7702,-7.55952,17.1784,0.311162,0.129023,-0.342252
0.643973,-31.9877,-7.44266,17.7799,0.337909,0.128843,-0.348547
0.622008,-31.8383,-7.53038,17.708,0.309583,0.157038,-0.345593
0.491425,-31.3814,-7.60036,17.041,0.310861,0.191882,-0.338947
0.555937,-31.0476,-7.46897,16.6125,0.332677,0.171688,-0.343434
0.808415,-31.1395,-7.3045,16.8964,0.312104,0.138886,-0.342767
1.03265,-31.5222,-7.2806,17.5637,0.325499,0.158921,-0.336766
0.910361,-31.8299,-7.43941,17.791,0.33701,0.166836,-0.345471
0.632801,-31.8524,-7.5452,17.3957,0.320789,0.19892,-0.338447
0.491157,-31.7285,-7.49985,17.3694,0.331922,0.24747,-0.336483
0.71855,-31.7709,-7.32658,18.0784,0.346092,0.27557,-0.335182
0.923647,-31.8742,-7.2015,18.7177,0.341114,0.218365,-0.331053
0.755251,-31.7762,-7.26243,18.6457,0.373342,0.217217,-0.3389
0.416783,-31.3435,-7.2862,18.1173,0.371472,0.207184,-0.333197
0.35312,-30.9627,-7.16359,17.6742,0.365995,0.245508,-0.328399
0.486482,-30.989,-6.99559,18.014,0.340886,0.315879,-0.326871
0.532778,-31.2542,-7.05733,18.5503,0.361554,0.403511,-0.332739
0.3833,-31.513,-7.19106,18.6411,0.329104,0.4481,-0.316936
0.349476,-31.5701,-7.22177,18.5591,0.348778,0.485802,-0.326755
0.614368,-31.4576,-7.10538,18.4189,0.36676,0.411699,-0.336754
0.920002,-31.3804,-6.92219,18.0043,0.371043,0.263751,-0.328244
0.830538,-31.2112,-6.98687,17.7681,0.36903,0.190209,-0.32344
0.634068,-31.0649,-6.9944,17.7331,0.353495,0.11672,-0.328142
0.736471,-30.7829,-6.74439,17.7878,0.326544,0.0290817,-0.322566
0.902185,-30.5149,-6.4742,17.9845,0.373001,-0.0122974,-0.333331
0.675657,-30.5796,-6.58076,18.5204,0.350689,0.0471885,-0.318204
0.462953,-30.8273,-6.75901,18.9099,0.339792,0.140117,-0.324697
0.537286,-31.033,-6.66793,18.7744,0.418725,0.141575,-0.31882
0.645217,-31.0435,-6.53687,18.3055,0.375213,0.066232,-0.316967
0.653117,-30.967,-6.48244,17.8822,0.347987,0.0624104,-0.317253
0.558367,-30.9054,-6.47321,17.8355,0.385199,0.0347235,-0.313622
0.557361,-30.8865,-6.42823,18.2793,0.399109,0.032212,-0.316066
0.741909,-30.7543,-6.26564,18.8559,0.373315,0.0598789,-0.315438
0.923412,-30.5282,-6.06423,18.7949,0.369897,0.0269991,-0.315394
0.785686,-30.2312,-6.05852,18.1371,0.38695,-0.0153903,-0.315355
0.66683,-30.084,-6.08213,17.5982,0.401791,0.0259879,-0.312458
0.896484,-30.2612,-5.93983,17.7648,0.420889,0.117016,-0.309979
1.3623,-30.6353,-5.75891,18.2227,0.416433,0.186562,-0.318263
1.56505,-30.7761,-5.75804,18.4387,0.393776,0.21727,-0.307886
1.49219,-30.9897,-5.90065,18.5623,0.410298,0.180955,-0.316181
1.40231,-31.0651,-6.03074,18.7941,0.415155,0.148555,-0.312559
1.55644,-31.1745,-5.89417,18.7238,0.404545,0.106549,-0.317285
1.51603,-31.023,-5.7332,18.5225,0.426422,0.12105,-0.318278
1.0471,-30.9215,-5.88669,18.3499,0.459384,0.181495,-0.320724
0.648589,-30.8805,-5.94673,18.0646,0.468818,0.239583,-0.321823
0.769504,-30.9244,-5.70428,18.1596,0.463902,0.282571,-0.324245
1.13383,-31.037,-5.40021,18.4859,0.422737,0.308585,-0.324224
1.15666,-31.0263,-5.3278,18.4367,0.383926,0.264757,-0.331462
1.03749,-31.1304,-5.34107,18.5225,0.426019,0.168116,-0.321417
1.16752,-31.219,-5.31574,19.2518,0.459028,0.141342,-0.312984
1.62108,-31.3975,-5.13967,20.0678,0.438711,0.108772,-0.315541
1.80795,-31.6027,-5.16801,20.405,0.440643,0.142149,-0.321917
1.49552,-31.5765,-5.51526,20.0657,0.455383,0.176154,-0.320562
1.2296,-31.4735,-5.74298,19.4807,0.457838,0.232948,-0.329328
1.24371,-31.5085,-5.73332,19.3657,0.45804,0.280401,-0.325769
1.18697,-31.6497,-5.82566,19.9396,0.452632,0.304239,-0.329021
1.00643,-31.7938,-5.91139,20.3288,0.479618,0.247117,-0.324047
0.827832,-31.5188,-5.86012,20.2955,0.494846,0.206707,-0.32809
0.774786,-31.1892,-5.67502,20.4195,0.473734,0.142535,-0.330598
0.703649,-31.184,-5.60083,20.6052,0.47031,0.129395,-0.32289
0.361608,-31.4007,-5.74753,20.6001,0.453529,0.174623,-0.327421
-0.0696054,-31.6674,-5.91941,20.5527,0.486409,0.251245,-0.335499
-0.351745,-31.5244,-5.97012,20.169,0.496805,0.314039,-0.32796
-0.457943,-31.0824,-5.90874,19.7432,0.464084,0.340592,-0.330523
-0.52402,-30.7558,-5.91385,20.0456,0.492103,0.346729,-0.332785
-0.587545,-30.479,-5.96543,20.7876,0.503485,0.308497,-0.324663
-0.413309,-30.0873,-5.76764,21.1,0.498013,0.231031,-0.331731
-0.146926,-29.4705,-5.46223,20.7319,0.510149,0.147333,-0.3384
-0.210692,-28.8819,-5.41242,20.1065,0.51217,0.13708,-0.331226
-0.36695,-28.6921,-5.50451,19.614,0.510436,0.196583,-0.331091
-0.307247,-28.8942,-5.49173,20.0501,0.53756,0.28384,-0.325757
-0.00420321,-29.2043,-5.35736,21.0523,0.559635,0.377982,-0.325324
0.22327,-29.2907,-5.26671,21.5893,0.538876,0.459493,-0.329098
0.0401871,-29.2216,-5.43798,21.4322,0.547762,0.509975,-0.325096
-0.423232,-28.9484,-5.79664,20.8792,0.578569,0.422051,-0.340584
-0.59511,-28.6802,-5.96875,20.671,0.609895,0.324653,-0.321781
-0.594998,-28.5734,-5.98387,20.9962,0.609195,0.316938,-0.331893
-0.865632,-28.3747,-6.13843,21.2181,0.581991,0.384013,-0.33419
-1.53757,-28.1595,-6.61288,21.3405,0.626155,0.387833,-0.330727
-2.53002,-28.123,-7.34762,21.4986,0.708888,0.455049,-0.332416
-3.51611,-28.3552,-8.12399,21.4509,0.66697,0.527975,-0.337043
-4.2219,-28.5942,-8.63782,21.0079,0.658426,0.47927,-0.343873
-4.81775,-28.4288,-8.92618,19.9992,0.732091,0.372757,-0.339742
-5.33505,-27.8046,-8.95534,18.7108,0.709067,0.321584,-0.335509
-5.44202,-26.7964,-8.51485,17.5422,0.708714,0.234345,-0.325106
-4.92371,-25.3571,-7.55198,16.9703,0.740264,0.0797458,-0.318945
-3.79501,-23.8028,-6.20736,17.2467,0.629695,-0.0316276,-0.323979
-2.14453,-22.2572,-4.55782,17.7215,0.555704,-0.155876,-0.323245
-0.30732,-20.5582,-2.89852,17.5037,0.528268,-0.265015,-0.312362
1.44006,-18.7668,-1.47009,16.8389,0.417989,-0.408547,-0.316914
3.2609,-17.2163,-0.202985,16.2791,0.388736,-0.462701,-0.30599
5.08514,-16.0804,0.87561,16.295,0.314093,-0.396057,-0.309488
6.55934,-15.8213,1.46137,17.2113,0.234669,-0.36352,-0.311398
7.30716,-16.6731,1.28686,18.9118,0.307852,-0.224881,-0.313632
7.25237,-18.438,0.467073,20.3172,0.331574,-0.0128823,-0.32384
6.73442,-20.7289,-0.609967,21.0973,0.317544,0.175931,-0.318612
5.80379,-23.2686,-1.87886,21.2615,0.430953,0.289616,-0.324038
4.28641,-26.1434,-3.35917,21.5175,0.495141,0.379471,-0.320983
2.44346,-29.1204,-4.95063,22.0904,0.561614,0.506142,-0.319778
0.654523,-31.6174,-6.36379,22.7964,0.650068,0.5913,-0.32491
-0.837017,-33.6018,-7.31669,23.0126,0.719336,0.615588,-0.329831
-2.10654,-34.7636,-7.87914,22.3472,0.728225,0.62863,-0.326606
-3.3193,-35.0462,-8.25468,21.2574,0.742172,0.585628,-0.334269
-4.23934,-34.7655,-8.41137,20.4319,0.7851,0.517991,-0.330679
-4.36638,-34.0231,-8.0022,20.3871,0.778296,0.518735,-0.321275
-3.69821,-32.7416,-7.09885,20.6104,0.746119,0.488763,-0.314584
-2.67591,-30.6572,-6.10013,20.5051,0.695481,0.428626,-0.311385
-2.02252,-28.3258,-5.47883,19.8557,0.63207,0.409831,-0.31766
-1.67145,-26.2743,-5.39676,19.5671,0.56111,0.418814,-0.306845
-0.789376,-24.8718,-5.09407,19.8836,0.562625,0.391367,-0.308399
0.368143,-23.7453,-4.64933,19.9786,0.529308,0.349027,-0.308868
1.12792,-22.6563,-4.43001,19.3409,0.502077,0.357115,-0.302772
1.44066,-21.378,-4.39743,17.9961,0.478667,0.388528,-0.30649
1.54084,-19.8633,-4.34747,16.5385,0.405768,0.338678,-0.304164
1.50068,-18.3902,-4.22435,15.2048,0.363882,0.30049,-0.299876
1.2915,-17.3269,-4.00656,14.1583,0.346572,0.264084,-0.295621
1.1478,-16.3353,-3.71029,13.4043,0.310711,0.197405,-0.292689
0.921788,-15.4353,-3.47956,12.9994,0.316822,0.13413,-0.28622
0.629459,-14.9383,-3.24614,13.0468,0.319214,0.0782109,-0.280354
0.669064,-14.5673,-2.80885,13.1389,0.291326,0.0526675,-0.283961
0.53232,-14.2677,-2.74052,13.4336,0.256887,0.0615774,-0.279223
0.259377,-14.4686,-2.83446,13.8185,0.298184,-0.00165982,-0.289866
0.533907,-14.5912,-2.69392,14.238,0.313836,-0.0182496,-0.278473
0.940767,-14.5353,-2.49168,14.6081,0.287821,-0.00524215,-0.285478
1.35605,-14.8839,-2.34756,15.0297,0.302621,-0.00439088,-0.288602
1.94825,-15.1661,-2.21405,15.3596,0.327165,-0.0630924,-0.27673
2.30123,-15.0284,-2.30934,15.6371,0.337238,-0.0234034,-0.285548
2.57229,-15.0542,-2.40181,15.7685,0.358232,0.0431916,-0.280427
3.24414,-14.9232,-2.21269,16.1971,0.327104,0.0249004,-0.278967
3.84067,-14.7418,-2.05376,16.6999,0.336771,0.0364456,-0.280816
4.14029,-15.2364,-2.03723,17.1293,0.362371,0.0698113,-0.281821
4.59852,-16.0209,-1.92902,17.6861,0.337998,0.126473,-0.280158
4.86011,-16.8228,-1.94483,17.9768,0.366143,0.114671,-0.276925
4.71519,-17.9308,-2.18802,18.1153,0.438773,0.113197,-0.283407
4.63216,-18.7801,-2.39633,18.4626,0.435215,0.124014,-0.288577
4.60879,-19.3583,-2.59589,18.7371,0.433627,0.147208,-0.292944
4.35109,-19.8339,-2.86727,19.0208,0.441122,0.124616,-0.298955
4.18985,-20.3324,-2.99814,19.3178,0.482184,0.115464,-0.302181
4.08988,-20.5364,-3.06884,19.7384,0.47487,0.152879,-0.305773
3.94117,-20.9817,-3.25506,20.0825,0.479898,0.184367,-0.307217
3.75433,-21.5553,-3.51251,20.2329,0.536059,0.141056,-0.31061
3.81169,-21.8091,-3.57377,20.307,0.576931,0.141541,-0.305799
3.94539,-21.9969,-3.64976,20.8567,0.514829,0.201735,-0.299907
3.99325,-22.5367,-3.89124,21.7266,0.514127,0.212228,-0.304198
3.92333,-23.0343,-4.13289,22.0892,0.585093,0.193761,-0.311396
3.90555,-23.3633,-4.19109,21.5894,0.588652,0.221426,-0.308454
3.6823,-23.3277,-4.28237,20.8095,0.508518,0.22784,-0.308838
3.43047,-23.3504,-4.44527,20.1771,0.554385,0.198284,-0.311177
3.21772,-23.5337,-4.57134,20.0754,0.575001,0.221888,-0.310222
3.15664,-23.963,-4.67329,20.5525,0.534436,0.252916,-0.306673
3.1536,-24.5302,-4.82357,21.3581,0.561223,0.239551,-0.307266
3.18487,-25.1951,-4.99529,21.5265,0.657275,0.227599,-0.308575
3.16809,-25.5633,-5.2329,20.922,0.62287,0.279015,-0.312004
3.31518,-25.7401,-5.2867,20.1497,0.560853,0.293251,-0.306167
3.41166,-25.847,-5.39418,19.8306,0.603363,0.267617,-0.310231
3.29178,-26.0596,-5.63509,20.1192,0.637051,0.27829,-0.311936
3.35815,-26.5856,-5.70101,20.7509,0.636677,0.22653,-0.301009
3.59048,-26.6849,-5.61818,21.5249,0.659416,0.239169,-0.311523
3.85473,-26.7056,-5.44971,22.1285,0.665725,0.302833,-0.31241
3.96837,-26.8374,-5.4559,22.6934,0.632913,0.244111,-0.299074
4.10751,-27.0587,-5.58673,23.2787,0.710197,0.25484,-0.304325
4.59486,-27.461,-5.40509,23.7926,0.737952,0.30831,-0.307665
4.97408,-27.5898,-5.29176,23.9323,0.642447,0.31279,-0.300809
5.15853,-27.4983,-5.19899,23.7249,0.661094,0.315057,-0.296797
5.3551,-27.2981,-4.93454,23.3542,0.703722,0.305135,-0.301649
5.54264,-26.9102,-4.68585,23.2307,0.654239,0.229672,-0.292127
5.80718,-26.6758,-4.35662,23.4168,0.653915,0.223548,-0.29392
5.93812,-26.366,-4.05077,23.505,0.63387,0.282695,-0.2926
5.68296,-25.9394,-4.01755,23.1349,0.56756,0.233399,-0.291514
5.22748,-25.8703,-4.13429,22.7542,0.617351,0.200405,-0.294241
4.93041,-26.0152,-4.21301,22.4015,0.643189,0.236035,-0.296845
4.82746,-26.2681,-4.14975,22.3138,0.56006,0.225869,-0.298122
4.80547,-26.8683,-4.09734,22.3066,0.616836,0.183917,-0.291485
4.54756,-27.332,-4.22002,22.3337,0.677802,0.153443,-0.299981
4.42294,-27.6526,-4.23074,21.9639,0.652261,0.177375,-0.298655
4.40268,-27.6347,-4.14605,21.771,0.646376,0.218574,-0.307014
4.43455,-27.5736,-4.1098,21.5587,0.741526,0.165243,-0.299254
4.47137,-27.7067,-4.12799,21.5594,0.776772,0.164337,-0.292601
4.49044,-28.0769,-4.24541,21.4745,0.749532,0.204166,-0.298338
4.31898,-28.4197,-4.5431,21.3782,0.784044,0.203157,-0.299402
4.27761,-28.7556,-4.79329,20.9882,0.866535,0.153088,-0.301242
4.55006,-29.0051,-4.75734,20.6828,0.832162,0.114589,-0.29965
5.05,-29.2158,-4.65422,20.6976,0.837103,0.100144,-0.303696
5.43356,-29.5514,-4.71405,20.9128,0.858428,0.110809,-0.307306
5.70665,-30.0798,-4.78578,20.8843,0.807111,0.123201,-0.310139
6.22138,-30.5435,-4.69992,20.6961,0.828961,0.152765,-0.311031
6.77198,-30.5601,-4.54034,20.3666,0.761866,0.174071,-0.307858
7.12015,-30.6145,-4.51135,20.1281,0.698826,0.204011,-0.31043
7.36834,-30.7258,-4.52352,20.311,0.734124,0.258786,-0.310974
7.75068,-30.8666,-4.42812,20.572,0.753895,0.258732,-0.308552
8.14276,-31.006,-4.33577,20.8648,0.706379,0.243076,-0.304336
8.26731,-31.2989,-4.43933,20.8326,0.739548,0.24824,-0.303557
8.23996,-31.6692,-4.5721,20.5821,0.719579,0.248327,-0.303419
8.48703,-31.9952,-4.51185,20.4748,0.690991,0.259384,-0.304473
8.75594,-32.2249,-4.50348,20.6845,0.691313,0.249573,-0.304698
8.78932,-32.5749,-4.61009,20.7345,0.698425,0.199266,-0.303092
8.80947,-32.9297,-4.65794,20.8216,0.674806,0.192166,-0.298381
8.99973,-33.1991,-4.5605,20.6521,0.663168,0.207705,-0.291399
8.95361,-33.6426,-4.61521,20.468,0.590209,0.247183,-0.282532
8.82288,-34.0863,-4.83945,20.3941,0.596684,0.276532,-0.27604
9.00762,-34.4186,-4.79776,20.5116,0.629295,0.272628,-0.269959
9.39779,-34.5215,-4.69351,20.5596,0.590626,0.300556,-0.265493
9.46664,-34.67,-4.7959,20.7132,0.590018,0.345869,-0.261357
9.47559,-34.993,-4.91677,20.7606,0.648342,0.329347,-0.256216
9.73953,-35.3007,-4.83579,20.7769,0.649538,0.285903,-0.247718
9.93787,-35.7878,-4.84832,20.8421,0.681834,0.252504,-0.239709
9.78752,-36.2762,-5.0491,20.8357,0.659337,0.248325,-0.234249
9.76208,-36.5276,-5.08922,20.6845,0.623655,0.252167,-0.229941
9.81798,-36.4513,-4.99035,20.4939,0.60458,0.242929,-0.222138
9.60432,-36.5888,-5.13296,20.4652,0.584539,0.233953,-0.213488
9.31878,-36.9456,-5.25136,20.4142,0.602232,0.248151,-0.206756
9.29962,-37.4024,-5.17358,20.4085,0.595191,0.294994,-0.198697
9.22094,-37.9824,-5.25762,20.4069,0.543771,0.300411,-0.187546
9.05864,-38.5093,-5.45758,20.3696,0.582082,0.307113,-0.174764
9.10527,-38.8245,-5.47515,20.2152,0.586926,0.320401,-0.163876
9.35776,-38.801,-5.35783,20.1487,0.534822,0.349382,-0.157013
9.41852,-38.9985,-5.42209,20.1799,0.555874,0.347702,-0.151309
9.43249,-39.329,-5.46907,20.1822,0.585935,0.299003,-0.145412
9.63706,-39.7381,-5.40522,20.2288,0.61236,0.244025,-0.141424
9.68316,-40.1544,-5.48936,20.3016,0.568957,0.252059,-0.141317
9.53731,-40.5783,-5.6595,20.2675,0.506551,0.285855,-0.139339
9.44145,-40.7226,-5.64972,20.0491,0.538167,0.315091,-0.133163
9.43014,-40.6131,-5.56196,19.7938,0.521999,0.283753,-0.125124
9.33961,-40.7789,-5.57316,19.897,0.52542,0.299668,-0.119245
9.27977,-41.2425,-5.57436,19.9113,0.570645,0.33136,-0.117038
9.38018,-41.7237,-5.51924,19.9585,0.530075,0.30564,-0.111482
9.45426,-42.0997,-5.60611,20.0249,0.536892,0.251961,-0.107834
9.29123,-42.4748,-5.81892,20.1349,0.563597,0.238865,-0.107948
9.16111,-42.7701,-5.88382,20.2086,0.518166,0.269898,-0.108048
9.21038,-42.9354,-5.79834,20.3206,0.49121,0.288421,-0.105588
9.15989,-43.1316,-5.81156,20.4822,0.51118,0.258805,-0.0999654
9.02813,-43.5151,-5.82954,20.3391,0.506459,0.285298,-0.0975527
9.02227,-43.6318,-5.82564,20.1806,0.506844,0.345229,-0.0961687
9.01425,-43.6692,-5.89627,19.9683,0.526011,0.321958,-0.0933786
8.81495,-43.8441,-6.02088,19.8806,0.515306,0.260401,-0.0885634
8.64412,-44.1897,-6.05657,20.0169,0.538755,0.255843,-0.0890984
8.73345,-44.5087,-5.90352,20.2651,0.503587,0.244526,-0.0910216
8.76301,-44.9724,-5.86713,20.4546,0.497068,0.250265,-0.0924051
8.54837,-45.558,-6.01192,20.4424,0.532487,0.273017,-0.0924103
8.28076,-45.7893,-6.2748,20.2787,0.499608,0.279643,-0.0906501
8.20729,-45.8093,-6.34386,20.005,0.500384,0.304825,-0.0890967
8.0589,-45.9576,-6.36963,20.063,0.529621,0.322578,-0.0849415
7.9153,-46.2269,-6.33838,20.1221,0.487457,0.311969,-0.0801765
7.94796,-46.4148,-6.15769,20.2175,0.516765,0.253389,-0.0778145
7.75959,-46.4321,-6.20234,19.9904,0.518008,0.254047,-0.0797694
7.19641,-46.3087,-6.40115,19.5079,0.528622,0.278629,-0.0825535
6.83178,-46.3618,-6.47533,19.181,0.522575,0.262517,-0.0839908
6.82527,-46.506,-6.40455,19.4164,0.552411,0.250259,-0.0829454
7.01886,-47.0085,-6.26327,19.5652,0.538811,0.235128,-0.0833562
7.0297,-47.5049,-6.23944,19.7998,0.517084,0.285149,-0.0824638
6.9448,-47.5713,-6.30841,19.5479,0.533807,0.348862,-0.0828136
6.70798,-47.5409,-6.42825,19.1057,0.537806,0.320654,-0.081632
6.48146,-47.8827,-6.55645,19.2027,0.597093,0.316977,-0.0814913
6.71023,-48.3598,-6.44262,19.4559,0.593036,0.311889,-0.082622
7.02649,-48.4691,-6.19455,19.577,0.573213,0.310615,-0.0837767
6.92839,-48.2995,-6.21801,19.2781,0.551272,0.313334,-0.0858154
6.27508,-48.3233,-6.43794,18.7877,0.548461,0.282359,-0.0869871
5.88555,-48.4618,-6.57245,18.7094,0.626771,0.256907,-0.0899427
5.94568,-48.9375,-6.47733,18.8765,0.545262,0.26876,-0.0921196
6.05434,-49.3362,-6.26191,19.1156,0.514605,0.306555,-0.089923
6.04583,-49.3485,-6.19169,18.8563,0.561308,0.300338,-0.0886512
5.64549,-49.5212,-6.29876,18.4665,0.570972,0.292813,-0.0877248
5.14751,-49.9748,-6.62569,18.5421,0.594397,0.353233,-0.0902408
5.11271,-50.7537,-6.68072,18.8473,0.60938,0.336708,-0.0890101
5.5813,-50.8398,-6.38295,19.0911,0.570879,0.27428,-0.0873749
5.87794,-50.6644,-6.13372,18.7039,0.566074,0.255503,-0.0891869
5.3509,-50.921,-6.29373,18.5357,0.586971,0.204578,-0.0915311
4.77728,-51.5121,-6.69894,18.6971,0.638929,0.248267,-0.0969332
4.73623,-51.752,-6.66841,18.838,0.590439,0.241723,-0.0952298
5.02745,-51.6437,-6.44563,18.5708,0.548474,0.252419,-0.092903
4.87534,-51.8502,-6.26579,18.4184,0.614576,0.281114,-0.091085
4.5293,-52.3849,-6.43481,18.4897,0.602775,0.299456,-0.0896374
4.2574,-52.7832,-6.6631,18.5822,0.553257,0.345997,-0.0889873
4.01998,-52.8803,-6.70422,18.3585,0.641349,0.334362,-0.0870019
3.73969,-53.0945,-6.63603,18.0853,0.661677,0.239268,-0.0869753
3.66577,-53.3985,-6.50189,18.07,0.604307,0.265586,-0.0900107
3.74996,-53.7225,-6.45561,18.2568,0.617815,0.278498,-0.0925326
3.46633,-53.9334,-6.59839,18.2036,0.58184,0.233028,-0.0915424
3.13784,-54.2126,-6.62673,17.9938,0.684262,0.247765,-0.0944726
2.90766,-54.4989,-6.70358,18.0335,0.61648,0.234692,-0.0963133
3.02486,-54.8468,-6.59274,18.1591,0.591834,0.274607,-0.0963691
3.22985,-55.1334,-6.44568,18.2882,0.618394,0.314381,-0.0951241
3.23526,-55.5397,-6.39287,18.0921,0.623316,0.26595,-0.0914764
2.9393,-55.8259,-6.58895,18.1106,0.623418,0.273015,-0.0905319
2.66326,-56.0589,-6.71327,18.0582,0.63137,0.303093,-0.0932278
2.6378,-56.319,-6.57657,18.0012,0.616354,0.279009,-0.0942736
2.64881,-56.6642,-6.42458,17.8245,0.571757,0.244656,-0.0944514
2.45145,-56.8874,-6.39763,17.9737,0.612469,0.205672,-0.0954319
2.17588,-57.0643,-6.52508,17.9025,0.549502,0.232762,-0.0992384
1.80158,-57.4349,-6.58242,17.847,0.585691,0.271374,-0.099225
1.41646,-57.9365,-6.7193,17.6194,0.603455,0.25788,-0.0972523
1.08827,-58.1121,-6.7112,17.7407,0.585202,0.262481,-0.0937074
1.20349,-58.3923,-6.51588,17.6712,0.624748,0.316622,-0.09454
1.08798,-58.8728,-6.53861,17.7902,0.591061,0.287888,-0.0918237
0.781335,-59.3078,-6.70412,17.6541,0.631781,0.277669,-0.0928776
0.480869,-59.1537,-6.74394,17.6794,0.655716,0.251121,-0.0927488
0.292317,-59.4977,-6.6478,17.6093,0.608873,0.251418,-0.095851
0.126867,-60.0507,-6.65752,17.7682,0.559363,0.279211,-0.0974513
0.0716817,-60.2455,-6.59802,17.55,0.568428,0.306561,-0.0950596
0.0888474,-60.2698,-6.41621,17.529,0.628979,0.281363,-0.0913802
-0.153942,-60.7971,-6.54727,17.7375,0.646829,0.29646,-0.0920941
-0.544163,-61.3494,-6.776,17.7777,0.659789,0.335157,-0.0939398
-0.861996,-61.2618,-6.69017,17.427,0.667088,0.313227,-0.0941176
-0.987214,-61.4692,-6.41187,17.4992,0.670012,0.238616,-0.0941961
-1.13673,-62.0518,-6.44145,17.817,0.634111,0.247834,-0.0972066
-1.26726,-62.2571,-6.55341,17.7822,0.563118,0.267577,-0.100216
-1.43363,-62.3455,-6.46683,17.3985,0.570604,0.248803,-0.0987938
-1.72198,-62.577,-6.42395,17.5936,0.531384,0.246275,-0.0947933
-1.97881,-62.8276,-6.56155,17.6507,0.52915,0.305025,-0.0942041
-2.34936,-62.8366,-6.54457,17.433,0.46687,0.313813,-0.0914096
-2.54479,-63.156,-6.29942,17.2763,0.494976,0.295567,-0.0916886
-2.77602,-63.2378,-6.3571,17.3762,0.428849,0.23111,-0.0913074
-2.98829,-63.0472,-6.46221,17.202,0.432768,0.246975,-0.0979908
-3.59183,-63.2877,-6.49591,17.0588,0.453708,0.269878,-0.100477
-4.25113,-63.7361,-6.45364,17.0068,0.430602,0.247853,-0.0982395
-4.63489,-63.5927,-6.4662,16.7655,0.376488,0.253593,-0.0952062
-4.92095,-63.3516,-6.36226,16.5326,0.325112,0.274895,-0.0926076
-5.25964,-63.763,-6.33973,16.6481,0.331806,0.309263,-0.0929027
-5.3859,-64.135,-6.41864,16.8553,0.310818,0.273904,-0.0926926
-5.29182,-63.8517,-6.31139,16.4069,0.261985,0.225523,-0.0940366
-5.67128,-63.486,-6.21208,15.7046,0.331545,0.262593,-0.100909
-6.88327,-63.1689,-6.32327,15.1774,0.29476,0.262523,-0.101405
-7.93326,-62.4493,-6.41187,14.6739,0.364088,0.260618,-0.099647
-8.54049,-61.8861,-6.30614,14.2804,0.335996,0.229445,-0.0976247
-8.73472,-62.1798,-6.28514,14.7414,0.355894,0.297586,-0.0966636
-8.93345,-62.8581,-6.35547,14.8985,0.370454,0.271521,-0.0954625
-8.91786,-62.5645,-6.33115,14.3588,0.366234,0.270009,-0.0969124
-8.94423,-61.9061,-6.12463,13.3866,0.368924,0.32303,-0.0992508
-9.35701,-61.4813,-6.15806,13.0714,0.330126,0.355899,-0.0978634
-10.0832,-61.2053,-6.3299,12.7956,0.401092,0.263411,-0.0970703
-10.796,-60.3258,-6.29918,12.2464,0.364618,0.300226,-0.0981352
-11.1544,-59.6407,-6.07303,11.527,0.380842,0.298518,-0.0982514
-11.4333,-59.3464,-6.11066,11.2447,0.384919,0.144144,-0.0961578
-11.7553,-59.6127,-6.38697,11.0168,0.406516,0.126579,-0.0984672
-12.2278,-59.796,-6.53978,10.9659,0.373232,0.071979,-0.0990543
-12.579,-60.0121,-6.66294,10.8799,0.384823,-0.116014,-0.100396
-13.1202,-60.68,-6.81798,11.2574,0.339088,-0.284662,-0.101541
-13.8116,-62.021,-7.14266,11.6168,0.308865,-0.373687,-0.103688
-14.6919,-63.1067,-7.45856,11.9095,0.370019,-0.370053,-0.105544
-15.5355,-63.8735,-7.97631,11.9445,0.366057,-0.466183,-0.107221
-16.155,-65.3856,-8.38408,12.3142,0.419043,-0.40615,-0.108309
-16.5966,-67.4353,-8.80208,13.2102,0.430114,-0.376544,-0.106406
-17.1706,-69.5341,-9.07703,13.5306,0.462952,-0.290102,-0.10806
-17.9555,-70.905,-9.41195,14.1654,0.544173,-0.235739,-0.107638
-18.5766,-72.4534,-9.73834,14.6819,0.589677,-0.125683,-0.110206
-18.6219,-74.2345,-9.98034,15.1271,0.646697,-0.0659335,-0.109924
-18.3857,-76.0417,-10.1559,15.6455,0.677051,0.0410717,-0.109792
-18.2266,-78.2159,-10.2785,16.7103,0.700632,0.153583,-0.106656
-18.0413,-80.4649,-10.4047,17.5665,0.773993,0.161458,-0.103418
-18.014,-82.0251,-10.6182,18.0533,0.818355,0.269824,-0.10158
-18.2904,-83.7815,-10.9482,19.0664,0.840539,0.359573,-0.0998014
-18.659,-85.9913,-11.243,19.7033,0.966977,0.376461,-0.0988982
-18.6382,-87.3349,-11.2304,20.2276,1.08176,0.405914,-0.0976306
-17.8823,-88.7669,-10.9491,21.063,1.11872,0.466065,-0.0971787
-16.7431,-90.4063,-10.5604,21.7392,1.16064,0.500754,-0.0963484
-15.9012,-91.6491,-10.6505,22.2221,1.12306,0.554819,-0.0964001
-15.6856,-93.3502,-11.1995,23.1089,1.10975,0.576531,-0.0964064
-15.7073,-95.45,-11.7692,23.4911,1.13328,0.595221,-0.0979415
-15.6092,-96.6466,-12.0992,24.0535,1.08215,0.657049,-0.0975315
-15.2268,-98.3417,-12.1148,24.8401,1.08182,0.65012,-0.0966205
-14.7608,-100.023,-12.0293,25.3846,1.09001,0.623574,-0.0961304
-14.3118,-101.027,-12.1401,25.9517,1.09124,0.690228,-0.0958155
-13.5303,-102.462,-12.211,26.7374,1.15346,0.680263,-0.0941258
-12.1139,-103.514,-11.9014,27.1288,1.2634,0.635155,-0.0931445
-10.4016,-103.828,-11.4927,27.7404,1.24209,0.705664,-0.0923569
-9.10337,-104.819,-11.2677,28.4597,1.22917,0.709494,-0.0907598
-8.64181,-105.677,-11.4132,28.8998,1.25253,0.678755,-0.0905662
-8.94086,-106.009,-11.88,29.1301,1.22804,0.71214,-0.0920031
-9.54358,-106.719,-12.4117,29.6456,1.20498,0.726072,-0.0921732
-9.93506,-107.173,-12.7147,29.816,1.22529,0.730171,-0.0919703
-10.0209,-106.752,-12.5642,29.5643,1.23845,0.754298,-0.0913991
-9.48878,-106.061,-12.1278,29.8482,1.25192,0.81269,-0.0901499
-8.29374,-105.431,-11.5837,30.2278,1.25668,0.869318,-0.0884593
-6.60146,-104.348,-11.0592,30.1784,1.20801,0.950157,-0.0875555
-5.04958,-102.826,-10.5201,29.8477,1.14665,1.03008,-0.0876991
-3.94952,-101.28,-10.1564,29.7739,1.09468,1.13423,-0.0863749
-3.418,-100.138,-10.0611,29.5429,1.02294,1.14163,-0.0834807
-3.73727,-99.0954,-10.2037,29.5008,0.987985,1.16878,-0.0821423
-4.96091,-98.0456,-10.7068,29.1529,0.928582,1.17666,-0.0828436
-6.65441,-96.772,-11.2991,28.7814,0.93709,1.15405,-0.0836193
-7.92337,-95.4903,-11.964,28.7176,1.0108,1.02723,-0.0869706
-8.52986,-94.9825,-12.3378,29.2091,1.00282,1.047,-0.0873399
-8.5309,-94.9173,-12.6162,29.8361,0.96009,0.963548,-0.089352
-8.36738,-94.7155,-12.6659,30.3139,0.963758,0.922291,-0.0894415
-8.03022,-93.9709,-12.5256,30.4435,0.913719,0.828037,-0.0903831
-7.39213,-92.7149,-12.0018,30.2708,0.879905,0.77129,-0.0925475
-6.51453,-91.0176,-11.4051,30.0605,0.816961,0.715368,-0.0914771
-5.76611,-89.0337,-10.9571,29.7038,0.713207,0.61982,-0.0900619
-5.51457,-86.9533,-10.8127,29.2304,0.618748,0.612364,-0.0897149
-5.96611,-85.0164,-11.1348,28.6889,0.502182,0.497192,-0.0892911
-7.15609,-83.3444,-11.6562,28.0752,0.494794,0.452104,-0.0902112
-8.9033,-81.9284,-12.3243,27.2618,0.486929,0.432825,-0.0936508
-10.7766,-80.5606,-12.6908,26.404,0.475954,0.339416,-0.0935488
-12.2517,-78.9026,-12.8014,25.1486,0.56475,0.303573,-0.0934196
-13.5484,-76.8817,-12.9942,24.2165,0.485977,0.308217,-0.0918545
-14.4165,-75.2066,-13.057,23.2107,0.515354,0.252824,-0.0954147
-14.3894,-73.39,-12.7701,22.1923,0.490695,0.191154,-0.0959683
-13.8785,-71.2173,-12.3646,21.0695,0.373658,0.227518,-0.097045
-13.0261,-69.2258,-11.7752,20.2985,0.419958,0.242315,-0.0972109
-11.6631,-67.3526,-11.0885,19.3774,0.356543,0.146546,-0.094416
-10.4271,-65.0053,-10.3898,18.4271,0.280614,0.104698,-0.0960673
-8.84948,-62.7901,-9.4884,17.7591,0.28364,-0.00976402,-0.0970932
-7.0374,-60.8182,-8.8213,17.1209,0.232208,-0.153523,-0.0967436
-5.22944,-58.5951,-7.87374,16.5883,0.297818,-0.248703,-0.0973763
-3.01079,-56.9795,-7.12399,16.3576,0.334823,-0.371798,-0.0966797
-0.914466,-56.0552,-6.38683,16.2868,0.302101,-0.408779,-0.0940649
1.29266,-55.0685,-5.67701,15.7012,0.319464,-0.400081,-0.0948162
3.2722,-54.1347,-5.16884,15.6493,0.215617,-0.409033,-0.089636
5.28717,-53.7495,-4.09215,14.8959,0.272108,-0.29736,-0.089692
7.25935,-52.4341,-3.15676,13.6832,0.269513,-0.362579,-0.0893886
8.49671,-50.6721,-2.27553,12.2904,0.250879,-0.234561,-0.0901796
8.97614,-48.8846,-1.38126,10.5109,0.408535,-0.268452,-0.0931914
8.90704,-46.5711,-0.773828,8.83282,0.409358,-0.175887,-0.0956925
8.66726,-44.3851,-0.159046,7.10422,0.48891,-0.181024,-0.0971939
8.2151,-42.709,0.291222,5.8146,0.459392,-0.104889,-0.098558
7.62683,-41.7299,0.459759,5.12898,0.451032,-0.0682889,-0.0978402
7.24337,-41.6152,0.567216,4.83676,0.449551,-0.000576664,-0.0972851
7.3384,-42.0507,0.485773,5.32389,0.38721,0.0719638,-0.0964424
7.96782,-43.4919,0.469658,6.52653,0.426538,0.0867635,-0.0910319
8.90744,-45.9264,0.247819,8.48691,0.479969,0.200494,-0.0830805
10.0857,-49.0485,-0.0803648,10.7173,0.512432,0.349372,-0.0773576
10.8686,-52.6602,-0.737947,12.7989,0.536839,0.436284,-0.0738759
10.7461,-56.8631,-1.80663,15.1081,0.560344,0.477297,-0.0717052
10.1451,-61.4981,-2.82702,17.0004,0.604259,0.525843,-0.0700249
9.2043,-65.5736,-3.8413,18.5146,0.550429,0.559078,-0.0624635
7.86214,-69.1617,-4.62105,19.3296,0.656025,0.598368,-0.0553591
6.0552,-71.7174,-5.19312,19.5409,0.689007,0.617276,-0.0460699
4.42583,-72.9432,-5.51393,18.9055,0.767769,0.578235,-0.0401075
3.00576,-73.3092,-5.79953,17.9759,0.858792,0.507859,-0.0391203
1.66252,-73.5933,-6.17457,17.2369,0.868052,0.463597,-0.0291116
0.811978,-74.0362,-6.45434,16.9382,0.93912,0.4403,-0.0366717
0.586415,-74.9473,-6.67309,17.1628,0.921976,0.432369,-0.0347156
0.922186,-76.5916,-6.81142,18.1138,0.936639,0.520196,-0.028205
1.61355,-78.8539,-6.99535,19.7708,0.915856,0.608722,-0.0277929
2.96478,-81.2707,-7.06157,21.6948,0.818895,0.701318,-0.0333901
5.03437,-83.3942,-6.87453,23.5726,0.710672,0.829466,-0.0451534
7.28376,-84.9184,-6.61305,25.1022,0.638132,0.897222,-0.0602013
9.07867,-85.6468,-6.31299,25.8257,0.588907,0.816581,-0.0743438
10.091,-85.3594,-6.06629,26.0763,0.596777,0.696433,-0.0856088
10.0437,-84.6962,-6.11858,25.6877,0.572584,0.596168,-0.0850007
8.71757,-83.5101,-6.60323,24.7254,0.562717,0.518979,-0.0841896
6.17293,-82.1477,-7.26824,23.5518,0.585353,0.453488,-0.0830032
3.01226,-80.9211,-7.92886,22.5428,0.59033,0.548127,-0.0912898
0.449017,-80.0624,-8.32514,22.064,0.61179,0.639647,-0.0982498
-0.893434,-79.8496,-8.35945,22.383,0.653695,0.651822,-0.102353
-1.06882,-80.1988,-8.05766,23.4665,0.705054,0.733275,-0.110836
-0.368754,-81.097,-7.60834,24.8842,0.76662,0.742685,-0.123147
0.915459,-82.3989,-7.2295,26.5736,0.858296,0.544472,-0.132285
2.43134,-83.9863,-6.81014,28.2728,0.950785,0.423435,-0.148036
3.5151,-85.8357,-6.46199,29.7417,0.94965,0.449996,-0.163584
3.88568,-87.5983,-6.32047,31.111,1.06989,0.441827,-0.176324
3.55135,-89.1611,-6.3013,31.8396,1.21262,0.449521,-0.184979
2.63998,-90.3522,-6.56659,32.4446,1.12941,0.564,-0.191519
1.40575,-91.604,-6.86391,32.7174,1.24197,0.567612,-0.199525
-0.017534,-92.6999,-7.2074,32.4619,1.31286,0.481582,-0.207415
-1.50355,-93.3953,-7.6177,32.1015,1.21642,0.479585,-0.216181
-3.45167,-94.7017,-8.14788,31.9144,1.293,0.490607,-0.227878
-5.62421,-96.2645,-8.71074,31.5242,1.33265,0.413703,-0.235103
-7.84568,-97.1197,-9.24531,31.0506,1.26441,0.453291,-0.238733
-10.045,-98.3981,-9.74842,30.8381,1.39328,0.472932,-0.245859
-11.8743,-99.6059,-10.1386,30.289,1.41587,0.428616,-0.246147
-13.0995,-99.8778,-10.4467,30.1331,1.41647,0.454843,-0.248519
-14.0488,-100.617,-10.6038,30.091,1.4264,0.514107,-0.252299
-14.6141,-100.941,-10.6106,29.6685,1.394,0.469816,-0.253948
-15.0711,-100.67,-10.6933,29.6566,1.39468,0.477201,-0.256148
-15.9883,-101.078,-10.7586,29.5666,1.32804,0.464502,-0.256443
-16.4751,-100.83,-10.6161,29.1807,1.4152,0.437609,-0.263331
-16.6356,-100.342,-10.53,29.0419,1.29122,0.443994,-0.263096
-16.7186,-100.246,-10.3557,28.9098,1.23632,0.486218,-0.264731
-16.4976,-99.46,-10.1525,28.3413,1.25243,0.457048,-0.262723
-16.4364,-98.6852,-10.0803,28.1455,1.16692,0.423383,-0.258442
-16.6687,-98.6739,-9.93219,28.0014,1.18032,0.503599,-0.263016
-16.457,-98.3072,-9.61691,27.6468,1.13835,0.468386,-0.262073
-15.8191,-97.6698,-9.3186,27.5845,1.02331,0.43535,-0.261514
-15.4535,-97.2162,-9.05969,27.3978,1.00817,0.507728,-0.262238
-15.4342,-96.4054,-8.93083,26.9998,1.00226,0.422891,-0.261229
-15.3504,-95.7351,-8.77966,27.0033,0.954834,0.401044,-0.262574
-15.1371,-95.5308,-8.4738,27.116,0.942257,0.473022,-0.260388
-14.5466,-94.6585,-8.1081,26.7295,0.863814,0.366341,-0.25493
-13.8812,-93.465,-7.81215,26.6423,0.817244,0.344158,-0.25176
-13.9124,-93.1345,-7.69343,26.7841,0.845351,0.425957,-0.251668
-13.9694,-92.8878,-7.63966,26.6139,0.834467,0.353631,-0.249156
-13.2864,-91.8873,-7.15752,26.6442,0.75969,0.316431,-0.246743
-12.6063,-91.0927,-6.78314,26.5314,0.673838,0.32031,-0.245162
-12.7699,-90.7277,-6.61919,26.4061,0.716313,0.260985,-0.245885
-12.9704,-90.1938,-6.55241,26.4153,0.771694,0.308988,-0.245935
-12.6084,-89.4806,-6.37554,26.2533,0.699121,0.253033,-0.242489
-12.0252,-89.058,-6.03335,26.0388,0.679867,0.242439,-0.241055
-11.7883,-88.6459,-5.76624,26.0215,0.58674,0.28815,-0.237202
-11.7723,-88.1285,-5.68516,26.1273,0.641622,0.259429,-0.234233
-11.6741,-87.5296,-5.63295,25.7732,0.600263,0.268083,-0.231887
-11.2711,-87.0343,-5.31306,25.6157,0.622315,0.30482,-0.230797
-11.0939,-86.6546,-5.21903,25.9303,0.496537,0.292964,-0.224894
-11.102,-85.8917,-5.06477,25.7361,0.566777,0.305836,-0.223841
-10.8425,-85.2484,-4.91664,25.3127,0.527799,0.301861,-0.224521
-10.3567,-84.9832,-4.59257,25.6972,0.496711,0.263568,-0.222336
-10.3583,-84.4286,-4.5654,25.7309,0.424795,0.244166,-0.220054
-10.4124,-83.6628,-4.46705,25.0991,0.316226,0.246457,-0.220237
-9.81078,-83.2375,-4.17802,25.3854,0.230241,0.236126,-0.218124
-9.43479,-82.8129,-4.11453,25.4792,0.0858787,0.210224,-0.2152
-9.31418,-82.0302,-4.03667,24.9062,0.105787,0.229013,-0.217052
-9.20173,-81.6096,-3.95111,25.0285,-0.0222966,0.229987,-0.215274
-8.86067,-81.275,-3.8549,25.2356,-0.115468,0.247944,-0.213391
-8.94919,-80.5378,-4.08893,24.6677,-0.325656,0.233516,-0.211063
-9.26931,-80.1306,-4.11432,24.6047,-0.327114,0.249804,-0.212067
-9.89188,-79.906,-4.49828,24.8595,-0.477054,0.250845,-0.20911
-10.703,-79.2768,-4.6926,24.3121,-0.496928,0.254821,-0.209324
-11.6345,-78.8363,-4.88385,24.1032,-0.501019,0.280332,-0.210454
-12.2634,-78.5202,-4.97628,24.3376,-0.478458,0.278805,-0.209765
-12.7439,-77.9329,-5.07286,23.796,-0.473133,0.299105,-0.209549
-13.3891,-77.4997,-5.19667,23.5223,-0.442159,0.334628,-0.210299
-13.6383,-76.9751,-5.19069,23.6896,-0.385342,0.340329,-0.210021
-13.1985,-76.2993,-5.09014,23.1313,-0.435027,0.345635,-0.209383
-12.6454,-75.8979,-4.92206,22.9811,-0.420117,0.348748,-0.209761
-12.3734,-75.3572,-4.73597,23.1866,-0.335269,0.377889,-0.210722
-11.5654,-74.5919,-4.5762,22.7471,-0.400666,0.362428,-0.211805
-10.5501,-74.1197,-4.33682,22.5457,-0.369621,0.370196,-0.213389
-9.66757,-73.2411,-3.95861,22.6321,-0.351947,0.349168,-0.21161
-8.4302,-72.4951,-3.70615,22.3301,-0.438039,0.376534,-0.212707
-7.11945,-72.0605,-3.26394,22.1312,-0.250225,0.327898,-0.214145
-6.31069,-70.938,-3.31769,22.1852,-0.29458,0.319017,-0.212944
-4.99974,-70.3652,-2.71361,21.8028,-0.143796,0.295336,-0.216903
-3.81709,-69.9679,-2.65854,21.7843,-0.272966,0.243613,-0.217104
-2.91935,-68.7825,-2.49874,21.6318,-0.15172,0.268165,-0.220182
-1.78718,-68.4994,-2.05813,21.3683,-0.105445,0.210968,-0.221801
-1.0294,-68.0904,-2.14577,21.6136,-0.172812,0.216925,-0.219465
-0.294951,-66.8986,-1.77881,20.9223,0.0172498,0.249947,-0.222659
0.763878,-66.4539,-1.6721,21.0993,-0.106327,0.200028,-0.220928
1.49169,-66.1196,-1.6278,21.1181,-0.11804,0.196956,-0.219008
2.27487,-64.8424,-1.38335,20.3493,-0.0459293,0.23605,-0.221392
3.20896,-64.4734,-1.29953,20.6714,-0.157738,0.132194,-0.21381
3.88482,-64.0052,-1.19317,20.6201,-0.0818935,0.19678,-0.214648
4.67096,-62.8003,-1.04315,19.7734,-0.113753,0.197659,-0.216015
5.5707,-62.4701,-1.02402,20.2722,-0.161317,0.105412,-0.212477
6.28463,-61.9603,-0.891901,20.1772,-0.076259,0.106477,-0.214805
6.97897,-61.0141,-0.843685,19.3918,-0.155021,0.106711,-0.215487
7.77762,-60.7231,-0.706998,19.9706,-0.0818755,0.0566416,-0.214363
8.32417,-60.0225,-0.640889,19.8699,-0.0608757,0.011279,-0.215215
8.96334,-59.2483,-0.592168,19.1954,-0.079274,0.0129341,-0.217849
9.69483,-58.8867,-0.436933,19.717,-0.0932346,-0.0529797,-0.210408
10.0139,-58.0771,-0.520383,19.4594,-0.205588,-0.159346,-0.200666
10.8074,-57.538,-0.190275,18.9842,0.0298077,-0.248743,-0.196303
11.1101,-57.0373,-0.470292,19.3954,-0.19745,-0.393873,-0.175904
11.7771,-56.1536,-0.17669,18.872,-0.0769057,-0.475557,-0.163392
12.3445,-55.7481,-0.153652,18.8165,-0.112765,-0.596506,-0.152232
12.6106,-54.99,-0.323561,18.7692,-0.166962,-0.655948,-0.135756
13.3836,-53.9719,0.0793156,18.237,0.0359642,-0.595853,-0.112549
13.6178,-53.2884,-0.00976166,18.1191,-0.0880531,-0.642391,-0.0939516
14.362,-51.3712,0.514723,16.6958,0.281357,-0.49671,-0.091775
14.4266,-48.3485,0.539378,15.1475,0.234021,-0.350891,-0.0874227
14.6,-45.4496,0.80796,13.7119,0.357969,-0.243815,-0.0851505
14.6754,-41.4639,1.23108,11.717,0.526214,-0.0167682,-0.0813805
14.2544,-37.0835,1.1367,9.26999,0.381728,0.0581454,-0.082289
14.3211,-32.6897,1.73119,7.39692,0.708351,0.0652744,-0.0766983
13.5751,-28.2822,1.55591,5.07609,0.53274,0.0356822,-0.074549
13.5725,-24.0467,1.87253,3.60313,0.64507,-0.0462384,-0.0906527
13.2787,-20.2477,1.75688,2.27759,0.493963,-0.137945,-0.105021
