Afshin1997/kuka_rl_ros2/src/catch_and_throw/output_files/ft/old/idealpd_3/ft_received_joint_effort_np.csv
joint_0,joint_1,joint_2,joint_3,joint_4,joint_5,joint_6
0.40267,-2.87057,0.162007,20.8803,-0.733003,-0.166032,-0.0235634
0.402425,-2.86955,0.162108,20.8807,-0.732734,-0.165935,-0.0235006
0.404871,-2.86912,0.163263,20.8795,-0.732597,-0.165839,-0.0237608
0.404871,-2.86912,0.163263,20.8795,-0.732597,-0.165839,-0.0237608
0.405373,-2.86681,0.163875,20.8803,-0.732958,-0.165777,-0.0232644
0.405373,-2.86681,0.163875,20.8803,-0.732958,-0.165777,-0.0232644
0.406074,-2.86655,0.164688,20.8819,-0.732798,-0.165867,-0.0233151
0.332489,-2.88063,0.0716317,20.7381,-0.735349,-0.160376,-0.0240893
0.332489,-2.88063,0.0716317,20.7381,-0.735349,-0.160376,-0.0240893
0.217761,-2.98821,-0.0535766,20.6185,-0.7347,-0.154708,-0.0253765
0.0399063,-3.19071,-0.250761,20.4597,-0.733714,-0.146569,-0.0274929
-0.580174,-4.01718,-0.907631,20.0989,-0.728912,-0.119469,-0.0346746
-0.580174,-4.01718,-0.907631,20.0989,-0.728912,-0.119469,-0.0346746
-0.963433,-4.61528,-1.31397,19.9279,-0.721468,-0.10296,-0.0398554
-1.84363,-6.01827,-2.22284,19.6088,-0.717689,-0.0795396,-0.0518558
-1.84363,-6.01827,-2.22284,19.6088,-0.717689,-0.0795396,-0.0518558
-2.75432,-7.4723,-3.14314,19.2069,-0.715275,-0.0601454,-0.0714495
-2.75432,-7.4723,-3.14314,19.2069,-0.715275,-0.0601454,-0.0714495
-3.59494,-8.62235,-3.99925,19.1095,-0.746202,-0.0470727,-0.0905898
-4.00178,-9.07216,-4.41183,19.1234,-0.759588,-0.0381296,-0.100848
-4.00178,-9.07216,-4.41183,19.1234,-0.759588,-0.0381296,-0.100848
-4.28878,-9.39409,-4.71128,19.2141,-0.780402,-0.0467085,-0.110842
-4.7743,-9.71358,-5.18664,19.5962,-0.8396,-0.0279361,-0.135436
-4.93215,-9.69478,-5.32118,19.9085,-0.870667,-0.0376343,-0.148032
-4.93215,-9.69478,-5.32118,19.9085,-0.870667,-0.0376343,-0.148032
-4.89091,-9.51297,-5.27161,20.2378,-0.905428,-0.0490949,-0.160914
-4.67335,-9.11701,-5.02934,20.6197,-0.943345,-0.0694446,-0.172713
-4.44423,-8.58546,-4.75565,21.0494,-0.997911,-0.0605787,-0.184537
-4.13873,-7.8965,-4.40384,21.4935,-1.04213,-0.0852654,-0.193442
-3.80737,-7.04603,-4.03576,21.9069,-1.07506,-0.0944235,-0.202713
-3.38984,-6.11875,-3.58296,22.3314,-1.10742,-0.100466,-0.209679
-2.95315,-5.18259,-3.11819,22.7507,-1.18088,-0.0791314,-0.219081
-2.52164,-4.21364,-2.67203,23.1934,-1.24746,-0.0847356,-0.227418
-1.88526,-3.24641,-2.02517,23.6652,-1.24612,-0.151487,-0.23454
-1.13807,-2.19806,-1.28052,24.1096,-1.25652,-0.19761,-0.239884
-0.392272,-1.2004,-0.515689,24.5122,-1.3196,-0.238275,-0.246874
0.109517,-0.272586,0.0134169,24.9138,-1.39999,-0.235219,-0.253867
0.385071,0.585699,0.324043,25.3009,-1.40721,-0.251346,-0.257449
0.736919,1.29622,0.594652,25.5683,-1.39051,-0.26899,-0.264768
1.32463,1.91109,1.08784,25.786,-1.43236,-0.292482,-0.269658
1.94785,2.52969,1.72221,25.9187,-1.50146,-0.29188,-0.277503
2.21447,3.04337,2.03832,26.0314,-1.48383,-0.288526,-0.2787
2.02313,3.35849,1.92336,26.0627,-1.44675,-0.299017,-0.280385
2.78848,3.87424,2.54259,26.1267,-1.47529,-0.354863,-0.290574
2.78848,3.87424,2.54259,26.1267,-1.47529,-0.354863,-0.290574
3.17304,4.09205,2.92534,26.0733,-1.52653,-0.36654,-0.292981
2.82689,4.12346,2.67719,25.965,-1.48763,-0.318293,-0.292634
2.95926,4.03209,2.69881,25.7367,-1.43107,-0.331679,-0.296407
3.6365,4.11793,3.24009,25.7093,-1.4544,-0.365257,-0.30056
3.64831,4.43315,3.28816,25.7478,-1.50188,-0.378849,-0.303558
3.32419,4.37426,3.03544,25.7189,-1.46061,-0.360256,-0.2984
3.63127,4.28137,3.32324,25.5358,-1.39036,-0.384201,-0.304044
3.82644,4.3771,3.51423,25.3696,-1.36178,-0.403999,-0.307652
3.45533,4.2992,3.0686,25.2242,-1.40142,-0.355744,-0.309307
3.48764,3.6901,2.99996,25.1083,-1.40485,-0.341002,-0.309356
3.66115,3.29109,3.10935,25.0138,-1.34001,-0.349563,-0.303281
3.10191,2.87674,2.57444,25.1607,-1.28114,-0.327822,-0.306156
2.85557,2.35248,2.26873,24.9616,-1.28298,-0.323067,-0.311712
3.2155,1.95649,2.4511,24.4649,-1.31533,-0.307185,-0.315988
2.90291,1.75519,2.08447,24.4183,-1.33974,-0.325052,-0.323252
2.44887,1.22309,1.6252,24.4626,-1.25607,-0.312819,-0.319819
2.54226,0.481833,1.70278,24.191,-1.25403,-0.331397,-0.319848
2.41002,0.214822,1.51046,23.6479,-1.2936,-0.303437,-0.326737
2.06034,-0.229313,1.11998,23.5477,-1.20688,-0.28445,-0.329993
2.17916,-0.430611,1.18937,23.1781,-1.12537,-0.293459,-0.325179
2.31673,-0.463254,1.33296,22.9956,-1.17272,-0.327841,-0.328343
2.01133,-0.70135,0.990749,22.7351,-1.16816,-0.243984,-0.335293
1.94685,-0.982548,0.884367,22.3836,-1.13073,-0.223747,-0.340994
2.35622,-1.25598,1.16196,22.0331,-1.09572,-0.356598,-0.335045
2.25879,-1.37897,1.0277,22.0697,-1.10021,-0.37211,-0.341482
1.99227,-1.67232,0.760465,21.6663,-1.06155,-0.299052,-0.335397
2.24878,-1.80309,1.00897,21.2293,-1.06323,-0.276187,-0.340811
2.38653,-1.79135,1.04403,21.194,-1.05581,-0.290951,-0.34359
2.07151,-2.23053,0.609562,21.2234,-1.00603,-0.311746,-0.343532
2.03945,-3.06321,0.460145,20.7253,-0.905918,-0.32292,-0.339598
2.20148,-3.48514,0.542005,20.5309,-0.950192,-0.303565,-0.333029
1.98434,-3.8883,0.271218,20.73,-1.00406,-0.27617,-0.341114
1.60349,-4.31848,-0.117025,20.5824,-0.92911,-0.258543,-0.339504
1.77616,-4.78325,-0.0535166,20.1539,-0.838971,-0.288283,-0.33922
1.86646,-5.03513,-0.0819864,20.2203,-0.822423,-0.327117,-0.339401
1.42885,-5.59639,-0.568483,20.3579,-0.836887,-0.258169,-0.34258
1.18024,-6.32626,-0.894679,19.9594,-0.835066,-0.202656,-0.345151
1.4137,-6.63282,-0.714242,19.5325,-0.836873,-0.25512,-0.341459
1.48783,-6.56313,-0.693936,19.6589,-0.785503,-0.290517,-0.342788
1.06565,-6.78689,-1.08939,19.708,-0.732927,-0.267361,-0.34455
0.918005,-7.20629,-1.26397,19.2654,-0.725529,-0.252063,-0.340144
1.26931,-7.51543,-1.03124,18.973,-0.728724,-0.289937,-0.347079
1.43085,-7.563,-0.947203,18.9503,-0.729682,-0.283752,-0.344141
1.12925,-7.83181,-1.24131,18.8597,-0.733423,-0.298216,-0.356058
1.13804,-8.06622,-1.3141,18.2482,-0.645962,-0.228042,-0.355069
1.34471,-8.16834,-1.19982,18.3533,-0.712092,-0.292465,-0.34727
1.34471,-8.16834,-1.19982,18.3533,-0.712092,-0.292465,-0.34727
1.13774,-8.62127,-1.47108,18.4075,-0.712004,-0.302454,-0.35129
0.819874,-9.14608,-1.8197,18.0173,-0.610341,-0.229658,-0.352601
1.17293,-9.49436,-1.65089,17.9174,-0.655144,-0.308126,-0.353366
1.19037,-9.62942,-1.721,18.2181,-0.655023,-0.280783,-0.352434
0.890495,-10.0536,-2.06343,17.9755,-0.571642,-0.207632,-0.351964
0.890495,-10.0536,-2.06343,17.9755,-0.571642,-0.207632,-0.351964
1.00896,-10.902,-2.11657,17.7618,-0.591582,-0.258955,-0.344729
1.25812,-10.9732,-1.93159,17.987,-0.613826,-0.204134,-0.3454
1.08785,-11.0984,-2.0822,17.7418,-0.569113,-0.225482,-0.350541
0.697352,-11.2003,-2.41891,17.3275,-0.524999,-0.225773,-0.34551
0.816328,-11.3368,-2.37757,17.4252,-0.503137,-0.211322,-0.346795
1.21796,-11.4117,-2.10709,17.5844,-0.579532,-0.201747,-0.345968
1.28887,-11.7773,-2.05254,17.4393,-0.608882,-0.205257,-0.355945
1.28887,-11.7773,-2.05254,17.4393,-0.608882,-0.205257,-0.355945
0.623491,-12.1538,-2.59748,16.9167,-0.442379,-0.154711,-0.352072
0.802797,-12.0245,-2.48241,16.9168,-0.474811,-0.24077,-0.351763
1.161,-11.8988,-2.2081,17.1341,-0.527742,-0.264951,-0.351686
1.161,-11.8988,-2.2081,17.1341,-0.527742,-0.264951,-0.351686
0.864646,-12.4936,-2.48708,16.5344,-0.486634,-0.23383,-0.354033
0.864646,-12.4936,-2.48708,16.5344,-0.486634,-0.23383,-0.354033
0.963523,-12.8998,-2.58243,16.4402,-0.436008,-0.167966,-0.355582
1.32211,-12.7981,-2.35254,16.5834,-0.507774,-0.202192,-0.365056
1.47287,-12.665,-2.2381,16.3439,-0.481005,-0.233141,-0.35926
1.47287,-12.665,-2.2381,16.3439,-0.481005,-0.233141,-0.35926
1.52723,-12.6647,-2.30333,16.172,-0.477236,-0.220663,-0.369061
1.52723,-12.6647,-2.30333,16.172,-0.477236,-0.220663,-0.369061
1.98085,-12.9849,-2.09164,16.4456,-0.451009,-0.221734,-0.363224
2.31246,-12.8006,-1.86128,16.3314,-0.421704,-0.246151,-0.359172
2.6307,-12.4919,-1.63006,16.154,-0.450048,-0.285818,-0.356421
2.6307,-12.4919,-1.63006,16.154,-0.450048,-0.285818,-0.356421
3.29852,-12.0455,-1.22399,16.4787,-0.386272,-0.253166,-0.354034
3.29852,-12.0455,-1.22399,16.4787,-0.386272,-0.253166,-0.354034
3.91321,-12.3585,-0.958713,16.6053,-0.402607,-0.287629,-0.359093
3.91321,-12.3585,-0.958713,16.6053,-0.402607,-0.287629,-0.359093
4.13496,-12.6643,-0.891164,16.5636,-0.327162,-0.277048,-0.356233
4.34835,-12.9076,-0.798553,16.5564,-0.34127,-0.298025,-0.353748
4.66082,-12.9886,-0.656721,16.5327,-0.377824,-0.291948,-0.353713
4.88255,-12.9653,-0.603451,16.5246,-0.354428,-0.252271,-0.358269
4.73693,-13.5334,-0.761275,15.8193,-0.279386,-0.265589,-0.357815
4.73693,-13.5334,-0.761275,15.8193,-0.279386,-0.265589,-0.357815
4.92918,-14.0704,-0.646272,16.0999,-0.248109,-0.2765,-0.358791
5.23169,-14.6535,-0.512506,16.7766,-0.258989,-0.283188,-0.355379
5.59791,-15.3704,-0.521703,17.4136,-0.323822,-0.270771,-0.359994
5.59791,-15.3704,-0.521703,17.4136,-0.323822,-0.270771,-0.359994
5.81346,-15.2346,-0.510056,17.5758,-0.283496,-0.252445,-0.356362
6.1945,-14.9092,-0.360227,17.7486,-0.323425,-0.255254,-0.351626
6.60752,-14.5937,-0.16035,17.919,-0.330214,-0.244438,-0.350781
6.8417,-14.2839,-0.0991988,18.0356,-0.319757,-0.22348,-0.360977
7.03842,-14.0084,-0.0428536,18.0765,-0.320667,-0.224673,-0.357778
7.37108,-13.7169,0.12749,18.1634,-0.353642,-0.230588,-0.366445
7.91041,-13.0993,0.29733,18.54,-0.358903,-0.171243,-0.360697
7.91041,-13.0993,0.29733,18.54,-0.358903,-0.171243,-0.360697
7.86861,-12.9033,0.137429,18.6669,-0.380351,-0.120061,-0.363335
7.95998,-12.8141,0.140004,18.758,-0.333382,-0.0877964,-0.357741
8.33079,-12.5976,0.474867,18.8629,-0.385979,-0.102878,-0.364667
8.33079,-12.5976,0.474867,18.8629,-0.385979,-0.102878,-0.364667
7.86431,-12.3328,0.290072,18.6209,-0.344867,-0.0483814,-0.366824
7.86431,-12.3328,0.290072,18.6209,-0.344867,-0.0483814,-0.366824
7.40986,-11.9925,0.112822,18.1628,-0.340388,0.00458246,-0.378516
7.40986,-11.9925,0.112822,18.1628,-0.340388,0.00458246,-0.378516
7.69998,-11.5439,0.450043,18.0532,-0.355529,-0.0207803,-0.371059
7.68228,-11.21,0.561538,17.9618,-0.364649,-0.0563789,-0.369225
6.76472,-11.1942,-0.0980591,17.5972,-0.344342,0.0632598,-0.380748
7.05419,-10.9531,0.216769,17.4256,-0.42481,0.0442576,-0.378559
7.05419,-10.9531,0.216769,17.4256,-0.42481,0.0442576,-0.378559
7.38247,-10.5053,0.56081,17.4302,-0.381307,0.0628226,-0.378706
6.24764,-10.5212,-0.261014,16.8523,-0.384343,0.102899,-0.383361
6.24764,-10.5212,-0.261014,16.8523,-0.384343,0.102899,-0.383361
6.59282,-10.3388,0.00799734,16.8716,-0.336388,0.105044,-0.386787
7.03865,-9.88042,0.370052,17.1369,-0.355309,0.0786222,-0.385731
6.35545,-10.1698,-0.21688,17.0527,-0.34193,0.121304,-0.387915
6.35545,-10.1698,-0.21688,17.0527,-0.34193,0.121304,-0.387915
6.64484,-10.2713,-0.14619,17.1739,-0.36382,0.148149,-0.393472
6.77655,-10.3722,-0.142564,17.6172,-0.475723,0.18239,-0.403632
6.28924,-10.7993,-0.65308,17.8328,-0.48303,0.284296,-0.411892
5.96628,-11.5392,-1.0492,17.7952,-0.404652,0.308382,-0.410553
5.85423,-12.1731,-1.24608,18.0955,-0.373449,0.322618,-0.405294
5.40722,-13.0403,-1.82844,18.6006,-0.416773,0.378595,-0.400809
4.74156,-15.3047,-2.73747,19.0025,-0.377413,0.462205,-0.40619
4.74156,-15.3047,-2.73747,19.0025,-0.377413,0.462205,-0.40619
4.34031,-16.3571,-3.20584,19.4048,-0.382514,0.468799,-0.416306
3.68057,-17.5468,-3.85647,19.7254,-0.338912,0.54109,-0.406214
3.35318,-19.239,-4.27643,19.8913,-0.40406,0.553532,-0.417268
3.35318,-19.239,-4.27643,19.8913,-0.40406,0.553532,-0.417268
2.82017,-20.1415,-4.80168,20.2488,-0.35565,0.566257,-0.429926
2.12787,-21.4295,-5.45059,20.2605,-0.319343,0.649058,-0.427684
1.85942,-23.294,-5.82239,20.3431,-0.352531,0.639393,-0.431931
1.40195,-23.989,-6.2804,20.4587,-0.284004,0.612382,-0.416199
0.887978,-24.7398,-6.72576,20.316,-0.283736,0.646232,-0.423845
0.887978,-24.7398,-6.72576,20.316,-0.283736,0.646232,-0.423845
0.714949,-25.8015,-6.82601,20.4612,-0.28055,0.641811,-0.416534
0.714949,-25.8015,-6.82601,20.4612,-0.28055,0.641811,-0.416534
0.265752,-26.6748,-7.14054,20.4069,-0.195447,0.607417,-0.416689
-0.202374,-27.4099,-7.49724,19.9694,-0.236308,0.655067,-0.403689
-0.259467,-27.7791,-7.43332,19.4287,-0.24661,0.687039,-0.412883
-0.237982,-27.9558,-7.41921,19.0367,-0.233873,0.597172,-0.408958
-0.713732,-28.3471,-7.70386,18.8018,-0.181048,0.559239,-0.41969
-1.11936,-29.0049,-7.902,18.3448,-0.133395,0.583294,-0.434299
-1.23977,-29.0384,-7.84554,17.6549,-0.170582,0.509657,-0.424523
-1.13358,-29.0352,-7.54518,16.9546,-0.105746,0.418593,-0.424211
-1.5458,-29.1654,-7.64331,16.2748,-0.0975618,0.437056,-0.427346
-2.18947,-29.6241,-7.87049,15.3466,-0.104822,0.414133,-0.437095
-2.63604,-29.6333,-7.83087,14.48,-0.0570227,0.421081,-0.440795
-2.9033,-29.2443,-7.62895,13.7583,-0.0223917,0.383093,-0.44057
-3.21924,-29.4091,-7.49514,13.0405,-0.0276226,0.309175,-0.440607
-3.66643,-29.4638,-7.41667,12.3651,-0.0154804,0.28367,-0.434444
-4.0704,-29.6457,-7.39583,11.8557,0.0710615,0.269986,-0.435083
-4.71659,-29.534,-7.51968,11.2175,0.0352981,0.202496,-0.432824
-4.85863,-29.5561,-7.31967,10.5479,0.076874,0.157956,-0.434712
-5.00041,-29.6334,-7.18382,10.0783,0.088427,0.156651,-0.430889
-5.26564,-29.9379,-7.28127,9.7215,0.07214,0.0965567,-0.423357
-5.33622,-30.1427,-7.21665,9.46707,0.187075,0.118075,-0.408044
-5.33438,-29.8549,-7.10118,9.00017,0.182472,0.12028,-0.406765
-5.35645,-29.9343,-7.16106,8.71579,0.166928,0.129755,-0.403206
-5.38382,-30.2394,-7.23088,8.57457,0.176485,0.172314,-0.411084
-4.97976,-30.5339,-7.10018,8.58754,0.140024,0.153518,-0.410939
-4.65161,-30.37,-6.96447,8.56515,0.147363,0.154891,-0.412928
-4.55157,-30.4364,-6.95859,8.40812,0.187874,0.126808,-0.417469
-4.4944,-30.8525,-7.09709,8.26457,0.163833,0.14085,-0.41724
-4.50823,-31.2064,-7.32453,8.37169,0.130617,0.17285,-0.420646
-4.2655,-31.5652,-7.25762,8.67352,0.189647,0.188149,-0.413573
-3.81657,-31.4363,-7.04123,8.68375,0.188777,0.166982,-0.407135
-3.67312,-31.5057,-6.97192,8.56565,0.138974,0.185284,-0.422866
-4.13775,-31.9279,-7.44341,8.54149,0.153782,0.186532,-0.428356
-4.25272,-32.3923,-7.56725,8.50682,0.170574,0.163634,-0.432377
-3.90244,-32.42,-7.3782,8.77395,0.126221,0.196408,-0.420004
-3.69551,-32.3057,-7.23506,8.94897,0.133631,0.227213,-0.419477
-3.68317,-32.8044,-7.26815,8.99273,0.19241,0.176985,-0.416973
-3.90352,-33.2168,-7.6441,8.98863,0.192663,0.200229,-0.409626
-4.0288,-33.7056,-7.94432,9.10273,0.260437,0.236468,-0.404514
-3.87952,-33.9195,-7.90597,9.19256,0.324592,0.209035,-0.393297
-3.43836,-33.8571,-7.73039,9.37456,0.298555,0.13102,-0.405242
-3.24884,-34.3127,-7.81007,9.69604,0.297611,0.100135,-0.403587
-3.53839,-34.8569,-8.32034,10.0039,0.281468,0.169587,-0.409421
-3.47644,-35.4231,-8.53107,10.0626,0.299911,0.201543,-0.412099
-3.20442,-35.4042,-8.51697,10.15,0.246775,0.248491,-0.40454
-3.03591,-35.4867,-8.60302,10.2866,0.208881,0.277216,-0.411869
-2.92164,-36.2574,-8.75426,10.5938,0.279715,0.284055,-0.406573
-2.89488,-36.6549,-9.02303,10.705,0.299812,0.233383,-0.400408
-2.87095,-36.9972,-9.1784,10.7602,0.2981,0.195803,-0.406027
-3.07917,-37.0429,-9.45848,10.9487,0.269486,0.265229,-0.407496
-3.05191,-37.2547,-9.50889,10.9859,0.282717,0.270693,-0.408203
-3.08471,-37.843,-9.58131,11.1676,0.324909,0.204296,-0.401024
-3.57756,-38.1699,-10.0189,11.0399,0.355006,0.197625,-0.408649
-3.88393,-38.7387,-10.1727,11.148,0.409187,0.2006,-0.395731
-3.81976,-38.7894,-10.1746,11.1423,0.413037,0.201304,-0.395428
-3.81035,-38.8739,-10.2347,11.2301,0.330159,0.208396,-0.407319
-4.26343,-39.4972,-10.5899,11.114,0.430604,0.196223,-0.402792
-4.96117,-39.8295,-11.1303,11.0595,0.464626,0.166225,-0.405543
-5.06153,-40.3361,-11.2188,11.1065,0.458651,0.133751,-0.407578
-5.22038,-40.3783,-11.2281,11.1889,0.38531,0.191488,-0.409727
-5.69353,-40.7067,-11.4825,10.8607,0.363621,0.269579,-0.412957
-6.41988,-41.2551,-11.7782,10.5026,0.37779,0.249393,-0.415964
-6.89677,-41.4078,-11.9817,10.4379,0.430535,0.234207,-0.402186
-7.52941,-41.7899,-12.1743,10.4509,0.440036,0.27458,-0.408075
-7.80248,-42.0376,-12.2035,10.1127,0.433226,0.275336,-0.394989
-8.17994,-42.3244,-12.2739,9.88752,0.516802,0.196629,-0.398264
-8.17994,-42.3244,-12.2739,9.88752,0.516802,0.196629,-0.398264
-8.47771,-42.7576,-12.588,10.1394,0.602195,0.117893,-0.389095
-8.10547,-42.6469,-12.4281,10.3073,0.501953,0.176395,-0.402201
-7.8234,-42.7171,-12.3533,10.2277,0.486937,0.159551,-0.408629
-7.8234,-42.7171,-12.3533,10.2277,0.486937,0.159551,-0.408629
-7.48239,-42.9549,-12.8572,10.3082,0.648148,0.0743269,-0.406703
-7.48239,-42.9549,-12.8572,10.3082,0.648148,0.0743269,-0.406703
-6.48314,-42.939,-12.6426,10.7796,0.559886,0.121085,-0.406484
-5.62658,-42.6828,-12.502,11.098,0.479925,0.168428,-0.41088
-5.18673,-42.9897,-12.6903,11.3194,0.528634,0.194834,-0.40515
-3.65361,-43.352,-12.784,11.5559,0.507379,0.285466,-0.39018
-3.65361,-43.352,-12.784,11.5559,0.507379,0.285466,-0.39018
-2.76134,-43.1647,-12.5727,11.9754,0.53838,0.294669,-0.391706
-2.2933,-42.9704,-12.6258,12.2124,0.561083,0.305222,-0.38121
-1.29093,-43.3483,-12.432,12.752,0.540855,0.275031,-0.389937
-1.29093,-43.3483,-12.432,12.752,0.540855,0.275031,-0.389937
-0.772627,-43.273,-12.1409,13.1258,0.632162,0.150005,-0.380315
-0.391365,-43.1509,-11.8147,13.2185,0.662156,0.0988094,-0.392727
-0.17084,-43.001,-11.6198,13.3831,0.555282,0.178849,-0.391131
0.0932728,-43.1359,-11.464,13.6483,0.51662,0.176109,-0.388742
0.251955,-43.3105,-11.4002,14.1035,0.612431,0.107924,-0.389221
0.45849,-43.4539,-11.3737,14.4279,0.631605,0.0745358,-0.384704
0.705202,-43.8561,-11.2758,14.5008,0.543941,0.16229,-0.395305
0.81978,-44.4679,-11.3188,14.5758,0.530922,0.221615,-0.391681
0.884408,-45.251,-11.5145,14.6759,0.631776,0.180594,-0.376246
0.947286,-45.9165,-11.783,14.9348,0.657056,0.142824,-0.3769
1.19769,-46.5449,-11.9743,15.1932,0.657953,0.188514,-0.384183
1.42578,-47.0721,-12.1172,15.4079,0.67095,0.219031,-0.376846
1.58632,-47.6947,-12.3106,15.5484,0.702386,0.159254,-0.383978
1.61742,-48.4168,-12.593,15.6592,0.724541,0.144895,-0.376861
1.60364,-49.2298,-12.8604,15.7246,0.739749,0.23199,-0.384462
1.5708,-49.9765,-13.1545,15.7327,0.728032,0.186769,-0.380896
1.56724,-50.518,-13.3512,15.72,0.779139,0.142979,-0.378925
1.58763,-50.8409,-13.4023,15.7001,0.826517,0.226299,-0.37397
1.58233,-51.0939,-13.5636,15.6471,0.757008,0.205592,-0.370699
1.58233,-51.0939,-13.5636,15.6471,0.757008,0.205592,-0.370699
1.49781,-51.0858,-13.6725,15.7111,0.821055,0.221278,-0.373809
1.43474,-51.1084,-13.6671,15.4814,0.769954,0.236093,-0.378495
1.43474,-51.1084,-13.6671,15.4814,0.769954,0.236093,-0.378495
1.53086,-50.75,-13.6985,15.4642,0.810712,0.220019,-0.374946
1.53086,-50.75,-13.6985,15.4642,0.810712,0.220019,-0.374946
1.69549,-50.5037,-13.8114,15.368,0.771923,0.245323,-0.375419
1.69549,-50.5037,-13.8114,15.368,0.771923,0.245323,-0.375419
1.98718,-50.1525,-13.7005,15.4227,0.771632,0.24834,-0.379935
2.11302,-49.9664,-13.7937,15.5137,0.735479,0.246298,-0.379803
2.08271,-49.9413,-13.9961,15.5162,0.729747,0.275672,-0.383019
2.21329,-49.98,-13.9849,15.439,0.772066,0.271203,-0.390015
2.347,-49.7428,-13.9352,15.4987,0.764621,0.251689,-0.374855
2.31668,-49.4727,-14.0676,15.5779,0.726188,0.288705,-0.385712
2.26295,-48.7291,-13.9204,15.4474,0.731302,0.306496,-0.373032
2.26295,-48.7291,-13.9204,15.4474,0.731302,0.306496,-0.373032
2.11242,-47.8742,-13.7854,15.6792,0.698044,0.31302,-0.382867
2.11242,-47.8742,-13.7854,15.6792,0.698044,0.31302,-0.382867
2.05105,-47.4637,-13.5746,15.6331,0.656069,0.291435,-0.381501
2.05105,-47.4637,-13.5746,15.6331,0.656069,0.291435,-0.381501
2.04192,-47.1669,-13.5335,15.7822,0.653874,0.295937,-0.38589
1.88839,-46.9234,-13.636,15.787,0.70542,0.292341,-0.374273
1.8633,-46.5715,-13.552,15.6442,0.662771,0.284971,-0.387316
2.16617,-45.4332,-13.095,15.772,0.629054,0.300657,-0.377379
2.16617,-45.4332,-13.095,15.772,0.629054,0.300657,-0.377379
1.98508,-45.1424,-13.2069,15.7628,0.604586,0.283408,-0.387469
1.90552,-45.0399,-13.1532,15.6361,0.597786,0.288304,-0.377627
1.98425,-44.8672,-12.9683,15.6704,0.629439,0.283605,-0.381178
2.03652,-44.523,-12.9252,15.6898,0.579374,0.270869,-0.370429
1.96939,-44.1935,-12.9405,15.7258,0.574502,0.288494,-0.382433
2.00508,-43.6937,-12.8237,15.7039,0.610857,0.273105,-0.366438
2.12171,-43.2758,-12.5782,15.8016,0.561217,0.239407,-0.372284
2.14835,-42.8453,-12.3694,15.9041,0.524444,0.271826,-0.364031
1.91613,-42.6872,-12.373,15.9588,0.563267,0.284907,-0.355571
1.57172,-42.6743,-12.4695,15.8915,0.551701,0.258567,-0.357752
1.40837,-42.463,-12.3703,15.7993,0.552977,0.257401,-0.360658
1.44711,-41.9145,-12.0935,15.8245,0.568896,0.256764,-0.350241
1.45651,-41.2788,-11.89,15.8029,0.513118,0.232163,-0.349166
1.22645,-40.9111,-11.8863,15.8282,0.490066,0.242923,-0.351983
1.03637,-40.6593,-11.8301,15.8206,0.553204,0.246341,-0.35435
0.986779,-40.5884,-11.6819,15.7795,0.512718,0.21614,-0.35993
0.978238,-40.394,-11.559,15.7552,0.476264,0.24094,-0.352227
0.898357,-40.1615,-11.4838,15.7471,0.495197,0.258474,-0.357703
0.681598,-39.7975,-11.5315,15.7271,0.486872,0.236769,-0.350888
0.634679,-39.4082,-11.4253,15.7386,0.460697,0.22538,-0.348679
0.731955,-38.9552,-11.1836,15.8128,0.45839,0.24933,-0.356023
0.806903,-38.5912,-10.9712,15.8426,0.443217,0.249602,-0.355406
0.705771,-38.5969,-10.9081,15.8581,0.415551,0.236078,-0.348234
0.414342,-38.4733,-11.073,15.8423,0.434273,0.261751,-0.361866
0.306265,-38.3209,-11.0198,15.7918,0.43652,0.246132,-0.361857
0.383531,-37.8525,-10.8043,15.7398,0.398779,0.244702,-0.360672
0.508265,-37.388,-10.5178,15.8513,0.412127,0.251715,-0.352607
0.493559,-37.0741,-10.3307,15.8985,0.444493,0.236295,-0.359215
0.276189,-36.8852,-10.377,15.8695,0.41016,0.244805,-0.351125
0.0889416,-36.9681,-10.4434,15.8462,0.402102,0.265374,-0.348338
0.0322103,-36.8261,-10.4139,15.8225,0.417129,0.259252,-0.367252
0.16316,-36.5898,-10.2203,15.8118,0.38477,0.237181,-0.359473
0.278249,-36.1449,-10.0146,15.8638,0.352282,0.256215,-0.353862
0.265929,-35.7247,-9.90654,15.9589,0.386611,0.267051,-0.358401
0.13991,-35.4838,-9.89862,16.022,0.373562,0.248888,-0.355975
0.18602,-35.2834,-9.7981,15.9963,0.349115,0.266233,-0.36258
0.291314,-35.343,-9.63378,16.0342,0.391885,0.265303,-0.353977
0.286779,-35.2958,-9.6097,16.0257,0.346768,0.257071,-0.361797
0.297625,-35.1737,-9.53931,16.0178,0.336849,0.285651,-0.35505
0.271814,-34.8521,-9.52746,16.0599,0.370715,0.304048,-0.358822
0.295159,-34.4882,-9.43166,16.0841,0.339052,0.286597,-0.356857
0.436437,-34.226,-9.21637,16.1697,0.347315,0.306883,-0.358024
0.541844,-33.9835,-9.05119,16.2638,0.350676,0.313491,-0.357761
0.572,-34.0758,-8.97391,16.3256,0.352194,0.288812,-0.354547
0.390746,-34.1683,-9.10505,16.3957,0.35281,0.314486,-0.353241
0.224629,-34.1603,-9.20434,16.3809,0.380145,0.326632,-0.352755
0.264891,-33.9844,-9.06748,16.3622,0.357822,0.30939,-0.361267
0.458691,-33.5153,-8.84987,16.396,0.338638,0.328253,-0.358583
0.607764,-33.2328,-8.62659,16.4842,0.332571,0.325448,-0.350763
0.495914,-33.0614,-8.64255,16.5211,0.337044,0.29356,-0.354647
0.269422,-33.0652,-8.752,16.5381,0.328578,0.310008,-0.356623
0.228761,-33.2831,-8.69374,16.5351,0.322865,0.317896,-0.345857
0.226837,-33.2386,-8.63612,16.5921,0.328789,0.326348,-0.351886
0.308065,-33.2673,-8.50685,16.6457,0.362568,0.304668,-0.353598
0.311671,-33.0437,-8.47874,16.687,0.32731,0.296477,-0.345658
0.236824,-32.698,-8.5131,16.7107,0.317711,0.323917,-0.345906
0.319722,-32.4915,-8.40139,16.7202,0.313482,0.305856,-0.345733
0.443266,-32.2865,-8.24478,16.7946,0.309336,0.30482,-0.34958
0.568721,-32.3128,-8.07801,16.8731,0.327712,0.287905,-0.339799
0.253943,-32.5619,-8.29991,16.8845,0.281764,0.31238,-0.348277
0.253943,-32.5619,-8.29991,16.8845,0.281764,0.31238,-0.348277
0.238161,-32.5919,-8.29539,16.8679,0.307827,0.309636,-0.338805
0.406039,-32.3864,-8.12744,16.9366,0.30176,0.295058,-0.342094
0.636642,-32.0694,-7.90784,17.0374,0.288026,0.31031,-0.340682
0.729266,-31.8426,-7.77229,17.1288,0.304664,0.337183,-0.33426
0.563018,-31.7932,-7.87756,17.1966,0.309623,0.31976,-0.345377
0.485331,-31.8867,-7.91077,17.1858,0.271379,0.308776,-0.332795
0.564301,-31.923,-7.78067,17.241,0.31749,0.328456,-0.336162
0.625937,-32.0521,-7.66626,17.3029,0.332114,0.305627,-0.336036
0.536118,-32.0843,-7.73434,17.347,0.293193,0.324697,-0.335258
0.394461,-32.057,-7.83993,17.4539,0.330948,0.343408,-0.337944
0.431353,-31.8886,-7.78704,17.4926,0.332819,0.303998,-0.338314
0.68299,-31.5617,-7.54527,17.5709,0.262781,0.327495,-0.341464
0.877102,-31.4039,-7.28898,17.6675,0.263144,0.351956,-0.341146
0.685902,-31.3923,-7.35659,17.727,0.299878,0.328836,-0.333689
0.403126,-31.5226,-7.50978,17.6686,0.294951,0.332904,-0.331108
0.359706,-31.6207,-7.49041,17.639,0.300535,0.355632,-0.342164
0.497191,-31.6378,-7.3795,17.7187,0.32222,0.313138,-0.33843
0.614255,-31.6419,-7.32589,17.7847,0.28291,0.314148,-0.331527
0.505591,-31.6162,-7.40633,17.8447,0.29508,0.359708,-0.333397
0.441444,-31.4853,-7.43016,17.8418,0.310993,0.368188,-0.331125
0.574537,-31.2498,-7.23415,17.8609,0.342001,0.342415,-0.328649
0.73448,-31.0912,-7.00966,17.8871,0.323332,0.3583,-0.324503
0.686559,-31.0553,-7.00592,17.9297,0.299305,0.352435,-0.324923
0.507797,-31.1442,-7.12407,17.938,0.317824,0.336318,-0.332392
0.443233,-31.2086,-7.13151,17.9255,0.322789,0.325467,-0.322826
0.580538,-31.2523,-6.98911,18.0042,0.347445,0.339264,-0.322816
0.791269,-31.2098,-6.86613,18.1241,0.362377,0.332969,-0.322924
0.791485,-31.2183,-6.90357,18.1815,0.335314,0.330277,-0.322236
0.764191,-31.1557,-6.98026,18.1781,0.327361,0.365392,-0.323628
0.857465,-30.9882,-6.83888,18.1401,0.350343,0.336418,-0.311798
1.00722,-30.7748,-6.60404,18.1608,0.29997,0.316379,-0.318103
0.973377,-30.6808,-6.523,18.2396,0.329066,0.345676,-0.317902
0.6971,-30.7398,-6.64193,18.2371,0.351744,0.329647,-0.315529
0.548374,-30.7836,-6.6903,18.1423,0.33255,0.320953,-0.320141
0.684856,-30.8163,-6.55329,18.1578,0.33506,0.335124,-0.319231
0.870219,-30.8351,-6.45122,18.2283,0.317724,0.314334,-0.314858
0.775073,-30.929,-6.53503,18.2513,0.27377,0.318185,-0.32002
0.648776,-30.9522,-6.57517,18.1896,0.34453,0.337308,-0.315515
0.665262,-30.8403,-6.45386,18.1576,0.361357,0.304576,-0.305619
0.844555,-30.6582,-6.17996,18.1392,0.338551,0.316475,-0.305787
0.852726,-30.5362,-6.11689,18.1949,0.348011,0.333564,-0.310406
0.640539,-30.5984,-6.27381,18.2041,0.35098,0.305899,-0.304796
0.589599,-30.6343,-6.29685,18.1554,0.369945,0.302387,-0.300159
0.812533,-30.6998,-6.12818,18.2572,0.366302,0.317289,-0.297871
1.02317,-30.8197,-6.01202,18.377,0.338157,0.304909,-0.292126
0.990136,-30.9327,-6.07379,18.4895,0.353146,0.328377,-0.303449
0.955138,-31.0765,-6.11112,18.541,0.35127,0.322656,-0.305401
1.12564,-30.9462,-5.9588,18.6168,0.330788,0.317136,-0.290026
1.42333,-30.7023,-5.68089,18.7048,0.35409,0.318696,-0.295007
1.34675,-30.6475,-5.7016,18.8156,0.326759,0.320975,-0.297207
1.1021,-30.7512,-5.85829,18.8945,0.353018,0.324829,-0.29652
1.04621,-30.8009,-5.84853,18.926,0.39295,0.324191,-0.290111
1.21296,-30.889,-5.67948,19.0129,0.380501,0.311432,-0.295591
1.23218,-30.9591,-5.69911,19.1286,0.365894,0.328251,-0.283447
1.0795,-31.1216,-5.80871,19.1869,0.376175,0.33125,-0.289005
1.01236,-31.1368,-5.80861,19.2435,0.394145,0.333976,-0.290067
1.13286,-30.9029,-5.61073,19.279,0.386004,0.329753,-0.285043
1.18218,-30.7205,-5.47934,19.3824,0.344682,0.333596,-0.290374
0.92528,-30.7347,-5.59873,19.5001,0.362524,0.35134,-0.293314
0.617694,-30.8025,-5.7464,19.5361,0.384788,0.34794,-0.293007
0.617455,-30.8713,-5.67117,19.6067,0.411159,0.333567,-0.294108
0.708542,-30.8477,-5.60013,19.7206,0.405777,0.341706,-0.289707
0.625444,-30.9466,-5.68309,19.8075,0.404545,0.362027,-0.286333
0.510411,-30.9367,-5.7625,19.8764,0.411009,0.37698,-0.291278
0.604915,-30.7399,-5.65259,19.9562,0.399127,0.370018,-0.292151
0.870434,-30.4795,-5.39132,20.083,0.382435,0.362109,-0.287627
0.796903,-30.3215,-5.38026,20.1881,0.388497,0.372778,-0.289282
0.508666,-30.3399,-5.54284,20.2112,0.394571,0.382428,-0.283605
0.412882,-30.3533,-5.56446,20.2629,0.39631,0.392316,-0.292282
0.534957,-30.3391,-5.44586,20.3611,0.395156,0.391121,-0.290527
0.49895,-30.275,-5.4738,20.5098,0.371068,0.395165,-0.296273
0.351868,-30.2311,-5.56281,20.5476,0.391293,0.400616,-0.293186
0.215277,-30.0586,-5.62005,20.5983,0.392487,0.409073,-0.29156
0.25569,-29.7854,-5.53391,20.6699,0.368402,0.402144,-0.296243
0.297198,-29.5386,-5.44268,20.741,0.343631,0.405049,-0.296494
-0.0356238,-29.4408,-5.65017,20.7987,0.355804,0.403574,-0.303382
-0.512248,-29.4038,-5.94211,20.7322,0.377306,0.401291,-0.308558
-0.809348,-29.2803,-6.06826,20.6297,0.385936,0.396375,-0.307361
-0.846613,-29.0739,-5.99369,20.5219,0.382897,0.384938,-0.313404
-0.848697,-28.8781,-5.92882,20.5348,0.36325,0.38261,-0.314932
-0.944361,-28.6379,-5.94729,20.4872,0.354187,0.363966,-0.308359
-1.04126,-28.359,-5.94787,20.3548,0.35281,0.360847,-0.309342
-1.00373,-28.024,-5.82932,20.183,0.341767,0.340016,-0.310289
-0.878209,-27.6654,-5.63841,20.048,0.329228,0.329201,-0.309987
-0.829036,-27.3906,-5.50791,19.9685,0.317232,0.328795,-0.314544
-0.774585,-27.0886,-5.39036,19.8918,0.30737,0.310867,-0.315664
-0.632866,-26.7009,-5.22,19.8068,0.304149,0.29132,-0.309985
-0.424874,-26.3512,-5.0136,19.7365,0.298514,0.289992,-0.309836
-0.197252,-26.0819,-4.8392,19.6999,0.289713,0.293644,-0.318098
0.000464259,-25.949,-4.7213,19.6856,0.292084,0.291415,-0.317545
0.144463,-25.8923,-4.66308,19.7,0.302866,0.294468,-0.316665
0.218943,-25.9052,-4.63766,19.6814,0.313416,0.299947,-0.318359
0.180488,-25.8516,-4.63142,19.6636,0.334866,0.301141,-0.319606
0.180488,-25.8516,-4.63142,19.6636,0.334866,0.301141,-0.319606
0.0809355,-25.7138,-4.67283,19.614,0.343621,0.298933,-0.318719
0.00713827,-25.4828,-4.6862,19.5472,0.349175,0.301966,-0.321466
-0.00412543,-25.2132,-4.63479,19.4904,0.352524,0.296994,-0.319459
0.0022036,-24.9621,-4.56977,19.4356,0.358998,0.291666,-0.314589
0.00984235,-24.7821,-4.5129,19.4008,0.370193,0.289513,-0.308017
0.0274823,-24.6437,-4.47565,19.3637,0.371797,0.289848,-0.309511
0.0405223,-24.5513,-4.46005,19.3435,0.379626,0.290968,-0.307457
0.0531357,-24.4749,-4.4468,19.3327,0.387984,0.289485,-0.308978
0.0385205,-24.3581,-4.45818,19.2758,0.397945,0.284412,-0.316752
0.00461489,-24.2085,-4.48539,19.2072,0.409012,0.292523,-0.312514
-0.041418,-24.039,-4.53361,19.1089,0.417227,0.296309,-0.309598
-0.0697215,-23.8784,-4.57523,18.9795,0.422718,0.290237,-0.321456
-0.054737,-23.7638,-4.589,18.8386,0.430046,0.285625,-0.324822
-0.025244,-23.6485,-4.58708,18.6904,0.428962,0.293633,-0.317205
0.0410616,-23.5393,-4.54256,18.5192,0.429143,0.295719,-0.323855
0.0976806,-23.3633,-4.51993,18.3491,0.440062,0.282149,-0.314821
0.201983,-23.1358,-4.45961,18.1664,0.45518,0.262878,-0.31485
0.237166,-22.8579,-4.45003,17.9802,0.44328,0.263794,-0.313894
0.219723,-22.543,-4.48203,17.7702,0.427814,0.267269,-0.313404
0.202592,-22.2121,-4.47033,17.5534,0.440233,0.262178,-0.316109
0.185263,-21.8966,-4.44967,17.356,0.443848,0.251019,-0.32375
0.292858,-21.577,-4.3224,17.2109,0.443625,0.234622,-0.319984
0.465365,-21.2242,-4.14191,17.0201,0.451186,0.223211,-0.31968
0.481921,-20.9249,-4.1046,16.8618,0.42786,0.221062,-0.319804
0.387227,-20.7388,-4.17956,16.692,0.441619,0.20893,-0.314188
0.344727,-20.5335,-4.19575,16.505,0.444968,0.226499,-0.322565
0.541783,-20.3564,-4.00874,16.3742,0.409751,0.225729,-0.322076
0.808403,-20.0812,-3.78338,16.3432,0.407328,0.217833,-0.317134
0.750532,-19.7914,-3.83495,16.192,0.427016,0.22114,-0.323322
0.530451,-19.6608,-4.00315,16.1074,0.419254,0.21696,-0.321881
0.654348,-19.4072,-3.91387,16.1188,0.420989,0.198525,-0.322452
1.05258,-19.146,-3.62135,16.1735,0.406797,0.224493,-0.323388
1.11987,-19.087,-3.61397,16.2661,0.403272,0.176624,-0.317664
1.01861,-19.1988,-3.76603,16.3007,0.471747,0.183204,-0.324809
1.31197,-19.3398,-3.59278,16.4345,0.424281,0.240778,-0.321311
1.73007,-19.4242,-3.39448,16.6132,0.368323,0.199348,-0.311831
1.79025,-19.6185,-3.48823,16.8209,0.442042,0.185375,-0.313348
1.81793,-19.835,-3.52948,16.8125,0.430859,0.222889,-0.321628
2.02558,-19.71,-3.40617,16.8517,0.371852,0.2367,-0.322817
2.09147,-19.5474,-3.38289,17.0135,0.45664,0.238025,-0.317082
2.00841,-19.5765,-3.48442,17.25,0.479637,0.224214,-0.315355
2.20899,-19.5716,-3.42681,17.3864,0.461347,0.178181,-0.314458
2.43072,-19.6391,-3.42056,17.6098,0.463205,0.205442,-0.313391
2.38424,-20.0301,-3.54321,17.8781,0.422846,0.256088,-0.318254
2.57842,-20.547,-3.45294,18.0467,0.442263,0.241056,-0.31435
2.8684,-20.7582,-3.3682,18.285,0.480501,0.24285,-0.313414
2.96478,-20.9576,-3.47994,18.5118,0.45342,0.289297,-0.303685
3.08032,-21.0811,-3.53427,18.5752,0.437899,0.302364,-0.30812
3.30012,-20.9467,-3.47939,18.8177,0.47365,0.247972,-0.30321
3.26616,-21.0553,-3.56761,19.1137,0.511304,0.19903,-0.298681
2.9593,-21.365,-3.81109,19.2979,0.497879,0.257881,-0.309508
2.95196,-21.817,-3.83871,19.4137,0.501031,0.301032,-0.310749
3.1175,-22.0713,-3.85575,19.591,0.511261,0.266013,-0.306314
3.21557,-22.2705,-4.00123,19.6678,0.518633,0.268678,-0.306872
3.62692,-22.5481,-3.93673,19.8822,0.49418,0.364635,-0.295924
3.62692,-22.5481,-3.93673,19.8822,0.49418,0.364635,-0.295924
3.65771,-23.2529,-4.20278,20.2873,0.582595,0.306679,-0.283174
3.65771,-23.2529,-4.20278,20.2873,0.582595,0.306679,-0.283174
3.67117,-23.9582,-4.42476,20.6918,0.599878,0.305799,-0.292306
3.70039,-23.932,-4.4528,20.7771,0.579045,0.296534,-0.300509
3.51894,-23.9903,-4.69064,20.9019,0.601004,0.278671,-0.295513
3.51894,-23.9903,-4.69064,20.9019,0.601004,0.278671,-0.295513
3.54661,-24.1123,-4.79253,21.2455,0.6359,0.25024,-0.308948
4.18362,-24.8414,-4.60925,21.7717,0.599143,0.249864,-0.300309
4.13936,-25.1935,-4.82281,21.7898,0.57943,0.296311,-0.310318
4.13936,-25.1935,-4.82281,21.7898,0.57943,0.296311,-0.310318
4.22778,-25.662,-4.92353,22.0148,0.612929,0.312561,-0.307164
4.22778,-25.662,-4.92353,22.0148,0.612929,0.312561,-0.307164
4.39425,-25.798,-4.85055,22.2985,0.624493,0.333718,-0.305151
4.32998,-26.0375,-4.90386,22.4366,0.649802,0.353605,-0.307139
4.19428,-26.0057,-5.02011,22.3083,0.613171,0.393587,-0.309795
4.25048,-25.9748,-4.96516,22.1779,0.60888,0.409224,-0.310179
4.36074,-25.9238,-4.87456,22.236,0.642953,0.396905,-0.30589
4.47368,-25.9152,-4.76698,22.3634,0.664024,0.364503,-0.307242
4.64379,-26.1371,-4.58112,22.4381,0.671136,0.361007,-0.306514
4.71873,-26.2704,-4.46902,22.4434,0.649378,0.374236,-0.308302
4.74127,-26.1959,-4.42844,22.3032,0.641349,0.375911,-0.314234
4.78059,-26.1238,-4.35105,22.255,0.646987,0.363349,-0.305115
4.80691,-26.0525,-4.3444,22.2898,0.677928,0.34493,-0.309696
4.86,-26.0972,-4.32974,22.4446,0.69944,0.316949,-0.296483
4.94902,-26.3836,-4.29508,22.4977,0.727632,0.289471,-0.295764
4.97593,-26.482,-4.34021,22.4229,0.713201,0.282164,-0.308071
5.07898,-26.5638,-4.31725,22.2831,0.706776,0.273284,-0.309363
5.21129,-26.5916,-4.24702,22.2498,0.707105,0.281134,-0.319798
5.34512,-26.6831,-4.24174,22.3288,0.714845,0.249943,-0.313594
5.49782,-26.9069,-4.1988,22.3424,0.743398,0.217476,-0.310394
5.62783,-27.2607,-4.14156,22.2504,0.764873,0.19851,-0.311374
5.68966,-27.4634,-4.14908,22.0158,0.73179,0.20746,-0.316356
5.72463,-27.5803,-4.12251,21.8724,0.716146,0.210809,-0.319263
5.68852,-27.6084,-4.17261,21.8582,0.726237,0.198784,-0.315397
5.65286,-27.7276,-4.25437,21.8574,0.754383,0.17974,-0.314534
5.66926,-27.8857,-4.2715,21.8318,0.746636,0.138463,-0.318478
5.85874,-28.2328,-4.15823,21.723,0.765247,0.126938,-0.319253
6.03037,-28.4529,-4.0799,21.5026,0.721569,0.133827,-0.316251
6.14994,-28.5994,-4.05546,21.2415,0.675782,0.165476,-0.323484
6.14551,-28.6332,-4.14023,21.2209,0.693305,0.186778,-0.324141
6.33431,-28.8171,-4.18318,21.2317,0.70008,0.193342,-0.320251
6.68226,-29,-4.07512,21.2966,0.693645,0.230586,-0.323798
7.04998,-29.3871,-3.9541,21.3348,0.696966,0.241101,-0.318458
7.19237,-29.7127,-4.05399,21.169,0.671448,0.297597,-0.318843
7.26053,-30.0072,-4.23597,20.9143,0.672102,0.34365,-0.321065
7.45352,-30.1685,-4.26881,20.8611,0.687678,0.338291,-0.320987
7.86566,-30.3003,-4.17841,20.9519,0.680942,0.336189,-0.311428
8.15687,-30.509,-4.1154,21.1117,0.684721,0.362805,-0.31111
8.13429,-30.9028,-4.3034,21.1591,0.700883,0.382216,-0.315496
8.02622,-31.486,-4.42483,20.9515,0.717422,0.367972,-0.317602
8.15767,-31.8282,-4.38924,20.7529,0.731604,0.321596,-0.320362
8.36845,-31.9804,-4.33631,20.7643,0.72612,0.274004,-0.315386
8.34897,-32.1624,-4.44984,20.7861,0.725936,0.266749,-0.323152
8.21678,-32.4449,-4.56348,20.787,0.664842,0.288505,-0.332359
8.31368,-32.6718,-4.52049,20.8723,0.694203,0.280723,-0.331268
8.38245,-32.965,-4.55528,20.7556,0.700251,0.266169,-0.330775
8.26038,-33.5149,-4.71239,20.5222,0.702175,0.295209,-0.326929
8.225,-33.9483,-4.8261,20.4623,0.695804,0.352132,-0.327809
8.46941,-34.1921,-4.81474,20.4396,0.644976,0.382051,-0.327527
8.57722,-34.245,-4.88126,20.4862,0.66167,0.356689,-0.326807
8.60239,-34.5939,-4.95186,20.5131,0.729989,0.320895,-0.32476
8.73611,-34.8908,-4.92851,20.436,0.705971,0.34221,-0.323856
8.83059,-35.3735,-4.97421,20.2993,0.715188,0.363687,-0.329999
8.71573,-35.9553,-5.16982,20.281,0.711426,0.336561,-0.332519
8.83187,-36.4022,-5.25327,20.2379,0.692279,0.318741,-0.333056
9.08063,-36.5479,-5.15809,20.2787,0.660588,0.306465,-0.337687
9.05691,-36.6702,-5.23661,20.3401,0.647,0.350339,-0.342166
8.93615,-37.0193,-5.31883,20.2796,0.63894,0.377214,-0.34004
9.00712,-37.3126,-5.27781,20.1176,0.615897,0.380186,-0.335928
9.03453,-37.7357,-5.28309,20.0692,0.637353,0.366377,-0.331986
8.92872,-38.2702,-5.42875,20.105,0.633427,0.385563,-0.333174
8.99709,-38.5933,-5.43202,20.1163,0.619513,0.407241,-0.338379
9.19105,-38.6066,-5.39807,20.1694,0.624924,0.343663,-0.34113
9.26824,-38.8129,-5.46402,20.2265,0.640251,0.285359,-0.344851
9.30635,-39.0894,-5.49479,20.2577,0.653984,0.319713,-0.353782
9.39132,-39.4908,-5.5021,20.1323,0.596173,0.341951,-0.358253
9.28213,-40.0017,-5.61716,20.1146,0.579396,0.327262,-0.359256
9.15149,-40.4805,-5.76556,20.1021,0.607107,0.335358,-0.360573
9.1752,-40.7045,-5.70536,20.0899,0.585011,0.357249,-0.36099
9.22882,-40.6995,-5.68078,20.1193,0.57389,0.376567,-0.358809
9.16716,-40.988,-5.70843,20.2079,0.592731,0.322201,-0.356532
9.15144,-41.3639,-5.70832,20.1768,0.625392,0.293165,-0.357502
9.29283,-41.7406,-5.65267,20.1533,0.615526,0.272953,-0.362908
9.29883,-42.1223,-5.72459,20.1668,0.587992,0.28896,-0.367404
9.10573,-42.5102,-5.88085,20.1702,0.562246,0.307243,-0.367998
9.01241,-42.6264,-5.88996,20.162,0.585041,0.298515,-0.36421
8.92231,-42.7137,-5.89759,20.2454,0.57733,0.287909,-0.360631
8.78214,-43.0045,-5.92738,20.2808,0.562354,0.344631,-0.358492
8.73016,-43.3966,-5.86161,20.2285,0.60117,0.317273,-0.355154
8.84302,-43.606,-5.87195,20.0957,0.596737,0.245874,-0.354874
8.88908,-43.7517,-5.92679,20.0308,0.571411,0.246121,-0.361216
8.7266,-44.0001,-6.05526,20.002,0.580302,0.28187,-0.367009
8.6009,-44.2834,-6.11753,20.08,0.580079,0.234631,-0.367532
8.59801,-44.5829,-6.08455,20.2008,0.565503,0.234003,-0.366073
8.57003,-45.0276,-6.02173,20.1785,0.550778,0.277921,-0.36404
8.40002,-45.3353,-6.06477,20.0748,0.532094,0.323502,-0.359422
8.39546,-45.3088,-6.0952,19.8295,0.512915,0.302902,-0.356798
8.25055,-45.2973,-6.2166,19.7996,0.526921,0.263428,-0.354639
7.97529,-45.6202,-6.34174,19.8892,0.580867,0.251926,-0.358459
7.88243,-45.9534,-6.27456,20.0904,0.561233,0.276129,-0.362654
8.03883,-46.3124,-6.08699,20.092,0.53201,0.271605,-0.361886
8.05444,-46.3977,-6.07074,19.9308,0.57553,0.271064,-0.358776
7.82055,-46.4837,-6.20919,19.5627,0.536558,0.313373,-0.356267
7.56028,-46.6832,-6.38506,19.5673,0.52089,0.374789,-0.354915
7.46469,-47.001,-6.4483,19.6742,0.556303,0.320749,-0.352938
7.42898,-47.4516,-6.34532,19.8375,0.592624,0.25553,-0.351351
7.56255,-47.5174,-6.05528,19.4468,0.533131,0.317217,-0.35631
7.56255,-47.5174,-6.05528,19.4468,0.533131,0.317217,-0.35631
7.22123,-47.6812,-6.25255,19.2122,0.593071,0.288336,-0.355895
6.76839,-48.2223,-6.57756,19.427,0.612762,0.299947,-0.353607
6.80392,-48.699,-6.50802,19.5982,0.594553,0.330116,-0.353234
7.11564,-48.727,-6.26809,19.6183,0.521794,0.36125,-0.349376
7.07704,-48.6164,-6.08056,19.2867,0.579032,0.336646,-0.343933
6.6672,-48.8721,-6.28541,18.9837,0.576786,0.293402,-0.339913
6.2973,-49.3021,-6.56767,19.1534,0.565701,0.299634,-0.338404
6.26009,-49.8636,-6.47029,19.3952,0.567888,0.32915,-0.330417
6.26009,-49.8636,-6.47029,19.3952,0.567888,0.32915,-0.330417
6.41253,-49.7401,-6.13652,19.0255,0.576882,0.333613,-0.326025
6.23872,-49.9102,-6.18914,18.856,0.599716,0.320413,-0.322619
5.72379,-50.6071,-6.55781,18.9847,0.572282,0.337275,-0.319142
5.46127,-51.0693,-6.68744,19.1657,0.593898,0.381607,-0.315212
5.61548,-50.8256,-6.5004,18.8945,0.571802,0.318453,-0.310331
5.70719,-50.8727,-6.21874,18.5739,0.604336,0.286171,-0.307593
5.39134,-51.3855,-6.34415,18.712,0.612048,0.36549,-0.306823
5.19142,-52.0089,-6.5174,18.9504,0.614508,0.333054,-0.304301
5.12146,-51.9498,-6.58868,18.9429,0.630438,0.304311,-0.301016
4.86148,-52.0201,-6.52444,18.5302,0.637566,0.313222,-0.29902
4.61579,-52.4279,-6.47603,18.424,0.561201,0.362341,-0.29561
4.76968,-52.9113,-6.4301,18.673,0.616395,0.340079,-0.29068
4.88147,-53.0451,-6.3875,18.735,0.587,0.289766,-0.286368
3.95119,-53.506,-6.60927,18.2732,0.647098,0.336301,-0.284313
3.95119,-53.506,-6.60927,18.2732,0.647098,0.336301,-0.284313
3.86079,-53.874,-6.66334,18.3505,0.638923,0.330903,-0.282161
4.00467,-54.0445,-6.50478,18.4692,0.622399,0.325042,-0.279792
4.05599,-54.3839,-6.3962,18.3343,0.612885,0.331752,-0.27821
3.72251,-54.6613,-6.46527,18.244,0.610282,0.359595,-0.276305
3.38556,-55.0415,-6.68419,18.245,0.662294,0.390442,-0.27478
3.14933,-55.1783,-6.75273,18.2048,0.670747,0.359937,-0.271749
3.22455,-55.4935,-6.50163,18.1206,0.709241,0.342585,-0.27123
3.20373,-55.8378,-6.4108,18.0925,0.62642,0.361587,-0.270341
3.02804,-56.1625,-6.50391,18.2298,0.645502,0.361493,-0.270145
2.72626,-56.2537,-6.66884,18.1156,0.689341,0.326036,-0.270089
2.3868,-56.6257,-6.70939,18.0261,0.612686,0.324943,-0.270314
2.22102,-57.1079,-6.65032,17.9159,0.65583,0.382332,-0.270435
2.17833,-57.2017,-6.58701,18.0585,0.620354,0.359094,-0.266345
2.26908,-57.377,-6.42956,17.8896,0.679148,0.349959,-0.265167
2.0072,-57.8161,-6.54778,18.0243,0.685931,0.343702,-0.264206
1.23882,-58.2692,-6.77007,17.9353,0.685397,0.366157,-0.267226
1.23882,-58.2692,-6.77007,17.9353,0.685397,0.366157,-0.267226
1.28264,-58.5638,-6.55304,17.8025,0.697135,0.345917,-0.267278
1.16952,-59.1916,-6.52434,17.987,0.657633,0.317232,-0.266305
1.01488,-59.4844,-6.58466,17.8601,0.692185,0.37941,-0.267524
0.462366,-59.8085,-6.5982,17.7962,0.697662,0.376898,-0.264621
0.462366,-59.8085,-6.5982,17.7962,0.697662,0.376898,-0.264621
-0.142405,-60.2897,-6.62423,17.5507,0.655088,0.414151,-0.264527
-0.142405,-60.2897,-6.62423,17.5507,0.655088,0.414151,-0.264527
-0.272343,-61.0051,-6.47434,17.8089,0.675874,0.371751,-0.260387
-0.272343,-61.0051,-6.47434,17.8089,0.675874,0.371751,-0.260387
-0.928377,-61.2282,-6.61855,17.2815,0.651754,0.396337,-0.258103
-1.19427,-61.4948,-6.47581,17.4128,0.597826,0.409376,-0.251266
-1.45372,-61.943,-6.54514,17.5954,0.666819,0.413157,-0.244919
-1.45372,-61.943,-6.54514,17.5954,0.666819,0.413157,-0.244919
-1.69548,-61.9449,-6.60478,17.419,0.631396,0.40814,-0.238376
-1.81011,-62.1292,-6.35369,17.1086,0.685272,0.420223,-0.234171
-2.09765,-62.4068,-6.47265,17.3512,0.627922,0.44226,-0.229675
-2.35236,-62.4793,-6.57712,17.3638,0.638242,0.433549,-0.225943
-2.5893,-62.5908,-6.45414,17.1609,0.63028,0.346958,-0.221042
-2.87816,-62.8729,-6.25623,17.0484,0.632771,0.342935,-0.219501
-3.2337,-62.8572,-6.41064,16.9294,0.586866,0.384289,-0.218023
-3.58285,-62.5124,-6.50667,16.6046,0.558252,0.365958,-0.212641
-3.96425,-62.7682,-6.43335,16.5002,0.63386,0.351154,-0.207616
-4.44743,-63.201,-6.51936,16.5342,0.563828,0.360168,-0.201966
-4.87698,-62.905,-6.48117,16.1923,0.577748,0.397183,-0.198235
-5.51258,-62.6841,-6.51326,15.6102,0.55486,0.373572,-0.195021
-6.13178,-62.9238,-6.50692,15.7715,0.572833,0.313205,-0.192263
-6.24038,-63.0979,-6.53587,15.6289,0.568833,0.327502,-0.194339
-6.21143,-62.4841,-6.4346,15.276,0.410133,0.335688,-0.193622
-6.54917,-62.3891,-6.31772,14.9467,0.481836,0.338872,-0.192675
-7.44367,-62.5738,-6.5399,14.7723,0.441666,0.282622,-0.186859
-8.09863,-62.1782,-6.5685,14.3682,0.470768,0.313258,-0.185766
-8.4345,-61.6841,-6.43309,13.78,0.418244,0.32147,-0.183703
-8.78587,-61.6384,-6.404,13.795,0.408099,0.304677,-0.18153
-9.1893,-61.9344,-6.58842,13.7639,0.417766,0.272053,-0.181534
-9.46856,-61.7596,-6.65053,13.5971,0.332678,0.342756,-0.179066
-9.6046,-61.6145,-6.52575,13.2222,0.365689,0.290285,-0.176536
-10.0946,-61.921,-6.66091,13.3391,0.355616,0.238371,-0.175244
-10.9051,-62.6753,-6.9519,13.4094,0.337933,0.334679,-0.176339
-11.6029,-62.8658,-7.14447,13.3061,0.359258,0.312962,-0.173619
-11.901,-62.9624,-7.16379,13.0188,0.361113,0.293129,-0.171023
-12.0558,-63.5607,-7.18352,13.1603,0.322612,0.331472,-0.169398
-12.3238,-64.6063,-7.38249,13.4486,0.32391,0.3588,-0.168592
-12.8951,-65.3908,-7.56263,13.4905,0.346677,0.319071,-0.166508
-13.4687,-65.6581,-7.78346,13.4463,0.346285,0.361582,-0.167453
-13.979,-66.6578,-7.87501,13.6261,0.380181,0.355174,-0.166719
-14.4473,-69.6476,-8.20732,14.6947,0.408604,0.356619,-0.164737
-14.4473,-69.6476,-8.20732,14.6947,0.408604,0.356619,-0.164737
-14.5058,-70.6298,-8.37464,14.8493,0.404349,0.369854,-0.165106
-14.6349,-71.4496,-8.49509,14.9138,0.42356,0.370475,-0.164843
-14.9009,-72.9206,-8.6855,15.4721,0.476927,0.378866,-0.164494
-15.2373,-74.8566,-8.95532,16.1471,0.485334,0.373604,-0.164068
-15.5614,-76.5946,-9.16768,16.8159,0.517477,0.360058,-0.162908
-15.7198,-77.7683,-9.32974,17.0168,0.534464,0.377674,-0.163256
-15.6921,-78.7687,-9.44473,17.4027,0.522145,0.388552,-0.162623
-15.5297,-80.4533,-9.65668,17.968,0.562376,0.383407,-0.162966
-15.4214,-82.3438,-9.88097,18.6804,0.591569,0.355846,-0.161072
-15.4973,-83.8646,-10.0293,19.0745,0.634194,0.357054,-0.160303
-15.6727,-85.3281,-10.2679,19.8037,0.645949,0.363062,-0.158801
-15.7774,-88.6826,-10.7402,20.7772,0.746996,0.362908,-0.157841
-15.6076,-89.9565,-10.8224,21.4977,0.780875,0.368619,-0.156393
-15.6076,-89.9565,-10.8224,21.4977,0.780875,0.368619,-0.156393
-14.7988,-92.5688,-10.9062,22.5805,0.862709,0.334151,-0.156915
-14.7988,-92.5688,-10.9062,22.5805,0.862709,0.334151,-0.156915
-14.1425,-95.4229,-11.1696,23.9438,0.88175,0.339314,-0.156509
-14.1425,-95.4229,-11.1696,23.9438,0.88175,0.339314,-0.156509
-13.8927,-96.9383,-11.3633,24.3826,0.960828,0.312777,-0.157099
-13.6395,-97.9768,-11.4752,24.9828,0.962547,0.3083,-0.155464
-13.477,-99.1654,-11.5166,25.6296,0.950202,0.326978,-0.153981
-13.271,-99.8533,-11.5349,25.8472,1.00334,0.284949,-0.153065
-12.9288,-99.9728,-11.5271,26.151,0.999857,0.287742,-0.150766
-12.3579,-100.164,-11.5069,26.5276,0.979611,0.294207,-0.150149
-11.6021,-99.9438,-11.4332,26.5766,1.00395,0.293991,-0.150977
-10.9744,-99.402,-11.353,26.6217,0.971947,0.257603,-0.149904
-10.5863,-99.2626,-11.289,26.8895,0.972049,0.287845,-0.149937
-10.4105,-99.0985,-11.3196,26.9886,0.97307,0.274925,-0.149575
-10.3311,-98.5342,-11.3464,26.8831,0.983798,0.27019,-0.148902
-10.2974,-97.9581,-11.3547,27.136,0.978577,0.299659,-0.14721
-10.1484,-97.5504,-11.4236,27.3361,0.976038,0.309822,-0.145246
-9.86196,-96.9043,-11.4374,27.2599,0.962004,0.300595,-0.144376
-9.60727,-96.0491,-11.3691,27.2005,0.958722,0.316491,-0.144392
-9.45028,-95.2363,-11.3734,27.3073,0.941137,0.324049,-0.142877
-9.36338,-94.5421,-11.4432,27.3298,0.944135,0.328797,-0.142638
-9.31244,-93.7602,-11.488,27.4714,0.888644,0.338556,-0.140623
-9.22152,-92.8885,-11.4859,27.2726,0.894396,0.343599,-0.141355
-9.26338,-91.6191,-11.5065,27.2098,0.871025,0.328755,-0.140903
-9.27473,-90.3448,-11.5511,26.9187,0.841814,0.324597,-0.141288
-9.32851,-88.8898,-11.5291,26.748,0.835897,0.318496,-0.140647
-9.35353,-87.4986,-11.5717,26.4977,0.801296,0.30974,-0.140396
-9.42458,-86.0045,-11.5133,26.2545,0.780485,0.304443,-0.139311
-9.44811,-84.4909,-11.5031,25.9134,0.771533,0.308005,-0.139452
-9.53064,-83.1037,-11.4259,25.5814,0.744185,0.296284,-0.138125
-9.60536,-81.7463,-11.3615,25.1954,0.712499,0.29955,-0.137699
-9.67367,-80.395,-11.2841,24.8903,0.69488,0.308353,-0.137206
-9.65119,-79.2343,-11.197,24.5805,0.665884,0.311024,-0.136261
-9.59139,-78.2061,-11.1395,24.2653,0.665433,0.328087,-0.135936
-9.57557,-77.2581,-11.122,23.9005,0.642379,0.338792,-0.135062
-9.52023,-76.4054,-11.0984,23.5235,0.600104,0.352318,-0.134761
-9.31597,-75.5549,-10.9168,23.1315,0.61152,0.366686,-0.134495
-8.90746,-74.5982,-10.7168,22.9448,0.572974,0.362581,-0.132496
-8.42044,-73.7253,-10.4723,22.6698,0.554785,0.366017,-0.131751
-8.06977,-72.8161,-10.3868,22.5061,0.532423,0.388893,-0.131996
-7.69887,-72.0812,-10.3022,22.0378,0.500999,0.38959,-0.131428
-7.11961,-71.1806,-9.9792,21.5955,0.479992,0.392206,-0.130024
-6.24829,-70.2615,-9.58681,21.3259,0.480901,0.40122,-0.12957
-5.51283,-69.6465,-9.28387,21.0408,0.438255,0.390037,-0.128189
-5.01432,-68.9663,-9.10342,20.7488,0.440965,0.386287,-0.128852
-4.44471,-68.2009,-8.69084,19.9675,0.426184,0.372702,-0.130339
-3.65139,-67.2011,-8.21956,19.4211,0.396692,0.370439,-0.129848
-2.80993,-66.5421,-7.83469,18.8689,0.37801,0.357892,-0.129807
-2.12404,-66.0063,-7.40774,18.4345,0.38242,0.363448,-0.129496
-1.37627,-65.4637,-6.94727,17.669,0.397587,0.369449,-0.130005
-0.590484,-64.742,-6.43166,17.0543,0.373317,0.358745,-0.129318
0.240394,-64.2686,-6.12891,16.7448,0.383554,0.375259,-0.129927
0.96906,-64.2895,-5.85316,16.5007,0.396105,0.365676,-0.129406
1.56598,-64.4715,-5.69918,16.4117,0.380802,0.366043,-0.129063
2.16795,-64.831,-5.5094,16.3655,0.425125,0.372562,-0.12931
2.77627,-65.2585,-5.36322,16.3079,0.418929,0.35859,-0.128352
3.32938,-65.7356,-5.28347,16.3947,0.396496,0.364613,-0.127859
3.71624,-66.4603,-5.18236,16.4926,0.43825,0.36232,-0.127463
3.97394,-67.2354,-5.20196,16.6528,0.432478,0.350688,-0.126094
4.17497,-67.8819,-5.23002,16.8,0.466073,0.354424,-0.125082
4.34654,-68.4386,-5.23926,16.8591,0.478755,0.361328,-0.123875
4.47915,-68.977,-5.20034,16.9524,0.460155,0.363735,-0.121594
4.63141,-69.4287,-5.13569,17.0251,0.490912,0.366212,-0.120679
4.7037,-69.7693,-5.15084,17.1371,0.4774,0.354947,-0.118225
4.72721,-70.0487,-5.17601,17.2165,0.485751,0.351476,-0.116373
4.76265,-70.2722,-5.2186,17.3299,0.498397,0.344491,-0.114385
4.83295,-70.5472,-5.23756,17.4602,0.484626,0.330288,-0.11118
4.97917,-70.7369,-5.25191,17.6245,0.495749,0.328891,-0.109215
5.08578,-70.9129,-5.24327,17.8082,0.497703,0.314246,-0.106303
5.22693,-71.0358,-5.23099,17.9844,0.495186,0.301439,-0.103773
5.39273,-71.0893,-5.15663,18.1571,0.517482,0.300491,-0.101266
5.51866,-71.1255,-5.18029,18.2526,0.496503,0.298517,-0.09874
5.54356,-71.189,-5.21896,18.3335,0.519368,0.297245,-0.0969812
5.45575,-71.3236,-5.32146,18.4294,0.525892,0.289848,-0.0952722
5.31208,-71.4595,-5.35099,18.549,0.552338,0.295203,-0.0933718
5.25352,-71.5613,-5.36019,18.7798,0.564815,0.290007,-0.0907927
5.21765,-71.8311,-5.37276,19.1596,0.571584,0.278009,-0.0879677
5.06689,-72.0927,-5.52246,19.5562,0.590075,0.281029,-0.0854746
4.70907,-72.3515,-5.73858,19.9164,0.607221,0.276479,-0.0829999
4.31559,-72.757,-5.95092,20.3394,0.649765,0.277875,-0.0812866
4.05854,-73.1279,-6.0809,20.7867,0.665173,0.269695,-0.0789903
3.85443,-73.6058,-6.0965,21.2104,0.705253,0.265614,-0.0775128
3.4944,-74.106,-6.23896,21.7244,0.734727,0.263463,-0.0751501
2.94622,-74.7266,-6.44061,22.1207,0.773979,0.259173,-0.073418
2.35947,-75.4071,-6.69118,22.5245,0.809756,0.259308,-0.0724385
1.86598,-76.2078,-6.80183,22.9694,0.833674,0.260134,-0.0707505
1.53774,-77.0581,-6.82386,23.3542,0.845058,0.272157,-0.0695745
1.20699,-77.8622,-6.84392,23.7161,0.864829,0.278336,-0.0675956
0.720987,-78.7399,-7.00003,24.0491,0.875138,0.288455,-0.0671825
0.14677,-79.648,-7.2398,24.3332,0.910408,0.306915,-0.0669749
-0.473226,-80.537,-7.46402,24.5694,0.924982,0.308853,-0.0675759
-0.997942,-81.3877,-7.52761,24.885,0.944982,0.329034,-0.0661456
-1.44489,-82.264,-7.50202,25.21,0.987252,0.336491,-0.0663343
-2.02934,-83.0333,-7.60066,25.4878,0.991865,0.333894,-0.0654812
-2.82169,-83.7334,-7.87382,25.7347,1.00939,0.340466,-0.0662186
-3.62961,-84.4565,-8.08623,25.7676,1.03054,0.350462,-0.0669869
-4.09808,-85.0515,-8.13516,25.8359,1.03172,0.360302,-0.0666454
-4.25768,-85.6411,-8.00103,25.9185,1.04414,0.369614,-0.0646969
-4.4358,-86.3582,-8.00577,26.1769,1.05138,0.400813,-0.0635656
-4.96149,-87.1627,-8.18467,26.3929,1.05498,0.409522,-0.0611554
-5.45938,-87.9336,-8.29807,26.4212,1.08391,0.441757,-0.062205
-5.82926,-88.4336,-8.24235,26.3523,1.09196,0.430125,-0.0609743
-6.38772,-88.8287,-8.2957,26.4676,1.07951,0.457429,-0.0606726
-7.24621,-89.5361,-8.38984,26.6016,1.13121,0.461878,-0.0603279
-7.84714,-90.0201,-8.43165,26.75,1.1066,0.461294,-0.0578668
-7.92413,-90.2007,-8.40927,26.5303,1.06688,0.484661,-0.0564007
-7.94517,-90.207,-8.41497,26.618,1.03235,0.473753,-0.0569502
-7.98189,-90.6515,-8.37872,26.7766,1.07625,0.474518,-0.0588468
-8.1939,-91.1017,-8.34177,26.9178,1.00896,0.465272,-0.0588735
-8.73133,-91.4732,-8.37919,26.7683,1.04247,0.460211,-0.0631717
-9.44334,-91.7315,-8.36318,26.9855,1.02828,0.450724,-0.0662198
-9.59592,-91.8776,-8.27044,27.0234,0.993317,0.458549,-0.0703214
-9.55793,-91.7755,-8.14835,26.9856,0.982735,0.456159,-0.073196
-9.68047,-91.755,-8.1185,26.7657,0.956846,0.456639,-0.0773015
-9.80661,-91.7146,-7.98674,26.993,0.992135,0.480083,-0.0806893
-10.1293,-91.9191,-8.04892,27.0054,0.989038,0.485438,-0.0852477
-10.4913,-92.2898,-7.98461,27.0262,0.961063,0.501969,-0.0898587
-10.2776,-92.1948,-7.74104,26.8815,0.920651,0.514949,-0.0931828
-9.991,-91.7964,-7.58226,26.9539,0.891609,0.496403,-0.0939594
-10.2227,-91.7905,-7.60559,27.0495,0.880047,0.519449,-0.0966448
-10.5648,-91.7367,-7.52707,26.9862,0.92943,0.491825,-0.0992499
-10.8129,-91.5366,-7.46429,26.9432,0.845563,0.460897,-0.101549
-10.7987,-91.5666,-7.26407,27.0887,0.842309,0.474821,-0.103107
-10.4,-91.223,-7.05416,27.0144,0.798783,0.423969,-0.102718
-10.211,-90.7978,-6.96264,26.7239,0.803301,0.489998,-0.105197
-10.6542,-90.8,-7.01502,26.9606,0.766117,0.457403,-0.104954
-10.8351,-91.0263,-6.8472,27.1626,0.8323,0.442246,-0.107328
-10.6308,-90.4834,-6.60652,26.9755,0.768433,0.417537,-0.109855
-10.4974,-89.7705,-6.39516,26.763,0.731518,0.426359,-0.115535
-10.5285,-89.74,-6.22974,26.9347,0.796492,0.420732,-0.123058
-10.8708,-89.89,-6.42378,26.9835,0.720177,0.39659,-0.126011
-10.9054,-89.4662,-6.24671,26.7849,0.768069,0.421364,-0.132969
-10.4112,-88.6698,-5.82863,26.7531,0.713404,0.423266,-0.132522
-10.2032,-88.4787,-5.62467,26.8198,0.685956,0.385335,-0.136833
-10.7437,-88.6514,-5.76206,26.7867,0.726283,0.427981,-0.145736
-11.0287,-88.1873,-5.62551,26.8276,0.677666,0.39232,-0.151357
-10.3773,-87.5592,-5.45752,26.5839,0.586452,0.378536,-0.158554
-10.0521,-87.2824,-5.17282,26.6643,0.604955,0.37045,-0.165963
-10.3987,-87.1941,-5.21392,26.6609,0.575974,0.348059,-0.173561
-10.6581,-86.5486,-5.09451,26.5697,0.595294,0.40285,-0.178226
-10.6218,-86.1921,-5.09112,26.2256,0.524621,0.390025,-0.181285
-10.6579,-86.0749,-5.04789,26.2622,0.531044,0.411766,-0.184259
-10.9922,-85.6918,-5.00063,26.454,0.547678,0.410286,-0.187628
-11.227,-85.0308,-5.02131,26.0869,0.44029,0.399097,-0.191464
-11.2092,-84.6847,-4.91946,25.9023,0.45052,0.423302,-0.19885
-11.7093,-84.6615,-5.13857,26.1875,0.298584,0.366347,-0.199956
-12.2336,-84.0173,-5.10528,26.103,0.414221,0.401969,-0.208069
-12.5741,-83.4804,-5.12773,25.4583,0.295205,0.355167,-0.211111
-12.3266,-83.3041,-4.91623,25.7581,0.279448,0.34618,-0.211522
-12.4913,-83.0496,-4.94093,25.825,0.234819,0.345779,-0.21506
-12.8782,-82.2157,-4.97514,25.2557,0.266606,0.34362,-0.22085
-12.8239,-81.7309,-4.88988,25.2005,0.289588,0.358971,-0.22541
-12.5194,-81.5505,-4.81816,25.3455,0.183665,0.339223,-0.226218
-12.2895,-80.7638,-4.69632,24.8911,0.13105,0.342149,-0.228697
-12.3267,-80.2446,-4.60265,24.6528,0.115858,0.343084,-0.231237
-12.1272,-80.0613,-4.60047,24.9299,0.0798999,0.347046,-0.2314
-11.6808,-79.1726,-4.48093,24.4507,0.0190984,0.329287,-0.231897
-11.2623,-78.4457,-4.31544,24.0503,0.016337,0.341891,-0.235669
-10.9761,-78.2557,-4.26694,24.363,0.0016934,0.317326,-0.238213
-10.5597,-77.4915,-4.26697,23.9401,-0.057884,0.335609,-0.237988
-10.0925,-76.7846,-4.04665,23.4739,-0.0569789,0.328254,-0.240221
-9.66448,-76.5973,-3.94884,23.7791,-0.112972,0.331959,-0.236936
-8.92676,-75.7119,-3.78618,23.4548,-0.172628,0.335581,-0.237292
-8.1898,-75.0513,-3.68505,22.9398,-0.224653,0.347563,-0.239842
-7.86876,-74.7826,-3.53921,23.3402,-0.148601,0.346214,-0.238641
-7.25375,-73.9075,-3.41051,22.9307,-0.189794,0.346005,-0.237306
-6.21329,-73.1536,-3.13907,22.4897,-0.200182,0.332173,-0.239462
-5.81017,-72.9725,-3.10798,22.834,-0.252176,0.29722,-0.237757
-5.05006,-72.0596,-2.84157,22.5918,-0.175787,0.308297,-0.243311
-4.23774,-71.3286,-2.7754,22.0786,-0.291474,0.227795,-0.244565
-3.64849,-70.922,-2.63776,22.4353,-0.22257,0.243697,-0.248888
-2.90167,-70.0791,-2.46602,22.0756,-0.238727,0.207689,-0.252506
-1.93237,-69.4619,-2.26987,21.7279,-0.259296,0.167206,-0.253386
-1.41879,-68.9944,-2.21584,21.9127,-0.28531,0.178226,-0.253064
-0.625156,-68.1932,-1.96923,21.5102,-0.250233,0.193873,-0.256663
0.147246,-67.6681,-1.9978,21.3425,-0.291588,0.118817,-0.256583
0.900757,-67.0281,-1.80681,21.3948,-0.217085,0.156582,-0.257298
1.67298,-66.2148,-1.60671,20.9988,-0.304437,0.137124,-0.257105
2.50404,-65.8909,-1.46582,20.9577,-0.289044,0.103717,-0.257091
3.0427,-65.1373,-1.51847,20.8214,-0.307941,0.110041,-0.251236
3.89794,-64.2205,-1.32712,20.4553,-0.215896,0.114131,-0.245206
4.7015,-63.8826,-1.19455,20.4832,-0.227562,0.105504,-0.235217
5.36893,-62.8498,-1.12164,20.09,-0.266097,0.0991074,-0.227344
6.15001,-61.8557,-0.908636,19.6454,-0.242175,0.11162,-0.223964
6.98463,-61.3202,-0.805593,19.7717,-0.215891,0.0888566,-0.218903
7.38331,-59.7063,-0.817794,18.8929,-0.24897,0.0645329,-0.214359
8.31263,-58.1822,-0.300258,18.2341,-0.0524422,0.0776566,-0.214191
8.96169,-57.1411,-0.430078,18.1994,-0.261036,0.0420603,-0.203612
9.69701,-55.0076,-0.130443,16.9576,-0.138709,0.0413535,-0.20004
10.3868,-53.2354,0.0309516,16.0284,-0.168962,-0.000173412,-0.189241
10.8759,-51.3744,0.0330043,15.7949,-0.193694,0.0265144,-0.181672
11.7267,-48.9065,0.417052,14.5191,0.0155805,0.0372817,-0.181502
12.3952,-47.4195,0.292737,14.2593,-0.179903,-0.0478858,-0.165901
13.279,-45.4507,0.543232,13.8209,-0.114592,-0.0230036,-0.161231
13.9992,-43.5326,0.604261,12.7965,-0.217918,-0.0628509,-0.152835
14.8399,-42.1323,0.628223,12.9276,-0.269277,-0.0791527,-0.14319
15.7299,-40.1655,0.853055,12.0996,-0.164809,-0.0757345,-0.142091
16.5592,-38.856,0.862783,11.9778,-0.215063,-0.12672,-0.134768
