Afshin1997/kuka_rl_ros2/src/catch_and_throw/output_files/ft/old/idealpd_3/ft_received_joint_pos_np.csv
joint_0,joint_1,joint_2,joint_3,joint_4,joint_5,joint_6
0.787426,0.00513009,1.32645,1.22346,1.60569,-0.907424,1.57076
0.787425,0.00513009,1.32645,1.22346,1.60569,-0.907424,1.57076
0.787426,0.00513009,1.32645,1.22346,1.60569,-0.907424,1.57076
0.787426,0.00513009,1.32645,1.22346,1.60569,-0.907424,1.57076
0.787426,0.00513009,1.32645,1.22346,1.60569,-0.907424,1.57076
0.787426,0.00513009,1.32645,1.22346,1.60569,-0.907424,1.57076
0.787426,0.00513009,1.32645,1.22346,1.60569,-0.907424,1.57076
0.787439,0.00513416,1.32651,1.22353,1.6057,-0.907422,1.57076
0.787439,0.00513416,1.32651,1.22353,1.6057,-0.907422,1.57076
0.787459,0.0051649,1.32659,1.22359,1.6057,-0.90742,1.57076
0.787492,0.00524046,1.32674,1.22371,1.60571,-0.907418,1.57076
0.787582,0.00549267,1.32738,1.22416,1.60579,-0.907403,1.57077
0.787582,0.00549267,1.32738,1.22416,1.60579,-0.907403,1.57077
0.787638,0.00562917,1.32789,1.22449,1.60591,-0.907392,1.57077
0.787822,0.00585957,1.32931,1.2254,1.60635,-0.907265,1.57079
0.787822,0.00585957,1.32931,1.2254,1.60635,-0.907265,1.57079
0.788112,0.00595137,1.33137,1.22664,1.6071,-0.906826,1.5709
0.788112,0.00595137,1.33137,1.22664,1.6071,-0.906826,1.5709
0.78861,0.00588881,1.33417,1.22808,1.60822,-0.90606,1.57122
0.788944,0.00580072,1.33581,1.22887,1.60893,-0.905586,1.57151
0.788944,0.00580072,1.33581,1.22887,1.60893,-0.905586,1.57151
0.789352,0.0056665,1.33761,1.22963,1.60973,-0.905021,1.57187
0.790524,0.00523345,1.34173,1.23106,1.61158,-0.903592,1.57278
0.791281,0.00487704,1.34397,1.23169,1.61266,-0.902772,1.57331
0.791281,0.00487704,1.34397,1.23169,1.61266,-0.902772,1.57331
0.792181,0.00441505,1.3463,1.23227,1.61383,-0.901852,1.57393
0.793274,0.00384921,1.34872,1.23274,1.61512,-0.900891,1.57463
0.794589,0.00320638,1.35122,1.23311,1.61651,-0.899854,1.57538
0.79612,0.00248559,1.3537,1.23337,1.61798,-0.898768,1.57622
0.79788,0.00169733,1.35614,1.23352,1.61954,-0.897605,1.57712
0.799865,0.000850041,1.35847,1.23355,1.62119,-0.896371,1.5781
0.802092,-6.34565e-05,1.36067,1.23347,1.62295,-0.895077,1.57916
0.804554,-0.0010621,1.36269,1.23326,1.62479,-0.893701,1.58028
0.807252,-0.00213781,1.3645,1.23294,1.6267,-0.89224,1.58146
0.810248,-0.00328476,1.36617,1.23251,1.62872,-0.890748,1.58271
0.813561,-0.00446574,1.3677,1.23192,1.63082,-0.889226,1.58402
0.817167,-0.00570054,1.36904,1.23119,1.63299,-0.887675,1.58541
0.820998,-0.00698285,1.37009,1.2303,1.63524,-0.886066,1.58686
0.825,-0.00831567,1.3708,1.22927,1.63756,-0.884405,1.58837
0.829207,-0.00971471,1.37128,1.22803,1.63996,-0.882738,1.58996
0.833687,-0.0111629,1.37166,1.22662,1.64243,-0.881116,1.5916
0.838436,-0.0126425,1.37192,1.22499,1.64495,-0.879505,1.59329
0.843334,-0.0141981,1.3719,1.22317,1.64755,-0.877882,1.59502
0.853332,-0.017636,1.371,1.21892,1.65295,-0.87453,1.59863
0.853332,-0.017636,1.371,1.21892,1.65295,-0.87453,1.59863
0.858691,-0.0194588,1.37056,1.21654,1.65574,-0.87291,1.60049
0.86419,-0.0213665,1.36993,1.21393,1.65857,-0.871281,1.60239
0.869637,-0.0234101,1.36885,1.2111,1.6615,-0.86955,1.60433
0.875208,-0.0255594,1.36767,1.20802,1.66448,-0.867862,1.60631
0.881043,-0.0276955,1.36659,1.20487,1.66751,-0.866219,1.60833
0.886903,-0.0297912,1.36525,1.20163,1.67057,-0.86452,1.61039
0.892741,-0.0319716,1.3637,1.19822,1.67369,-0.862799,1.61248
0.89876,-0.0341664,1.36231,1.1946,1.67684,-0.86113,1.61459
0.904868,-0.0363106,1.36092,1.19086,1.68004,-0.859452,1.61671
0.910881,-0.0385314,1.35932,1.18702,1.68327,-0.857721,1.61886
0.916961,-0.0409297,1.35786,1.18309,1.68655,-0.856013,1.62103
0.923125,-0.0433809,1.35654,1.17908,1.68985,-0.854284,1.62322
0.929156,-0.0459172,1.35506,1.17511,1.69319,-0.852456,1.62543
0.935178,-0.048554,1.35372,1.17088,1.69657,-0.850651,1.62765
0.941329,-0.0512131,1.35271,1.16644,1.69998,-0.848852,1.62991
0.947363,-0.0538745,1.35163,1.16207,1.70339,-0.846972,1.63218
0.953287,-0.0567046,1.35058,1.15769,1.70685,-0.845099,1.63445
0.95928,-0.0596546,1.34982,1.15308,1.71032,-0.843275,1.63674
0.965208,-0.0626123,1.34909,1.14826,1.7138,-0.841416,1.63904
0.971015,-0.0656786,1.34836,1.14349,1.71731,-0.839562,1.64135
0.976859,-0.0687311,1.34785,1.13858,1.72084,-0.837734,1.64366
0.98271,-0.071756,1.34746,1.13367,1.72438,-0.835946,1.64598
0.988405,-0.0748366,1.34695,1.12864,1.72795,-0.834088,1.64831
0.99406,-0.0779734,1.34653,1.12349,1.73154,-0.832207,1.65066
0.999804,-0.081123,1.34631,1.11834,1.73514,-0.830399,1.65301
1.00545,-0.0842534,1.34598,1.11329,1.73872,-0.828542,1.65536
1.01098,-0.0874063,1.34562,1.10801,1.74234,-0.826653,1.65771
1.01657,-0.0904991,1.34551,1.1027,1.74595,-0.824805,1.66007
1.02214,-0.0935245,1.34544,1.09757,1.74955,-0.822928,1.66243
1.02755,-0.0966778,1.34527,1.09244,1.75315,-0.821026,1.66479
1.03293,-0.0999532,1.34525,1.0871,1.7568,-0.819157,1.66716
1.03834,-0.103188,1.34541,1.08188,1.76041,-0.817303,1.66955
1.04365,-0.106411,1.34555,1.07686,1.76401,-0.815391,1.67194
1.04885,-0.109651,1.3457,1.07167,1.76763,-0.813429,1.67432
1.05408,-0.112889,1.34614,1.06644,1.77125,-0.811496,1.6767
1.05929,-0.116085,1.3467,1.0614,1.77485,-0.809558,1.67908
1.0643,-0.119379,1.34719,1.05642,1.77844,-0.807558,1.68145
1.06923,-0.122765,1.34779,1.05121,1.78206,-0.805525,1.68383
1.07421,-0.126071,1.34866,1.04602,1.78566,-0.803567,1.6862
1.07915,-0.129268,1.34959,1.04102,1.78924,-0.801615,1.68858
1.08391,-0.132511,1.35037,1.03604,1.79284,-0.799636,1.69097
1.0886,-0.135826,1.35123,1.03087,1.79645,-0.797654,1.69335
1.09335,-0.139123,1.3523,1.02577,1.80004,-0.795751,1.69572
1.09807,-0.142359,1.35338,1.0208,1.8036,-0.793818,1.69809
1.10712,-0.148836,1.35529,1.01069,1.81075,-0.789832,1.70282
1.11166,-0.151964,1.35644,1.00568,1.81432,-0.787852,1.70519
1.11166,-0.151964,1.35644,1.00568,1.81432,-0.787852,1.70519
1.11621,-0.155055,1.35767,1.00088,1.81785,-0.785898,1.70757
1.12064,-0.158229,1.35879,0.996074,1.82138,-0.783924,1.70996
1.12928,-0.164649,1.36109,0.986212,1.82847,-0.779892,1.71474
1.13368,-0.16771,1.36247,0.981545,1.83197,-0.777946,1.71711
1.138,-0.170772,1.36379,0.976963,1.83544,-0.775991,1.71948
1.138,-0.170772,1.36379,0.976963,1.83544,-0.775991,1.71948
1.14632,-0.177117,1.36626,0.967492,1.84244,-0.771867,1.72422
1.15052,-0.18029,1.36768,0.962963,1.84591,-0.769854,1.7266
1.15474,-0.183394,1.36918,0.958554,1.84936,-0.767818,1.72899
1.15884,-0.186468,1.37059,0.95399,1.85281,-0.765744,1.73138
1.1628,-0.189508,1.3719,0.949406,1.85628,-0.763662,1.73376
1.16677,-0.192513,1.37335,0.94504,1.85974,-0.761624,1.73614
1.17079,-0.195492,1.37495,0.940819,1.86317,-0.759646,1.73851
1.17079,-0.195492,1.37495,0.940819,1.86317,-0.759646,1.73851
1.1785,-0.201611,1.37793,0.932048,1.87001,-0.755609,1.74324
1.18216,-0.204629,1.37932,0.927728,1.87345,-0.753524,1.74561
1.18585,-0.207526,1.38088,0.923562,1.87686,-0.751482,1.74799
1.18585,-0.207526,1.38088,0.923562,1.87686,-0.751482,1.74799
1.1932,-0.213257,1.38424,0.915404,1.88363,-0.747485,1.75276
1.1932,-0.213257,1.38424,0.915404,1.88363,-0.747485,1.75276
1.19994,-0.219266,1.38724,0.907159,1.89041,-0.743382,1.7575
1.20326,-0.222222,1.38888,0.903285,1.89379,-0.74138,1.75985
1.20655,-0.225083,1.39064,0.899509,1.89714,-0.739418,1.7622
1.20655,-0.225083,1.39064,0.899509,1.89714,-0.739418,1.7622
1.2127,-0.230663,1.39402,0.891868,1.90385,-0.7355,1.76692
1.2127,-0.230663,1.39402,0.891868,1.90385,-0.7355,1.76692
1.21817,-0.236321,1.39712,0.884753,1.91053,-0.731583,1.77164
1.22066,-0.239126,1.39858,0.881348,1.91387,-0.729674,1.77399
1.22298,-0.241802,1.4,0.877929,1.9172,-0.727826,1.77635
1.22298,-0.241802,1.4,0.877929,1.9172,-0.727826,1.77635
1.22706,-0.246685,1.40247,0.87139,1.92383,-0.724405,1.78103
1.22706,-0.246685,1.40247,0.87139,1.92383,-0.724405,1.78103
1.23029,-0.251175,1.40419,0.86553,1.93043,-0.721375,1.78574
1.23029,-0.251175,1.40419,0.86553,1.93043,-0.721375,1.78574
1.23155,-0.253356,1.4047,0.86275,1.93372,-0.720041,1.78811
1.23254,-0.25548,1.40492,0.860054,1.93702,-0.718775,1.79048
1.23328,-0.257492,1.40489,0.857491,1.9403,-0.717605,1.79284
1.2338,-0.259301,1.40475,0.855134,1.9435,-0.716588,1.79507
1.23402,-0.262224,1.4042,0.851423,1.94921,-0.714738,1.79887
1.23402,-0.262224,1.4042,0.851423,1.94921,-0.714738,1.79887
1.23362,-0.263482,1.40352,0.849601,1.95204,-0.713994,1.80095
1.23294,-0.26469,1.40259,0.847888,1.95498,-0.713407,1.80315
1.23071,-0.267108,1.39986,0.844746,1.96106,-0.712691,1.80769
1.23071,-0.267108,1.39986,0.844746,1.96106,-0.712691,1.80769
1.22914,-0.268246,1.39802,0.843135,1.96413,-0.712479,1.80998
1.22732,-0.269254,1.39593,0.84161,1.96719,-0.712358,1.81227
1.22533,-0.270105,1.39367,0.840208,1.97024,-0.712362,1.81458
1.22314,-0.270842,1.39122,0.8389,1.97327,-0.712434,1.81688
1.22072,-0.271481,1.38851,0.837654,1.97632,-0.712509,1.81918
1.21809,-0.272029,1.3856,0.836475,1.97936,-0.712605,1.8215
1.21239,-0.272855,1.37935,0.834449,1.9854,-0.712947,1.82616
1.21239,-0.272855,1.37935,0.834449,1.9854,-0.712947,1.82616
1.20928,-0.273181,1.37594,0.833615,1.98842,-0.713246,1.82851
1.20596,-0.273493,1.37227,0.832853,1.99141,-0.713635,1.83086
1.19886,-0.274118,1.36459,0.831493,1.99741,-0.714735,1.83554
1.19886,-0.274118,1.36459,0.831493,1.99741,-0.714735,1.83554
1.1912,-0.274763,1.35662,0.830376,2.00338,-0.71633,1.8402
1.1912,-0.274763,1.35662,0.830376,2.00338,-0.71633,1.8402
1.18256,-0.275526,1.34783,0.829259,2.00935,-0.718179,1.84488
1.18256,-0.275526,1.34783,0.829259,2.00935,-0.718179,1.84488
1.17807,-0.275872,1.3434,0.828798,2.01234,-0.719258,1.84723
1.17356,-0.276147,1.33909,0.828441,2.0153,-0.72049,1.84958
1.16401,-0.276854,1.32998,0.827935,2.02122,-0.723104,1.85427
1.15899,-0.277368,1.32524,0.827769,2.0242,-0.724494,1.8566
1.15899,-0.277368,1.32524,0.827769,2.0242,-0.724494,1.8566
1.15402,-0.277855,1.32071,0.827734,2.02715,-0.726044,1.85892
1.1438,-0.278893,1.31149,0.827873,2.03305,-0.729251,1.86357
1.1438,-0.278893,1.31149,0.827873,2.03305,-0.729251,1.86357
1.13839,-0.279623,1.30662,0.827855,2.03601,-0.730956,1.86593
1.13308,-0.280345,1.302,0.827982,2.03895,-0.732888,1.86834
1.12237,-0.281835,1.29279,0.828421,2.04465,-0.737392,1.87341
1.12237,-0.281835,1.29279,0.828421,2.04465,-0.737392,1.87341
1.11682,-0.282849,1.28808,0.828456,2.04746,-0.739994,1.87608
1.11136,-0.283898,1.28363,0.828584,2.05023,-0.742915,1.87887
1.10593,-0.285001,1.27939,0.828812,2.05294,-0.746126,1.88178
1.10035,-0.286259,1.27521,0.828865,2.05565,-0.749533,1.8848
1.09476,-0.287687,1.27138,0.828737,2.05835,-0.753224,1.88793
1.08925,-0.289198,1.26807,0.828647,2.06098,-0.757149,1.89116
1.07815,-0.292799,1.26261,0.828191,2.06615,-0.765476,1.89785
1.07815,-0.292799,1.26261,0.828191,2.06615,-0.765476,1.89785
1.0727,-0.294887,1.26068,0.827654,2.06869,-0.76992,1.9013
1.06728,-0.29717,1.25914,0.827074,2.07118,-0.774486,1.90481
1.05646,-0.302296,1.25732,0.825187,2.07614,-0.783869,1.91199
1.05646,-0.302296,1.25732,0.825187,2.07614,-0.783869,1.91199
1.05125,-0.304983,1.25727,0.823927,2.07855,-0.78874,1.91561
1.04603,-0.307879,1.25748,0.822552,2.08098,-0.793662,1.91924
1.03571,-0.314377,1.25904,0.818939,2.08585,-0.803567,1.92654
1.0308,-0.317768,1.26058,0.816925,2.08826,-0.808538,1.9302
1.02593,-0.321291,1.26243,0.814717,2.09068,-0.813503,1.93383
1.02593,-0.321291,1.26243,0.814717,2.09068,-0.813503,1.93383
1.01647,-0.328609,1.26729,0.809697,2.09557,-0.823352,1.94102
1.01647,-0.328609,1.26729,0.809697,2.09557,-0.823352,1.94102
1.01199,-0.332394,1.27038,0.807104,2.098,-0.828235,1.94459
1.00754,-0.33639,1.27367,0.804317,2.10047,-0.833085,1.94814
1.00314,-0.340505,1.27723,0.801273,2.10293,-0.83788,1.95165
0.998942,-0.344628,1.28123,0.798119,2.10539,-0.842617,1.95511
0.994894,-0.348769,1.28554,0.795036,2.10786,-0.84731,1.95854
0.99088,-0.353047,1.28995,0.792079,2.11033,-0.851948,1.96192
0.986938,-0.35746,1.29456,0.789155,2.11285,-0.85648,1.96528
0.983155,-0.361815,1.2995,0.786285,2.11534,-0.860949,1.9686
0.979543,-0.366177,1.30477,0.783613,2.11786,-0.86543,1.97187
0.975914,-0.370598,1.31008,0.781198,2.12041,-0.869801,1.9751
0.972234,-0.375131,1.31545,0.778897,2.123,-0.874111,1.97828
0.968584,-0.379588,1.32102,0.776771,2.1256,-0.87836,1.98143
0.964972,-0.383926,1.3268,0.774883,2.12823,-0.882555,1.98455
0.961347,-0.388315,1.33273,0.77321,2.13089,-0.886762,1.98764
0.957674,-0.392707,1.33871,0.771761,2.13358,-0.890937,1.99069
0.953959,-0.397119,1.34475,0.770588,2.13629,-0.894997,1.9937
0.950167,-0.401466,1.3508,0.769601,2.13902,-0.898967,1.99667
0.946403,-0.405807,1.35701,0.768794,2.1418,-0.902957,1.99962
0.942646,-0.410128,1.36327,0.768319,2.14461,-0.906865,2.00254
0.938843,-0.414518,1.3695,0.768186,2.14744,-0.910748,2.00544
0.935058,-0.418879,1.37577,0.768311,2.15032,-0.914547,2.00831
0.931323,-0.423079,1.38209,0.768608,2.15321,-0.918269,2.01114
0.927569,-0.427301,1.38837,0.769177,2.15614,-0.921956,2.01395
0.923812,-0.431578,1.39461,0.770059,2.15913,-0.925558,2.01672
0.920171,-0.435852,1.40093,0.771308,2.16211,-0.92915,2.01948
0.916595,-0.440002,1.40726,0.772806,2.16511,-0.932647,2.02223
0.913009,-0.444166,1.41353,0.774443,2.16815,-0.936097,2.02496
0.909407,-0.448391,1.41971,0.776297,2.17123,-0.939479,2.02768
0.905789,-0.452645,1.4258,0.778508,2.17432,-0.942791,2.03038
0.902237,-0.456894,1.43197,0.781032,2.17745,-0.946068,2.03305
0.898779,-0.460988,1.43825,0.783656,2.18057,-0.949375,2.0357
0.895279,-0.46507,1.44444,0.78639,2.18373,-0.952619,2.03835
0.891605,-0.469229,1.45038,0.789277,2.18694,-0.955762,2.04098
0.88794,-0.473404,1.45632,0.792349,2.19019,-0.958917,2.04362
0.884399,-0.47745,1.4624,0.795678,2.19341,-0.962056,2.04624
0.880894,-0.48142,1.46848,0.799145,2.19664,-0.965153,2.04885
0.877359,-0.48549,1.47448,0.8027,2.19991,-0.968272,2.05146
0.87377,-0.489563,1.48028,0.806358,2.20319,-0.971303,2.05405
0.870189,-0.493668,1.48601,0.810149,2.20649,-0.974275,2.05664
0.866702,-0.497694,1.49183,0.814032,2.20981,-0.977195,2.05922
0.863366,-0.501628,1.49774,0.818032,2.21312,-0.980154,2.06181
0.860059,-0.505635,1.50353,0.822224,2.21645,-0.983103,2.0644
0.85669,-0.509692,1.50908,0.82651,2.21981,-0.98597,2.06699
0.853417,-0.513762,1.51464,0.830776,2.22318,-0.98884,2.06958
0.850277,-0.517679,1.52028,0.835121,2.22654,-0.991657,2.07214
0.847217,-0.521589,1.52589,0.839549,2.22989,-0.994457,2.0747
0.844213,-0.525644,1.53145,0.844111,2.23328,-0.997246,2.07725
0.841281,-0.529678,1.53693,0.848675,2.23667,-1,2.07981
0.838426,-0.53368,1.54241,0.853245,2.24007,-1.00279,2.08237
0.835629,-0.537593,1.54782,0.857833,2.24345,-1.0055,2.08493
0.832986,-0.541523,1.55327,0.86243,2.24685,-1.00822,2.08749
0.830456,-0.54552,1.5587,0.86708,2.25027,-1.01095,2.09003
0.827927,-0.549504,1.56397,0.871627,2.25369,-1.01363,2.09257
0.825529,-0.553539,1.56928,0.876208,2.25712,-1.01631,2.09511
0.823397,-0.557447,1.57465,0.880766,2.26053,-1.01899,2.09765
0.821488,-0.561351,1.58001,0.88533,2.26391,-1.02169,2.1002
0.819667,-0.56536,1.58522,0.889768,2.26733,-1.02435,2.10275
0.817951,-0.569376,1.59031,0.894188,2.27075,-1.027,2.10531
0.816547,-0.573434,1.59555,0.898618,2.27416,-1.02969,2.10785
0.815403,-0.577412,1.60083,0.903003,2.27754,-1.03234,2.1104
0.814415,-0.581469,1.60603,0.907162,2.28095,-1.03498,2.11292
0.813559,-0.585594,1.61116,0.911195,2.28438,-1.03765,2.11545
0.812566,-0.593803,1.62152,0.919265,2.29119,-1.04301,2.1205
0.812388,-0.597896,1.62672,0.923182,2.29457,-1.04569,2.12303
0.812393,-0.602036,1.63194,0.926874,2.29795,-1.04838,2.12556
0.812393,-0.602036,1.63194,0.926874,2.29795,-1.04838,2.12556
0.812696,-0.610419,1.64228,0.934069,2.30472,-1.05377,2.13061
0.81305,-0.614637,1.64745,0.937718,2.3081,-1.05646,2.13312
0.813595,-0.61876,1.65272,0.941309,2.31144,-1.05915,2.13564
0.813595,-0.61876,1.65272,0.941309,2.31144,-1.05915,2.13564
0.814779,-0.62703,1.66306,0.948088,2.31815,-1.06456,2.14068
0.814779,-0.62703,1.66306,0.948088,2.31815,-1.06456,2.14068
0.815408,-0.63116,1.6681,0.951511,2.32151,-1.06727,2.14322
0.816233,-0.635206,1.67325,0.95505,2.32482,-1.06996,2.14576
0.817117,-0.639148,1.67836,0.958569,2.32809,-1.07262,2.14829
0.818746,-0.647123,1.68788,0.965491,2.3347,-1.0779,2.15333
0.818746,-0.647123,1.68788,0.965491,2.3347,-1.0779,2.15333
0.819686,-0.651002,1.69251,0.968992,2.33798,-1.08054,2.15585
0.820681,-0.654724,1.69699,0.972559,2.34125,-1.08315,2.15838
0.822501,-0.66194,1.70496,0.979444,2.34779,-1.08839,2.16347
0.822501,-0.66194,1.70496,0.979444,2.34779,-1.08839,2.16347
0.823438,-0.665375,1.70844,0.98285,2.35104,-1.09099,2.16601
0.824392,-0.668638,1.71158,0.986151,2.35428,-1.09361,2.16856
0.82535,-0.671685,1.71429,0.989196,2.35751,-1.09627,2.17109
0.826292,-0.674502,1.71649,0.992091,2.36071,-1.0989,2.17364
0.827241,-0.677127,1.71824,0.994863,2.36389,-1.10154,2.17618
0.828178,-0.679511,1.71951,0.997547,2.36707,-1.10419,2.17874
0.829124,-0.681618,1.72035,1.00002,2.37025,-1.10686,2.18131
0.830107,-0.683515,1.72079,1.00219,2.37342,-1.10949,2.18388
0.831081,-0.685248,1.72077,1.00411,2.37658,-1.11205,2.18645
0.832062,-0.686824,1.72028,1.00583,2.37975,-1.11457,2.18902
0.833064,-0.688155,1.71935,1.0074,2.38291,-1.11705,2.19158
0.834155,-0.689227,1.71803,1.0088,2.38605,-1.11945,2.19414
0.835315,-0.690013,1.71634,1.00999,2.38918,-1.12175,2.19671
0.836524,-0.690563,1.71429,1.011,2.3923,-1.12399,2.19928
0.837736,-0.690914,1.71183,1.01182,2.39541,-1.12617,2.20186
0.838945,-0.691096,1.70899,1.01248,2.39853,-1.1282,2.20443
0.840139,-0.691115,1.7058,1.01298,2.40165,-1.13013,2.207
0.841325,-0.690973,1.70231,1.0133,2.40477,-1.13201,2.20956
0.843662,-0.690094,1.69462,1.01361,2.411,-1.13542,2.21468
0.843662,-0.690094,1.69462,1.01361,2.411,-1.13542,2.21468
0.844756,-0.689357,1.69045,1.01365,2.41409,-1.13706,2.21725
0.8467,-0.687331,1.6815,1.01356,2.42028,-1.14003,2.22241
0.8467,-0.687331,1.6815,1.01356,2.42028,-1.14003,2.22241
0.848448,-0.684599,1.67206,1.01324,2.42642,-1.14259,2.22755
0.848448,-0.684599,1.67206,1.01324,2.42642,-1.14259,2.22755
0.849964,-0.681257,1.66202,1.01294,2.43257,-1.14463,2.23266
0.849964,-0.681257,1.66202,1.01294,2.43257,-1.14463,2.23266
0.850682,-0.679428,1.6569,1.01275,2.43565,-1.14547,2.23521
0.851424,-0.677449,1.65177,1.01261,2.43873,-1.14619,2.23776
0.852697,-0.673372,1.64115,1.0124,2.44488,-1.14724,2.24288
0.853263,-0.671314,1.63579,1.01227,2.44796,-1.14764,2.24542
0.853263,-0.671314,1.63579,1.01227,2.44796,-1.14764,2.24542
0.853801,-0.669133,1.63047,1.01222,2.45102,-1.14794,2.24797
0.85461,-0.664526,1.61972,1.01214,2.45712,-1.14821,2.25303
0.85461,-0.664526,1.61972,1.01214,2.45712,-1.14821,2.25303
0.855227,-0.659448,1.60931,1.01218,2.46321,-1.14824,2.25811
0.855227,-0.659448,1.60931,1.01218,2.46321,-1.14824,2.25811
0.855447,-0.654232,1.59891,1.0123,2.46933,-1.14818,2.26319
0.855447,-0.654232,1.59891,1.0123,2.46933,-1.14818,2.26319
0.85548,-0.651623,1.59386,1.01239,2.47239,-1.14816,2.26573
0.85544,-0.648976,1.58881,1.01258,2.47542,-1.14812,2.26825
0.855314,-0.646308,1.58372,1.01274,2.47849,-1.14806,2.27076
0.855017,-0.640651,1.57394,1.01308,2.48456,-1.14799,2.27579
0.855017,-0.640651,1.57394,1.01308,2.48456,-1.14799,2.27579
0.854839,-0.637746,1.56922,1.0134,2.48759,-1.14795,2.27832
0.854537,-0.634872,1.56443,1.01371,2.49063,-1.14789,2.28084
0.85417,-0.632071,1.55971,1.01399,2.49366,-1.14783,2.28337
0.853798,-0.629262,1.55511,1.01435,2.49671,-1.14773,2.28589
0.853406,-0.626406,1.55055,1.01474,2.49975,-1.14761,2.2884
0.852963,-0.623515,1.54601,1.01513,2.5028,-1.14747,2.29091
0.852526,-0.620557,1.54157,1.01552,2.50586,-1.14732,2.29343
0.852109,-0.617573,1.53728,1.01602,2.5089,-1.14722,2.29595
0.851672,-0.614571,1.53307,1.01654,2.51193,-1.14715,2.29848
0.851157,-0.611662,1.52883,1.01702,2.51497,-1.14709,2.30102
0.850568,-0.60883,1.52455,1.01744,2.51801,-1.14706,2.30354
0.849987,-0.605965,1.52038,1.01785,2.52105,-1.14706,2.30607
0.849461,-0.602983,1.51636,1.01828,2.52408,-1.14706,2.30857
0.848964,-0.599924,1.51241,1.01871,2.52711,-1.14707,2.31109
0.848428,-0.59691,1.50843,1.01913,2.53015,-1.14708,2.3136
0.847878,-0.593961,1.50447,1.01952,2.53321,-1.14709,2.31612
0.847353,-0.591083,1.50057,1.01991,2.53626,-1.14711,2.31864
0.846863,-0.588219,1.4967,1.02028,2.53929,-1.14713,2.32116
0.846376,-0.585362,1.49285,1.02062,2.54234,-1.14715,2.32367
0.845875,-0.582461,1.48898,1.02094,2.54537,-1.14716,2.32618
0.845419,-0.57953,1.48517,1.02128,2.54842,-1.1472,2.32867
0.845045,-0.576557,1.48145,1.02165,2.55145,-1.14722,2.33116
0.84473,-0.573628,1.47778,1.02201,2.55448,-1.14725,2.33366
0.8444,-0.570817,1.47406,1.02234,2.55752,-1.14729,2.33616
0.84402,-0.568047,1.47025,1.02263,2.56058,-1.14733,2.33867
0.843672,-0.565275,1.4665,1.02286,2.56364,-1.14741,2.34117
0.843399,-0.562408,1.46284,1.02309,2.5667,-1.14755,2.34367
0.843191,-0.559519,1.45926,1.02337,2.56973,-1.14774,2.34616
0.843006,-0.556651,1.45568,1.02364,2.57278,-1.14799,2.34864
0.842786,-0.553867,1.45202,1.02388,2.57582,-1.14827,2.35112
0.84255,-0.551196,1.44831,1.02409,2.57887,-1.14857,2.3536
0.842354,-0.548527,1.4446,1.02428,2.58192,-1.14891,2.35609
0.842248,-0.54583,1.44097,1.02446,2.58497,-1.14932,2.35859
0.8422,-0.543063,1.43739,1.02465,2.588,-1.14976,2.36108
0.842162,-0.540289,1.43377,1.02486,2.59106,-1.15019,2.36356
0.842117,-0.537543,1.43011,1.02506,2.59411,-1.15066,2.36603
0.842111,-0.534847,1.42645,1.02523,2.59716,-1.15118,2.3685
0.84214,-0.532254,1.4228,1.02543,2.60022,-1.15174,2.37096
0.842172,-0.529695,1.41912,1.02562,2.60326,-1.15229,2.37343
0.842217,-0.527134,1.41544,1.0258,2.60629,-1.15286,2.37591
0.842272,-0.524504,1.41174,1.02598,2.60934,-1.15345,2.3784
0.842361,-0.521834,1.40805,1.02615,2.61237,-1.1541,2.38089
0.842512,-0.519174,1.40442,1.02634,2.61541,-1.15474,2.38337
0.842706,-0.516544,1.40078,1.02653,2.61845,-1.15541,2.38584
0.842915,-0.514039,1.3971,1.02673,2.62151,-1.15614,2.3883
0.843091,-0.511597,1.39331,1.02691,2.62457,-1.15681,2.39078
0.843264,-0.509176,1.38948,1.02707,2.62765,-1.15754,2.39324
0.843504,-0.506698,1.38572,1.02723,2.63072,-1.15829,2.39572
0.843832,-0.50412,1.38202,1.02741,2.63377,-1.15905,2.3982
0.844221,-0.501546,1.37835,1.02762,2.63682,-1.15985,2.40069
0.844582,-0.499004,1.37459,1.02783,2.63987,-1.16065,2.40316
0.8449,-0.496549,1.37074,1.02802,2.64293,-1.16147,2.40563
0.84525,-0.494201,1.36691,1.02818,2.64599,-1.16231,2.40809
0.845633,-0.491862,1.36305,1.02835,2.64905,-1.16312,2.41055
0.846061,-0.489544,1.35922,1.02852,2.65212,-1.16398,2.41301
0.846514,-0.487156,1.35536,1.02869,2.6552,-1.16483,2.41549
0.846972,-0.48471,1.35146,1.02884,2.65828,-1.16567,2.41797
0.847474,-0.482258,1.34758,1.029,2.66136,-1.16653,2.42046
0.848023,-0.479809,1.34373,1.0292,2.66442,-1.16739,2.42293
0.849178,-0.475157,1.33594,1.02966,2.67057,-1.1691,2.42786
0.849178,-0.475157,1.33594,1.02966,2.67057,-1.1691,2.42786
0.849688,-0.472923,1.33189,1.02988,2.67365,-1.16992,2.43032
0.850224,-0.470691,1.32785,1.03008,2.67673,-1.17074,2.43279
0.850852,-0.468381,1.32388,1.03031,2.67981,-1.17159,2.43526
0.851567,-0.465998,1.31996,1.03056,2.68287,-1.17243,2.43774
0.852291,-0.463611,1.31602,1.03081,2.68595,-1.17327,2.44021
0.852965,-0.461274,1.31196,1.03106,2.68904,-1.1741,2.44268
0.853642,-0.459003,1.30788,1.03128,2.69212,-1.17495,2.44514
0.854365,-0.456776,1.30382,1.03154,2.69521,-1.1758,2.44759
0.855125,-0.4546,1.29976,1.03181,2.6983,-1.17664,2.45005
0.855875,-0.452438,1.29562,1.03207,2.70137,-1.17751,2.45251
0.856604,-0.450267,1.2914,1.03234,2.70446,-1.17835,2.45498
0.857387,-0.448025,1.28723,1.03257,2.70753,-1.17923,2.45745
0.858273,-0.445708,1.28314,1.03282,2.7106,-1.18012,2.45992
0.859198,-0.443412,1.27908,1.03308,2.71365,-1.18102,2.46237
0.86006,-0.441169,1.27488,1.03334,2.71673,-1.18196,2.46482
0.860866,-0.439001,1.27059,1.03355,2.7198,-1.18288,2.46726
0.861696,-0.436875,1.26631,1.03377,2.72289,-1.18381,2.46971
0.862603,-0.434756,1.26206,1.03403,2.72596,-1.18474,2.47216
0.863538,-0.43265,1.2578,1.0343,2.72902,-1.18569,2.47461
0.864452,-0.43054,1.25347,1.03456,2.73208,-1.18659,2.47707
0.865376,-0.428388,1.24913,1.03479,2.73514,-1.1875,2.47953
0.86637,-0.426184,1.24486,1.03504,2.73818,-1.1884,2.48197
0.867418,-0.42398,1.24064,1.03531,2.74123,-1.1893,2.48441
0.868428,-0.421816,1.23634,1.03561,2.74427,-1.19016,2.48683
0.869392,-0.419708,1.23195,1.0359,2.74733,-1.19104,2.48927
0.870361,-0.41764,1.22757,1.03619,2.7504,-1.1919,2.4917
0.871402,-0.415587,1.22323,1.03653,2.75346,-1.19273,2.49415
0.872491,-0.413529,1.21891,1.03691,2.75651,-1.19355,2.4966
0.873566,-0.411484,1.21453,1.03731,2.75954,-1.19434,2.49905
0.874616,-0.409412,1.2101,1.03771,2.76257,-1.19512,2.50149
0.875708,-0.40729,1.20573,1.03811,2.76559,-1.19585,2.50392
0.876847,-0.405132,1.20144,1.03855,2.76858,-1.19662,2.50634
0.877951,-0.40299,1.19708,1.03903,2.77157,-1.19737,2.50877
0.878962,-0.400892,1.19262,1.03953,2.77457,-1.19808,2.5112
0.879946,-0.398811,1.18814,1.04002,2.77754,-1.19883,2.51363
0.880972,-0.396741,1.18371,1.04057,2.78051,-1.19953,2.51607
0.882026,-0.394671,1.1793,1.04121,2.78345,-1.20019,2.51851
0.883024,-0.392622,1.1748,1.04188,2.78636,-1.20088,2.52094
0.883973,-0.39055,1.17027,1.04253,2.78926,-1.20154,2.52336
0.884936,-0.388409,1.16578,1.04324,2.79212,-1.20219,2.52578
0.885938,-0.3862,1.16139,1.04401,2.79493,-1.20287,2.5282
0.886887,-0.383975,1.15692,1.04483,2.79772,-1.20351,2.53061
0.887727,-0.381782,1.15233,1.04569,2.80049,-1.20415,2.53304
0.888556,-0.379587,1.14773,1.04658,2.80322,-1.2048,2.53547
0.889444,-0.377396,1.14321,1.04757,2.80591,-1.20541,2.5379
0.890353,-0.375214,1.13867,1.04865,2.80856,-1.20599,2.54032
0.891213,-0.373048,1.13403,1.04977,2.81119,-1.20655,2.54273
0.89204,-0.370862,1.12936,1.05092,2.81377,-1.20708,2.54513
0.892919,-0.368584,1.12476,1.05213,2.81629,-1.20759,2.54753
0.893843,-0.366228,1.12024,1.05337,2.81874,-1.2081,2.54992
0.8947,-0.363867,1.11562,1.05467,2.82112,-1.2086,2.55232
0.895463,-0.361538,1.11089,1.05598,2.82346,-1.20906,2.55472
0.896219,-0.359206,1.10617,1.05729,2.82574,-1.20951,2.55712
0.897032,-0.356881,1.10153,1.05866,2.82793,-1.20997,2.5595
0.897831,-0.354564,1.09684,1.06005,2.83006,-1.21042,2.56189
0.898567,-0.352281,1.09207,1.06143,2.83212,-1.21086,2.56425
0.899308,-0.349951,1.08733,1.0628,2.83413,-1.21126,2.56662
0.900115,-0.347523,1.08269,1.06416,2.83606,-1.21167,2.56898
0.900928,-0.345074,1.07807,1.06555,2.8379,-1.21211,2.57136
0.901663,-0.342669,1.07334,1.06693,2.83968,-1.21254,2.57374
0.902342,-0.340305,1.06856,1.06829,2.84142,-1.21295,2.57611
0.90307,-0.337974,1.06388,1.06965,2.84307,-1.21332,2.57847
0.903855,-0.335639,1.05923,1.07101,2.84464,-1.2137,2.58082
0.904629,-0.333354,1.05454,1.07236,2.84614,-1.2141,2.58316
0.905407,-0.331064,1.04984,1.07367,2.84758,-1.2145,2.5855
0.906271,-0.328714,1.04525,1.07497,2.84892,-1.21489,2.58783
0.907225,-0.326341,1.04079,1.07626,2.85017,-1.21525,2.59015
0.908165,-0.324008,1.0363,1.07752,2.85134,-1.21562,2.59247
0.909047,-0.321754,1.03174,1.07869,2.85247,-1.21605,2.5948
0.909953,-0.319556,1.02726,1.07983,2.85353,-1.21651,2.59712
0.910946,-0.317405,1.0229,1.08094,2.8545,-1.21696,2.59943
0.911957,-0.315298,1.01859,1.08201,2.85539,-1.21739,2.60173
0.91297,-0.313243,1.01433,1.08297,2.85623,-1.21785,2.60402
0.914011,-0.311196,1.01019,1.08386,2.857,-1.21837,2.6063
0.915139,-0.309152,1.0063,1.08469,2.85768,-1.21893,2.60858
0.916313,-0.307169,1.00264,1.08546,2.85831,-1.21948,2.61087
0.917411,-0.305308,0.999083,1.08616,2.85891,-1.22007,2.61316
0.918409,-0.30358,0.995643,1.08676,2.85947,-1.22073,2.61545
0.91939,-0.301949,0.992437,1.08728,2.85995,-1.2214,2.61773
0.920393,-0.300413,0.989513,1.08772,2.86036,-1.22209,2.62
0.921391,-0.298983,0.986801,1.08814,2.86071,-1.2228,2.62227
0.922328,-0.29764,0.984226,1.08851,2.861,-1.22351,2.62454
0.923214,-0.296367,0.981793,1.08882,2.86125,-1.22421,2.62681
0.924087,-0.295131,0.979533,1.08907,2.86145,-1.22492,2.62907
0.924948,-0.293934,0.977424,1.08928,2.8616,-1.22562,2.63134
0.925767,-0.292788,0.975396,1.08947,2.86172,-1.22629,2.63361
0.926544,-0.29166,0.973446,1.08964,2.8618,-1.22692,2.63588
0.927318,-0.290521,0.97161,1.08979,2.86183,-1.22753,2.63814
0.928114,-0.289396,0.969908,1.08993,2.86183,-1.22812,2.6404
0.928916,-0.28831,0.968334,1.09009,2.86181,-1.22865,2.64265
0.929721,-0.287314,0.96689,1.09027,2.86178,-1.22914,2.6449
0.93051,-0.28641,0.965596,1.09047,2.86173,-1.2296,2.64714
0.931967,-0.284949,0.963562,1.09083,2.86163,-1.2305,2.65166
0.931967,-0.284949,0.963562,1.09083,2.86163,-1.2305,2.65166
0.93261,-0.284372,0.962867,1.09098,2.86159,-1.2309,2.65392
0.933153,-0.283884,0.962386,1.09108,2.86155,-1.2313,2.65618
0.933598,-0.283464,0.96213,1.09114,2.86149,-1.23174,2.65844
0.933963,-0.283093,0.962111,1.09116,2.86141,-1.2322,2.66069
0.934251,-0.282768,0.962287,1.09115,2.86131,-1.23265,2.66293
0.934463,-0.282515,0.962645,1.09113,2.86119,-1.23309,2.66518
0.934607,-0.282338,0.963194,1.0911,2.86104,-1.23358,2.66744
0.934685,-0.282244,0.963911,1.09105,2.86088,-1.23413,2.66969
0.934699,-0.282227,0.964814,1.09103,2.86071,-1.23469,2.67197
0.934654,-0.28226,0.965893,1.091,2.86053,-1.23524,2.67423
0.934555,-0.282334,0.967161,1.09099,2.86035,-1.23587,2.67649
0.934392,-0.282459,0.968608,1.091,2.86017,-1.23655,2.67875
0.934161,-0.282647,0.97025,1.09102,2.85998,-1.23724,2.681
0.933856,-0.282929,0.972101,1.09107,2.85978,-1.23801,2.68324
0.933478,-0.283319,0.974166,1.09117,2.85957,-1.23883,2.6855
0.933033,-0.283833,0.976457,1.09131,2.85937,-1.23968,2.68775
0.9325,-0.284443,0.978973,1.09153,2.85916,-1.24061,2.69003
0.931892,-0.285128,0.98173,1.09184,2.85895,-1.2416,2.69231
0.931187,-0.285882,0.984701,1.09226,2.85873,-1.24265,2.69458
0.930363,-0.28671,0.987874,1.09278,2.85852,-1.24376,2.69685
0.929421,-0.287595,0.991264,1.0934,2.8583,-1.24495,2.69912
0.928377,-0.288556,0.994875,1.09412,2.85807,-1.2462,2.70138
0.92725,-0.289581,0.998736,1.09498,2.85781,-1.24753,2.70362
0.926057,-0.290659,1.00284,1.09592,2.85755,-1.24892,2.70588
0.924738,-0.291817,1.00711,1.09697,2.85728,-1.2504,2.70814
0.923278,-0.293082,1.01149,1.09811,2.85702,-1.25195,2.7104
0.921718,-0.294429,1.01605,1.09933,2.85677,-1.25358,2.71267
0.920139,-0.295855,1.02087,1.10067,2.85649,-1.25527,2.71493
0.918524,-0.297326,1.02587,1.10212,2.85621,-1.25704,2.71719
0.916771,-0.298853,1.03092,1.10362,2.85594,-1.25887,2.71944
0.914881,-0.300467,1.03602,1.10522,2.85569,-1.26074,2.72168
0.912983,-0.302104,1.04132,1.10694,2.85545,-1.26271,2.72393
0.911117,-0.303775,1.04682,1.10877,2.85519,-1.2647,2.72617
0.909153,-0.305554,1.05233,1.11071,2.85494,-1.26674,2.72843
0.907078,-0.30747,1.05782,1.11269,2.85471,-1.26885,2.73069
0.905042,-0.309483,1.0635,1.1148,2.85447,-1.27096,2.73296
0.903049,-0.311578,1.0693,1.11701,2.8542,-1.27313,2.73522
0.900963,-0.313802,1.07505,1.11927,2.85398,-1.27535,2.73748
0.898838,-0.316107,1.08083,1.12152,2.85378,-1.2776,2.73973
0.896744,-0.318385,1.08671,1.12376,2.85355,-1.27989,2.74198
0.894614,-0.32067,1.09256,1.12606,2.85335,-1.28223,2.74423
0.892426,-0.323016,1.09837,1.12839,2.85315,-1.28458,2.74649
0.890266,-0.325389,1.10424,1.13071,2.85295,-1.287,2.74875
0.888114,-0.327828,1.11009,1.13307,2.85276,-1.28943,2.75103
0.885938,-0.330422,1.11587,1.13546,2.85259,-1.29186,2.7533
0.883834,-0.333161,1.12169,1.13782,2.85243,-1.29431,2.75557
0.881808,-0.335938,1.1275,1.14019,2.85229,-1.29679,2.75784
0.879784,-0.338768,1.13323,1.14254,2.85215,-1.29928,2.76011
0.877787,-0.341602,1.13893,1.14479,2.852,-1.30179,2.76238
0.875851,-0.3444,1.14463,1.14706,2.85186,-1.30432,2.76466
0.873896,-0.347262,1.15022,1.14934,2.85173,-1.30692,2.76694
0.871884,-0.350232,1.15569,1.15152,2.85161,-1.30951,2.76924
0.869921,-0.353309,1.16115,1.15364,2.8515,-1.3121,2.77154
0.868038,-0.356421,1.16657,1.15573,2.85138,-1.31471,2.77384
0.864434,-0.362745,1.17717,1.15967,2.85116,-1.31999,2.77843
0.864434,-0.362745,1.17717,1.15967,2.85116,-1.31999,2.77843
0.861187,-0.369109,1.1876,1.16348,2.85095,-1.32527,2.78301
0.861187,-0.369109,1.1876,1.16348,2.85095,-1.32527,2.78301
0.857978,-0.375936,1.19744,1.16703,2.85082,-1.33057,2.78761
0.85647,-0.37936,1.20226,1.16861,2.85076,-1.33324,2.78992
0.855009,-0.382724,1.20698,1.17003,2.85071,-1.33592,2.79223
0.855009,-0.382724,1.20698,1.17003,2.85071,-1.33592,2.79223
0.853551,-0.386083,1.21149,1.17134,2.85068,-1.33862,2.79452
0.851004,-0.392924,1.22026,1.17369,2.85063,-1.34407,2.79911
0.849927,-0.39646,1.22445,1.17462,2.85059,-1.34678,2.8014
0.849927,-0.39646,1.22445,1.17462,2.85059,-1.34678,2.8014
0.847963,-0.403707,1.23202,1.17587,2.85057,-1.35218,2.80599
0.847963,-0.403707,1.23202,1.17587,2.85057,-1.35218,2.80599
0.847217,-0.40733,1.23553,1.17632,2.85057,-1.35491,2.80829
0.846663,-0.410948,1.23884,1.17669,2.85057,-1.35765,2.8106
0.84623,-0.414584,1.24182,1.17686,2.85057,-1.3604,2.8129
0.845906,-0.418168,1.24448,1.17674,2.85056,-1.36314,2.81519
0.845731,-0.421718,1.24687,1.17645,2.85055,-1.3659,2.81748
0.845701,-0.425246,1.24894,1.17604,2.85054,-1.36864,2.81976
0.845801,-0.428771,1.25066,1.17551,2.85053,-1.3714,2.82203
0.846036,-0.432356,1.25205,1.1748,2.85051,-1.37418,2.82431
0.846389,-0.435925,1.25308,1.17389,2.85047,-1.37695,2.82659
0.846839,-0.43943,1.25378,1.17273,2.8504,-1.37976,2.82888
0.847385,-0.442876,1.25415,1.17141,2.85031,-1.38257,2.83117
0.848035,-0.446259,1.25418,1.16998,2.85018,-1.38537,2.83345
0.848799,-0.449633,1.25394,1.16846,2.85003,-1.38817,2.83573
0.84968,-0.453045,1.25342,1.16676,2.84983,-1.39097,2.83799
0.850637,-0.456422,1.25258,1.16486,2.8496,-1.39375,2.84025
0.851705,-0.459766,1.25147,1.16277,2.84931,-1.39654,2.8425
0.852875,-0.463061,1.25011,1.1606,2.84899,-1.39933,2.84476
0.854143,-0.466336,1.24844,1.15838,2.84859,-1.4021,2.84701
0.855496,-0.46963,1.24651,1.15602,2.84812,-1.40486,2.84926
0.856908,-0.47296,1.24431,1.1535,2.84758,-1.40761,2.8515
0.858349,-0.476265,1.24185,1.15081,2.84694,-1.41035,2.85371
0.859802,-0.47952,1.23915,1.14802,2.84623,-1.41307,2.85591
0.861235,-0.482714,1.23618,1.14519,2.84545,-1.41581,2.85808
0.862639,-0.485871,1.23295,1.14232,2.84459,-1.41857,2.86024
0.864021,-0.489008,1.22954,1.1394,2.84361,-1.42133,2.86237
0.865409,-0.492176,1.22597,1.13635,2.84255,-1.42408,2.86449
0.866776,-0.495311,1.22225,1.13318,2.84138,-1.42683,2.8666
0.86808,-0.498401,1.21834,1.12992,2.84012,-1.42955,2.86869
0.86928,-0.501434,1.21422,1.12668,2.83878,-1.43227,2.87075
0.870434,-0.504443,1.20995,1.12347,2.83734,-1.435,2.87278
0.871589,-0.507433,1.2056,1.12029,2.83578,-1.43771,2.87477
0.872721,-0.510467,1.20115,1.11708,2.83414,-1.44043,2.87672
0.873764,-0.513503,1.1965,1.11376,2.83242,-1.44311,2.87864
0.874707,-0.516527,1.19167,1.11036,2.83058,-1.44577,2.88053
0.875612,-0.519486,1.18677,1.10702,2.82865,-1.4484,2.88238
0.876518,-0.522399,1.18187,1.10376,2.82663,-1.45104,2.8842
0.877354,-0.525298,1.17688,1.10057,2.82451,-1.45367,2.886
0.878025,-0.528246,1.1717,1.09732,2.82231,-1.45629,2.88776
0.87854,-0.531263,1.16643,1.09396,2.82004,-1.45892,2.88948
0.878989,-0.534258,1.16117,1.09057,2.81768,-1.46153,2.89115
0.87937,-0.537194,1.15588,1.08726,2.81522,-1.46413,2.89278
0.879596,-0.540101,1.15048,1.08396,2.81271,-1.46674,2.89437
0.879658,-0.542995,1.145,1.08071,2.81012,-1.46934,2.89592
0.879644,-0.54586,1.13955,1.07749,2.80746,-1.47194,2.89741
0.879539,-0.548734,1.13407,1.07422,2.80473,-1.47455,2.89887
0.879291,-0.551687,1.12848,1.07088,2.80194,-1.47716,2.90029
0.878947,-0.554648,1.12286,1.06763,2.7991,-1.47975,2.90166
0.87857,-0.557559,1.11727,1.06441,2.79616,-1.48233,2.90299
0.878089,-0.560399,1.11163,1.06125,2.79318,-1.48488,2.90429
0.877494,-0.563265,1.10596,1.05811,2.79017,-1.48745,2.90556
0.876823,-0.566124,1.10033,1.05494,2.78709,-1.49002,2.90679
0.876046,-0.569054,1.09466,1.05176,2.78395,-1.49256,2.90799
0.875114,-0.57206,1.0889,1.04864,2.78079,-1.4951,2.90912
0.874115,-0.575074,1.08316,1.04553,2.77758,-1.49766,2.91022
0.873061,-0.578011,1.07749,1.04249,2.77432,-1.50022,2.91127
0.871864,-0.580916,1.07176,1.03949,2.77102,-1.50278,2.91227
0.870514,-0.583833,1.06602,1.03648,2.76771,-1.50533,2.91324
0.869085,-0.586744,1.06033,1.03345,2.76434,-1.50787,2.91417
0.867548,-0.589713,1.05464,1.03048,2.76096,-1.51042,2.91506
0.865883,-0.592755,1.0489,1.02755,2.75756,-1.51296,2.91592
0.864162,-0.595767,1.04319,1.02464,2.75414,-1.51549,2.91672
0.862388,-0.598694,1.03753,1.02177,2.75068,-1.51802,2.9175
0.860513,-0.601629,1.03184,1.01893,2.74722,-1.52058,2.91824
0.858545,-0.60458,1.02616,1.01609,2.74376,-1.52312,2.91894
0.856507,-0.607578,1.0205,1.01322,2.74026,-1.52563,2.91961
0.854346,-0.610651,1.01479,1.01039,2.73676,-1.52813,2.92025
0.852076,-0.613775,1.00903,1.00755,2.73327,-1.53064,2.92085
0.84975,-0.616847,1.00336,1.00473,2.72976,-1.53315,2.92144
0.847361,-0.619851,0.997719,1.00193,2.72623,-1.53567,2.92198
0.844873,-0.622903,0.992064,0.999155,2.72271,-1.53821,2.9225
0.842316,-0.625996,0.986425,0.996343,2.71919,-1.54073,2.92299
0.839735,-0.629136,0.980825,0.993527,2.71566,-1.54326,2.92347
0.837084,-0.632328,0.975185,0.99071,2.71213,-1.54575,2.92391
0.834326,-0.635559,0.969486,0.987866,2.70859,-1.54824,2.92432
0.831503,-0.63874,0.96383,0.985014,2.70507,-1.55073,2.92473
0.828612,-0.641891,0.958203,0.982207,2.70154,-1.55327,2.92511
0.825644,-0.645095,0.952587,0.979364,2.69802,-1.5558,2.92547
0.822635,-0.64836,0.947014,0.976471,2.69452,-1.55831,2.92579
0.819625,-0.651641,0.941448,0.973499,2.69102,-1.56083,2.92608
0.816584,-0.654943,0.935854,0.970495,2.68752,-1.56333,2.92637
0.813461,-0.65829,0.9302,0.967461,2.68405,-1.56579,2.92665
0.810292,-0.661672,0.924575,0.964471,2.68058,-1.56828,2.92691
0.807107,-0.665104,0.919004,0.961501,2.67711,-1.57079,2.92712
0.803881,-0.668629,0.913463,0.958462,2.67366,-1.57329,2.9273
0.800599,-0.672173,0.907896,0.955322,2.67022,-1.5758,2.92746
0.797302,-0.675661,0.902335,0.952067,2.66677,-1.57829,2.92761
0.793955,-0.679155,0.896731,0.948819,2.66335,-1.58078,2.92773
0.790532,-0.682735,0.891084,0.945621,2.65995,-1.58329,2.92784
0.787101,-0.686383,0.885515,0.94245,2.65656,-1.58579,2.92793
0.78372,-0.690083,0.880042,0.939193,2.65316,-1.58829,2.92801
0.780309,-0.693786,0.874546,0.935774,2.64979,-1.59078,2.92809
0.77681,-0.697499,0.868972,0.932228,2.64642,-1.59328,2.92817
0.773251,-0.70127,0.863333,0.928757,2.64306,-1.59577,2.92825
0.769688,-0.705116,0.857717,0.925323,2.63971,-1.59826,2.92833
0.762646,-0.712999,0.846716,0.91835,2.63308,-1.60327,2.92848
0.762646,-0.712999,0.846716,0.91835,2.63308,-1.60327,2.92848
0.75914,-0.716875,0.841262,0.914567,2.62976,-1.60573,2.92853
0.755524,-0.720833,0.835659,0.910782,2.62647,-1.6082,2.92857
0.75183,-0.724945,0.829944,0.907127,2.62323,-1.61069,2.92859
0.748208,-0.729119,0.824358,0.903494,2.61997,-1.61319,2.92861
0.744693,-0.733243,0.818912,0.899724,2.61671,-1.61569,2.92862
0.741135,-0.737339,0.813483,0.895734,2.61346,-1.61818,2.92862
0.737454,-0.741521,0.807903,0.891712,2.61025,-1.62068,2.92863
0.730034,-0.750236,0.796596,0.883887,2.60386,-1.62566,2.92863
0.730034,-0.750236,0.796596,0.883887,2.60386,-1.62566,2.92863
0.726414,-0.754591,0.791061,0.87986,2.60066,-1.62814,2.92863
0.719213,-0.763289,0.780131,0.87139,2.5943,-1.63314,2.92863
0.719213,-0.763289,0.780131,0.87139,2.5943,-1.63314,2.92863
0.715479,-0.767891,0.774426,0.867258,2.59116,-1.63568,2.92863
0.711755,-0.772523,0.76874,0.863122,2.58803,-1.63815,2.92863
0.708143,-0.777017,0.763209,0.858717,2.58488,-1.64063,2.92862
0.704561,-0.781556,0.757762,0.854229,2.58174,-1.64316,2.92862
0.700907,-0.786264,0.752171,0.849897,2.57864,-1.64563,2.92862
0.697245,-0.791089,0.746519,0.845586,2.57553,-1.6481,2.92862
0.693605,-0.795817,0.740884,0.841094,2.57243,-1.65058,2.92862
0.689936,-0.800551,0.735293,0.83642,2.56936,-1.6531,2.92862
0.686255,-0.805397,0.729712,0.831827,2.56629,-1.65562,2.92862
0.682684,-0.810343,0.724142,0.82735,2.56323,-1.6581,2.92862
0.675534,-0.820203,0.712926,0.818021,2.55714,-1.66311,2.92861
0.675534,-0.820203,0.712926,0.818021,2.55714,-1.66311,2.92861
0.671816,-0.825191,0.707254,0.813233,2.55413,-1.6656,2.92861
0.668167,-0.830248,0.701603,0.808515,2.55111,-1.6681,2.92861
0.664631,-0.83531,0.696048,0.803813,2.5481,-1.6706,2.92861
0.661119,-0.84042,0.690513,0.79899,2.5451,-1.67313,2.92861
0.657543,-0.845564,0.684889,0.794138,2.54211,-1.67566,2.92861
0.653923,-0.85078,0.679175,0.789289,2.53915,-1.67812,2.92861
0.650317,-0.85598,0.673498,0.784422,2.5362,-1.68061,2.92861
0.646799,-0.861226,0.667972,0.779497,2.53325,-1.68311,2.92861
0.643322,-0.866523,0.66246,0.774593,2.53031,-1.68561,2.92861
0.639821,-0.871857,0.656856,0.769729,2.52738,-1.68807,2.92861
0.636277,-0.877177,0.651205,0.764768,2.52449,-1.69055,2.92861
0.632709,-0.882556,0.645578,0.759781,2.5216,-1.6931,2.92861
0.629165,-0.887997,0.639999,0.754795,2.51874,-1.69561,2.92861
0.625692,-0.89339,0.634478,0.749884,2.51589,-1.69811,2.92861
0.622292,-0.898802,0.629026,0.744896,2.51306,-1.70063,2.92861
0.615331,-0.909872,0.617861,0.734919,2.50752,-1.70565,2.92861
0.615331,-0.909872,0.617861,0.734919,2.50752,-1.70565,2.92861
0.611834,-0.915338,0.612323,0.729882,2.50479,-1.70814,2.92861
0.608428,-0.920862,0.606909,0.724876,2.5021,-1.71066,2.92861
0.605051,-0.926519,0.601469,0.71997,2.49945,-1.71321,2.92861
0.598327,-0.937685,0.59056,0.709957,2.49431,-1.71822,2.92861
0.598327,-0.937685,0.59056,0.709957,2.49431,-1.71822,2.92861
0.591544,-0.949026,0.57964,0.700187,2.48947,-1.72323,2.92861
0.591544,-0.949026,0.57964,0.700187,2.48947,-1.72323,2.92861
0.584917,-0.960231,0.569047,0.690291,2.48493,-1.72826,2.9286
0.584917,-0.960231,0.569047,0.690291,2.48493,-1.72826,2.9286
0.578365,-0.971706,0.558251,0.680783,2.48081,-1.73329,2.92859
0.575093,-0.977335,0.55296,0.675866,2.47894,-1.73582,2.92859
0.571849,-0.983027,0.547749,0.671209,2.47717,-1.73836,2.92858
0.571849,-0.983027,0.547749,0.671209,2.47717,-1.73836,2.92858
0.568617,-0.988785,0.542486,0.666668,2.47556,-1.74086,2.92857
0.565424,-0.994487,0.537257,0.662,2.47409,-1.74336,2.92857
0.562298,-1.00019,0.532154,0.657369,2.47277,-1.74592,2.92856
0.559151,-1.00593,0.526881,0.652919,2.4716,-1.74852,2.92855
0.556,-1.01164,0.521537,0.648461,2.47061,-1.75111,2.92854
0.552914,-1.01738,0.516374,0.644067,2.46979,-1.75367,2.92853
0.549882,-1.02314,0.511358,0.639886,2.46915,-1.75622,2.92852
0.546877,-1.02881,0.50631,0.635849,2.46869,-1.7587,2.92852
0.543894,-1.03439,0.501306,0.63185,2.46841,-1.76118,2.92851
0.540927,-1.04006,0.496395,0.628158,2.46832,-1.76368,2.9285
0.537962,-1.04577,0.491485,0.624667,2.46837,-1.76619,2.9285
0.534997,-1.05131,0.486638,0.621183,2.46855,-1.76867,2.92849
0.531972,-1.0568,0.481828,0.617851,2.4689,-1.77115,2.92849
0.528939,-1.06239,0.477048,0.615023,2.46943,-1.77368,2.92848
0.526055,-1.06796,0.47232,0.612401,2.47011,-1.77615,2.92847
0.523321,-1.07333,0.467714,0.609973,2.47087,-1.77861,2.92846
0.520562,-1.07872,0.463178,0.607921,2.47177,-1.781,2.92846
0.517658,-1.08414,0.458589,0.606294,2.47282,-1.78338,2.92845
0.514721,-1.08937,0.454127,0.604841,2.47401,-1.78568,2.92844
0.511845,-1.09446,0.449876,0.603644,2.47536,-1.78795,2.92844
0.508992,-1.09955,0.445755,0.603016,2.47688,-1.79014,2.92843
0.506142,-1.10466,0.441728,0.60273,2.47855,-1.79226,2.92842
0.503358,-1.10959,0.437961,0.60269,2.48035,-1.79425,2.92842
0.500648,-1.11442,0.434532,0.602879,2.48232,-1.79612,2.92841
0.497884,-1.11926,0.431332,0.603574,2.48444,-1.79793,2.92841
0.494995,-1.12416,0.428366,0.604618,2.4867,-1.79954,2.9284
0.492048,-1.12888,0.425765,0.605911,2.48909,-1.80101,2.92839
0.489171,-1.13343,0.423637,0.607429,2.49161,-1.80239,2.92838
0.486387,-1.13795,0.421946,0.609435,2.49423,-1.80362,2.92838
0.483612,-1.14251,0.420582,0.611828,2.49697,-1.80467,2.92837
0.480751,-1.14691,0.419571,0.614436,2.49983,-1.80562,2.92837
0.477824,-1.15105,0.418886,0.617233,2.50279,-1.80639,2.92837
0.471937,-1.15927,0.418594,0.62402,2.50897,-1.80755,2.92836
0.471937,-1.15927,0.418594,0.62402,2.50897,-1.80755,2.92836
0.469065,-1.16332,0.418905,0.627953,2.51214,-1.80792,2.92836
0.466254,-1.16711,0.419487,0.631975,2.51536,-1.80809,2.92835
0.463473,-1.17064,0.420344,0.636155,2.51863,-1.80813,2.92835
0.460684,-1.17413,0.421428,0.640742,2.52195,-1.80808,2.92835
0.457865,-1.17763,0.422687,0.645676,2.52529,-1.80799,2.92834
0.455034,-1.18099,0.424171,0.650801,2.52866,-1.80784,2.92834
0.452244,-1.18404,0.425895,0.65593,2.53206,-1.80763,2.92833
0.449537,-1.18685,0.427827,0.661251,2.53545,-1.80738,2.92833
0.446933,-1.18961,0.429906,0.666865,2.53884,-1.80712,2.92833
0.444394,-1.19227,0.432108,0.67269,2.54223,-1.80682,2.92832
0.441858,-1.19468,0.434441,0.678567,2.5456,-1.80641,2.92831
0.436755,-1.19905,0.439194,0.690822,2.55227,-1.80527,2.9283
0.434252,-1.20098,0.441615,0.696978,2.55556,-1.80458,2.92829
0.434252,-1.20098,0.441615,0.696978,2.55556,-1.80458,2.92829
0.429572,-1.20414,0.446563,0.709734,2.56197,-1.80287,2.92828
0.429572,-1.20414,0.446563,0.709734,2.56197,-1.80287,2.92828
0.425404,-1.20619,0.451427,0.722504,2.56813,-1.80079,2.92826
0.425404,-1.20619,0.451427,0.722504,2.56813,-1.80079,2.92826
0.423431,-1.20705,0.453669,0.72902,2.5711,-1.7996,2.92825
0.421514,-1.20773,0.455748,0.735441,2.57399,-1.79833,2.92824
0.419655,-1.20819,0.457685,0.741914,2.57679,-1.79701,2.92822
0.417838,-1.20856,0.459456,0.748384,2.57949,-1.79564,2.92821
0.416076,-1.20871,0.461037,0.754636,2.58211,-1.79424,2.9282
0.414437,-1.20864,0.46243,0.760846,2.58466,-1.79282,2.92819
0.413001,-1.20851,0.463659,0.766974,2.58708,-1.79141,2.92818
0.411795,-1.20817,0.464769,0.772838,2.58942,-1.78998,2.92817
0.41076,-1.2076,0.46576,0.778578,2.59165,-1.78862,2.92816
0.409827,-1.207,0.466636,0.784262,2.59379,-1.78726,2.92815
0.408955,-1.20632,0.467376,0.789694,2.59585,-1.78599,2.92814
0.408132,-1.20547,0.468047,0.794844,2.59782,-1.7848,2.92813
0.407381,-1.20455,0.468621,0.799843,2.5997,-1.78368,2.92812
0.406731,-1.20363,0.4691,0.804589,2.60148,-1.78265,2.92811
0.406234,-1.20262,0.469573,0.808932,2.60317,-1.78171,2.92811
0.405877,-1.20155,0.470097,0.812921,2.60476,-1.78088,2.9281
0.405631,-1.2005,0.470619,0.816566,2.60627,-1.78014,2.9281
0.405478,-1.19954,0.471164,0.819768,2.60772,-1.77948,2.92809
0.405421,-1.19866,0.471809,0.822579,2.60911,-1.77897,2.92809
0.405468,-1.19786,0.472575,0.824887,2.61045,-1.77857,2.92808
0.405585,-1.19707,0.473474,0.826825,2.61174,-1.77827,2.92808
0.4058,-1.19635,0.474548,0.82826,2.61298,-1.77809,2.92807
0.406104,-1.19569,0.475829,0.829308,2.61423,-1.77802,2.92807
0.406498,-1.19515,0.477307,0.82993,2.61546,-1.77807,2.92806
0.406966,-1.19469,0.479037,0.830137,2.61667,-1.77816,2.92806
0.40751,-1.19433,0.480997,0.829909,2.61789,-1.77825,2.92805
0.408118,-1.19412,0.48323,0.829303,2.61912,-1.77836,2.92804
0.408782,-1.19403,0.485718,0.82828,2.62039,-1.77853,2.92803
0.409484,-1.19406,0.488474,0.826878,2.6217,-1.77881,2.92802
0.410245,-1.1942,0.491498,0.825111,2.62302,-1.77924,2.92801
0.411058,-1.19448,0.494775,0.822979,2.62439,-1.77979,2.928
0.411878,-1.19491,0.498278,0.820483,2.62579,-1.78043,2.92799
0.412717,-1.19552,0.502012,0.817635,2.62726,-1.78113,2.92798
0.413609,-1.1963,0.506035,0.814464,2.62876,-1.78192,2.92797
0.414592,-1.19719,0.510329,0.811058,2.6303,-1.78275,2.92796
0.415648,-1.19819,0.514868,0.807361,2.63186,-1.78364,2.92795
0.416699,-1.19928,0.519546,0.803452,2.63347,-1.78454,2.92793
0.417763,-1.20048,0.524387,0.799199,2.63511,-1.78544,2.92792
0.418895,-1.20171,0.529442,0.794746,2.63675,-1.78637,2.9279
0.420153,-1.20299,0.534642,0.790238,2.63839,-1.78726,2.92789
0.421449,-1.20438,0.539845,0.785699,2.64005,-1.78816,2.92788
0.422701,-1.20582,0.544931,0.781119,2.6417,-1.78898,2.92787
0.423947,-1.20723,0.549943,0.776428,2.64333,-1.78977,2.92786
0.425234,-1.20857,0.554775,0.771944,2.64492,-1.79048,2.92785
0.426545,-1.20994,0.559282,0.767656,2.64651,-1.7911,2.92784
0.427827,-1.21129,0.563387,0.763665,2.64804,-1.79166,2.92784
0.429108,-1.21254,0.567034,0.759805,2.64954,-1.79215,2.92784
0.430418,-1.21356,0.570272,0.75622,2.65096,-1.79254,2.92783
0.431775,-1.21444,0.573022,0.753,2.65235,-1.79282,2.92783
0.433154,-1.21523,0.575309,0.750099,2.65367,-1.79304,2.92782
0.434533,-1.21591,0.577106,0.747527,2.65492,-1.79321,2.92782
0.435931,-1.21646,0.578464,0.745229,2.6561,-1.7933,2.92781
0.43739,-1.21682,0.57941,0.743198,2.6572,-1.79333,2.9278
0.438888,-1.217,0.579938,0.741449,2.65824,-1.79332,2.92778
0.44038,-1.21705,0.580059,0.73998,2.6592,-1.7933,2.92776
0.441849,-1.217,0.579777,0.738791,2.66006,-1.79327,2.92773
0.443289,-1.21685,0.579129,0.737855,2.66084,-1.79325,2.9277
0.444699,-1.21658,0.578125,0.737138,2.66153,-1.79324,2.92764
0.44607,-1.21619,0.576795,0.736678,2.6621,-1.79324,2.92757
0.447403,-1.21568,0.575172,0.736449,2.66257,-1.79322,2.92749
0.448693,-1.21504,0.573249,0.736444,2.66293,-1.79316,2.9274
0.449925,-1.21426,0.571043,0.736617,2.66319,-1.79306,2.9273
0.45112,-1.21335,0.568573,0.736979,2.66336,-1.79291,2.92717
0.452301,-1.21237,0.565876,0.737544,2.66342,-1.79273,2.92703
0.453493,-1.21129,0.562967,0.738273,2.66341,-1.79251,2.92688
0.454689,-1.21014,0.559876,0.739137,2.66335,-1.79226,2.92672
0.4559,-1.20891,0.556634,0.740134,2.66322,-1.79198,2.92658
0.457137,-1.2076,0.553275,0.74123,2.66303,-1.79172,2.92643
0.45838,-1.20622,0.549778,0.7424,2.66278,-1.79147,2.92628
0.459602,-1.20482,0.546166,0.74365,2.66248,-1.79123,2.92614
0.460771,-1.20342,0.54245,0.744942,2.66212,-1.79099,2.92597
0.461894,-1.202,0.538695,0.746221,2.66171,-1.79074,2.92579
0.463006,-1.20054,0.534959,0.747399,2.66119,-1.7905,2.92557
0.464129,-1.1991,0.531267,0.748474,2.66057,-1.79029,2.92534
0.465236,-1.19765,0.527597,0.749393,2.65982,-1.79011,2.9251
0.466298,-1.1962,0.523957,0.750072,2.65891,-1.78999,2.92485
0.467348,-1.19479,0.520374,0.750544,2.65785,-1.78993,2.92457
0.468464,-1.19338,0.51691,0.750784,2.65662,-1.78995,2.92428
0.469659,-1.19202,0.513568,0.750773,2.65518,-1.79,2.92398
0.470883,-1.19068,0.510247,0.750528,2.65353,-1.79004,2.92366
0.472098,-1.18937,0.506902,0.749948,2.6517,-1.79008,2.92331
0.473331,-1.18811,0.503509,0.749057,2.6497,-1.79009,2.92296
0.474641,-1.18688,0.500114,0.747903,2.64749,-1.79013,2.92262
0.476076,-1.18569,0.496724,0.746465,2.64507,-1.79023,2.92228
0.477624,-1.18449,0.493289,0.744728,2.6425,-1.79042,2.92192
0.479237,-1.18331,0.489719,0.742704,2.63974,-1.79072,2.92157
0.480898,-1.18212,0.48598,0.740383,2.63683,-1.7911,2.92121
0.482628,-1.1809,0.482096,0.737789,2.63378,-1.79161,2.92088
0.484468,-1.17963,0.478129,0.73499,2.63058,-1.79222,2.92057
0.486429,-1.17833,0.474073,0.731976,2.62726,-1.79288,2.92026
0.488456,-1.17693,0.469841,0.728755,2.62381,-1.79363,2.91996
0.490481,-1.17544,0.465361,0.725321,2.62026,-1.79443,2.91966
0.492538,-1.17387,0.460698,0.721625,2.61662,-1.79528,2.91938
0.494754,-1.17219,0.455941,0.717742,2.61287,-1.7962,2.91912
0.497185,-1.17043,0.451133,0.713743,2.60902,-1.79717,2.91889
0.499778,-1.16864,0.446157,0.709666,2.6051,-1.79817,2.91868
0.502409,-1.16684,0.44095,0.705481,2.60111,-1.79923,2.9185
0.505105,-1.16498,0.435593,0.70108,2.59709,-1.80033,2.91832
0.507901,-1.16298,0.430156,0.696515,2.593,-1.80149,2.91816
0.51071,-1.16087,0.424561,0.6919,2.58886,-1.80267,2.91801
0.513459,-1.15873,0.418803,0.687233,2.58471,-1.8039,2.91788
0.516277,-1.15645,0.412945,0.682436,2.58052,-1.80518,2.91777
0.519301,-1.15393,0.407015,0.677434,2.5763,-1.80648,2.91767
0.522495,-1.15125,0.400992,0.672482,2.57205,-1.80783,2.91762
0.525827,-1.14859,0.394901,0.667537,2.56782,-1.8092,2.91759
0.52922,-1.14587,0.388728,0.662507,2.56355,-1.81064,2.91758
0.532551,-1.1431,0.382443,0.657321,2.55931,-1.81209,2.91758
0.535836,-1.14021,0.376098,0.652239,2.55509,-1.81358,2.91758
0.539249,-1.13715,0.369743,0.647064,2.55085,-1.81508,2.91758
0.542796,-1.1339,0.363358,0.641793,2.54662,-1.8166,2.91758
0.546415,-1.13052,0.356932,0.63642,2.54241,-1.81815,2.91758
0.550082,-1.12706,0.350486,0.631167,2.53822,-1.81972,2.91758
0.553726,-1.12361,0.343945,0.625863,2.53407,-1.8213,2.91759
0.557385,-1.12016,0.337415,0.620503,2.52994,-1.82291,2.9176
0.56123,-1.11647,0.330957,0.615081,2.52581,-1.82451,2.9176
0.565215,-1.11259,0.324483,0.609669,2.5217,-1.82615,2.9176
0.569166,-1.10868,0.317934,0.604249,2.51763,-1.82783,2.9176
0.573078,-1.10469,0.311385,0.598726,2.51361,-1.82952,2.9176
0.577002,-1.10061,0.304854,0.593233,2.50961,-1.83126,2.9176
0.581035,-1.09646,0.298397,0.587789,2.50567,-1.83295,2.9176
0.585266,-1.09212,0.291981,0.582201,2.50172,-1.8347,2.9176
0.589547,-1.08765,0.285538,0.576511,2.49783,-1.8364,2.9176
0.593717,-1.08326,0.279044,0.571001,2.49399,-1.83812,2.91761
0.597915,-1.07887,0.272621,0.565478,2.4902,-1.83986,2.91761
0.602258,-1.07418,0.266287,0.559726,2.48641,-1.84159,2.91762
0.606698,-1.06931,0.260007,0.553963,2.48265,-1.84333,2.91765
0.611146,-1.06455,0.253708,0.548334,2.47899,-1.84507,2.91767
0.615539,-1.05981,0.247297,0.542638,2.47536,-1.84682,2.91771
0.620013,-1.05483,0.241028,0.536808,2.47182,-1.84858,2.91776
0.624722,-1.04965,0.234945,0.53098,2.46832,-1.85033,2.91782
0.629473,-1.04455,0.228862,0.525177,2.46493,-1.85212,2.91789
0.634058,-1.03951,0.222664,0.519327,2.46169,-1.85385,2.91799
0.638675,-1.03424,0.216583,0.513453,2.45857,-1.85556,2.91811
0.643585,-1.02884,0.210665,0.507465,2.45557,-1.85729,2.91825
0.648599,-1.02348,0.204907,0.501546,2.45273,-1.85897,2.9184
0.653516,-1.01809,0.199238,0.495642,2.45008,-1.86068,2.91858
0.658426,-1.0125,0.193804,0.489606,2.44764,-1.86233,2.91878
0.663441,-1.0069,0.188641,0.483489,2.44541,-1.86399,2.91901
0.668507,-1.00134,0.183829,0.477514,2.44339,-1.86565,2.91922
0.673557,-0.995656,0.179472,0.471536,2.44164,-1.86729,2.91944
0.678653,-0.989825,0.175613,0.46529,2.44007,-1.86894,2.91965
0.683854,-0.984033,0.172383,0.459132,2.43876,-1.87056,2.91986
0.688999,-0.978276,0.1697,0.453166,2.43765,-1.87219,2.92006
0.694061,-0.972333,0.167627,0.44696,2.43687,-1.87376,2.92025
0.699179,-0.966336,0.166157,0.440579,2.43627,-1.87532,2.92046
0.704449,-0.960437,0.165318,0.434541,2.43588,-1.87689,2.92068
0.709689,-0.954446,0.164987,0.428411,2.43572,-1.8784,2.9209
0.714862,-0.948285,0.165156,0.42196,2.43579,-1.87992,2.92114
0.720132,-0.942174,0.165844,0.415763,2.43605,-1.88142,2.92137
0.72556,-0.936071,0.16704,0.409615,2.43647,-1.88291,2.92157
0.731048,-0.929802,0.168748,0.403186,2.43713,-1.88441,2.92176
0.736529,-0.923578,0.170901,0.396916,2.43802,-1.88591,2.92195
0.742084,-0.917374,0.173458,0.390801,2.43909,-1.88739,2.92214
0.747768,-0.910955,0.176466,0.384355,2.44028,-1.88889,2.92232
0.753522,-0.904537,0.179926,0.378,2.44164,-1.8904,2.9225
0.759314,-0.898204,0.183739,0.371875,2.44312,-1.89187,2.92269
0.765203,-0.891714,0.187887,0.365429,2.44479,-1.89333,2.92289
0.771178,-0.885218,0.192431,0.359039,2.44665,-1.8948,2.92309
0.777218,-0.8788,0.197262,0.352911,2.44866,-1.89625,2.92328
0.783417,-0.872208,0.202399,0.346488,2.45081,-1.89768,2.92345
0.789713,-0.865631,0.207791,0.340088,2.45311,-1.89914,2.92361
0.795994,-0.859123,0.213415,0.333979,2.45559,-1.90057,2.92375
0.802401,-0.852439,0.219244,0.327543,2.45818,-1.90202,2.92388
0.809001,-0.845764,0.225306,0.32114,2.4609,-1.90348,2.92403
0.815606,-0.839187,0.231475,0.315052,2.46375,-1.90496,2.92417
0.822329,-0.832443,0.237837,0.308681,2.46676,-1.90641,2.92432
0.829177,-0.825701,0.244294,0.302285,2.46982,-1.90795,2.92447
0.836071,-0.818999,0.25086,0.296179,2.47302,-1.90941,2.9246
0.843085,-0.812186,0.257535,0.289819,2.4763,-1.91091,2.92474
0.850246,-0.805406,0.264287,0.28351,2.47964,-1.91242,2.92487
0.857414,-0.798617,0.271061,0.277387,2.48308,-1.9139,2.92497
0.8647,-0.791754,0.27791,0.271058,2.48659,-1.91533,2.92505
0.872076,-0.784955,0.284745,0.264823,2.49014,-1.91678,2.92511
0.87952,-0.77808,0.29163,0.258683,2.49379,-1.91814,2.92515
0.887065,-0.771169,0.29851,0.252403,2.49746,-1.9195,2.92517
0.89468,-0.76437,0.305369,0.246258,2.50121,-1.92081,2.92516
0.902316,-0.757426,0.312151,0.240119,2.50499,-1.92204,2.92515
0.910067,-0.750465,0.318929,0.233935,2.5088,-1.92324,2.92513
0.917869,-0.743636,0.325575,0.227979,2.5126,-1.92438,2.92512
0.9257,-0.736626,0.332036,0.221976,2.51638,-1.92545,2.92511
0.93359,-0.729646,0.33833,0.216169,2.52016,-1.92649,2.92511
0.941508,-0.722778,0.344283,0.210806,2.52385,-1.92748,2.9251
0.949369,-0.71565,0.34982,0.205343,2.52749,-1.92839,2.92508
0.957275,-0.708526,0.355032,0.20042,2.53114,-1.92927,2.92503
0.965124,-0.70145,0.359586,0.19618,2.53457,-1.93012,2.92493
0.972898,-0.694115,0.36369,0.191925,2.538,-1.93088,2.92477
0.980584,-0.686776,0.367219,0.188408,2.54127,-1.93168,2.92457
0.98814,-0.679283,0.370173,0.185542,2.54441,-1.93237,2.92433
0.995591,-0.671564,0.372727,0.182778,2.54749,-1.93303,2.92405
1.00288,-0.663928,0.374691,0.180889,2.55031,-1.93372,2.92373
1.01001,-0.656109,0.376333,0.179269,2.5531,-1.93428,2.92336
1.01694,-0.648251,0.377554,0.177945,2.55568,-1.93488,2.92298
1.02369,-0.640429,0.378408,0.177335,2.55812,-1.9354,2.92261
1.03025,-0.632506,0.379019,0.17673,2.56046,-1.93586,2.92222
