Afshin1997/kuka_rl_ros2/src/catch_and_throw/output_files/tm/nn_ema7.00_jvws1_realball_D29H12M38S10/recorded_data.csv
pure_target_joint_0,pure_target_joint_1,pure_target_joint_2,pure_target_joint_3,pure_target_joint_4,pure_target_joint_5,pure_target_joint_6,target_joint_0,target_joint_1,target_joint_2,target_joint_3,target_joint_4,target_joint_5,target_joint_6,pos_joint_0,pos_joint_1,pos_joint_2,pos_joint_3,pos_joint_4,pos_joint_5,pos_joint_6,vel_joint_0,vel_joint_1,vel_joint_2,vel_joint_3,vel_joint_4,vel_joint_5,vel_joint_6,vel_smooth_joint_0,vel_smooth_joint_1,vel_smooth_joint_2,vel_smooth_joint_3,vel_smooth_joint_4,vel_smooth_joint_5,vel_smooth_joint_6,ee_pos_x,ee_pos_y,ee_pos_z,ee_or_w,ee_or_x,ee_or_y,ee_or_z,eep_vel_x,eep_vel_y,eep_vel_z,ee_vel_offset_x,ee_vel_offset_y,ee_vel_offset_z,ball_pos_x,ball_pos_y,ball_pos_z,ball_raw_vx,ball_raw_vy,ball_raw_vz,ball_ema_vx,ball_ema_vy,ball_ema_vz,action_0,action_1,action_2,action_3,action_4,action_5,action_6,command_published
1.81353,-1.06109,-1.83878,-1.07026,2.00808,1.17331,-0.967119,1.81353,-1.06109,-1.83878,-1.07026,2.00808,1.17331,-0.967119,1.78083,-1.07167,-1.81819,-1.11934,1.93712,1.11686,-0.916307,-1.19989e-05,0,0,0,1.91633e-05,-2.39759e-05,0,-1.19989e-05,0,0,0,1.91633e-05,-2.39759e-05,0,0.533752,-0.456159,0.69111,0.573138,0.179049,0.151667,0.785144,-3.58906e-06,-9.2292e-06,-8.59056e-07,-2.86846e-06,-1.06192e-05,-1.17609e-06,2.98359,-0.526616,0.434198,-3.18122,0.323159,5.47976,-3.18122,0.25412,5.47976,0.32695,0.10583,-0.205918,0.490851,0.709642,0.564523,-0.508116,1
1.77443,-1.04183,-1.85618,-1.07291,2.00618,1.16896,-0.951944,1.77443,-1.04183,-1.85618,-1.07291,2.00618,1.16896,-0.951944,1.78083,-1.07167,-1.81819,-1.11934,1.93712,1.11686,-0.916307,-2.39541e-05,-2.39759e-05,0,-1.1977e-05,1.91633e-05,-1.1977e-05,0,-2.39541e-05,-2.39759e-05,0,-1.1977e-05,1.91633e-05,-1.1977e-05,0,0.533752,-0.456159,0.69111,0.573138,0.179049,0.151667,0.785144,-6.904e-06,-1.78209e-05,-1.6376e-05,-6.19268e-06,-2.00965e-05,-1.66555e-05,2.95131,-0.523171,0.487919,-3.22838,0.344509,5.37215,-3.22838,0.293526,5.37215,-0.0639678,0.298438,-0.379866,0.46434,0.690641,0.521031,-0.356365,1
1.73884,-1.02766,-1.87093,-1.07356,2.0047,1.12263,-0.926775,1.73884,-1.02766,-1.87093,-1.07356,2.0047,1.12263,-0.926775,1.78083,-1.07167,-1.81819,-1.11934,1.93712,1.11686,-0.916307,0,0,3.5953e-05,-4.793e-05,0,-5.99289e-05,5.99071e-05,0,0,3.5953e-05,-4.793e-05,0,-5.99289e-05,5.99071e-05,0.533753,-0.456159,0.69111,0.573138,0.179049,0.151667,0.785144,1.21847e-05,2.12938e-05,-1.75133e-06,1.41627e-05,2.10035e-05,-2.75198e-06,2.91924,-0.519816,0.541196,-3.20706,0.335538,5.32772,-3.20706,0.318308,5.32772,-0.419934,0.440153,-0.527384,0.45785,0.675826,0.0576984,-0.104679,1
1.73605,-1.04098,-1.85535,-1.12747,2.00354,1.1284,-0.901273,1.73605,-1.04098,-1.85535,-1.12747,2.00354,1.1284,-0.901273,1.78092,-1.07169,-1.81763,-1.12009,1.9362,1.11595,-0.91529,0.0146923,-0.00209718,0.0954402,-0.127425,-0.16534,-0.155803,0.176799,0.0146923,-0.00209718,0.0954402,-0.127425,-0.16534,-0.155803,0.176799,0.534052,-0.455653,0.691036,0.572378,0.179354,0.152094,0.785547,0.0442836,0.0812552,-0.00913881,0.0514197,0.0872594,-0.0130237,2.8875,-0.517001,0.593452,-3.17395,0.281441,5.22559,-3.17395,0.324412,5.22559,-0.44867,0.307051,-0.377227,-0.0738183,0.673357,0.124441,0.140163,1
1.7114,-1.04451,-1.80812,-1.10445,2.00037,1.14888,-0.873392,1.7114,-1.04451,-1.80812,-1.10445,2.00037,1.14888,-0.873392,1.78035,-1.07198,-1.8163,-1.12232,1.93181,1.11341,-0.912765,-0.101852,-0.0432501,0.118845,-0.230955,-0.496174,-0.223549,0.206256,-0.101852,-0.0432501,0.118845,-0.230955,-0.496174,-0.223549,0.206256,0.534661,-0.454493,0.690503,0.570776,0.180156,0.154084,0.786141,0.0265213,0.0827802,-0.0588182,0.0419713,0.0978664,-0.0674326,2.85582,-0.514187,0.644619,-3.16775,0.281388,5.11662,-3.16775,0.317549,5.11662,-0.689443,0.274735,0.0818393,0.178789,0.68566,0.354732,0.39373,1
1.70079,-1.01787,-1.77609,-1.06164,1.99613,1.16789,-0.949295,1.70079,-1.01787,-1.77609,-1.06164,1.99613,1.16789,-0.949295,1.77838,-1.07249,-1.81709,-1.1237,1.93066,1.1166,-0.916361,-0.205225,-0.0450477,-0.165079,-0.0965307,0.11495,0.545174,-0.577411,-0.205225,-0.0450477,-0.165079,-0.0965307,0.11495,0.545174,-0.577411,0.5337,-0.454998,0.689782,0.572641,0.179035,0.154601,0.784938,-0.129627,-0.103854,-0.0756804,-0.143711,-0.105049,-0.0683645,2.82404,-0.510989,0.694316,-3.17771,0.319797,4.96979,-3.17771,0.312865,4.96979,-0.775954,0.546123,0.410063,0.620668,0.654687,0.512838,-0.329341,1
1.69933,-1.02893,-1.76949,-1.04839,2.00249,1.188,-0.996095,1.69933,-1.02893,-1.76949,-1.04839,2.00249,1.188,-0.996095,1.77735,-1.07221,-1.82217,-1.12308,1.94054,1.1268,-0.925596,-0.0632992,0.0573073,-0.621032,0.142154,1.26934,1.11258,-0.939158,-0.0632992,0.0573073,-0.621032,0.142154,1.26934,1.11258,-0.939158,0.531586,-0.457492,0.6892,0.577223,0.176639,0.150775,0.782866,-0.187679,-0.269929,-0.0713254,-0.227581,-0.304301,-0.0499311,2.79232,-0.507827,0.743153,-3.17197,0.316185,4.88369,-3.17197,0.308419,4.88369,-0.780144,0.432847,0.526781,0.746913,0.619514,0.612015,-0.704995,1
1.70903,-1.01794,-1.7772,-1.06277,2.02728,1.19559,-0.997229,1.70903,-1.01794,-1.7772,-1.06277,2.02728,1.19559,-0.997229,1.77769,-1.07054,-1.83089,-1.11875,1.96,1.13539,-0.929905,0.0671221,0.202828,-0.932986,0.513968,2.12683,0.725137,-0.20888,0.0671221,0.202828,-0.932986,0.513968,2.12683,0.725137,-0.20888,0.529391,-0.462329,0.689101,0.580781,0.176761,0.143302,0.78161,-0.175425,-0.45831,-0.0148919,-0.20944,-0.528979,0.00338203,2.76065,-0.504957,0.790799,-3.16749,0.287014,4.76453,-3.16749,0.302246,4.76453,-0.686612,0.526045,0.536961,0.559804,0.672735,0.602044,-0.67324,1
1.75158,-1.00947,-1.79347,-1.09297,2.04835,1.19989,-0.985521,1.75158,-1.00947,-1.79347,-1.09297,2.04835,1.19989,-0.985521,1.77936,-1.06787,-1.83946,-1.11307,1.98163,1.13958,-0.925555,0.189358,0.278195,-0.798958,0.552017,2.06711,0.373204,0.60471,0.189358,0.278195,-0.798958,0.552017,2.06711,0.373204,0.60471,0.527945,-0.467146,0.689715,0.58081,0.179017,0.134835,0.78258,-0.101565,-0.369317,0.065607,-0.12864,-0.437524,0.0789888,2.72931,-0.502341,0.837276,-3.13354,0.261599,4.64774,-3.13354,0.295965,4.64774,-0.277758,0.583977,0.459889,0.20095,0.667268,0.603023,-0.599661,1
1.70951,-1.00724,-1.78554,-1.06602,2.06428,1.20793,-0.987108,1.70951,-1.00724,-1.78554,-1.06602,2.06428,1.20793,-0.987108,1.77983,-1.06505,-1.84507,-1.10791,1.99684,1.14431,-0.920832,-0.0312901,0.279094,-0.455666,0.510684,1.34609,0.529271,0.320235,-0.0312901,0.279094,-0.455666,0.510684,1.34609,0.529271,0.320235,0.525977,-0.470803,0.691249,0.580997,0.179141,0.12841,0.783494,-0.206379,-0.315723,0.172911,-0.242449,-0.355752,0.189779,2.69781,-0.499297,0.88337,-3.1507,0.304383,4.60935,-3.1507,0.295839,4.60935,-0.703245,0.57814,0.595298,0.418979,0.674389,0.636207,-0.662751,1
1.69611,-1.00196,-1.78801,-1.03138,2.06993,1.20122,-0.991375,1.69611,-1.00196,-1.78801,-1.03138,2.06993,1.20122,-0.991375,1.7774,-1.06271,-1.84459,-1.10234,2.00681,1.1519,-0.925242,-0.30299,0.217904,0.230463,0.581174,0.904491,0.824783,-0.714064,-0.30299,0.217904,0.230463,0.581174,0.904491,0.824783,-0.714064,0.521948,-0.474157,0.694916,0.585518,0.174846,0.122668,0.782017,-0.387446,-0.302405,0.399597,-0.455682,-0.326763,0.430571,2.66593,-0.495983,0.928772,-3.1878,0.33142,4.54021,-3.1878,0.298149,4.54021,-0.812929,0.607474,0.565852,0.709675,0.631171,0.49317,-0.661329,1
1.68924,-0.998251,-1.78112,-1.0205,2.0773,1.19933,-1.00377,1.68924,-0.998251,-1.78112,-1.0205,2.0773,1.19933,-1.00377,1.77328,-1.06169,-1.83792,-1.09602,2.0143,1.16094,-0.939453,-0.433699,0.0601954,0.811673,0.6601,0.713074,0.920643,-1.60985,-0.433699,0.0601954,0.811673,0.6601,0.713074,0.920643,-1.60985,0.516461,-0.477454,0.700249,0.593903,0.167424,0.116274,0.778286,-0.485322,-0.306189,0.525736,-0.577056,-0.329505,0.565172,2.63469,-0.492778,0.973053,-3.12359,0.320518,4.42815,-3.12359,0.299935,4.42815,-0.840336,0.634417,0.568051,0.755175,0.63004,0.383918,-0.643187,1
1.68467,-0.999024,-1.76813,-1.01451,2.0858,1.20991,-1.02116,1.68467,-0.999024,-1.76813,-1.01451,2.0858,1.20991,-1.02116,1.76868,-1.06171,-1.82692,-1.08989,2.02179,1.16993,-0.95732,-0.46597,-0.0146331,1.16037,0.583335,0.782369,0.888556,-1.78237,-0.46597,-0.0146331,1.16037,0.583335,0.782369,0.888556,-1.78237,0.510441,-0.480459,0.706404,0.602975,0.158991,0.108509,0.774189,-0.505493,-0.262641,0.575654,-0.608348,-0.291532,0.616797,2.60322,-0.489554,1.01643,-3.14686,0.322396,4.3376,-3.14686,0.305487,4.3376,-0.840043,0.626881,0.587837,0.753793,0.640136,0.399809,-0.638376,1
1.68033,-0.997845,-1.75418,-1.01045,2.09706,1.22423,-1.03646,1.68033,-0.997845,-1.75418,-1.01045,2.09706,1.22423,-1.03646,1.76367,-1.06161,-1.81534,-1.08473,2.03179,1.17851,-0.972703,-0.520428,0.0267494,1.11653,0.493067,1.07636,0.838917,-1.44104,-0.520428,0.0267494,1.11653,0.493067,1.07636,0.838917,-1.44104,0.504191,-0.483564,0.712504,0.610525,0.151366,0.0993121,0.771028,-0.531694,-0.287122,0.556143,-0.634733,-0.326924,0.593903,2.57247,-0.486748,1.05877,-3.07548,0.280657,4.2341,-3.07548,0.309725,4.2341,-0.833411,0.637608,0.611559,0.742825,0.652752,0.457246,-0.637596,1
1.67476,-0.993181,-1.74581,-1.00784,2.10958,1.23559,-1.04715,1.67476,-0.993181,-1.74581,-1.00784,2.10958,1.23559,-1.04715,1.75752,-1.06007,-1.80623,-1.0801,2.04428,1.18589,-0.984568,-0.648782,0.217267,0.861495,0.479944,1.29199,0.708765,-1.11997,-0.648782,0.217267,0.861495,0.479944,1.29199,0.708765,-1.11997,0.497534,-0.487422,0.718294,0.617176,0.145306,0.0899459,0.768043,-0.593745,-0.354809,0.564703,-0.687976,-0.398832,0.596225,2.54057,-0.483461,1.10043,-3.18933,0.328612,4.16607,-3.18933,0.314888,4.16607,-0.827603,0.668916,0.604109,0.722587,0.652948,0.496966,-0.625797,1
1.66749,-0.984872,-1.73889,-1.00309,2.12229,1.23915,-1.05334,1.66749,-0.984872,-1.73889,-1.00309,2.12229,1.23915,-1.05334,1.75021,-1.0557,-1.79852,-1.07352,2.05734,1.19183,-0.994637,-0.751286,0.494577,0.752904,0.708956,1.29304,0.569493,-0.976798,-0.751286,0.494577,0.752904,0.708956,1.29304,0.569493,-0.976798,0.489905,-0.491802,0.725519,0.624521,0.139135,0.0812785,0.764205,-0.694247,-0.404232,0.726415,-0.788016,-0.44056,0.75559,2.50868,-0.480395,1.14055,-3.18971,0.306645,4.01187,-3.18971,0.313506,4.01187,-0.827163,0.708263,0.596363,0.70436,0.649558,0.473169,-0.587076,1
1.65996,-0.97877,-1.73371,-0.993485,2.13338,1.2415,-1.06216,1.65996,-0.97877,-1.73371,-0.993485,2.13338,1.2415,-1.06216,1.74312,-1.05072,-1.79163,-1.06447,2.0695,1.19706,-1.00432,-0.679439,0.478182,0.671373,0.967534,1.18541,0.51591,-0.97566,-0.679439,0.478182,0.671373,0.967534,1.18541,0.51591,-0.97566,0.481898,-0.496602,0.73327,0.632587,0.132671,0.073099,0.759532,-0.707367,-0.453234,0.740858,-0.801648,-0.485857,0.767969,2.47701,-0.477742,1.17895,-3.16713,0.265267,3.84032,-3.16713,0.305649,3.84032,-0.831672,0.719519,0.579257,0.70986,0.638858,0.444392,-0.578334,1
1.65394,-0.974764,-1.72963,-0.980906,2.14358,1.24613,-1.0736,1.65394,-0.974764,-1.72963,-0.980906,2.14358,1.24613,-1.0736,1.73746,-1.04653,-1.78495,-1.05332,2.08079,1.20246,-1.01469,-0.54079,0.40727,0.668569,1.12248,1.10674,0.544756,-1.05707,-0.54079,0.40727,0.668569,1.12248,1.10674,0.544756,-1.05707,0.474066,-0.50147,0.740919,0.640998,0.125827,0.06484,0.754377,-0.67978,-0.441836,0.729145,-0.778152,-0.471337,0.755167,2.44563,-0.474611,1.21643,-3.13725,0.313118,3.74788,-3.13725,0.301704,3.74788,-0.835268,0.71761,0.553134,0.724094,0.627882,0.436661,-0.589145,1
1.64856,-0.970444,-1.72276,-0.969677,2.15347,1.25312,-1.08435,1.64856,-0.970444,-1.72276,-0.969677,2.15347,1.25312,-1.08435,1.73206,-1.04232,-1.7779,-1.04263,2.09155,1.20854,-1.02566,-0.554548,0.436884,0.73114,1.04715,1.06511,0.641747,-1.10344,-0.554548,0.436884,0.73114,1.04715,1.06511,0.641747,-1.10344,0.466226,-0.50574,0.748518,0.649223,0.118547,0.056688,0.749161,-0.697027,-0.381429,0.744415,-0.800441,-0.404566,0.769672,2.41422,-0.471812,1.25325,-3.14138,0.279966,3.68186,-3.14138,0.297214,3.68186,-0.834979,0.718804,0.551405,0.729524,0.619151,0.44576,-0.58689,1
1.64207,-0.96347,-1.71129,-0.96096,2.16328,1.25921,-1.09269,1.64207,-0.96347,-1.71129,-0.96096,2.16328,1.25921,-1.09269,1.72532,-1.03667,-1.7694,-1.03295,2.10184,1.21578,-1.03639,-0.718352,0.611366,0.884865,0.930239,1.02066,0.749464,-1.05507,-0.718352,0.611366,0.884865,0.930239,1.02066,0.749464,-1.05507,0.457453,-0.509162,0.757134,0.657263,0.10994,0.0486268,0.744012,-0.794182,-0.303046,0.859986,-0.906572,-0.314464,0.885469,2.38299,-0.468841,1.28922,-3.12271,0.297046,3.59721,-3.12271,0.295727,3.59721,-0.832573,0.731977,0.58112,0.719878,0.614395,0.434284,-0.562986,1
1.63367,-0.955427,-1.70021,-0.952685,2.17208,1.26495,-1.10006,1.63367,-0.955427,-1.70021,-0.952685,2.17208,1.26495,-1.10006,1.717,-1.02961,-1.76,-1.02375,2.11215,1.22343,-1.04646,-0.871634,0.724428,0.946693,0.927806,1.03696,0.768531,-0.999689,-0.871634,0.724428,0.946693,0.927806,1.03696,0.768531,-0.999689,0.447625,-0.512204,0.766627,0.665232,0.100507,0.0405787,0.738727,-0.896,-0.29864,0.933043,-1.01373,-0.304851,0.956986,2.35194,-0.466074,1.32436,-3.10502,0.276664,3.51337,-3.10502,0.29,3.51337,-0.833253,0.741786,0.597933,0.710611,0.599336,0.415186,-0.53596,1
1.62374,-0.948293,-1.69171,-0.943071,2.18181,1.27106,-1.10938,1.62374,-0.948293,-1.69171,-0.943071,2.18181,1.27106,-1.10938,1.70743,-1.02264,-1.75112,-1.01409,2.1231,1.23099,-1.05663,-0.969548,0.684436,0.872042,0.959325,1.11329,0.744095,-1.02553,-0.969548,0.684436,0.872042,0.959325,1.11329,0.744095,-1.02553,0.436938,-0.515944,0.775872,0.673663,0.0913132,0.0321995,0.732668,-0.959913,-0.366625,0.883464,-1.07695,-0.376662,0.903823,2.32078,-0.462994,1.35826,-3.11646,0.308007,3.39011,-3.11646,0.290386,3.39011,-0.836866,0.743436,0.59412,0.710154,0.58711,0.400724,-0.527566,1
1.61475,-0.941007,-1.68309,-0.932721,2.1931,1.27835,-1.11922,1.61475,-0.941007,-1.68309,-0.932721,2.1931,1.27835,-1.11922,1.69848,-1.01564,-1.7424,-1.00399,2.13452,1.23814,-1.06714,-0.870484,0.705984,0.869405,1.03086,1.14881,0.700256,-1.05644,-0.870484,0.705984,0.869405,1.03086,1.14881,0.700256,-1.05644,0.426369,-0.519415,0.785033,0.68189,0.082297,0.023659,0.726425,-0.936549,-0.322089,0.898981,-1.05479,-0.330441,0.916542,2.28944,-0.46001,1.39077,-3.13339,0.298437,3.251,-3.13339,0.293457,3.251,-0.837263,0.746354,0.593099,0.712644,0.585822,0.40218,-0.520795,1
1.60557,-0.934286,-1.67601,-0.921249,2.20337,1.28385,-1.12961,1.60557,-0.934286,-1.67601,-0.921249,2.20337,1.28385,-1.12961,1.68961,-1.0091,-1.73438,-0.99276,2.14607,1.24489,-1.07767,-0.895699,0.63506,0.785693,1.12921,1.15197,0.664877,-1.04789,-0.895699,0.63506,0.785693,1.12921,1.15197,0.664877,-1.04789,0.41554,-0.523311,0.793835,0.690299,0.0735914,0.0149454,0.719616,-0.974675,-0.384598,0.844529,-1.09159,-0.394746,0.858672,2.25822,-0.457209,1.42242,-3.12221,0.280073,3.16546,-3.12221,0.291627,3.16546,-0.840441,0.748106,0.5837,0.715113,0.572968,0.389558,-0.519444,1
1.59756,-0.928129,-1.6681,-0.910029,2.21405,1.28986,-1.1398,1.59756,-0.928129,-1.6681,-0.910029,2.21405,1.28986,-1.1398,1.68158,-1.00303,-1.72598,-0.981454,2.15734,1.25126,-1.0878,-0.769238,0.605058,0.861562,1.12801,1.11562,0.624028,-0.999833,-0.769238,0.605058,0.861562,1.12801,1.11562,0.624028,-0.999833,0.405058,-0.526783,0.802353,0.697988,0.0650775,0.00611711,0.71312,-0.918009,-0.309935,0.837876,-1.03528,-0.318119,0.849187,2.22726,-0.454447,1.453,-3.09641,0.276268,3.05754,-3.09641,0.290796,3.05754,-0.840165,0.748972,0.578808,0.714255,0.567133,0.385974,-0.520009,1
1.58936,-0.921726,-1.66062,-0.898811,2.22319,1.29158,-1.1482,1.58936,-0.921726,-1.66062,-0.898811,2.22319,1.29158,-1.1482,1.67365,-0.997054,-1.71762,-0.970213,2.16812,1.25724,-1.09751,-0.812128,0.592319,0.824364,1.12628,1.07018,0.589443,-0.963126,-0.812128,0.592319,0.824364,1.12628,1.07018,0.589443,-0.963126,0.394631,-0.529986,0.810646,0.705285,0.0567416,-0.0024877,0.706645,-0.942144,-0.315942,0.80858,-1.05628,-0.321712,0.816903,2.19647,-0.451664,1.48289,-3.07863,0.278264,2.98903,-3.07863,0.287758,2.98903,-0.842877,0.753283,0.569998,0.714013,0.550684,0.343314,-0.506948,1
1.58125,-0.915319,-1.65256,-0.887453,2.23178,1.29507,-1.15738,1.58125,-0.915319,-1.65256,-0.887453,2.23178,1.29507,-1.15738,1.66565,-0.990905,-1.70872,-0.959038,2.17863,1.26342,-1.10701,-0.782768,0.623837,0.926036,1.1105,1.0469,0.622938,-0.946636,-0.782768,0.623837,0.926036,1.1105,1.0469,0.622938,-0.946636,0.383995,-0.532752,0.819045,0.712225,0.0480794,-0.0111411,0.700215,-0.944038,-0.244948,0.840305,-1.06271,-0.245821,0.846368,2.16526,-0.448584,1.51218,-3.12121,0.307977,2.9294,-3.12121,0.288197,2.9294,-0.844054,0.755867,0.561611,0.715848,0.531557,0.316557,-0.503767,1
1.57318,-0.909237,-1.64358,-0.877416,2.24099,1.29702,-1.16726,1.57318,-0.909237,-1.64358,-0.877416,2.24099,1.29702,-1.16726,1.65773,-0.984808,-1.69949,-0.948675,2.1889,1.26976,-1.11648,-0.815352,0.601367,0.902128,1.02919,1.02655,0.638876,-0.949932,-0.815352,0.601367,0.902128,1.02919,1.02655,0.638876,-0.949932,0.373508,-0.534979,0.827193,0.718635,0.039435,-0.0197144,0.693988,-0.945688,-0.227405,0.79259,-1.06159,-0.226526,0.795736,2.13432,-0.445454,1.54047,-3.09429,0.313038,2.82894,-3.09429,0.289352,2.82894,-0.84556,0.755715,0.559064,0.712588,0.520861,0.272673,-0.507811,1
1.56409,-0.902299,-1.6336,-0.866994,2.25014,1.2919,-1.1754,1.56409,-0.902299,-1.6336,-0.866994,2.25014,1.2919,-1.1754,1.64877,-0.97832,-1.69065,-0.937688,2.19919,1.27612,-1.12603,-0.905891,0.673846,0.898005,1.1124,1.03177,0.635389,-0.954893,-0.905891,0.673846,0.898005,1.1124,1.03177,0.635389,-0.954893,0.362193,-0.537416,0.83544,0.725469,0.0305878,-0.0282217,0.686996,-1.02964,-0.230489,0.837108,-1.14849,-0.224268,0.837756,2.10357,-0.442525,1.56777,-3.07424,0.292879,2.7302,-3.07424,0.292244,2.7302,-0.846753,0.760217,0.570427,0.706939,0.509472,0.157876,-0.493704,1
1.55519,-0.89443,-1.62441,-0.856882,2.25898,1.27093,-1.1819,1.55519,-0.89443,-1.62441,-0.856882,2.25898,1.27093,-1.1819,1.64008,-0.971231,-1.68131,-0.927044,2.20934,1.28216,-1.13554,-0.862701,0.710672,0.929571,1.06479,1.01058,0.589311,-0.949357,-0.862701,0.710672,0.929571,1.06479,1.01058,0.589311,-0.949357,0.35103,-0.539048,0.843935,0.731778,0.0215992,-0.0365444,0.680219,-0.997908,-0.159242,0.84372,-1.11405,-0.149872,0.841676,2.07288,-0.439966,1.5937,-3.06973,0.255886,2.59259,-3.06973,0.292081,2.59259,-0.848912,0.768019,0.568973,0.701617,0.496392,-0.112309,-0.463574,1
1.54558,-0.886582,-1.6168,-0.846433,2.26727,1.2482,-1.18589,1.54558,-0.886582,-1.6168,-0.846433,2.26727,1.2482,-1.18589,1.63089,-0.96431,-1.6729,-0.915608,2.2192,1.28747,-1.14481,-0.927989,0.683097,0.814741,1.14803,0.975263,0.508803,-0.911319,-0.927989,0.683097,0.814741,1.14803,0.975263,0.508803,-0.911319,0.339497,-0.541071,0.852105,0.738364,0.0130288,-0.0445637,0.672803,-1.04605,-0.213452,0.803868,-1.15651,-0.202915,0.799351,2.04255,-0.436778,1.61919,-3.03292,0.318852,2.54953,-3.03292,0.294506,2.54953,-0.85308,0.777283,0.561043,0.691756,0.480728,-0.392714,-0.410833,1
1.53711,-0.878569,-1.61075,-0.83554,2.2754,1.24042,-1.18767,1.53711,-0.878569,-1.61075,-0.83554,2.2754,1.24042,-1.18767,1.62255,-0.95711,-1.66458,-0.90447,2.22833,1.29158,-1.15358,-0.80344,0.740261,0.846606,1.11275,0.900081,0.374678,-0.875739,-0.80344,0.740261,0.846606,1.11275,0.900081,0.374678,-0.875739,0.328686,-0.542359,0.860226,0.744274,0.00491731,-0.0519166,0.665835,-0.960044,-0.10937,0.826589,-1.06301,-0.0953239,0.820346,2.01074,-0.43415,1.64367,-3.18036,0.262767,2.44756,-3.18036,0.291581,2.44756,-0.854392,0.785407,0.538229,0.689303,0.470648,-0.511564,-0.340839,1
1.52833,-0.871297,-1.60453,-0.825086,2.27955,1.23337,-1.19031,1.52833,-0.871297,-1.60453,-0.825086,2.27955,1.23337,-1.19031,1.614,-0.949889,-1.65641,-0.893162,2.23729,1.29345,-1.16242,-0.883289,0.706011,0.799821,1.13193,0.89546,0.104153,-0.885818,-0.883289,0.706011,0.799821,1.13193,0.89546,0.104153,-0.885818,0.318003,-0.543711,0.868236,0.750129,-0.002161,-0.0588485,0.658664,-0.982056,-0.15986,0.790672,-1.07302,-0.151506,0.782949,1.97949,-0.431392,1.66659,-3.12514,0.275785,2.29179,-3.12514,0.285469,2.29179,-0.856697,0.785922,0.518819,0.68076,0.422563,-0.600811,-0.278833,1
1.51963,-0.864604,-1.59808,-0.814326,2.28153,1.22712,-1.19358,1.51963,-0.864604,-1.59808,-0.814326,2.28153,1.22712,-1.19358,1.60537,-0.942866,-1.64769,-0.881774,2.2464,1.29169,-1.17111,-0.846235,0.712026,0.90238,1.14265,0.910627,-0.270562,-0.858027,-0.846235,0.712026,0.90238,1.14265,0.910627,-0.270562,-0.858027,0.307642,-0.545238,0.876193,0.755601,-0.00756441,-0.065567,0.651699,-0.941338,-0.135488,0.813131,-1.02155,-0.135754,0.804296,1.94833,-0.428346,1.68822,-3.11674,0.304589,2.16353,-3.11674,0.283588,2.16353,-0.857395,0.782616,0.496154,0.674483,0.351318,-0.645761,-0.224724,1
1.51089,-0.858213,-1.59108,-0.802157,2.28464,1.21987,-1.2005,1.51089,-0.858213,-1.59108,-0.802157,2.28464,1.21987,-1.2005,1.59664,-0.935815,-1.6388,-0.870494,2.25539,1.286,-1.17902,-0.89459,0.693463,0.870442,1.13792,0.896515,-0.669136,-0.763138,-0.89459,0.693463,0.870442,1.13792,0.896515,-0.669136,-0.763138,0.297758,-0.546854,0.884123,0.760571,-0.0111662,-0.0716732,0.64519,-0.926944,-0.168941,0.78893,-0.990077,-0.177988,0.780364,1.91762,-0.425402,1.70899,-3.07089,0.294402,2.07694,-3.07089,0.285692,2.07694,-0.857427,0.77602,0.477155,0.683364,0.292557,-0.661334,-0.214786,1
1.50189,-0.851517,-1.58379,-0.790057,2.29371,1.2108,-1.20858,1.50189,-0.851517,-1.58379,-0.790057,2.29371,1.2108,-1.20858,1.58761,-0.928846,-1.63007,-0.859053,2.26424,1.27682,-1.18548,-0.889401,0.705651,0.883301,1.12599,0.870361,-0.980731,-0.602745,-0.889401,0.705651,0.883301,1.12599,0.870361,-0.980731,-0.602745,0.288122,-0.548759,0.891949,0.765052,-0.0131584,-0.0771965,0.63919,-0.893791,-0.155102,0.791487,-0.94442,-0.169822,0.7834,1.88697,-0.422512,1.72893,-3.06488,0.288993,1.99379,-3.06488,0.288987,1.99379,-0.857154,0.773286,0.462805,0.689952,0.294711,-0.660187,-0.231031,1
1.49315,-0.844151,-1.57995,-0.779588,2.29953,1.20055,-1.21004,1.49315,-0.844151,-1.57995,-0.779588,2.29953,1.20055,-1.21004,1.57889,-0.921696,-1.62164,-0.848437,2.27211,1.26588,-1.19038,-0.88831,0.72298,0.815328,1.06545,0.762026,-1.13004,-0.460519,-0.88831,0.72298,0.815328,1.06545,0.762026,-1.13004,-0.460519,0.279261,-0.550183,0.899625,0.768765,-0.0143102,-0.0816933,0.63413,-0.850534,-0.125211,0.770594,-0.888856,-0.138563,0.763904,1.8561,-0.419721,1.74803,-3.08653,0.279087,1.90996,-3.08653,0.287264,1.90996,-0.857419,0.77545,0.416896,0.688491,0.274185,-0.653331,-0.196519,1
1.48366,-0.836402,-1.57878,-0.767889,2.30175,1.18981,-1.21342,1.48366,-0.836402,-1.57878,-0.767889,2.30175,1.18981,-1.21342,1.56938,-0.914012,-1.61388,-0.837226,2.27884,1.25428,-1.19441,-0.954351,0.781511,0.781439,1.11553,0.641392,-1.16159,-0.390743,-0.954351,0.781511,0.781439,1.11553,0.641392,-1.16159,-0.390743,0.269955,-0.551468,0.907517,0.772741,-0.0155751,-0.0853239,0.628768,-0.895968,-0.0998329,0.799734,-0.931102,-0.105522,0.793851,1.82478,-0.417372,1.76626,-3.13177,0.234914,1.82266,-3.13177,0.283959,1.82266,-0.857204,0.7761,0.351069,0.693376,0.229118,-0.644737,-0.190066,1
1.47466,-0.828441,-1.5724,-0.75771,2.30629,1.17797,-1.21443,1.47466,-0.828441,-1.5724,-0.75771,2.30629,1.17797,-1.21443,1.56029,-0.906232,-1.60602,-0.826577,2.28425,1.24266,-1.19827,-0.904891,0.769035,0.773277,1.06901,0.514567,-1.16342,-0.390971,-0.904891,0.769035,0.773277,1.06901,0.514567,-1.16342,-0.390971,0.261147,-0.552081,0.915348,0.776442,-0.0169191,-0.0882607,0.623748,-0.847709,-0.0529067,0.778424,-0.877973,-0.0550174,0.773379,1.79409,-0.414636,1.78279,-3.06908,0.273657,1.65331,-3.06908,0.278207,1.65331,-0.856235,0.777916,0.336154,0.688665,0.22036,-0.646918,-0.161613,1
1.46509,-0.821096,-1.56909,-0.746113,2.3081,1.16721,-1.22058,1.46509,-0.821096,-1.56909,-0.746113,2.3081,1.16721,-1.22058,1.55066,-0.898736,-1.59901,-0.815085,2.2892,1.23131,-1.20244,-0.970459,0.749129,0.689613,1.15622,0.49313,-1.12827,-0.421615,-0.970459,0.749129,0.689613,1.15622,0.49313,-1.12827,-0.421615,0.251767,-0.553012,0.922929,0.780742,-0.0183727,-0.0910564,0.617911,-0.915622,-0.0877017,0.758515,-0.94708,-0.087265,0.753275,1.76338,-0.411508,1.79843,-3.07101,0.312805,1.56436,-3.07101,0.275674,1.56436,-0.855636,0.776397,0.29921,0.689722,0.189049,-0.641048,-0.181403,1
1.45618,-0.813069,-1.56112,-0.734412,2.31317,1.15646,-1.22213,1.45618,-0.813069,-1.56112,-0.734412,2.31317,1.15646,-1.22213,1.54174,-0.891018,-1.59201,-0.803693,2.29408,1.22012,-1.20656,-0.872581,0.776717,0.689362,1.13992,0.484194,-1.12053,-0.406155,-0.872581,0.776717,0.689362,1.13992,0.484194,-1.12053,-0.406155,0.242758,-0.553393,0.930543,0.78468,-0.0199421,-0.0937854,0.612442,-0.85978,-0.023594,0.764016,-0.890515,-0.0220356,0.758775,1.73306,-0.408814,1.81359,-3.03282,0.269336,1.51558,-3.03282,0.274495,1.51558,-0.855639,0.779499,0.308938,0.692801,0.190887,-0.636635,-0.155681,1
1.44714,-0.805795,-1.55954,-0.723798,2.3155,1.14556,-1.22672,1.44714,-0.805795,-1.55954,-0.723798,2.3155,1.14556,-1.22672,1.53269,-0.883657,-1.58608,-0.792071,2.29872,1.20902,-1.21038,-0.913269,0.726154,0.574646,1.17142,0.456907,-1.11166,-0.370873,-0.913269,0.726154,0.574646,1.17142,0.456907,-1.11166,-0.370873,0.233668,-0.553995,0.937727,0.788786,-0.0212953,-0.0962767,0.606708,-0.889016,-0.0640994,0.712795,-0.917056,-0.0623891,0.707858,1.70297,-0.406104,1.82781,-3.00858,0.271052,1.42195,-3.00858,0.274658,1.42195,-0.855496,0.778626,0.265341,0.682733,0.167851,-0.634589,-0.163372,1
1.43836,-0.797539,-1.55609,-0.712683,2.3202,1.13437,-1.22595,1.43836,-0.797539,-1.55609,-0.712683,2.3202,1.13437,-1.22595,1.52386,-0.875758,-1.58043,-0.780261,2.303,1.19782,-1.21373,-0.872257,0.808823,0.561942,1.18003,0.416026,-1.11768,-0.329922,-0.872257,0.808823,0.561942,1.18003,0.416026,-1.11768,-0.329922,0.224667,-0.554072,0.945127,0.792735,-0.022857,-0.0984078,0.601136,-0.866869,0.0110826,0.7511,-0.893371,0.0177754,0.746697,1.67263,-0.402884,1.841,-3.03434,0.321981,1.31956,-3.03434,0.281681,1.31956,-0.854984,0.782186,0.243428,0.675781,0.171993,-0.634515,-0.122146,1
1.42943,-0.789921,-1.55628,-0.701907,2.32365,1.12302,-1.22836,1.42943,-0.789921,-1.55628,-0.701907,2.32365,1.12302,-1.22836,1.51494,-0.868025,-1.57552,-0.76872,2.30677,1.18659,-1.21699,-0.901368,0.762252,0.469134,1.16738,0.37455,-1.12831,-0.323199,-0.901368,0.762252,0.469134,1.16738,0.37455,-1.12831,-0.323199,0.215831,-0.554085,0.952206,0.796777,-0.0241839,-0.100103,0.595433,-0.871278,-0.0126434,0.701024,-0.893313,-0.00631019,0.697306,1.64247,-0.400195,1.85356,-3.01591,0.268939,1.25561,-3.01591,0.287287,1.25561,-0.855113,0.781044,0.192405,0.668136,0.168757,-0.635683,-0.113691,1
1.42044,-0.7819,-1.55526,-0.690561,2.32708,1.11183,-1.22843,1.42044,-0.7819,-1.55526,-0.690561,2.32708,1.11183,-1.22843,1.50592,-0.860165,-1.57076,-0.75702,2.31032,1.1753,-1.22006,-0.894908,0.797258,0.481143,1.15093,0.345442,-1.12565,-0.304886,-0.894908,0.797258,0.481143,1.15093,0.345442,-1.12565,-0.304886,0.206885,-0.553873,0.959303,0.8008,-0.0255931,-0.101671,0.589684,-0.861708,0.0361261,0.714354,-0.882983,0.0449794,0.710869,1.612,-0.397526,1.86513,-3.04626,0.266856,1.15662,-3.04626,0.285306,1.15662,-0.854714,0.782646,0.154954,0.664586,0.167627,-0.634709,-0.0836926,1
1.41141,-0.774086,-1.55861,-0.680074,2.32766,1.10096,-1.22982,1.41141,-0.774086,-1.55861,-0.680074,2.32766,1.10096,-1.22982,1.4969,-0.852337,-1.56638,-0.745651,2.31352,1.16403,-1.22302,-0.915234,0.773553,0.411429,1.15471,0.311329,-1.11806,-0.288887,-0.915234,0.773553,0.411429,1.15471,0.311329,-1.11806,-0.288887,0.198134,-0.553448,0.966213,0.804777,-0.026886,-0.102938,0.583964,-0.87027,0.0289423,0.684393,-0.889125,0.0386259,0.681353,1.58158,-0.395021,1.87555,-3.04251,0.250483,1.04191,-3.04251,0.278376,1.04191,-0.85489,0.782512,0.0777178,0.655769,0.141363,-0.630796,-0.0679835,1
1.40224,-0.766181,-1.56502,-0.670459,2.32855,1.09074,-1.22771,1.40224,-0.766181,-1.56502,-0.670459,2.32855,1.09074,-1.22771,1.48771,-0.844757,-1.56259,-0.734455,2.31647,1.15331,-1.22542,-0.907732,0.754773,0.374384,1.09323,0.291713,-1.06153,-0.222349,-0.907732,0.754773,0.374384,1.09323,0.291713,-1.06153,-0.222349,0.189342,-0.553003,0.972801,0.808709,-0.0282502,-0.104054,0.578242,-0.845271,0.0481629,0.652385,-0.862629,0.0588735,0.649633,1.55133,-0.392022,1.88531,-3.02479,0.299913,0.976658,-3.02479,0.278214,0.976658,-0.854667,0.785753,-0.0243189,0.639964,0.120761,-0.625754,-0.0229144,1
1.39306,-0.758229,-1.57326,-0.659381,2.32846,1.08197,-1.22456,1.39306,-0.758229,-1.57326,-0.659381,2.32846,1.08197,-1.22456,1.47855,-0.836883,-1.55937,-0.723511,2.31949,1.14267,-1.22732,-0.932947,0.794286,0.299158,1.11885,0.312269,-1.06361,-0.180367,-0.932947,0.794286,0.299158,1.11885,0.312269,-1.06361,-0.180367,0.180732,-0.552231,0.979356,0.812479,-0.0296059,-0.1049,0.572711,-0.863827,0.0672272,0.658795,-0.88014,0.0797991,0.656308,1.5203,-0.389518,1.89396,-3.1028,0.250369,0.865233,-3.1028,0.273762,0.865233,-0.854887,0.786534,-0.138875,0.641295,0.0897339,-0.606946,0.0276342,1
1.38361,-0.750312,-1.57926,-0.649431,2.32938,1.07283,-1.21513,1.38361,-0.750312,-1.57926,-0.649431,2.32938,1.07283,-1.21513,1.46909,-0.82913,-1.55707,-0.712563,2.32277,1.13188,-1.22881,-0.935272,0.77251,0.203497,1.08185,0.330351,-1.09271,-0.138913,-0.935272,0.77251,0.203497,1.08185,0.330351,-1.09271,-0.138913,0.172024,-0.551596,0.985641,0.816311,-0.0306862,-0.105632,0.567042,-0.843473,0.0586572,0.620575,-0.85528,0.0688541,0.618796,1.48967,-0.386756,1.90156,-3.06317,0.276279,0.759864,-3.06317,0.26872,0.759864,-0.854808,0.78818,-0.22185,0.631324,0.0661562,-0.590448,0.136868,1
1.37457,-0.742093,-1.58582,-0.640972,2.32921,1.06307,-1.2046,1.37457,-0.742093,-1.58582,-0.640972,2.32921,1.06307,-1.2046,1.4599,-0.821219,-1.55632,-0.701434,2.32579,1.12051,-1.22984,-0.927402,0.798539,0.0197615,1.12432,0.291641,-1.14221,-0.0841393,-0.927402,0.798539,0.0197615,1.12432,0.291641,-1.14221,-0.0841393,0.163644,-0.55093,0.991761,0.820289,-0.0313297,-0.105755,0.561214,-0.835587,0.0579891,0.607649,-0.840437,0.0699686,0.607438,1.45935,-0.383649,1.9077,-3.03249,0.310627,0.61326,-3.03249,0.273855,0.61326,-0.853323,0.791264,-0.295007,0.604625,0.0342176,-0.574383,0.252428,1
1.36567,-0.733562,-1.59143,-0.633056,2.3275,1.05384,-1.19709,1.36567,-0.733562,-1.59143,-0.633056,2.3275,1.05384,-1.19709,1.45071,-0.813084,-1.55711,-0.690307,2.32823,1.10928,-1.23008,-0.905579,0.824088,-0.0984002,1.10309,0.227024,-1.1141,-0.00426629,-0.905579,0.824088,-0.0984002,1.10309,0.227024,-1.1141,-0.00426629,0.155467,-0.550092,0.997735,0.824426,-0.0319251,-0.10516,0.555197,-0.803581,0.0876393,0.596562,-0.80338,0.103448,0.597644,1.42903,-0.380764,1.91261,-3.0316,0.288531,0.491905,-3.0316,0.27963,0.491905,-0.850455,0.795225,-0.343188,0.572513,-0.00724059,-0.55437,0.329873,1
1.35673,-0.725351,-1.59782,-0.623497,2.32201,1.04532,-1.19291,1.35673,-0.725351,-1.59782,-0.623497,2.32201,1.04532,-1.19291,1.4417,-0.804874,-1.5594,-0.679488,2.32993,1.09858,-1.22941,-0.910636,0.808066,-0.283325,1.06818,0.152628,-1.05515,0.0962551,-0.910636,0.808066,-0.283325,1.06818,0.152628,-1.05515,0.0962551,0.147672,-0.54905,1.00346,0.828619,-0.0325496,-0.103824,0.549138,-0.781251,0.0807311,0.551727,-0.774534,0.0998972,0.554336,1.39886,-0.378236,1.917,-3.01715,0.252759,0.438619,-3.01715,0.281213,0.438619,-0.849744,0.795229,-0.384261,0.55991,-0.0791504,-0.532668,0.365043,1
1.34768,-0.716963,-1.6058,-0.61507,2.31105,1.04048,-1.18573,1.34768,-0.716963,-1.6058,-0.61507,2.31105,1.04048,-1.18573,1.43249,-0.796539,-1.56343,-0.668575,2.33107,1.08827,-1.22738,-0.916628,0.851627,-0.427084,1.10057,0.101912,-1.02683,0.250129,-0.916628,0.851627,-0.427084,1.10057,0.101912,-1.02683,0.250129,0.139902,-0.547951,1.00899,0.832937,-0.0332226,-0.101816,0.542904,-0.784957,0.10554,0.556535,-0.774417,0.129523,0.560109,1.36835,-0.375821,1.9204,-3.05091,0.241521,0.339997,-3.05091,0.275565,0.339997,-0.848052,0.795761,-0.423755,0.535049,-0.200226,-0.47788,0.41645,1
1.33895,-0.708347,-1.6095,-0.613097,2.30978,1.03848,-1.17728,1.33895,-0.708347,-1.6095,-0.613097,2.30978,1.03848,-1.17728,1.42335,-0.787915,-1.56871,-0.658042,2.33152,1.07823,-1.22322,-0.919061,0.849722,-0.572677,1.02726,0.017046,-1.00047,0.469447,-0.919061,0.849722,-0.572677,1.02726,0.017046,-1.00047,0.469447,0.132525,-0.546516,1.01443,0.83695,-0.0339584,-0.0990206,0.537175,-0.74249,0.115763,0.522864,-0.723716,0.142066,0.528078,1.33749,-0.372918,1.92282,-3.0857,0.290307,0.242054,-3.0857,0.275294,0.242054,-0.843981,0.795689,-0.407893,0.449445,-0.217376,-0.397482,0.459457,1
1.33013,-0.699714,-1.61035,-0.614202,2.31203,1.03564,-1.16732,1.33013,-0.699714,-1.61035,-0.614202,2.31203,1.03564,-1.16732,1.41395,-0.779377,-1.57523,-0.647392,2.3311,1.06829,-1.21721,-0.941375,0.866032,-0.661814,1.08259,-0.0676854,-0.987777,0.637271,-0.941375,0.866032,-0.661814,1.08259,-0.0676854,-0.987777,0.637271,0.125124,-0.545089,1.01969,0.840931,-0.0346652,-0.0956115,0.5315,-0.766525,0.13068,0.528454,-0.744895,0.160944,0.534158,1.30732,-0.369851,1.924,-3.01725,0.306743,0.117517,-3.01725,0.275428,0.117517,-0.83823,0.796636,-0.351248,0.331901,-0.190743,-0.326513,0.49887,1
1.32129,-0.691261,-1.60753,-0.617968,2.31716,1.03199,-1.15735,1.32129,-0.691261,-1.60753,-0.617968,2.31716,1.03199,-1.15735,1.4048,-0.770887,-1.58211,-0.637454,2.32936,1.05881,-1.21026,-0.910624,0.832345,-0.712038,0.954294,-0.220351,-0.934425,0.709833,-0.910624,0.832345,-0.712038,0.954294,-0.220351,-0.934425,0.709833,0.118306,-0.543293,1.02479,0.844756,-0.0354181,-0.0914775,0.526084,-0.687047,0.150254,0.486446,-0.657038,0.182515,0.493513,1.27761,-0.367483,1.92431,-2.97087,0.236791,0.0315309,-2.97087,0.270159,0.0315309,-0.835145,0.796263,-0.254145,0.194858,-0.121982,-0.268202,0.529088,1
1.31177,-0.683672,-1.60978,-0.610053,2.30738,1.03809,-1.1505,1.31177,-0.683672,-1.60978,-0.610053,2.30738,1.03809,-1.1505,1.39537,-0.762825,-1.58974,-0.627688,2.3257,1.04994,-1.20279,-0.951729,0.810115,-0.764001,0.991576,-0.404137,-0.857955,0.757781,-0.951729,0.810115,-0.764001,0.991576,-0.404137,-0.857955,0.757781,0.111571,-0.541491,1.02958,0.84895,-0.0362304,-0.0865457,0.520078,-0.716069,0.157944,0.476384,-0.682693,0.196624,0.483779,1.24755,-0.365242,1.92398,-3.00612,0.22406,-0.0332832,-3.00612,0.26444,-0.0332832,-0.83592,0.791524,-0.200361,0.176347,-0.183272,-0.118513,0.522915,1
1.30278,-0.675939,-1.59859,-0.617994,2.29846,1.05339,-1.14234,1.30278,-0.675939,-1.59859,-0.617994,2.29846,1.05339,-1.14234,1.38607,-0.754481,-1.59701,-0.618986,2.32116,1.04252,-1.19485,-0.919265,0.832753,-0.715837,0.82017,-0.45539,-0.704069,0.808413,-0.919265,0.832753,-0.715837,0.82017,-0.45539,-0.704069,0.808413,0.105377,-0.538941,1.0344,0.852846,-0.0376422,-0.0811553,0.514442,-0.628735,0.228376,0.466869,-0.593498,0.271215,0.474053,1.21782,-0.362382,1.92272,-2.97265,0.286019,-0.125718,-2.97265,0.264845,-0.125718,-0.832926,0.785425,-0.0157996,0.00992237,-0.226949,0.108766,0.525098,1
1.29346,-0.668383,-1.57334,-0.634894,2.29162,1.05715,-1.13517,1.29346,-0.668383,-1.57334,-0.634894,2.29162,1.05715,-1.13517,1.37662,-0.746563,-1.60378,-0.6119,2.31757,1.03645,-1.18637,-0.954869,0.778477,-0.64778,0.672144,-0.308285,-0.56726,0.860544,-0.954869,0.778477,-0.64778,0.672144,-0.308285,-0.56726,0.860544,0.0995567,-0.53633,1.03877,0.8561,-0.0391266,-0.076169,0.509666,-0.611447,0.224726,0.421217,-0.581767,0.263605,0.426767,1.18822,-0.35933,1.92014,-2.96011,0.305241,-0.25866,-2.96011,0.268413,-0.25866,-0.831572,0.781807,0.304428,-0.229939,-0.259493,0.206987,0.51193,1
1.2842,-0.662278,-1.55998,-0.638086,2.28526,1.07754,-1.13533,1.2842,-0.662278,-1.55998,-0.638086,2.28526,1.07754,-1.13533,1.36697,-0.738631,-1.60866,-0.606801,2.31529,1.03203,-1.17739,-0.976009,0.798634,-0.440985,0.462844,-0.226564,-0.389311,0.907053,-0.976009,0.798634,-0.440985,0.462844,-0.226564,-0.389311,0.907053,0.0941609,-0.533145,1.04303,0.858341,-0.0411481,-0.0718502,0.506354,-0.551329,0.301309,0.422025,-0.527834,0.342234,0.426044,1.15854,-0.356382,1.91694,-2.96816,0.294718,-0.319529,-2.96816,0.270536,-0.319529,-0.827619,0.763531,0.486842,-0.312852,-0.300248,0.455153,0.420652,1
1.27407,-0.657787,-1.55706,-0.637934,2.28996,1.08422,-1.13682,1.27407,-0.657787,-1.55706,-0.637934,2.28996,1.08422,-1.13682,1.35654,-0.731256,-1.61183,-0.603286,2.31271,1.03042,-1.16831,-1.05897,0.718881,-0.255402,0.30323,-0.278143,-0.0725628,0.904453,-1.05897,0.718881,-0.255402,0.30323,-0.278143,-0.0725628,0.904453,0.0887174,-0.52959,1.04693,0.860182,-0.0442292,-0.0678129,0.503519,-0.555261,0.322204,0.376438,-0.539357,0.37052,0.378653,1.12976,-0.353406,1.91283,-2.87784,0.297612,-0.410938,-2.87784,0.276595,-0.410938,-0.824691,0.734688,0.54765,-0.346476,-0.227462,0.538001,0.314942,1
1.26361,-0.653292,-1.55402,-0.640494,2.30553,1.08562,-1.13589,1.26361,-0.653292,-1.55402,-0.640494,2.30553,1.08562,-1.13589,1.34592,-0.724137,-1.61187,-0.60213,2.30912,1.03188,-1.15935,-1.0648,0.71416,0.080616,0.056001,-0.390619,0.202361,0.893451,-1.0648,0.71416,0.080616,0.056001,-0.390619,0.202361,0.893451,0.083941,-0.525082,1.05068,0.861229,-0.0486459,-0.0638237,0.501841,-0.46341,0.423427,0.373876,-0.452624,0.481041,0.374458,1.09975,-0.351098,1.90786,-3.00107,0.230789,-0.497019,-3.00107,0.281516,-0.497019,-0.823067,0.708451,0.578438,-0.383637,-0.0359281,0.537378,0.234528,1
1.25252,-0.650629,-1.55364,-0.651893,2.31619,1.08502,-1.13645,1.25252,-0.650629,-1.55364,-0.651893,2.31619,1.08502,-1.13645,1.33491,-0.717373,-1.60846,-0.603481,2.30438,1.03569,-1.15073,-1.11283,0.657087,0.437747,-0.202874,-0.496888,0.457689,0.841002,-1.11283,0.657087,0.437747,-0.202874,-0.496888,0.457689,0.841002,0.0798769,-0.519759,1.05423,0.861523,-0.0540381,-0.0598145,0.501279,-0.393955,0.485991,0.344699,-0.38857,0.550083,0.343405,1.06956,-0.34839,1.90207,-3.01877,0.270852,-0.578558,-3.01877,0.282312,-0.578558,-0.82392,0.667441,0.548204,-0.484122,0.118082,0.493281,0.142817,1
1.24062,-0.647324,-1.54997,-0.659612,2.31091,1.09239,-1.14491,1.24062,-0.647324,-1.54997,-0.659612,2.31091,1.09239,-1.14491,1.32335,-0.71117,-1.60131,-0.607039,2.29888,1.04267,-1.14351,-1.1745,0.601707,0.79769,-0.38704,-0.553973,0.774224,0.674285,-1.1745,0.601707,0.79769,-0.38704,-0.553973,0.774224,0.674285,0.0761347,-0.513659,1.05753,0.861256,-0.060851,-0.0561937,0.501375,-0.372062,0.550631,0.326385,-0.377746,0.623893,0.321875,1.03926,-0.345686,1.89533,-3.03087,0.270358,-0.673997,-3.03087,0.275895,-0.673997,-0.827277,0.638453,0.513338,-0.525732,0.120358,0.497177,-0.0140172,1
1.22889,-0.642506,-1.55228,-0.672248,2.30309,1.09763,-1.15684,1.22889,-0.642506,-1.55228,-0.672248,2.30309,1.09763,-1.15684,1.31116,-0.705539,-1.59167,-0.611378,2.29434,1.05206,-1.13833,-1.21937,0.559366,1.01113,-0.444338,-0.410197,0.986015,0.467061,-1.21937,0.559366,1.01113,-0.444338,-0.410197,0.986015,0.467061,0.0719592,-0.507258,1.06062,0.860783,-0.0688321,-0.0536581,0.501434,-0.400038,0.575919,0.314405,-0.419989,0.651947,0.306141,1.00921,-0.343154,1.88757,-3.005,0.253209,-0.776148,-3.005,0.267624,-0.776148,-0.822698,0.630335,0.393914,-0.6087,0.0874957,0.455633,-0.185035,1
1.22,-0.633457,-1.54502,-0.680121,2.30957,1.10563,-1.17234,1.22,-0.633457,-1.54502,-0.680121,2.30957,1.10563,-1.17234,1.29949,-0.69973,-1.58138,-0.616482,2.29289,1.06205,-1.13508,-1.1496,0.58264,1.012,-0.536895,-0.0389257,0.986422,0.278724,-1.1496,0.58264,1.012,-0.536895,-0.0389257,0.986422,0.278724,0.0680942,-0.500702,1.06362,0.859849,-0.0769028,-0.0523156,0.502005,-0.341167,0.580347,0.300535,-0.369396,0.646854,0.290337,0.979426,-0.340271,1.87845,-2.97797,0.288266,-0.912392,-2.97797,0.265175,-0.912392,-0.794948,0.662732,0.363591,-0.636391,0.166817,0.435804,-0.372549,1
1.21093,-0.632795,-1.5518,-0.685397,2.33034,1.11516,-1.1847,1.21093,-0.632795,-1.5518,-0.685397,2.33034,1.11516,-1.1847,1.28866,-0.693835,-1.57193,-0.62223,2.29571,1.07134,-1.13359,-1.05623,0.60064,0.923455,-0.589902,0.377541,0.907468,0.106279,-1.05623,0.60064,0.923455,-0.589902,0.377541,0.907468,0.106279,0.0646908,-0.494601,1.06635,0.858522,-0.0840798,-0.0523244,0.503123,-0.285534,0.553784,0.280251,-0.320411,0.606413,0.269122,0.949566,-0.337611,1.86806,-2.98605,0.266051,-1.03877,-2.98605,0.265268,-1.03877,-0.777385,0.610401,0.201352,-0.631676,0.346262,0.438166,-0.51113,1
1.19938,-0.627275,-1.58815,-0.68521,2.35268,1.10211,-1.19398,1.19938,-0.627275,-1.58815,-0.68521,2.35268,1.10211,-1.19398,1.27852,-0.687548,-1.56407,-0.62878,2.30058,1.07971,-1.13409,-1.0097,0.637732,0.734364,-0.66719,0.494894,0.811772,-0.0904472,-1.0097,0.637732,0.734364,-0.66719,0.494894,0.811772,-0.0904472,0.0621345,-0.488744,1.06887,0.857409,-0.0901983,-0.0524566,0.503946,-0.208621,0.534175,0.254835,-0.235707,0.579898,0.245069,0.920057,-0.3347,1.85694,-2.95082,0.291145,-1.11219,-2.95082,0.272032,-1.11219,-0.791423,0.602728,-0.240783,-0.564304,0.520997,0.224041,-0.598977,1
1.18728,-0.620221,-1.59684,-0.669577,2.36367,1.1016,-1.20486,1.18728,-0.620221,-1.59684,-0.669577,2.36367,1.1016,-1.20486,1.26872,-0.680583,-1.55766,-0.636026,2.30455,1.08756,-1.13671,-0.964718,0.722727,0.621038,-0.743891,0.367839,0.784231,-0.339042,-0.964718,0.722727,0.621038,-0.743891,0.367839,0.784231,-0.339042,0.0605728,-0.48263,1.07137,0.857073,-0.0956955,-0.0514837,0.503605,-0.108749,0.580622,0.260957,-0.123555,0.630074,0.252475,0.890598,-0.332076,1.84478,-2.94595,0.26238,-1.2161,-2.94595,0.273067,-1.2161,-0.814348,0.603616,-0.39179,-0.335515,0.591209,0.140382,-0.681529,1
1.17629,-0.613182,-1.60576,-0.658362,2.36375,1.09657,-1.21235,1.17629,-0.613182,-1.60576,-0.658362,2.36375,1.09657,-1.21235,1.25904,-0.673143,-1.5525,-0.643947,2.30842,1.09556,-1.14283,-0.979088,0.735418,0.463621,-0.800362,0.41453,0.80409,-0.702617,-0.979088,0.735418,0.463621,-0.800362,0.41453,0.80409,-0.702617,0.0596754,-0.476375,1.07373,0.857735,-0.100818,-0.0499841,0.501626,-0.078742,0.559056,0.228232,-0.0881384,0.607283,0.220354,0.860135,-0.329572,1.83146,-3.04635,0.250402,-1.33191,-3.04635,0.271687,-1.33191,-0.827474,0.599614,-0.532612,-0.144153,0.553262,0.0101239,-0.695159,1
1.1657,-0.605514,-1.60132,-0.639997,2.36895,1.08727,-1.22186,1.1657,-0.605514,-1.60132,-0.639997,2.36895,1.08727,-1.22186,1.24928,-0.665994,-1.54941,-0.652599,2.31393,1.10371,-1.15206,-0.965461,0.723266,0.26324,-0.884278,0.597596,0.808344,-0.979315,-0.965461,0.723266,0.26324,-0.884278,0.597596,0.808344,-0.979315,0.0590337,-0.470856,1.07549,0.859283,-0.105086,-0.0487528,0.49821,-0.039853,0.502207,0.173603,-0.0463434,0.543309,0.16677,0.830001,-0.327049,1.81724,-3.01334,0.252268,-1.42224,-3.01334,0.268751,-1.42224,-0.835849,0.604802,-0.519003,0.12602,0.550227,-0.164401,-0.697966,1
1.15585,-0.597099,-1.59911,-0.64687,2.37487,1.08082,-1.23027,1.15585,-0.597099,-1.59911,-0.64687,2.37487,1.08082,-1.23027,1.23962,-0.658659,-1.54964,-0.661119,2.32156,1.10998,-1.16273,-0.969488,0.732302,-0.12422,-0.806139,0.83443,0.565178,-1.08443,-0.969488,0.732302,-0.12422,-0.806139,0.83443,0.565178,-1.08443,0.0586277,-0.466311,1.0769,0.861636,-0.107655,-0.0475489,0.493693,-0.0589204,0.390899,0.136829,-0.0564773,0.417545,0.133505,0.802591,-0.32404,1.80238,-2.74106,0.300869,-1.48621,-2.74106,0.267661,-1.48621,-0.837675,0.615601,-0.494633,0.142487,0.533113,-0.291634,-0.675432,1
1.14429,-0.589181,-1.60725,-0.616422,2.36902,1.07508,-1.23631,1.14429,-0.589181,-1.60725,-0.616422,2.36902,1.07508,-1.23631,1.22984,-0.651008,-1.55387,-0.666931,2.33179,1.11406,-1.17403,-0.97264,0.781858,-0.525521,-0.508371,1.07738,0.348198,-1.14355,-0.97264,0.781858,-0.525521,-0.508371,1.07738,0.348198,-1.14355,0.0571881,-0.462859,1.07837,0.865042,-0.109065,-0.0469039,0.48745,-0.168015,0.305318,0.153762,-0.163332,0.323628,0.151972,0.771386,-0.32254,1.78634,-3.1205,0.15007,-1.60311,-3.1205,0.255568,-1.60311,-0.855545,0.61827,-0.53382,0.505091,0.372269,-0.389838,-0.622816,1
1.13455,-0.579529,-1.61301,-0.611093,2.37268,1.07054,-1.2434,1.13455,-0.579529,-1.61301,-0.611093,2.37268,1.07054,-1.2434,1.22081,-0.642489,-1.56201,-0.670116,2.34324,1.11538,-1.18552,-0.877411,0.877003,-0.898156,-0.22459,1.15084,0.0621517,-1.14234,-0.877411,0.877003,-0.898156,-0.22459,1.15084,0.0621517,-1.14234,0.0554744,-0.459984,1.08019,0.869329,-0.109287,-0.0460266,0.479797,-0.198116,0.268872,0.197259,-0.184456,0.281642,0.197941,0.741679,-0.320092,1.76985,-2.9707,0.244737,-1.64973,-2.9707,0.244376,-1.64973,-0.862577,0.629598,-0.509991,0.590221,0.2944,-0.448421,-0.578855,1
1.12721,-0.568334,-1.62464,-0.610797,2.3892,1.05882,-1.25579,1.12721,-0.568334,-1.62464,-0.610797,2.3892,1.05882,-1.25579,1.21304,-0.633371,-1.57233,-0.669913,2.35416,1.11404,-1.19683,-0.741411,0.916664,-1.06595,0.0728504,1.06343,-0.203643,-1.13193,-0.741411,0.916664,-1.06595,0.0728504,1.06343,-0.203643,-1.13193,0.0533958,-0.457265,1.08263,0.87422,-0.109,-0.0448866,0.471002,-0.22131,0.256893,0.250857,-0.201979,0.267133,0.252897,0.71349,-0.317055,1.75194,-2.81882,0.303748,-1.79087,-2.81882,0.244754,-1.79087,-0.858334,0.650365,-0.523085,0.591157,0.350368,-0.552162,-0.589579,1
1.12111,-0.557865,-1.63605,-0.613219,2.40389,1.05012,-1.26611,1.12111,-0.557865,-1.63605,-0.613219,2.40389,1.05012,-1.26611,1.20672,-0.624407,-1.58275,-0.668016,2.36361,1.10995,-1.20812,-0.598347,0.892217,-1.00743,0.23268,0.902746,-0.473054,-1.11995,-0.598347,0.892217,-1.00743,0.23268,0.902746,-0.473054,-1.11995,0.051626,-0.454735,1.08539,0.879209,-0.107905,-0.0434889,0.462014,-0.195337,0.252562,0.285462,-0.17186,0.257388,0.288971,0.684686,-0.313825,1.73332,-2.88042,0.322929,-1.86194,-2.88042,0.254197,-1.86194,-0.85604,0.665419,-0.533065,0.547969,0.402838,-0.598374,-0.579834,1
1.11581,-0.549207,-1.65115,-0.615501,2.40965,1.04194,-1.27632,1.11581,-0.549207,-1.65115,-0.615501,2.40965,1.04194,-1.27632,1.20105,-0.616134,-1.59173,-0.66381,2.37067,1.1038,-1.21881,-0.571107,0.791935,-0.876243,0.482989,0.630318,-0.658782,-1.05278,-0.571107,0.791935,-0.876243,0.482989,0.630318,-0.658782,-1.05278,0.0493681,-0.452283,1.08855,0.884192,-0.106739,-0.0421175,0.45281,-0.276025,0.227398,0.314135,-0.252175,0.232241,0.317578,0.654855,-0.311772,1.71405,-2.98311,0.205386,-1.92721,-2.98311,0.256238,-1.92721,-0.852392,0.669275,-0.59423,0.483097,0.389811,-0.618557,-0.575136,1
1.11048,-0.543067,-1.66328,-0.624758,2.4103,1.03406,-1.28585,1.11048,-0.543067,-1.66328,-0.624758,2.4103,1.03406,-1.28585,1.19532,-0.608982,-1.60005,-0.65715,2.37524,1.09591,-1.2289,-0.565439,0.699275,-0.813626,0.72866,0.418441,-0.8305,-0.998515,-0.565439,0.699275,-0.813626,0.72866,0.418441,-0.8305,-0.998515,0.0461294,-0.450292,1.09186,0.889503,-0.105449,-0.0407227,0.442726,-0.36931,0.194069,0.336437,-0.345141,0.198155,0.339914,0.625584,-0.309788,1.69371,-2.92715,0.198409,-2.03412,-2.92715,0.252004,-2.03412,-0.848433,0.659154,-0.632274,0.323919,0.35059,-0.61843,-0.569483,1
1.10524,-0.537211,-1.67303,-0.632224,2.41006,1.0247,-1.29389,1.10524,-0.537211,-1.67303,-0.632224,2.41006,1.0247,-1.29389,1.18991,-0.602134,-1.6079,-0.64836,2.37946,1.08656,-1.23869,-0.538858,0.679694,-0.783702,0.915466,0.430962,-0.955744,-0.969238,-0.538858,0.679694,-0.783702,0.915466,0.430962,-0.955744,-0.969238,0.042148,-0.448336,1.09554,0.894775,-0.104196,-0.0398352,0.432359,-0.433588,0.195824,0.370915,-0.414311,0.197527,0.37384,0.596207,-0.307224,1.67246,-2.93763,0.256395,-2.12439,-2.93763,0.256574,-2.12439,-0.846652,0.649221,-0.651274,0.161365,0.306065,-0.618628,-0.552042,1
1.10006,-0.533064,-1.68297,-0.661497,2.41472,1.01321,-1.30339,1.10006,-0.533064,-1.68297,-0.661497,2.41472,1.01321,-1.30339,1.18436,-0.595754,-1.61634,-0.639631,2.38454,1.07645,-1.24821,-0.556271,0.621008,-0.866619,0.835257,0.547772,-1.02907,-0.954378,-0.556271,0.621008,-0.866619,0.835257,0.547772,-1.02907,-0.954378,0.0379718,-0.446887,1.09899,0.899928,-0.102312,-0.0392882,0.422041,-0.42936,0.133877,0.324922,-0.409025,0.125989,0.329415,0.537572,-0.302147,1.62704,-2.94837,0.218984,-2.30722,-2.94837,0.243748,-2.30722,-0.84297,0.626906,-0.666305,-0.218663,0.301775,-0.63246,-0.551845,1
1.09414,-0.52887,-1.68911,-0.667149,2.4216,1.00566,-1.31345,1.09414,-0.52887,-1.68911,-0.667149,2.4216,1.00566,-1.31345,1.1788,-0.589599,-1.6255,-0.632863,2.39131,1.0658,-1.25802,-0.563354,0.623944,-0.936078,0.610522,0.71478,-1.07176,-0.992355,-0.563354,0.623944,-0.936078,0.610522,0.71478,-1.07176,-0.992355,0.0344591,-0.445996,1.10193,0.904795,-0.0992907,-0.0388923,0.412279,-0.350416,0.103656,0.277741,-0.326749,0.0858625,0.284116,0.537572,-0.302147,1.62704,-2.94837,0.218984,-2.30722,-2.94837,0.243748,-2.30722,-0.846644,0.607292,-0.636104,-0.342854,0.302846,-0.601438,-0.554388,1
1.08771,-0.523867,-1.69813,-0.675061,2.42632,0.995947,-1.3229,1.08771,-0.523867,-1.69813,-0.675061,2.42632,0.995947,-1.3229,1.17207,-0.582878,-1.63573,-0.62862,2.39891,1.05538,-1.2682,-0.719864,0.691258,-1.05456,0.354893,0.756331,-1.03634,-1.0247,-0.719864,0.691258,-1.05456,0.354893,0.756331,-1.03634,-1.0247,0.0316155,-0.445129,1.10452,0.909718,-0.0955812,-0.0377782,0.402306,-0.30252,0.109762,0.243043,-0.268583,0.0903724,0.250935,0.479312,-0.297122,1.57718,-2.89901,0.243831,-2.55959,-2.89901,0.248142,-2.55959,-0.843631,0.590108,-0.624049,-0.464418,0.274146,-0.594354,-0.546998,1
1.07945,-0.518474,-1.70741,-0.676971,2.43126,0.987705,-1.33329,1.07945,-0.518474,-1.70741,-0.676971,2.43126,0.987705,-1.33329,1.16356,-0.575598,-1.64678,-0.62715,2.40581,1.04532,-1.27845,-0.890671,0.735096,-1.11533,0.0717959,0.664793,-0.998455,-1.02185,-0.890671,0.735096,-1.11533,0.0717959,0.664793,-0.998455,-1.02185,0.0294512,-0.444206,1.10674,0.914871,-0.0912641,-0.0353065,0.391708,-0.243554,0.110579,0.199266,-0.196003,0.0904578,0.208722,0.450552,-0.294134,1.5509,-2.87599,0.298828,-2.62802,-2.87599,0.256931,-2.62802,-0.841055,0.571237,-0.606268,-0.49821,0.254534,-0.576104,-0.548414,1
1.06951,-0.513861,-1.71879,-0.678218,2.43434,0.980644,-1.34418,1.06951,-0.513861,-1.71879,-0.678218,2.43434,0.980644,-1.34418,1.15355,-0.568347,-1.65818,-0.628664,2.41182,1.03562,-1.28851,-1.04063,0.721302,-1.1461,-0.223477,0.586044,-0.964636,-1.00265,-1.04063,0.721302,-1.1461,-0.223477,0.586044,-0.964636,-1.00265,0.0280215,-0.44362,1.10833,0.920076,-0.0861371,-0.031693,0.380835,-0.188836,0.0705549,0.130492,-0.129788,0.0457233,0.141328,0.421343,-0.2915,1.52377,-2.92087,0.263363,-2.71282,-2.92087,0.259289,-2.71282,-0.840435,0.544857,-0.606119,-0.49554,0.225177,-0.549732,-0.556727,1
1.05826,-0.509054,-1.73036,-0.683661,2.43565,0.974675,-1.3543,1.05826,-0.509054,-1.73036,-0.683661,2.43565,0.974675,-1.3543,1.14212,-0.560924,-1.66934,-0.633059,2.41731,1.02632,-1.29833,-1.17299,0.752472,-1.09395,-0.50003,0.53226,-0.904285,-0.970017,-1.17299,0.752472,-1.09395,-0.50003,0.53226,-0.904285,-0.970017,0.0273003,-0.443201,1.10941,0.92515,-0.0803737,-0.0271892,0.369997,-0.12449,0.0730605,0.0881261,-0.0576046,0.0459602,0.0991122,0.392232,-0.288965,1.49499,-2.91109,0.253478,-2.87848,-2.91109,0.260121,-2.87848,-0.838611,0.5187,-0.610197,-0.506021,0.183404,-0.516443,-0.559708,1
1.04578,-0.505751,-1.74237,-0.691469,2.43627,0.970121,-1.36474,1.04578,-0.505751,-1.74237,-0.691469,2.43627,0.970121,-1.36474,1.1295,-0.553673,-1.67967,-0.639521,2.42219,1.0179,-1.30756,-1.28698,0.709534,-1.01315,-0.681407,0.476252,-0.821895,-0.908971,-1.28698,0.709534,-1.01315,-0.681407,0.476252,-0.821895,-0.908971,0.0268716,-0.442953,1.11002,0.929949,-0.0744439,-0.0222411,0.359387,-0.114744,0.040978,0.0353376,-0.0455658,0.0112434,0.0456672,0.363283,-0.286669,1.46561,-2.89492,0.229618,-2.93745,-2.89492,0.261589,-2.93745,-0.83711,0.479219,-0.627001,-0.519481,0.140813,-0.477824,-0.571844,1
1.03273,-0.501931,-1.75308,-0.6994,2.42715,0.967679,-1.37399,1.03273,-0.501931,-1.75308,-0.6994,2.42715,0.967679,-1.37399,1.11628,-0.546473,-1.6892,-0.646634,2.42673,1.00979,-1.31661,-1.32423,0.726779,-0.935383,-0.711631,0.45052,-0.805897,-0.913285,-1.32423,0.726779,-0.935383,-0.711631,0.45052,-0.805897,-0.913285,0.0264337,-0.442722,1.11048,0.934528,-0.0685452,-0.0172437,0.348801,-0.113032,0.0571131,0.0370043,-0.0449267,0.0270374,0.0460375,0.33452,-0.284824,1.43525,-2.87632,0.184557,-3.03679,-2.87632,0.251016,-3.03679,-0.83557,0.445413,-0.638721,-0.52766,0.00423165,-0.421082,-0.573833,1
1.01998,-0.500213,-1.76357,-0.707805,2.41002,0.971564,-1.38302,1.01998,-0.500213,-1.76357,-0.707805,2.41002,0.971564,-1.38302,1.10338,-0.539107,-1.69849,-0.653993,2.43104,1.00163,-1.32625,-1.28083,0.733333,-0.948239,-0.746049,0.417253,-0.816613,-0.984205,-1.28083,0.733333,-0.948239,-0.746049,0.417253,-0.816613,-0.984205,0.0262821,-0.442454,1.11089,0.938976,-0.0626002,-0.0121837,0.33802,-0.0785504,0.0476375,0.023063,-0.00887347,0.014753,0.0312677,0.305914,-0.282791,1.40355,-2.86061,0.20324,-3.17017,-2.86061,0.237299,-3.17017,-0.833993,0.388935,-0.650727,-0.53812,-0.210173,-0.300696,-0.567682,1
1.00826,-0.502356,-1.77457,-0.718054,2.39946,0.981826,-1.39222,1.00826,-0.502356,-1.77457,-0.718054,2.39946,0.981826,-1.39222,1.09139,-0.532006,-1.70826,-0.661297,2.43481,0.99349,-1.33659,-1.16078,0.712588,-0.977553,-0.727616,0.352767,-0.809519,-1.04797,-1.16078,0.712588,-0.977553,-0.727616,0.352767,-0.809519,-1.04797,0.0264199,-0.442502,1.11107,0.943367,-0.0564803,-0.00703135,0.326832,-0.0403468,0.0294688,0.00786781,0.0294674,-0.00510861,0.0149431,0.277276,-0.280393,1.37152,-2.86378,0.239846,-3.20255,-2.86378,0.224224,-3.20255,-0.831322,0.296495,-0.663149,-0.567565,-0.353499,-0.116641,-0.556374,1
0.998127,-0.506042,-1.78582,-0.727609,2.39098,1.00779,-1.40255,0.998127,-0.506042,-1.78582,-0.727609,2.39098,1.00779,-1.40255,1.08059,-0.524811,-1.71865,-0.668619,2.43709,0.985809,-1.34724,-1.05657,0.708333,-1.05479,-0.732518,0.171484,-0.742992,-1.07028,-1.05657,0.708333,-1.05479,-0.732518,0.171484,-0.742992,-1.07028,0.0271865,-0.442534,1.11111,0.947671,-0.0505324,-0.00124345,0.315223,0.00922039,0.0203963,-0.0126838,0.0844655,-0.0118093,-0.00702108,0.248668,-0.277587,1.33917,-2.86083,0.280535,-3.23522,-2.86083,0.224148,-3.23522,-0.824605,0.187685,-0.671698,-0.589897,-0.461119,0.219791,-0.55303,1
0.990189,-0.510754,-1.79747,-0.740352,2.38184,1.02529,-1.41089,0.990189,-0.510754,-1.79747,-0.740352,2.38184,1.02529,-1.41089,1.07085,-0.517766,-1.72931,-0.676136,2.43702,0.97931,-1.3578,-0.949294,0.712168,-1.07297,-0.75125,-0.0599226,-0.620343,-1.04044,-0.949294,0.712168,-1.07297,-0.75125,-0.0599226,-0.620343,-1.04044,0.0285853,-0.44252,1.11091,0.951821,-0.0450803,0.0053903,0.303274,0.0731117,0.0339115,-0.0274403,0.153782,0.00763636,-0.0237061,0.220757,-0.273879,1.3055,-2.79106,0.370845,-3.36678,-2.79106,0.242334,-3.36678,-0.806583,0.070122,-0.681646,-0.642165,-0.551836,0.459794,-0.530929,1
0.983299,-0.520306,-1.81283,-0.751356,2.37535,1.0297,-1.41958,0.983299,-0.520306,-1.81283,-0.751356,2.37535,1.0297,-1.41958,1.0618,-0.511194,-1.74032,-0.683571,2.43412,0.974801,-1.36771,-0.8919,0.633897,-1.10907,-0.746312,-0.382508,-0.372898,-0.980801,-0.8919,0.633897,-1.10907,-0.746312,-0.382508,-0.372898,-0.980801,0.0302162,-0.442511,1.11037,0.955827,-0.0405312,0.0128866,0.290838,0.0776801,0.0115728,-0.0712421,0.163164,-0.00513484,-0.069908,0.191744,-0.272201,1.27116,-2.90129,0.16779,-3.4344,-2.90129,0.251777,-3.4344,-0.785015,-0.0911243,-0.725152,-0.677853,-0.587654,0.548956,-0.518714,1
0.978449,-0.495712,-1.82431,-0.762331,2.36826,1.03364,-1.42667,0.978449,-0.495712,-1.82431,-0.762331,2.36826,1.03364,-1.42667,1.05366,-0.505167,-1.75108,-0.691467,2.4275,0.973292,-1.37732,-0.787815,0.595523,-1.06226,-0.807122,-0.746185,-0.0788462,-0.949654,-0.787815,0.595523,-1.06226,-0.807122,-0.746185,-0.0788462,-0.949654,0.0324555,-0.442316,1.1094,0.959612,-0.0373213,0.0215352,0.278007,0.15114,0.0289835,-0.107093,0.243384,0.0250923,-0.108672,0.163144,-0.269825,1.23555,-2.86005,0.237617,-3.56096,-2.86005,0.259608,-3.56096,-0.752115,0.0945525,-0.732297,-0.708639,-0.592391,0.603438,-0.493445,1
0.96982,-0.502697,-1.83771,-0.768675,2.36885,1.03326,-1.44543,0.96982,-0.502697,-1.83771,-0.768675,2.36885,1.03326,-1.44543,1.04594,-0.499981,-1.76202,-0.700236,2.41813,0.975212,-1.38657,-0.767561,0.486008,-1.10206,-0.898516,-0.989557,0.290241,-0.923923,-0.767561,0.486008,-1.10206,-0.898516,-0.989557,0.290241,-0.923923,0.0349745,-0.442301,1.10772,0.963144,-0.0352972,0.0310387,0.264846,0.150492,-0.0191657,-0.188609,0.246155,-0.0135877,-0.193031,0.134409,-0.26792,1.19883,-2.87348,0.190473,-3.67188,-2.87348,0.254055,-3.67188,-0.761246,-0.0271561,-0.756803,-0.684395,-0.492786,0.580453,-0.588584,1
0.962826,-0.525978,-1.84956,-0.777239,2.3677,1.03825,-1.45866,0.962826,-0.525978,-1.84956,-0.777239,2.3677,1.03825,-1.45866,1.03853,-0.495618,-1.77288,-0.709792,2.40713,0.982056,-1.39596,-0.733177,0.422754,-1.08449,-0.98357,-1.1286,0.804329,-0.94462,-0.733177,0.422754,-1.08449,-0.98357,-1.1286,0.804329,-0.94462,0.0374763,-0.442196,1.10538,0.966338,-0.035249,0.0408488,0.251556,0.159638,-0.0112374,-0.245961,0.253056,0.0116363,-0.253754,0.105672,-0.265775,1.16132,-2.87369,0.214547,-3.75082,-2.87369,0.240153,-3.75082,-0.757013,-0.303606,-0.766817,-0.674464,-0.394234,0.561976,-0.627015,1
0.956171,-0.531011,-1.85975,-0.78768,2.36705,1.04801,-1.46859,0.956171,-0.531011,-1.85975,-0.78768,2.36705,1.04801,-1.46859,1.0312,-0.491914,-1.78407,-0.72063,2.39546,0.992828,-1.40545,-0.737156,0.354322,-1.12924,-1.09811,-1.17026,1.15484,-0.94782,-0.737156,0.354322,-1.12924,-1.09811,-1.17026,1.15484,-0.94782,0.0400293,-0.442286,1.10225,0.969159,-0.0364335,0.0509038,0.238352,0.151111,-0.0472881,-0.319788,0.244188,-0.0173304,-0.33028,0.0769379,-0.263243,1.12276,-2.87341,0.253141,-3.85574,-2.87341,0.226864,-3.85574,-0.750247,-0.390968,-0.756793,-0.670501,-0.284113,0.551807,-0.631394,1
0.946839,-0.534948,-1.87092,-0.797791,2.37263,1.05869,-1.47805,0.946839,-0.534948,-1.87092,-0.797791,2.37263,1.05869,-1.47805,1.02346,-0.488594,-1.79569,-0.731697,2.38425,1.00533,-1.41493,-0.78495,0.324361,-1.17374,-1.12399,-1.09299,1.25894,-0.953584,-0.78495,0.324361,-1.17374,-1.12399,-1.09299,1.25894,-0.953584,0.0420665,-0.442627,1.09874,0.971696,-0.0381449,0.0607364,0.225086,0.101606,-0.0789361,-0.353514,0.192472,-0.0504212,-0.365698,0.0491942,-0.260752,1.08382,-2.77438,0.249171,-3.89459,-2.77438,0.2191,-3.89459,-0.766198,-0.463537,-0.752306,-0.660941,-0.116167,0.533635,-0.631225,1
0.938175,-0.537781,-1.88291,-0.809707,2.37668,1.06668,-1.48903,0.938175,-0.537781,-1.88291,-0.809707,2.37668,1.06668,-1.48903,1.01578,-0.485618,-1.80715,-0.743201,2.37477,1.0176,-1.42504,-0.763989,0.292914,-1.13824,-1.13749,-0.892761,1.20503,-1.03708,-0.763989,0.292914,-1.13824,-1.13749,-0.892761,1.20503,-1.03708,0.0438464,-0.443447,1.09493,0.973914,-0.0394291,0.0698224,0.212279,0.0785866,-0.11153,-0.370692,0.162019,-0.0907612,-0.383012,0.0213102,-0.257704,1.04379,-2.7884,0.304803,-4.00262,-2.7884,0.236843,-4.00262,-0.776024,-0.52163,-0.757599,-0.665062,0.0190597,0.490818,-0.639889,1
0.929532,-0.541526,-1.89484,-0.821853,2.38309,1.07431,-1.49961,0.929532,-0.541526,-1.89484,-0.821853,2.38309,1.07431,-1.49961,1.0078,-0.483395,-1.81903,-0.754432,2.36768,1.02872,-1.43623,-0.804557,0.188001,-1.20001,-1.1296,-0.638785,1.07813,-1.13943,-0.804557,0.188001,-1.20001,-1.1296,-0.638785,1.07813,-1.13943,0.0446608,-0.445167,1.09082,0.976047,-0.0397976,0.0777093,0.199275,-0.02341,-0.215118,-0.417521,0.0511382,-0.209818,-0.428389,-0.00678794,-0.254749,1.00262,-2.80981,0.295478,-4.11673,-2.80981,0.252446,-4.11673,-0.782666,-0.581308,-0.758109,-0.674208,0.154032,0.455831,-0.633801,1
0.920276,-0.542311,-1.90746,-0.832648,2.3828,1.07727,-1.51202,0.920276,-0.542311,-1.90746,-0.832648,2.3828,1.07727,-1.51202,0.999988,-0.482113,-1.83076,-0.765359,2.36338,1.03894,-1.44802,-0.770916,0.115873,-1.16003,-1.07462,-0.348417,1.00711,-1.18946,-0.770916,0.115873,-1.16003,-1.07462,-0.348417,1.00711,-1.18946,0.044592,-0.447692,1.08648,0.977996,-0.0394039,0.0840268,0.186846,-0.0904663,-0.257858,-0.424482,-0.030423,-0.260655,-0.433315,-0.0353902,-0.251961,0.960342,-2.86023,0.278741,-4.228,-2.86023,0.269529,-4.228,-0.797118,-0.601973,-0.767043,-0.672887,0.19415,0.383293,-0.640076,1
0.91181,-0.54566,-1.91924,-0.845101,2.38599,1.07301,-1.52159,0.91181,-0.54566,-1.91924,-0.845101,2.38599,1.07301,-1.52159,0.992518,-0.481941,-1.84227,-0.776416,2.36226,1.04877,-1.45994,-0.737181,-0.0158188,-1.14671,-1.11694,-0.0368147,0.980095,-1.19004,-0.737181,-0.0158188,-1.14671,-1.11694,-0.0368147,0.980095,-1.19004,0.0437178,-0.451082,1.08176,0.97973,-0.038262,0.0886059,0.175537,-0.155432,-0.349836,-0.482542,-0.110178,-0.363856,-0.488413,-0.0635989,-0.249218,0.917051,-2.82087,0.274314,-4.32911,-2.82087,0.279415,-4.32911,-0.807084,-0.637192,-0.769674,-0.686852,0.23735,0.242406,-0.616471,1
0.904552,-0.549022,-1.93049,-0.857885,2.39608,1.05676,-1.52988,0.904552,-0.549022,-1.93049,-0.857885,2.39608,1.05676,-1.52988,0.985262,-0.482786,-1.85363,-0.787171,2.36373,1.05832,-1.47171,-0.726934,-0.110336,-1.13856,-1.07253,0.203708,0.945929,-1.17227,-0.726934,-0.110336,-1.13856,-1.07253,0.203708,0.945929,-1.17227,0.0419259,-0.455132,1.07678,0.981327,-0.0366046,0.0916268,0.16511,-0.239123,-0.402614,-0.503877,-0.207064,-0.423482,-0.507189,-0.089929,-0.246476,0.872936,-2.63301,0.274174,-4.41149,-2.63301,0.282533,-4.41149,-0.807104,-0.662362,-0.768507,-0.707144,0.323504,-0.0156212,-0.581724,1
0.894567,-0.524292,-1.939,-0.851192,2.38112,1.08895,-1.55458,0.894567,-0.524292,-1.939,-0.851192,2.38112,1.08895,-1.55458,0.978391,-0.484667,-1.8645,-0.798275,2.36722,1.06759,-1.48309,-0.669927,-0.204662,-1.05987,-1.1135,0.380936,0.911919,-1.11931,-0.669927,-0.204662,-1.05987,-1.1135,0.380936,0.911919,-1.11931,0.039632,-0.459852,1.0714,0.982752,-0.0342645,0.093384,0.155897,-0.2569,-0.449931,-0.542186,-0.235602,-0.477504,-0.543229,-0.122771,-0.23683,0.843819,-3.28423,0.964642,-2.91175,-3.28423,0.356247,-2.91175,-0.83824,-0.396241,-0.744964,-0.529178,0.138995,0.213632,-0.71494,1
0.886336,-0.528033,-1.94919,-0.841226,2.37371,1.10592,-1.5653,0.886336,-0.528033,-1.94919,-0.841226,2.37371,1.10592,-1.5653,0.971654,-0.487231,-1.8751,-0.809102,2.37145,1.07558,-1.49384,-0.682222,-0.285494,-1.0727,-1.09147,0.429409,0.753251,-1.06959,-0.682222,-0.285494,-1.0727,-1.09147,0.429409,0.753251,-1.06959,0.0368505,-0.465056,1.06587,0.984086,-0.0311107,0.094493,0.147233,-0.317568,-0.509723,-0.571643,-0.299683,-0.548313,-0.571363,-0.156075,-0.225097,0.817823,-3.3304,1.17333,-2.59957,-3.3304,0.496938,-2.59957,-0.853179,-0.408014,-0.740939,-0.321236,0.0225605,0.30344,-0.714586,1
0.879439,-0.537078,-1.95981,-0.843545,2.39082,1.10816,-1.57565,0.879439,-0.537078,-1.95981,-0.843545,2.39082,1.10816,-1.57565,0.964907,-0.490792,-1.88586,-0.820304,2.37607,1.08077,-1.50457,-0.667254,-0.373875,-1.06959,-1.11591,0.47652,0.420948,-1.0744,-0.667254,-0.373875,-1.06959,-1.11591,0.47652,0.420948,-1.0744,0.0336505,-0.471394,1.05979,0.985417,-0.0259767,0.0952527,0.138583,-0.347496,-0.596819,-0.616637,-0.331185,-0.655387,-0.615005,-0.190116,-0.212518,0.792663,-3.40403,1.25786,-2.516,-3.40403,0.688605,-2.516,-0.854678,-0.462866,-0.739508,-0.232408,0.147521,0.27388,-0.710777,1
0.873137,-0.546368,-1.9705,-0.85344,2.41524,1.09292,-1.58601,0.873137,-0.546368,-1.9705,-0.85344,2.41524,1.09292,-1.58601,0.9582,-0.494922,-1.89675,-0.83155,2.38098,1.08276,-1.51543,-0.67387,-0.425514,-1.09568,-1.13416,0.465303,0.169285,-1.0975,-0.67387,-0.425514,-1.09568,-1.13416,0.465303,0.169285,-1.0975,0.0301358,-0.47858,1.05341,0.986725,-0.0189572,0.095796,0.12976,-0.377196,-0.655852,-0.654129,-0.3599,-0.729485,-0.652701,-0.224119,-0.199454,0.76542,-3.40036,1.30641,-2.7243,-3.40036,0.901078,-2.7243,-0.850628,-0.514461,-0.737537,-0.218902,0.34254,0.101634,-0.705796,1
0.866155,-0.553685,-1.98024,-0.848411,2.42648,1.08179,-1.59586,0.866155,-0.553685,-1.98024,-0.848411,2.42648,1.08179,-1.59586,0.951119,-0.499136,-1.90778,-0.841856,2.38338,1.08562,-1.52728,-0.735611,-0.411421,-1.1205,-0.959123,0.155964,0.339901,-1.21921,-0.735611,-0.411421,-1.1205,-0.959123,0.155964,0.339901,-1.21921,0.0262458,-0.485357,1.04709,0.988,-0.0128037,0.0971755,0.119372,-0.445463,-0.586536,-0.614043,-0.421721,-0.645872,-0.615683,-0.258219,-0.186533,0.737639,-3.40998,1.29213,-2.77814,-3.40998,1.09433,-2.77814,-0.849631,-0.545488,-0.724584,-0.0655555,0.430993,-0.038319,-0.685825,1
0.857752,-0.562899,-1.98958,-0.834606,2.43188,1.07724,-1.60471,0.857752,-0.562899,-1.98958,-0.834606,2.43188,1.07724,-1.60471,0.943202,-0.503596,-1.91931,-0.849686,2.38347,1.0907,-1.54024,-0.789455,-0.469447,-1.14962,-0.760034,-0.00126551,0.55137,-1.31255,-0.789455,-0.469447,-1.14962,-0.760034,-0.00126551,0.55137,-1.31255,0.0210859,-0.491363,1.04122,0.98931,-0.00861421,0.099003,0.106728,-0.560566,-0.549162,-0.589251,-0.538602,-0.595541,-0.591792,-0.291521,-0.173444,0.708303,-3.33024,1.30886,-2.93362,-3.33024,1.23334,-2.93362,-0.854503,-0.593029,-0.702677,0.150804,0.484085,-0.134552,-0.644765,1
0.850103,-0.567391,-2.00017,-0.824646,2.43303,1.07689,-1.61924,0.850103,-0.567391,-2.00017,-0.824646,2.43303,1.07689,-1.61924,0.936012,-0.508796,-1.93079,-0.855946,2.38451,1.09645,-1.55354,-0.697718,-0.537684,-1.15772,-0.581857,0.160566,0.53742,-1.33063,-0.697718,-0.537684,-1.15772,-0.581857,0.160566,0.53742,-1.33063,0.015196,-0.49724,1.03554,0.990524,-0.00507055,0.099837,0.0941746,-0.623808,-0.547572,-0.564026,-0.61448,-0.592625,-0.564573,-0.325675,-0.160721,0.678247,-3.41535,1.27231,-3.00559,-3.41535,1.27721,-3.00559,-0.859096,-0.585955,-0.693859,0.312998,0.485251,-0.195647,-0.656942,1
0.843267,-0.572387,-2.01247,-0.824657,2.43557,1.07485,-1.63389,0.843267,-0.572387,-2.01247,-0.824657,2.43557,1.07485,-1.63389,0.929289,-0.514398,-1.9428,-0.861312,2.38879,1.09949,-1.56659,-0.66596,-0.552448,-1.2033,-0.515645,0.523363,0.217293,-1.29234,-0.66596,-0.552448,-1.2033,-0.515645,0.523363,0.217293,-1.29234,0.00848171,-0.50369,1.02993,0.991676,-6.24335e-05,0.0991569,0.0821326,-0.685024,-0.585537,-0.554896,-0.689766,-0.647094,-0.552914,-0.35977,-0.148108,0.646852,-3.40948,1.26134,-3.13948,-3.40948,1.28775,-3.13948,-0.86022,-0.579895,-0.696674,0.366543,0.467791,-0.246462,-0.672931,1
0.836735,-0.576268,-2.02497,-0.829692,2.44144,1.06914,-1.64734,0.836735,-0.576268,-2.02497,-0.829692,2.44144,1.06914,-1.64734,0.922684,-0.519194,-1.95432,-0.865277,2.39673,1.09916,-1.57893,-0.661622,-0.462664,-1.13174,-0.343903,0.876324,-0.102235,-1.20405,-0.661622,-0.462664,-1.13174,-0.343903,0.876324,-0.102235,-1.20405,0.00123779,-0.509828,1.02519,0.992744,0.00593718,0.0969141,0.0709402,-0.726792,-0.528587,-0.452075,-0.746957,-0.59669,-0.447966,-0.393976,-0.136209,0.614461,-3.42064,1.18984,-3.23908,-3.42064,1.27654,-3.23908,-0.859487,-0.570748,-0.706502,0.355847,0.447014,-0.300242,-0.684171,1
0.829885,-0.582808,-2.03663,-0.839472,2.45065,1.06142,-1.65726,0.829885,-0.582808,-2.03663,-0.839472,2.45065,1.06142,-1.65726,0.915664,-0.523992,-1.96541,-0.86636,2.40671,1.09652,-1.59015,-0.717455,-0.498544,-1.11329,-0.0294925,1.01745,-0.309138,-1.10524,-0.717455,-0.498544,-1.11329,-0.0294925,1.01745,-0.309138,-1.10524,-0.00737546,-0.515577,1.02144,0.99377,0.0120972,0.0932651,0.0598086,-0.875611,-0.499981,-0.366331,-0.908778,-0.569234,-0.360932,-0.426204,-0.124084,0.581576,-3.22281,1.21256,-3.28854,-3.22281,1.25748,-3.28854,-0.857789,-0.58816,-0.71215,0.268874,0.439416,-0.351021,-0.671102,1
0.822554,-0.587869,-2.04799,-0.837383,2.45766,1.05611,-1.66839,0.822554,-0.587869,-2.04799,-0.837383,2.45766,1.05611,-1.66839,0.908419,-0.529744,-1.97684,-0.864617,2.41662,1.09222,-1.60123,-0.713079,-0.597776,-1.14494,0.237066,0.973182,-0.459954,-1.11615,-0.713079,-0.597776,-1.14494,0.237066,0.973182,-0.459954,-1.11615,-0.0174629,-0.521414,1.01808,0.994722,0.0184253,0.0889673,0.0476719,-0.993667,-0.507071,-0.334678,-1.03276,-0.577647,-0.329595,-0.460254,-0.111277,0.548495,-3.40501,1.28066,-3.30802,-3.40501,1.24643,-3.30802,-0.858654,-0.581245,-0.711456,0.272344,0.410415,-0.361121,-0.671566,1
0.816212,-0.5941,-2.05829,-0.827921,2.46742,1.05361,-1.67975,0.816212,-0.5941,-2.05829,-0.827921,2.46742,1.05361,-1.67975,0.902152,-0.535834,-1.98794,-0.861367,2.42508,1.08697,-1.61271,-0.599298,-0.605626,-1.09767,0.34356,0.796578,-0.537458,-1.15294,-0.599298,-0.605626,-1.09767,0.34356,0.796578,-0.537458,-1.15294,-0.0274193,-0.527001,1.015,0.995459,0.0245552,0.0849552,0.0352203,-0.943773,-0.476252,-0.306765,-0.979417,-0.543379,-0.303503,-0.493057,-0.099349,0.513718,-3.28029,1.19281,-3.47771,-3.28029,1.23285,-3.47771,-0.859402,-0.582665,-0.70349,0.33446,0.423444,-0.333552,-0.670409,1
0.81038,-0.599422,-2.06901,-0.82088,2.47411,1.04926,-1.69188,0.81038,-0.599422,-2.06901,-0.82088,2.47411,1.04926,-1.69188,0.896397,-0.541676,-1.99885,-0.858289,2.432,1.08119,-1.6243,-0.574262,-0.573004,-1.08993,0.279767,0.671593,-0.589986,-1.16792,-0.574262,-0.573004,-1.08993,0.279767,0.671593,-0.589986,-1.16792,-0.036756,-0.532364,1.01188,0.995917,0.0307677,0.081769,0.0227143,-0.890569,-0.461271,-0.321119,-0.92024,-0.530058,-0.320191,-0.52658,-0.0856973,0.478438,-3.35228,1.36517,-3.52805,-3.35228,1.24115,-3.52805,-0.860169,-0.577455,-0.701586,0.374087,0.421144,-0.319286,-0.675732,1
0.803994,-0.604803,-2.0799,-0.817214,2.48024,1.04196,-1.7042,0.803994,-0.604803,-2.0799,-0.817214,2.48024,1.04196,-1.7042,0.889957,-0.546855,-2.00975,-0.855761,2.43873,1.07496,-1.63634,-0.679007,-0.504069,-1.09368,0.247121,0.678496,-0.631021,-1.21501,-0.679007,-0.504069,-1.09368,0.247121,0.678496,-0.631021,-1.21501,-0.0460584,-0.537385,1.0088,0.996133,0.0371623,0.0790182,0.00972033,-0.918086,-0.418867,-0.30753,-0.947003,-0.488324,-0.308,-0.560593,-0.072526,0.441588,-3.40132,1.31713,-3.68496,-3.40132,1.25894,-3.68496,-0.859626,-0.579477,-0.701516,0.385468,0.415092,-0.329922,-0.678549,1
0.796152,-0.610849,-2.09089,-0.815775,2.48612,1.03362,-1.71616,0.796152,-0.610849,-2.09089,-0.815775,2.48612,1.03362,-1.71616,0.882013,-0.551896,-2.02069,-0.852893,2.44581,1.06878,-1.64868,-0.82994,-0.503925,-1.09263,0.313287,0.715869,-0.607735,-1.23743,-0.82994,-0.503925,-1.09263,0.313287,0.715869,-0.607735,-1.23743,-0.056354,-0.542007,1.00583,0.996145,0.043409,0.0761092,-0.0041906,-1.02784,-0.375732,-0.289548,-1.06155,-0.442112,-0.290243,-0.594438,-0.0596318,0.403983,-3.38447,1.28942,-3.76056,-3.38447,1.2801,-3.76056,-0.858604,-0.589527,-0.702018,0.371178,0.403115,-0.351643,-0.674888,1
0.787517,-0.618145,-2.10269,-0.81691,2.49222,1.02603,-1.72761,0.787517,-0.618145,-2.10269,-0.81691,2.49222,1.02603,-1.72761,0.873181,-0.557131,-2.03182,-0.84909,2.45323,1.06295,-1.66099,-0.895675,-0.534414,-1.12519,0.410314,0.752091,-0.575401,-1.22759,-0.895675,-0.534414,-1.12519,0.410314,0.752091,-0.575401,-1.22759,-0.067654,-0.546223,1.00301,0.995948,0.0492705,0.0728554,-0.0187444,-1.11883,-0.345543,-0.280218,-1.15786,-0.408226,-0.280961,-0.628256,-0.0478362,0.363784,-3.38175,1.17956,-4.01985,-3.38175,1.28163,-4.01985,-0.856641,-0.610146,-0.708653,0.321802,0.389855,-0.369181,-0.66621,1
0.778729,-0.624736,-2.11383,-0.812788,2.50017,1.02062,-1.73904,0.778729,-0.624736,-2.11383,-0.812788,2.50017,1.02062,-1.73904,0.864359,-0.562777,-2.04321,-0.844519,2.46092,1.05733,-1.67319,-0.863916,-0.574119,-1.13201,0.452967,0.768102,-0.56084,-1.21836,-0.863916,-0.574119,-1.13201,0.452967,0.768102,-0.56084,-1.21836,-0.0795067,-0.550231,1.00018,0.995522,0.0549284,0.0692903,-0.0334372,-1.1378,-0.333682,-0.290243,-1.18049,-0.394234,-0.291432,-0.660972,-0.0361974,0.323549,-3.27168,1.16387,-4.02351,-3.27168,1.26546,-4.02351,-0.856304,-0.619595,-0.706206,0.317303,0.392535,-0.367087,-0.65852,1
0.770649,-0.631029,-2.12508,-0.807527,2.507,1.01605,-1.75114,0.770649,-0.631029,-2.12508,-0.807527,2.507,1.01605,-1.75114,0.856313,-0.568852,-2.05437,-0.840118,2.46844,1.0515,-1.68535,-0.794382,-0.624238,-1.11715,0.441222,0.748966,-0.590945,-1.21614,-0.794382,-0.624238,-1.11715,0.441222,0.748966,-0.590945,-1.21614,-0.0910723,-0.554314,0.997046,0.994845,0.0608335,0.0657093,-0.0475865,-1.11685,-0.344828,-0.322049,-1.16121,-0.406849,-0.324439,-0.693749,-0.0258571,0.283674,-3.27772,1.03403,-3.98749,-3.27772,1.22916,-3.98749,-0.856633,-0.621773,-0.707089,0.325912,0.385603,-0.354468,-0.65787,1
0.762536,-0.638283,-2.13647,-0.803481,2.51299,1.01038,-1.7626,0.762536,-0.638283,-2.13647,-0.803481,2.51299,1.01038,-1.7626,0.848171,-0.575404,-2.06564,-0.835631,2.47566,1.0454,-1.69737,-0.823253,-0.651095,-1.12442,0.455652,0.707432,-0.606956,-1.188,-0.823253,-0.651095,-1.12442,0.455652,0.707432,-0.606956,-1.188,-0.102959,-0.558425,0.993616,0.993893,0.0670268,0.0621648,-0.0617973,-1.14927,-0.331021,-0.33827,-1.1944,-0.393138,-0.341881,-0.72649,-0.0127364,0.243846,-3.27406,1.31207,-3.98282,-3.27406,1.19877,-3.98282,-0.856355,-0.628785,-0.708303,0.321507,0.373374,-0.350217,-0.652382,1
