Afshin1997/kuka_rl_ros2/src/catch_and_throw/output_files/tm/nn_ema7.00_jvws1_realball_D29H10M01S55/recorded_data.csv
pure_target_joint_0,pure_target_joint_1,pure_target_joint_2,pure_target_joint_3,pure_target_joint_4,pure_target_joint_5,pure_target_joint_6,target_joint_0,target_joint_1,target_joint_2,target_joint_3,target_joint_4,target_joint_5,target_joint_6,pos_joint_0,pos_joint_1,pos_joint_2,pos_joint_3,pos_joint_4,pos_joint_5,pos_joint_6,vel_joint_0,vel_joint_1,vel_joint_2,vel_joint_3,vel_joint_4,vel_joint_5,vel_joint_6,vel_smooth_joint_0,vel_smooth_joint_1,vel_smooth_joint_2,vel_smooth_joint_3,vel_smooth_joint_4,vel_smooth_joint_5,vel_smooth_joint_6,ee_pos_x,ee_pos_y,ee_pos_z,ee_or_w,ee_or_x,ee_or_y,ee_or_z,eep_vel_x,eep_vel_y,eep_vel_z,ee_vel_offset_x,ee_vel_offset_y,ee_vel_offset_z,ball_pos_x,ball_pos_y,ball_pos_z,ball_raw_vx,ball_raw_vy,ball_raw_vz,ball_ema_vx,ball_ema_vy,ball_ema_vz,action_0,action_1,action_2,action_3,action_4,action_5,action_6,command_published
1.83267,-1.05912,-1.77359,-1.06333,2.00939,1.18369,-0.982674,1.83267,-1.05912,-1.77359,-1.06333,2.00939,1.18369,-0.982674,1.78079,-1.0717,-1.81813,-1.11935,1.93724,1.11687,-0.916346,1.1977e-05,1.1977e-05,-1.1977e-05,2.39759e-05,1.91633e-05,0,1.1977e-05,1.1977e-05,1.1977e-05,-1.1977e-05,2.39759e-05,1.91633e-05,0,1.1977e-05,0.533725,-0.456194,0.691123,0.57315,0.179053,0.151586,0.785151,8.70116e-07,-3.09031e-06,8.48341e-06,4.77948e-07,-3.42411e-06,8.69619e-06,2.97561,-0.510371,0.429806,-3.17619,0.0472367,5.00749,-3.17619,0.0610956,5.00749,0.518741,0.125767,0.445402,0.56013,0.721525,0.668239,-0.663282,1
1.83573,-1.05736,-1.77122,-1.06293,2.00976,1.18345,-0.982563,1.83573,-1.05736,-1.77122,-1.06293,2.00976,1.18345,-0.982563,1.78079,-1.0717,-1.81813,-1.11935,1.93724,1.11687,-0.916346,-1.19994e-05,0,1.19776e-05,0,0,0,-2.39771e-05,-1.19994e-05,0,1.19776e-05,0,0,0,-2.39771e-05,0.533725,-0.456193,0.691123,0.57315,0.179053,0.151586,0.785151,-6.05399e-06,-3.89097e-06,4.2685e-06,-6.47006e-06,-4.11424e-06,4.48942e-06,2.9447,-0.509736,0.479154,-3.09157,0.0635028,4.93483,-3.09157,0.0650465,4.93483,0.549374,0.143391,0.469146,0.564104,0.725166,0.665829,-0.662171,1
1.83451,-1.0587,-1.76945,-1.06214,2.0095,1.18326,-0.982323,1.83451,-1.0587,-1.76945,-1.06214,2.0095,1.18326,-0.982323,1.78079,-1.07168,-1.81811,-1.11934,1.93724,1.11687,-0.916346,-0.00106662,0.00291224,0.00455414,0.00173776,0,9.58864e-05,-8.39088e-05,-0.00106662,0.00291224,0.00455414,0.00173776,0,9.58864e-05,-8.39088e-05,0.533718,-0.45619,0.691142,0.573154,0.179039,0.151582,0.785152,-0.00117281,0.000578216,0.00365662,-0.00139926,0.000665644,0.00376915,2.91359,-0.50854,0.529148,-3.11038,0.119543,4.99943,-3.11038,0.0695682,4.99943,0.537227,0.129846,0.486555,0.571921,0.722591,0.663923,-0.659761,1
1.82128,-1.04903,-1.76959,-1.05594,2.00888,1.18261,-0.984561,1.82128,-1.04903,-1.76959,-1.05594,2.00888,1.18261,-0.984561,1.7808,-1.07139,-1.8175,-1.11907,1.93817,1.1179,-0.917529,0.00165387,0.0471112,0.108028,0.0593474,0.167841,0.182692,-0.211922,0.00165387,0.0471112,0.108028,0.0593474,0.167841,0.182692,-0.211922,0.533415,-0.456136,0.6917,0.573621,0.178266,0.151009,0.785097,-0.0416791,0.00442983,0.0917743,-0.0563847,0.00227545,0.0993337,2.88254,-0.507299,0.578098,-3.10533,0.124156,4.89497,-3.10533,0.0802557,4.89497,0.40474,0.223609,0.479095,0.631283,0.707156,0.64715,-0.670318,1
1.7247,-1.04041,-1.76173,-1.04466,2.01358,1.18835,-0.995821,1.7247,-1.04041,-1.76173,-1.04466,2.01358,1.18835,-0.995821,1.78075,-1.07096,-1.81466,-1.1168,1.94468,1.12384,-0.924742,-0.0024089,0.0157117,0.325895,0.281073,0.835657,0.73078,-0.892655,-0.0024089,0.0157117,0.325895,0.281073,0.835657,0.73078,-0.892655,0.531551,-0.456909,0.694168,0.576689,0.174523,0.146811,0.784486,-0.16859,-0.0929306,0.245266,-0.225287,-0.116168,0.274061,2.85077,-0.506311,0.625233,-3.17657,0.0987232,4.7135,-3.17657,0.0893552,4.7135,-0.560477,0.305504,0.529335,0.721448,0.688984,0.64516,-0.710786,1
1.71547,-1.03253,-1.75044,-1.03754,2.0265,1.19149,-1.00833,1.71547,-1.03253,-1.75044,-1.03754,2.0265,1.19149,-1.00833,1.78169,-1.07189,-1.80987,-1.11198,1.95813,1.13454,-0.937685,0.138493,-0.125082,0.539627,0.563416,1.49268,1.16164,-1.39752,0.138493,-0.125082,0.539627,0.563416,1.49268,1.16164,-1.39752,0.528575,-0.458947,0.697704,0.581809,0.168644,0.137885,0.78361,-0.22264,-0.178975,0.337978,-0.317811,-0.227764,0.383711,2.82004,-0.505568,0.671442,-3.07302,0.0743687,4.62084,-3.07302,0.0942194,4.62084,-0.662173,0.3936,0.594286,0.744403,0.683723,0.56951,-0.706465,1
1.70502,-1.03091,-1.74099,-1.02848,2.03901,1.20796,-1.02496,1.70502,-1.03091,-1.74099,-1.02848,2.03901,1.20796,-1.02496,1.78456,-1.07384,-1.80324,-1.10411,1.97521,1.14713,-0.95265,0.333949,-0.21233,0.687624,0.853166,1.73519,1.26899,-1.49327,0.333949,-0.21233,0.687624,0.853166,1.73519,1.26899,-1.49327,0.525332,-0.461563,0.702195,0.587519,0.161569,0.125865,0.782863,-0.208424,-0.208721,0.407109,-0.323026,-0.269629,0.457737,2.78782,-0.504562,0.717195,-3.22261,0.100577,4.57534,-3.22261,0.099967,4.57534,-0.795417,0.429294,0.622491,0.756331,0.637956,0.608283,-0.723062,1
1.7081,-1.02798,-1.73587,-1.01834,2.05554,1.21703,-1.03794,1.7081,-1.02798,-1.73587,-1.01834,2.05554,1.21703,-1.03794,1.78878,-1.07567,-1.79601,-1.0939,1.99124,1.15895,-0.966288,0.443283,-0.160641,0.732734,1.04764,1.52564,1.14433,-1.30407,0.443283,-0.160641,0.732734,1.04764,1.52564,1.14433,-1.30407,0.522281,-0.464126,0.707302,0.592983,0.154187,0.113758,0.782085,-0.183608,-0.185045,0.474619,-0.2981,-0.238605,0.520806,2.7557,-0.503555,0.76089,-3.21121,0.100738,4.36949,-3.21121,0.100824,4.36949,-0.806728,0.476941,0.601435,0.755563,0.643012,0.580847,-0.716567,1
1.71323,-1.0247,-1.72835,-1.00769,2.06842,1.22794,-1.04841,1.71323,-1.0247,-1.72835,-1.00769,2.06842,1.22794,-1.04841,1.79359,-1.07615,-1.78826,-1.08287,2.00401,1.16931,-0.977886,0.483611,-0.00921609,0.802124,1.12948,1.20545,1.01105,-1.13034,0.483611,-0.00921609,0.802124,1.12948,1.20545,1.01105,-1.13034,0.519471,-0.465747,0.713247,0.597873,0.146369,0.103226,0.781325,-0.176732,-0.106952,0.580642,-0.288545,-0.144385,0.622168,2.72464,-0.50231,0.803393,-3.10624,0.124443,4.2503,-3.10624,0.099742,4.2503,-0.803545,0.51454,0.599117,0.751715,0.644114,0.586348,-0.705238,1
1.71616,-1.0193,-1.72317,-0.995315,2.07717,1.23628,-1.05796,1.71616,-1.0193,-1.72317,-0.995315,2.07717,1.23628,-1.05796,1.7978,-1.0755,-1.78006,-1.07103,2.01469,1.17828,-0.988763,0.39477,0.0792656,0.812167,1.17291,1.02146,0.859674,-1.07259,0.39477,0.0792656,0.812167,1.17291,1.02146,0.859674,-1.07259,0.516295,-0.467276,0.719927,0.603056,0.13833,0.0937084,0.780004,-0.219209,-0.124183,0.624851,-0.32569,-0.155181,0.661256,2.69264,-0.501227,0.845524,-3.20015,0.108337,4.21311,-3.20015,0.100826,4.21311,-0.816464,0.562066,0.568823,0.757105,0.624869,0.579963,-0.691938,1
1.71916,-1.0146,-1.71558,-0.983414,2.08566,1.24324,-1.06767,1.71916,-1.0146,-1.71558,-0.983414,2.08566,1.24324,-1.06767,1.80131,-1.07426,-1.77203,-1.0591,2.02408,1.18639,-0.999556,0.339138,0.144893,0.808116,1.20611,0.928158,0.810957,-1.09684,0.339138,0.144893,0.808116,1.20611,0.928158,0.810957,-1.09684,0.512825,-0.468885,0.726708,0.608559,0.130437,0.0849404,0.778092,-0.256978,-0.134951,0.65545,-0.362481,-0.16161,0.688674,2.66099,-0.500358,0.886048,-3.16515,0.0869155,4.05241,-3.16515,0.10284,4.05241,-0.821439,0.596545,0.564587,0.756879,0.61577,0.568504,-0.681146,1
1.72252,-1.01246,-1.70542,-0.972408,2.09636,1.2526,-1.07942,1.72252,-1.01246,-1.70542,-0.972408,2.09636,1.2526,-1.07942,1.80443,-1.07238,-1.76389,-1.04752,2.03395,1.195,-1.01134,0.307331,0.192268,0.805803,1.14358,1.01259,0.873923,-1.208,0.307331,0.192268,0.805803,1.14358,1.01259,0.873923,-1.208,0.508969,-0.470357,0.73372,0.614364,0.122247,0.0759888,0.775783,-0.28398,-0.120486,0.66088,-0.39319,-0.147923,0.692203,2.63021,-0.499741,0.925683,-3.07841,0.0616163,3.9635,-3.07841,0.100769,3.9635,-0.819194,0.599242,0.584673,0.751155,0.624153,0.576042,-0.680808,1
1.72549,-1.0091,-1.69737,-0.961166,2.107,1.26232,-1.09179,1.72549,-1.0091,-1.69737,-0.961166,2.107,1.26232,-1.09179,1.80744,-1.07001,-1.75597,-1.0362,2.04499,1.20418,-1.02398,0.297444,0.257056,0.788366,1.12911,1.13176,0.932216,-1.26912,0.297444,0.257056,0.788366,1.12911,1.13176,0.932216,-1.26912,0.504832,-0.471797,0.740793,0.620329,0.113985,0.0665692,0.773154,-0.31068,-0.111527,0.681339,-0.424622,-0.140495,0.710742,2.59889,-0.498973,0.964841,-3.13172,0.0768185,3.91577,-3.13172,0.0940886,3.91577,-0.819413,0.609123,0.585982,0.750335,0.620165,0.581365,-0.678171,1
1.72853,-1.0053,-1.69039,-0.950419,2.11734,1.2724,-1.10404,1.72853,-1.0053,-1.69039,-0.950419,2.11734,1.2724,-1.10404,1.81049,-1.06698,-1.7482,-1.02542,2.05651,1.21351,-1.03645,0.310001,0.321589,0.77523,1.07713,1.15876,0.933154,-1.24168,0.310001,0.321589,0.77523,1.07713,1.15876,0.933154,-1.24168,0.500643,-0.472854,0.747945,0.625923,0.10575,0.0570913,0.77057,-0.309537,-0.0691772,0.692681,-0.42368,-0.0962438,0.719,2.56749,-0.498067,1.00228,-3.13995,0.0906229,3.74426,-3.13995,0.0879345,3.74426,-0.819596,0.616867,0.578185,0.749967,0.608289,0.588965,-0.675826,1
1.73149,-1.00067,-1.6826,-0.939888,2.12805,1.28183,-1.11592,1.73149,-1.00067,-1.6826,-0.939888,2.12805,1.28183,-1.11592,1.8133,-1.06317,-1.74044,-1.01459,2.06809,1.22286,-1.0487,0.264953,0.397448,0.776584,1.07847,1.15138,0.937109,-1.2193,0.264953,0.397448,0.776584,1.07847,1.15138,0.937109,-1.2193,0.49614,-0.473732,0.755431,0.631444,0.0973143,0.0476362,0.767814,-0.347397,-0.0614782,0.726459,-0.463433,-0.0856431,0.750133,2.53693,-0.497405,1.03884,-3.0556,0.0662327,3.65545,-3.0556,0.0800718,3.65545,-0.818054,0.624969,0.578375,0.746966,0.599656,0.589693,-0.672144,1
1.73354,-0.995092,-1.67624,-0.9292,2.13733,1.29118,-1.12743,1.73354,-0.995092,-1.67624,-0.9292,2.13733,1.29118,-1.12743,1.81554,-1.05885,-1.73266,-1.00394,2.07938,1.2322,-1.06086,0.209204,0.444233,0.782804,1.07072,1.12116,0.932639,-1.21565,0.209204,0.444233,0.782804,1.07072,1.12116,0.932639,-1.21565,0.491274,-0.474555,0.763034,0.636987,0.0887903,0.0383128,0.764785,-0.38462,-0.0618059,0.742851,-0.501491,-0.0834065,0.763639,2.50664,-0.496236,1.07507,-3.0293,0.116846,3.62282,-3.0293,0.0805421,3.62282,-0.820024,0.637591,0.564179,0.747452,0.579475,0.589785,-0.665629,1
1.73426,-0.988356,-1.6706,-0.917919,2.14501,1.30036,-1.13829,1.73426,-0.988356,-1.6706,-0.917919,2.14501,1.30036,-1.13829,1.81685,-1.05408,-1.72439,-0.992985,2.09042,1.24155,-1.07297,0.100641,0.483229,0.837606,1.08729,1.09581,0.93766,-1.21131,0.100641,0.483229,0.837606,1.08729,1.09581,0.93766,-1.21131,0.485691,-0.475608,0.770982,0.642774,0.0799706,0.0288288,0.761325,-0.457421,-0.0894394,0.774262,-0.578067,-0.10946,0.792508,2.47543,-0.495047,1.11088,-3.12057,0.118893,3.58174,-3.12057,0.0875352,3.58174,-0.82582,0.65723,0.537915,0.750663,0.545915,0.588104,-0.653159,1
1.7345,-0.982657,-1.66294,-0.907613,2.1543,1.30975,-1.14996,1.7345,-0.982657,-1.66294,-0.907613,2.1543,1.30975,-1.14996,1.81711,-1.04917,-1.71592,-0.982173,2.10117,1.25106,-1.08512,-0.000191764,0.498125,0.850621,1.09128,1.06826,0.951885,-1.21505,-0.000191764,0.498125,0.850621,1.09128,1.06826,0.951885,-1.21505,0.479486,-0.47693,0.778901,0.648755,0.0710576,0.0192656,0.757428,-0.519244,-0.122331,0.776022,-0.641823,-0.140906,0.791276,2.44428,-0.494003,1.14469,-3.11491,0.104445,3.38103,-3.11491,0.0960659,3.38103,-0.826101,0.665085,0.529809,0.745603,0.53129,0.58695,-0.648398,1
1.73363,-0.976923,-1.65433,-0.897397,2.16315,1.31868,-1.16162,1.73363,-0.976923,-1.65433,-0.897397,2.16315,1.31868,-1.16162,1.81622,-1.04397,-1.70732,-0.971296,2.11176,1.26065,-1.09726,-0.11483,0.523543,0.85841,1.07743,1.05183,0.96001,-1.21498,-0.11483,0.523543,0.85841,1.07743,1.05183,0.96001,-1.21498,0.472558,-0.478595,0.786878,0.655018,0.0620275,0.00962045,0.753002,-0.584212,-0.152055,0.778087,-0.708071,-0.168857,0.790192,2.41373,-0.493376,1.17784,-3.05574,0.0626504,3.31423,-3.05574,0.0974159,3.31423,-0.825874,0.670522,0.52992,0.738989,0.513905,0.580331,-0.643531,1
1.7313,-0.970083,-1.65002,-0.886381,2.1685,1.32774,-1.1724,1.7313,-0.970083,-1.65002,-0.886381,2.1685,1.32774,-1.1724,1.8144,-1.03839,-1.69878,-0.960509,2.12211,1.27027,-1.10936,-0.210726,0.575889,0.85587,1.09035,1.0287,0.960789,-1.20609,-0.210726,0.575889,0.85587,1.09035,1.0287,0.960789,-1.20609,0.465071,-0.480388,0.794897,0.661443,0.0529044,7.04293e-05,0.748127,-0.646895,-0.169781,0.79764,-0.772113,-0.182995,0.80669,2.38225,-0.492462,1.21029,-3.1482,0.0914425,3.24521,-3.1482,0.096805,3.24521,-0.830908,0.68306,0.487599,0.741279,0.463882,0.574773,-0.630382,1
1.72798,-0.963429,-1.64306,-0.876609,2.17379,1.33617,-1.18375,1.72798,-0.963429,-1.64306,-0.876609,2.17379,1.33617,-1.18375,1.8112,-1.0323,-1.6904,-0.949927,2.13201,1.27987,-1.12133,-0.349081,0.610726,0.832285,1.0436,0.976146,0.963618,-1.19276,-0.349081,0.610726,0.832285,1.0436,0.976146,0.963618,-1.19276,0.45687,-0.482381,0.80296,0.668159,0.0436584,-0.00918071,0.74268,-0.711311,-0.191179,0.789727,-0.834999,-0.199698,0.795641,2.35106,-0.491152,1.24101,-3.11811,0.131026,3.0725,-3.11811,0.0999239,3.0725,-0.832177,0.688758,0.473357,0.733185,0.417776,0.562951,-0.624282,1
1.72356,-0.956734,-1.63431,-0.866976,2.1806,1.34608,-1.19517,1.72356,-0.956734,-1.63431,-0.866976,2.1806,1.34608,-1.19517,1.80679,-1.02608,-1.68209,-0.939393,2.14144,1.28954,-1.13309,-0.479226,0.624747,0.829996,1.06086,0.932064,0.965235,-1.17283,-0.479226,0.624747,0.829996,1.06086,0.932064,0.965235,-1.17283,0.448,-0.484656,0.810925,0.675096,0.0343245,-0.0182908,0.736704,-0.787112,-0.232333,0.788346,-0.911481,-0.237308,0.791208,2.31992,-0.490077,1.27049,-3.11399,0.107449,2.94749,-3.11399,0.0993193,2.94749,-0.832297,0.693461,0.477747,0.724167,0.391646,0.565325,-0.620758,1
1.71754,-0.949633,-1.6273,-0.857621,2.18833,1.35429,-1.20601,1.71754,-0.949633,-1.6273,-0.857621,2.18833,1.35429,-1.20601,1.80112,-1.01977,-1.67416,-0.929231,2.1504,1.29893,-1.14475,-0.582072,0.635856,0.779772,1.0061,0.88432,0.931764,-1.16206,-0.582072,0.635856,0.779772,1.0061,0.88432,0.931764,-1.16206,0.438643,-0.487179,0.818615,0.68225,0.025206,-0.0270105,0.730185,-0.822499,-0.245206,0.758926,-0.941971,-0.246237,0.758845,2.28903,-0.488986,1.29947,-3.08969,0.109133,2.8981,-3.08969,0.10093,2.8981,-0.835842,0.701332,0.468589,0.716097,0.379315,0.553616,-0.612632,1
1.71122,-0.941831,-1.61955,-0.848577,2.19572,1.3606,-1.21636,1.71122,-0.941831,-1.61955,-0.848577,2.19572,1.3606,-1.21636,1.79498,-1.01303,-1.66634,-0.919014,2.15876,1.30825,-1.15627,-0.633675,0.684272,0.780143,1.03134,0.819031,0.930626,-1.15004,-0.633675,0.684272,0.780143,1.03134,0.819031,0.930626,-1.15004,0.428962,-0.489491,0.826386,0.689417,0.0158901,-0.0353791,0.723325,-0.864463,-0.231543,0.780173,-0.984267,-0.226006,0.777479,2.25818,-0.488116,1.32734,-3.08516,0.0869781,2.78672,-3.08516,0.102951,2.78672,-0.837591,0.71201,0.467916,0.704364,0.369591,0.523508,-0.60091,1
1.70408,-0.934711,-1.61275,-0.840319,2.20249,1.36635,-1.2267,1.70408,-0.934711,-1.61275,-0.840319,2.20249,1.36635,-1.2267,1.78805,-1.00641,-1.65897,-0.908876,2.16628,1.31744,-1.16766,-0.705675,0.651136,0.726563,1.01136,0.734261,0.922285,-1.13595,-0.705675,0.651136,0.726563,1.01136,0.734261,0.922285,-1.13595,0.418979,-0.491921,0.833831,0.696761,0.00666037,-0.0432762,0.715966,-0.889082,-0.251996,0.733132,-1.00442,-0.242133,0.727959,2.22786,-0.487526,1.354,-3.03156,0.0589877,2.66615,-3.03156,0.101457,2.66615,-0.839654,0.716951,0.462124,0.685567,0.362087,0.489084,-0.590391,1
1.69625,-0.927322,-1.60858,-0.82913,2.20444,1.37233,-1.23653,1.69625,-0.927322,-1.60858,-0.82913,2.20444,1.37233,-1.23653,1.78064,-0.99979,-1.65158,-0.898407,2.17317,1.32666,-1.17899,-0.755348,0.671772,0.745629,1.06082,0.67787,0.922692,-1.13246,-0.755348,0.671772,0.745629,1.06082,0.67787,0.922692,-1.13246,0.40862,-0.494357,0.841201,0.704191,-0.00273494,-0.0510195,0.70817,-0.936161,-0.251024,0.747886,-1.05274,-0.235948,0.740049,2.19671,-0.486687,1.38024,-3.11508,0.0839382,2.62455,-3.11508,0.0947766,2.62455,-0.843853,0.72468,0.430042,0.692764,0.31273,0.456719,-0.575449,1
1.68822,-0.920073,-1.60259,-0.820991,2.20721,1.37742,-1.24692,1.68822,-0.920073,-1.60259,-0.820991,2.20721,1.37742,-1.24692,1.77263,-0.992967,-1.64429,-0.887878,2.17976,1.33582,-1.19022,-0.817368,0.679474,0.719946,1.05822,0.656963,0.914994,-1.12106,-0.817368,0.679474,0.719946,1.05822,0.656963,0.914994,-1.12106,0.397889,-0.496717,0.848537,0.711635,-0.0122172,-0.0585922,0.699995,-0.969987,-0.254098,0.734008,-1.08471,-0.235411,0.723613,2.1658,-0.48577,1.4048,-3.09055,0.0917226,2.45564,-3.09055,0.0870953,2.45564,-0.844139,0.728945,0.417043,0.668876,0.274484,0.416048,-0.566917,1
1.67974,-0.91317,-1.59305,-0.813406,2.21552,1.38292,-1.25769,1.67974,-0.91317,-1.59305,-0.813406,2.21552,1.38292,-1.25769,1.76411,-0.986292,-1.63681,-0.877139,2.18644,1.34484,-1.20134,-0.858176,0.662421,0.762647,1.06117,0.670558,0.897617,-1.1066,-0.858176,0.662421,0.762647,1.06117,0.670558,0.897617,-1.1066,0.386769,-0.499187,0.855728,0.718984,-0.0216312,-0.0663655,0.691513,-1.00064,-0.254774,0.723475,-1.11592,-0.235874,0.710041,2.13548,-0.48498,1.42855,-3.03245,0.0789136,2.37465,-3.03245,0.0826857,2.37465,-0.84371,0.731215,0.437595,0.637333,0.290806,0.380828,-0.563515,1
1.67083,-0.905517,-1.58713,-0.805524,2.21932,1.38369,-1.26618,1.67083,-0.905517,-1.58713,-0.805524,2.21932,1.38369,-1.26618,1.75538,-0.979668,-1.62939,-0.866749,2.1931,1.3533,-1.21221,-0.885716,0.668305,0.72782,1.04777,0.661469,0.827004,-1.08184,-0.885716,0.668305,0.72782,1.04777,0.661469,0.827004,-1.08184,0.375684,-0.501485,0.86268,0.726005,-0.0306706,-0.0739734,0.683011,-1.00596,-0.245844,0.70555,-1.11599,-0.225101,0.690095,2.10517,-0.484002,1.45217,-3.03085,0.0978261,2.36199,-3.03085,0.0820673,2.36199,-0.845513,0.741507,0.422555,0.612249,0.26215,0.303888,-0.539649,1
1.66163,-0.89738,-1.58151,-0.800134,2.22159,1.37624,-1.2732,1.66163,-0.89738,-1.58151,-0.800134,2.22159,1.37624,-1.2732,1.74612,-0.972786,-1.62226,-0.855818,2.19934,1.36125,-1.22287,-0.927542,0.692885,0.71574,1.07931,0.602773,0.787731,-1.05959,-0.927542,0.692885,0.71574,1.07931,0.602773,0.787731,-1.05959,0.364227,-0.50377,0.869678,0.733139,-0.0397143,-0.0812504,0.674039,-1.03644,-0.23387,0.711905,-1.14378,-0.207714,0.694425,2.07459,-0.48287,1.47469,-3.05851,0.113177,2.25286,-3.05851,0.0874691,2.25286,-0.844973,0.754069,0.407462,0.556839,0.222493,0.149909,-0.503315,1
1.65294,-0.889192,-1.57483,-0.797777,2.22708,1.35814,-1.28003,1.65294,-0.889192,-1.57483,-0.797777,2.22708,1.35814,-1.28003,1.73727,-0.965783,-1.61518,-0.845413,2.20472,1.36861,-1.23332,-0.880059,0.697835,0.699501,1.0346,0.520588,0.722559,-1.04094,-0.880059,0.697835,0.699501,1.0346,0.520588,0.722559,-1.04094,0.353229,-0.505384,0.876543,0.739802,-0.0485427,-0.0879031,0.665289,-0.992412,-0.177459,0.695008,-1.0928,-0.147582,0.67644,2.04377,-0.481962,1.4959,-3.08187,0.0908494,2.12033,-3.08187,0.0931893,2.12033,-0.843334,0.76591,0.403461,0.476368,0.223671,-0.104721,-0.467173,1
1.64358,-0.880955,-1.56317,-0.797629,2.23763,1.33505,-1.28478,1.64358,-0.880955,-1.56317,-0.797629,2.23763,1.33505,-1.28478,1.72798,-0.958751,-1.6086,-0.83477,2.2098,1.37528,-1.24363,-0.936638,0.70584,0.653935,1.0568,0.503714,0.642358,-1.02764,-0.936638,0.70584,0.653935,1.0568,0.503714,0.642358,-1.02764,0.342083,-0.50704,0.883251,0.746548,-0.0570679,-0.0941633,0.656157,-1.01877,-0.186883,0.684649,-1.11382,-0.154612,0.664927,2.01314,-0.481175,1.51635,-3.06227,0.0786901,2.04504,-3.06227,0.0937883,2.04504,-0.843933,0.77796,0.454303,0.371416,0.278337,-0.402259,-0.411451,1
1.63493,-0.872464,-1.55029,-0.797746,2.25211,1.32229,-1.28504,1.63493,-0.872464,-1.55029,-0.797746,2.25211,1.32229,-1.28504,1.71921,-0.951506,-1.60167,-0.824804,2.21468,1.38057,-1.25369,-0.862478,0.726394,0.699968,0.979902,0.478096,0.468703,-0.997052,-0.862478,0.726394,0.699968,0.979902,0.478096,0.468703,-0.997052,0.331539,-0.508034,0.889971,0.752608,-0.0649775,-0.100035,0.647574,-0.948466,-0.111515,0.688372,-1.03467,-0.0811992,0.668535,1.98277,-0.48012,1.53584,-3.03713,0.105527,1.94904,-3.03713,0.0950022,1.94904,-0.842777,0.790422,0.513815,0.270579,0.37436,-0.582799,-0.313431,1
1.62561,-0.865465,-1.55047,-0.793366,2.25298,1.31506,-1.27562,1.62561,-0.865465,-1.55047,-0.793366,2.25298,1.31506,-1.27562,1.71002,-0.944573,-1.59513,-0.815221,2.21916,1.3829,-1.26322,-0.93556,0.680973,0.642203,0.94649,0.442047,0.142951,-0.93514,-0.93556,0.680973,0.642203,0.94649,0.442047,0.142951,-0.93514,0.321429,-0.509256,0.896389,0.758538,-0.0713386,-0.10502,0.639142,-0.932046,-0.154323,0.646683,-1.00061,-0.129034,0.629615,1.9518,-0.478738,1.55382,-3.09765,0.138217,1.79777,-3.09765,0.100675,1.79777,-0.844098,0.791076,0.446641,0.218546,0.338208,-0.678319,-0.124074,1
1.61707,-0.858433,-1.54376,-0.78622,2.25308,1.31033,-1.26611,1.61707,-0.858433,-1.54376,-0.78622,2.25308,1.31033,-1.26611,1.70104,-0.93733,-1.58828,-0.806655,2.22349,1.38143,-1.27195,-0.883211,0.743412,0.703683,0.822306,0.434319,-0.234693,-0.851069,-0.883211,0.743412,0.703683,0.822306,0.434319,-0.234693,-0.851069,0.312247,-0.510042,0.902946,0.763753,-0.0759779,-0.10903,0.631681,-0.839576,-0.0700383,0.678025,-0.891598,-0.0513192,0.664288,1.92115,-0.477722,1.57048,-3.06451,0.10156,1.66686,-3.06451,0.103387,1.66686,-0.839779,0.788969,0.445131,0.204351,0.295884,-0.710939,0.0584155,1
1.60767,-0.850853,-1.53591,-0.773272,2.26088,1.30456,-1.26178,1.60767,-0.850853,-1.53591,-0.773272,2.26088,1.30456,-1.26178,1.69163,-0.930003,-1.58141,-0.799382,2.22842,1.37608,-1.2796,-0.96956,0.720306,0.671804,0.694251,0.508374,-0.632543,-0.728947,-0.96956,0.720306,0.671804,0.694251,0.508374,-0.632543,-0.728947,0.303782,-0.510842,0.909428,0.768344,-0.0785722,-0.11223,0.625202,-0.801222,-0.0985974,0.643649,-0.834163,-0.0916861,0.634525,1.89089,-0.47676,1.58668,-3.02639,0.0962257,1.61986,-3.02639,0.104462,1.61986,-0.83957,0.791495,0.455045,0.2611,0.32453,-0.715209,0.178119,1
1.59787,-0.843323,-1.52764,-0.762897,2.2739,1.29582,-1.25348,1.59787,-0.843323,-1.52764,-0.762897,2.2739,1.29582,-1.25348,1.68199,-0.9228,-1.57404,-0.793839,2.23432,1.36719,-1.28508,-0.955742,0.729366,0.769754,0.501768,0.620281,-0.969752,-0.466222,-0.955742,0.729366,0.769754,0.501768,0.620281,-0.969752,-0.466222,0.296169,-0.511592,0.915753,0.771697,-0.0791836,-0.11493,0.620488,-0.71447,-0.0477595,0.641826,-0.734586,-0.0549435,0.635904,1.86049,-0.475678,1.60158,-3.03991,0.108203,1.48963,-3.03991,0.107432,1.48963,-0.841167,0.794766,0.463975,0.309423,0.395717,-0.713614,0.316068,1
1.58712,-0.83592,-1.52738,-0.751313,2.27911,1.28707,-1.24583,1.58712,-0.83592,-1.52738,-0.751313,2.27911,1.28707,-1.24583,1.6718,-0.915431,-1.56647,-0.789365,2.24122,1.35561,-1.28696,-1.04893,0.732686,0.743688,0.453147,0.7077,-1.20285,-0.0893926,-1.04893,0.732686,0.743688,0.453147,0.7077,-1.20285,-0.0893926,0.288929,-0.512364,0.922082,0.773664,-0.0785193,-0.117166,0.617698,-0.723364,-0.0757324,0.631553,-0.733998,-0.0901726,0.628122,1.79974,-0.474017,1.6287,-3.05432,0.0647753,1.3178,-3.05432,0.101776,1.3178,-0.846786,0.795113,0.390923,0.380519,0.378817,-0.685399,0.411221,1
1.57656,-0.828355,-1.52307,-0.745794,2.28246,1.27884,-1.23619,1.57656,-0.828355,-1.52307,-0.745794,2.28246,1.27884,-1.23619,1.6613,-0.908023,-1.55876,-0.785152,2.24806,1.34303,-1.28563,-1.03332,0.746241,0.786962,0.406951,0.670181,-1.27376,0.186866,-1.03332,0.746241,0.786962,0.406951,0.670181,-1.27376,0.186866,0.281755,-0.513049,0.928418,0.774606,-0.0776149,-0.119007,0.616279,-0.695023,-0.0324634,0.638459,-0.70227,-0.0473007,0.635935,1.76917,-0.47289,1.6408,-3.05703,0.112751,1.20978,-3.05703,0.0966008,1.20978,-0.847441,0.796677,0.356913,0.393573,0.344025,-0.641914,0.494344,1
1.56691,-0.820611,-1.51147,-0.753279,2.28924,1.27053,-1.22823,1.56691,-0.820611,-1.51147,-0.753279,2.28924,1.27053,-1.22823,1.65093,-0.900679,-1.55132,-0.780831,2.25451,1.33057,-1.28234,-1.04676,0.732028,0.722429,0.460411,0.642397,-1.23232,0.381174,-1.04676,0.732028,0.722429,0.460411,0.642397,-1.23232,0.381174,0.274678,-0.513579,0.934643,0.77498,-0.0769009,-0.12055,0.615597,-0.713943,-0.0454514,0.620975,-0.72143,-0.0574574,0.618411,1.73908,-0.47247,1.65158,-3.00868,0.0419438,1.07852,-3.00868,0.0898427,1.07852,-0.840266,0.800681,0.398507,0.275513,0.347334,-0.600441,0.541142,1
1.55762,-0.813203,-1.4914,-0.747041,2.29279,1.27024,-1.2195,1.55762,-0.813203,-1.4914,-0.747041,2.29279,1.27024,-1.2195,1.64104,-0.893111,-1.54393,-0.775623,2.26137,1.31871,-1.27695,-0.958488,0.766266,0.74201,0.532435,0.699863,-1.16951,0.589562,-0.958488,0.766266,0.74201,0.532435,0.699863,-1.16951,0.589562,0.267402,-0.513909,0.941018,0.774612,-0.0767821,-0.122425,0.615705,-0.706197,-0.0022216,0.645628,-0.720008,-0.0141852,0.641135,1.70936,-0.471463,1.66257,-2.97248,0.10069,1.09837,-2.97248,0.085998,1.09837,-0.834259,0.799086,0.52526,0.285825,0.314215,-0.484722,0.574518,1
1.54886,-0.806931,-1.48308,-0.746623,2.28498,1.27857,-1.21327,1.54886,-0.806931,-1.48308,-0.746623,2.28498,1.27857,-1.21327,1.63178,-0.88565,-1.53738,-0.769561,2.26856,1.30744,-1.26985,-0.918606,0.734173,0.626964,0.648607,0.726668,-1.11541,0.747463,-0.918606,0.734173,0.626964,0.648607,0.726668,-1.11541,0.747463,0.260149,-0.514281,0.947221,0.77378,-0.0769611,-0.124428,0.616327,-0.719373,-0.0366382,0.616869,-0.735211,-0.0481115,0.611702,1.67929,-0.469887,1.67243,-3.00663,0.157586,0.986481,-3.00663,0.0904316,0.986481,-0.829182,0.787195,0.543,0.229382,0.164224,-0.28866,0.565845,1
1.54097,-0.799941,-1.47458,-0.745999,2.2631,1.32113,-1.20552,1.54097,-0.799941,-1.47458,-0.745999,2.2631,1.32113,-1.20552,1.62328,-0.877806,-1.53135,-0.762737,2.27551,1.29669,-1.26143,-0.821344,0.808857,0.601726,0.670586,0.681992,-1.06217,0.870838,-0.821344,0.808857,0.601726,0.670586,0.681992,-1.06217,0.870838,0.253004,-0.514232,0.953575,0.772529,-0.0777092,-0.126281,0.617425,-0.679655,0.0455674,0.649158,-0.696425,0.0396508,0.643831,1.64894,-0.468816,1.68122,-3.03471,0.10713,0.878513,-3.03471,0.0972573,0.878513,-0.823027,0.77865,0.567668,0.16738,-0.124133,0.24443,0.55909,1
1.53531,-0.79275,-1.47674,-0.780452,2.24202,1.34079,-1.19783,1.53531,-0.79275,-1.47674,-0.780452,2.24202,1.34079,-1.19783,1.6152,-0.869665,-1.52535,-0.756585,2.28202,1.28667,-1.25211,-0.821128,0.809516,0.605429,0.612344,0.641669,-0.982145,0.950016,-0.821128,0.809516,0.605429,0.612344,0.641669,-0.982145,0.950016,0.246271,-0.513489,0.959923,0.770721,-0.0788906,-0.127771,0.619225,-0.663767,0.0819283,0.635284,-0.681047,0.0791709,0.629846,1.61892,-0.468144,1.68889,-3.00246,0.0672579,0.767207,-3.00246,0.101252,0.767207,-0.798935,0.769152,0.486093,-0.238667,-0.400016,0.541159,0.542765,1
1.52854,-0.788506,-1.46648,-0.79334,2.25553,1.33944,-1.19734,1.52854,-0.788506,-1.46648,-0.79334,2.25553,1.33944,-1.19734,1.60655,-0.861736,-1.51831,-0.750872,2.28772,1.27826,-1.24239,-0.870502,0.790545,0.745737,0.545941,0.52716,-0.775386,0.973972,-0.870502,0.790545,0.745737,0.545941,0.52716,-0.775386,0.973972,0.239128,-0.512393,0.966185,0.768672,-0.0810291,-0.129412,0.621152,-0.692297,0.132018,0.632086,-0.717443,0.136695,0.624361,1.58856,-0.467344,1.69567,-3.0362,0.0799268,0.677919,-3.0362,0.0997732,0.677919,-0.780026,0.7323,0.518289,-0.424681,-0.321889,0.611885,0.450528,1
1.51873,-0.784302,-1.45524,-0.796826,2.27582,1.33454,-1.19758,1.51873,-0.784302,-1.45524,-0.796826,2.27582,1.33454,-1.19758,1.59754,-0.854121,-1.50978,-0.746266,2.29033,1.27361,-1.23274,-0.923399,0.744299,0.872312,0.438589,0.148141,-0.330709,0.959351,-0.923399,0.744299,0.872312,0.438589,0.148141,-0.330709,0.959351,0.231785,-0.510241,0.972264,0.76656,-0.0852944,-0.130592,0.622941,-0.712958,0.214268,0.604281,-0.747272,0.240942,0.594122,1.55798,-0.466045,1.70099,-3.05755,0.129911,0.532377,-3.05755,0.104489,0.532377,-0.788108,0.698191,0.545414,-0.505597,-0.145082,0.609271,0.351692,1
1.51165,-0.77952,-1.45106,-0.805113,2.28517,1.33296,-1.1971,1.51165,-0.77952,-1.45106,-0.805113,2.28517,1.33296,-1.1971,1.58796,-0.84718,-1.50065,-0.74309,2.28816,1.27518,-1.22335,-0.950423,0.68233,0.930817,0.229864,-0.347189,0.322943,0.932459,-0.950423,0.68233,0.930817,0.229864,-0.347189,0.322943,0.932459,0.224206,-0.506915,0.977724,0.764923,-0.0926654,-0.130679,0.623882,-0.687649,0.328722,0.537243,-0.730683,0.385915,0.524213,1.52811,-0.464968,1.70527,-2.98742,0.10767,0.427294,-2.98742,0.102289,0.427294,-0.76301,0.676597,0.495894,-0.620232,-0.0299098,0.57789,0.262517,1
1.50025,-0.783444,-1.46976,-0.803969,2.28241,1.33876,-1.2173,1.50025,-0.783444,-1.46976,-0.803969,2.28241,1.33876,-1.2173,1.57873,-0.840213,-1.49146,-0.743499,2.2811,1.2832,-1.21441,-0.935359,0.699012,0.906754,-0.119552,-0.80327,0.957074,0.874301,-0.935359,0.699012,0.906754,-0.119552,-0.80327,0.957074,0.874301,0.217809,-0.501402,0.982518,0.763206,-0.102853,-0.128742,0.624791,-0.577318,0.508139,0.473884,-0.621756,0.596646,0.458974,1.49822,-0.463918,1.70863,-2.98834,0.105059,0.336123,-2.98834,0.098937,0.336123,-0.78481,0.567685,0.216954,-0.6047,0.0130998,0.555668,-0.0289175,1
1.49465,-0.784874,-1.50572,-0.815742,2.28358,1.35086,-1.23436,1.49465,-0.784874,-1.50572,-0.815742,2.28358,1.35086,-1.23436,1.56835,-0.833261,-1.48274,-0.747045,2.27322,1.29566,-1.20682,-1.06776,0.694949,0.873306,-0.456025,-0.720571,1.29887,0.712254,-1.06776,0.694949,0.873306,-0.456025,-0.720571,1.29887,0.712254,0.211712,-0.494989,0.986533,0.761706,-0.114384,-0.126093,0.625157,-0.544057,0.561117,0.396462,-0.59069,0.654909,0.37822,1.46798,-0.463028,1.71088,-3.02444,0.0890344,0.225747,-3.02444,0.100689,0.225747,-0.737002,0.483872,-0.229809,-0.68697,0.103535,0.55202,-0.275428,1
1.49037,-0.775292,-1.50773,-0.824712,2.2715,1.3711,-1.24258,1.49037,-0.775292,-1.50773,-0.824712,2.2715,1.3711,-1.24258,1.55692,-0.826219,-1.47375,-0.754161,2.26965,1.30868,-1.20118,-1.17549,0.69912,0.899863,-0.771179,-0.22898,1.27975,0.518042,-1.17549,0.69912,0.899863,-0.771179,-0.22898,1.27975,0.518042,0.20617,-0.488481,0.989924,0.759548,-0.124796,-0.124485,0.626112,-0.500725,0.562747,0.341552,-0.548315,0.636702,0.32137,1.43819,-0.461806,1.71212,-2.97916,0.122184,0.123811,-2.97916,0.106337,0.123811,-0.665428,0.509277,-0.339826,-0.705516,0.0184683,0.624282,-0.414038,1
1.4741,-0.767885,-1.51182,-0.834194,2.26502,1.38072,-1.25141,1.4741,-0.767885,-1.51182,-0.834194,2.26502,1.38072,-1.25141,1.54448,-0.819226,-1.46538,-0.762678,2.27055,1.32022,-1.19816,-1.25361,0.700498,0.799401,-0.881947,0.169118,1.12202,0.201151,-1.25361,0.700498,0.799401,-0.881947,0.169118,1.12202,0.201151,0.200734,-0.482714,0.992876,0.757672,-0.133336,-0.124048,0.626711,-0.483792,0.509021,0.300382,-0.526998,0.565426,0.281137,1.40846,-0.460858,1.71293,-2.97272,0.0947684,0.0805259,-2.97272,0.10671,0.0805259,-0.703859,0.513412,-0.464396,-0.715164,-0.0552492,0.605061,-0.532504,1
1.45461,-0.758792,-1.5206,-0.840824,2.25888,1.38816,-1.25581,1.45461,-0.758792,-1.5206,-0.840824,2.25888,1.38816,-1.25581,1.53229,-0.812545,-1.46059,-0.77203,2.27374,1.33026,-1.19923,-1.20012,0.6594,0.347335,-0.954987,0.353649,0.974521,-0.199842,-1.20012,0.6594,0.347335,-0.954987,0.353649,0.974521,-0.199842,0.196397,-0.477882,0.994955,0.757444,-0.139551,-0.123351,0.625771,-0.36652,0.412858,0.189991,-0.390782,0.459905,0.177683,1.37815,-0.459949,1.7125,-3.03121,0.090906,-0.0426054,-3.03121,0.10222,-0.0426054,-0.77679,0.537535,-0.600028,-0.687946,-0.148603,0.579022,-0.565766,1
1.44116,-0.752985,-1.5308,-0.843755,2.23865,1.39779,-1.26015,1.44116,-0.752985,-1.5308,-0.843755,2.23865,1.39779,-1.26015,1.52133,-0.805401,-1.46095,-0.781661,2.27724,1.33997,-1.20418,-1.06535,0.746216,-0.162438,-0.956748,0.31246,0.97838,-0.5917,-1.06535,0.746216,-0.162438,-0.956748,0.31246,0.97838,-0.5917,0.19365,-0.473289,0.996342,0.759243,-0.144302,-0.121224,0.622922,-0.230526,0.415556,0.136766,-0.236372,0.470654,0.130438,1.34821,-0.459552,1.711,-2.99401,0.0396907,-0.15018,-2.99401,0.0941309,-0.15018,-0.801674,0.524158,-0.698503,-0.620939,-0.385876,0.578238,-0.559639,1
1.42901,-0.746637,-1.53991,-0.839399,2.23125,1.40962,-1.26763,1.42901,-0.746637,-1.53991,-0.839399,2.23125,1.40962,-1.26763,1.51092,-0.796737,-1.46625,-0.791065,2.27847,1.35067,-1.21235,-1.0286,0.90265,-0.627977,-0.938544,0.0606321,1.10137,-0.882384,-1.0286,0.90265,-0.627977,-0.938544,0.0606321,1.10137,-0.882384,0.191992,-0.468026,0.997577,0.76335,-0.149177,-0.116538,0.617626,-0.151179,0.467376,0.120553,-0.139211,0.545587,0.118163,1.31893,-0.458256,1.70909,-2.92829,0.129601,-0.191438,-2.92829,0.0921188,-0.191438,-0.819026,0.501007,-0.736654,-0.483345,-0.472211,0.589472,-0.552857,1
1.42038,-0.736621,-1.55136,-0.842877,2.22411,1.42246,-1.27587,1.42038,-0.736621,-1.55136,-0.842877,2.22411,1.42246,-1.27587,1.50127,-0.787088,-1.47442,-0.800802,2.27726,1.3626,-1.22246,-0.956952,0.976295,-0.883391,-0.969608,-0.178675,1.21404,-1.04179,-0.956952,0.976295,-0.883391,-0.969608,-0.178675,1.21404,-1.04179,0.191414,-0.461983,0.998601,0.768628,-0.154477,-0.109892,0.61096,-0.0640939,0.513718,0.0904284,-0.039666,0.607299,0.089438,1.28915,-0.456801,1.70637,-2.97744,0.145456,-0.271285,-2.97744,0.0967267,-0.271285,-0.808935,0.504676,-0.769473,-0.420749,-0.531484,0.598591,-0.534152,1
1.4105,-0.726328,-1.56327,-0.850712,2.21858,1.43032,-1.287,1.4105,-0.726328,-1.56327,-0.850712,2.21858,1.43032,-1.287,1.49137,-0.777487,-1.48465,-0.810022,2.27363,1.3747,-1.23309,-0.98659,0.956772,-1.04388,-0.911651,-0.429468,1.20355,-1.06011,-0.98659,0.956772,-1.04388,-0.911651,-0.429468,1.20355,-1.06011,0.191073,-0.456185,0.999222,0.774939,-0.159867,-0.101748,0.602959,-0.0591562,0.472941,0.0519507,-0.0223357,0.576648,0.0518797,1.25923,-0.455832,1.70251,-2.99252,0.0969499,-0.386524,-2.99252,0.0990257,-0.386524,-0.808647,0.51159,-0.786286,-0.406898,-0.550527,0.556151,-0.539063,1
1.40216,-0.718118,-1.57504,-0.855945,2.20975,1.4413,-1.29651,1.40216,-0.718118,-1.57504,-0.855945,2.20975,1.4413,-1.29651,1.48219,-0.768316,-1.49523,-0.819223,2.26677,1.38668,-1.24315,-0.909338,0.898444,-1.08323,-0.898096,-0.771765,1.18685,-0.983546,-0.909338,0.898444,-1.08323,-0.898096,-0.771765,1.18685,-0.983546,0.191477,-0.450257,0.999483,0.7812,-0.165419,-0.0922194,0.59486,0.00284155,0.467674,0.0103741,0.051276,0.579606,0.0102258,1.22964,-0.455379,1.69746,-2.95895,0.0453413,-0.50478,-2.95895,0.0979389,-0.50478,-0.800328,0.501979,-0.798119,-0.367217,-0.570162,0.54617,-0.533658,1
1.39238,-0.709326,-1.58704,-0.861405,2.20196,1.44875,-1.30853,1.39238,-0.709326,-1.58704,-0.861405,2.20196,1.44875,-1.30853,1.47266,-0.759932,-1.50674,-0.826811,2.25701,1.39819,-1.25243,-0.946981,0.825913,-1.14666,-0.711737,-1.02977,1.15119,-0.913508,-0.946981,0.825913,-1.14666,-0.711737,-1.02977,1.15119,-0.913508,0.191589,-0.445077,0.999394,0.788041,-0.171138,-0.0815779,0.585704,-0.0526976,0.387288,-0.0114668,0.00367389,0.506672,-0.0138845,1.19981,-0.45468,1.69171,-2.98316,0.0698537,-0.575173,-2.98316,0.0949208,-0.575173,-0.802772,0.506061,-0.802941,-0.345942,-0.550424,0.505674,-0.561,1
1.3846,-0.703095,-1.59844,-0.860739,2.19322,1.4592,-1.31927,1.3846,-0.703095,-1.59844,-0.860739,2.19322,1.4592,-1.31927,1.46425,-0.751839,-1.51787,-0.83374,2.2459,1.40975,-1.26127,-0.814947,0.798517,-1.13064,-0.676047,-1.12559,1.14148,-0.876812,-0.814947,0.798517,-1.13064,-0.676047,-1.12559,1.14148,-0.876812,0.192082,-0.439818,0.99919,0.794323,-0.177175,-0.0707523,0.576761,0.00375904,0.394911,-0.0267422,0.0629868,0.513258,-0.0320164,1.16961,-0.453338,1.6846,-3.01952,0.134206,-0.710344,-3.01952,0.0972042,-0.710344,-0.796538,0.487448,-0.805699,-0.269984,-0.526711,0.49446,-0.579972,1
1.37665,-0.69508,-1.61029,-0.872669,2.19141,1.46314,-1.33017,1.37665,-0.69508,-1.61029,-0.872669,2.19141,1.46314,-1.33017,1.45622,-0.744446,-1.5301,-0.83958,2.23476,1.42086,-1.27017,-0.791674,0.728911,-1.23516,-0.562637,-1.10062,1.10207,-0.89824,-0.791674,0.728911,-1.23516,-0.562637,-1.10062,1.10207,-0.89824,0.192546,-0.435453,0.998575,0.80076,-0.182779,-0.059996,0.567252,-0.0163971,0.304889,-0.0637275,0.0466397,0.41843,-0.0706172,1.1402,-0.452256,1.67648,-2.94149,0.108236,-0.812232,-2.94149,0.0931438,-0.812232,-0.795747,0.49366,-0.801876,-0.330887,-0.433491,0.422831,-0.600002,1
1.36967,-0.689611,-1.62174,-0.875563,2.191,1.47081,-1.34036,1.36967,-0.689611,-1.62174,-0.875563,2.191,1.47081,-1.34036,1.44929,-0.737111,-1.54228,-0.845562,2.22408,1.43153,-1.27943,-0.662085,0.725783,-1.21612,-0.613835,-1.05333,1.05074,-0.937729,-0.662085,0.725783,-1.21612,-0.613835,-1.05333,1.05074,-0.937729,0.193592,-0.431103,0.997809,0.806656,-0.188021,-0.0494982,0.558125,0.0606467,0.323233,-0.0796447,0.125574,0.429479,-0.0878081,1.11045,-0.451398,1.66719,-2.97447,0.0857919,-0.929093,-2.97447,0.090731,-0.929093,-0.796193,0.475003,-0.794568,-0.300011,-0.330764,0.392842,-0.609288,1
1.36282,-0.684452,-1.63343,-0.888743,2.20724,1.47232,-1.35111,1.36282,-0.684452,-1.63343,-0.888743,2.20724,1.47232,-1.35111,1.44265,-0.730407,-1.55497,-0.851667,2.21405,1.4417,-1.28922,-0.67709,0.653552,-1.29122,-0.591173,-0.99251,1.00748,-0.993589,-0.67709,0.653552,-1.29122,-0.591173,-0.99251,1.00748,-0.993589,0.194848,-0.427435,0.996589,0.812477,-0.192568,-0.0393113,0.548866,0.046074,0.238737,-0.126025,0.114885,0.337861,-0.134476,1.08126,-0.450365,1.65686,-2.91936,0.103313,-1.03298,-2.91936,0.0956729,-1.03298,-0.798335,0.459546,-0.784599,-0.370756,-0.0680339,0.306177,-0.618901,1
1.35551,-0.682207,-1.64407,-0.88994,2.23304,1.47767,-1.36437,1.35551,-0.682207,-1.64407,-0.88994,2.23304,1.47767,-1.36437,1.4357,-0.72396,-1.56786,-0.857147,2.20466,1.45123,-1.29961,-0.689134,0.649945,-1.27507,-0.54689,-0.916941,0.935823,-1.05231,-0.689134,0.649945,-1.27507,-0.54689,-0.916941,0.935823,-1.05231,0.195767,-0.424381,0.995276,0.81846,-0.196737,-0.0294959,0.539026,0.0237915,0.209732,-0.120895,0.0933154,0.302991,-0.130631,1.05148,-0.449259,1.64555,-2.97786,0.110507,-1.13114,-2.97786,0.103316,-1.13114,-0.80191,0.417536,-0.762111,-0.327925,0.283831,0.264417,-0.647645,1
1.34769,-0.686183,-1.6538,-0.8757,2.23983,1.48942,-1.37693,1.34769,-0.686183,-1.6538,-0.8757,2.23983,1.48942,-1.37693,1.42878,-0.717525,-1.5805,-0.862942,2.19651,1.46,-1.31043,-0.70311,0.629984,-1.26995,-0.580718,-0.768162,0.862497,-1.09078,-0.70311,0.629984,-1.26995,-0.580718,-0.768162,0.862497,-1.09078,0.196756,-0.421582,0.993901,0.82417,-0.200348,-0.0201946,0.529336,0.0207242,0.171492,-0.138067,0.0906672,0.254734,-0.147368,1.02256,-0.448108,1.63382,-2.89155,0.115129,-1.1731,-2.89155,0.106298,-1.1731,-0.810895,0.31342,-0.732975,-0.127583,0.433194,0.294161,-0.664995,1
1.33975,-0.679162,-1.6665,-0.87196,2.2343,1.49816,-1.39048,1.33975,-0.679162,-1.6665,-0.87196,2.2343,1.49816,-1.39048,1.42127,-0.711438,-1.59337,-0.868984,2.19094,1.46797,-1.32151,-0.765571,0.608557,-1.29313,-0.617857,-0.457729,0.765127,-1.11145,-0.765571,0.608557,-1.29313,-0.617857,-0.457729,0.765127,-1.11145,0.197382,-0.419668,0.992304,0.829838,-0.202976,-0.0119081,0.519643,-0.0134646,0.0998252,-0.157046,0.0542836,0.167415,-0.163917,0.992581,-0.447529,1.62077,-2.99814,0.0579625,-1.30498,-2.99814,0.0995043,-1.30498,-0.815135,0.32276,-0.731366,-0.0297591,0.433608,0.301928,-0.689737,1
1.33224,-0.667119,-1.68096,-0.889588,2.23127,1.50204,-1.40249,1.33224,-0.667119,-1.68096,-0.889588,2.23127,1.50204,-1.40249,1.41332,-0.705323,-1.60611,-0.875478,2.19039,1.47481,-1.33271,-0.801702,0.617821,-1.25615,-0.650333,0.0859585,0.653772,-1.12587,-0.801702,0.617821,-1.25615,-0.650333,0.0859585,0.653772,-1.12587,0.197528,-0.418605,0.990738,0.835207,-0.204251,-0.00565073,0.510567,-0.05904,0.0427786,-0.146428,-0.00345442,0.0874898,-0.149569,0.963042,-0.446716,1.60697,-2.95396,0.0812978,-1.38023,-2.95396,0.0950523,-1.38023,-0.810717,0.382041,-0.748523,-0.141101,0.408844,0.272372,-0.697797,1
1.32357,-0.662301,-1.68987,-0.923977,2.23697,1.50775,-1.41423,1.32357,-0.662301,-1.68987,-0.923977,2.23697,1.50775,-1.41423,1.40493,-0.698891,-1.61837,-0.881776,2.19562,1.48084,-1.3442,-0.858494,0.643586,-1.22749,-0.602433,0.667554,0.588664,-1.15809,-0.858494,0.643586,-1.22749,-0.602433,0.667554,0.588664,-1.15809,0.196797,-0.418238,0.989531,0.840342,-0.204549,-0.00201072,0.501978,-0.147435,-0.0174994,-0.112974,-0.108365,0.00685801,-0.113158,0.934106,-0.445349,1.59276,-2.89358,0.136685,-1.42044,-2.89358,0.0970561,-1.42044,-0.813526,0.3659,-0.715037,-0.42201,0.413532,0.269153,-0.700277,1
1.31428,-0.667889,-1.69852,-0.939392,2.24684,1.50947,-1.42675,1.31428,-0.667889,-1.69852,-0.939392,2.24684,1.50947,-1.42675,1.39598,-0.692812,-1.63057,-0.886212,2.20523,1.48678,-1.35608,-0.888071,0.597376,-1.21219,-0.401978,1.02838,0.596897,-1.19832,-0.888071,0.597376,-1.21219,-0.401978,1.02838,0.596897,-1.19832,0.194564,-0.418982,0.988654,0.845738,-0.20451,-0.000875129,0.492851,-0.271397,-0.104312,-0.0810802,-0.248558,-0.0913555,-0.0808978,0.904567,-0.443968,1.57759,-2.95388,0.138107,-1.51762,-2.95388,0.101446,-1.51762,-0.816956,0.249235,-0.679512,-0.531803,0.416056,0.22683,-0.706702,1
1.3071,-0.66763,-1.7096,-0.942739,2.25913,1.51893,-1.44008,1.3071,-0.66763,-1.7096,-0.942739,2.25913,1.51893,-1.44008,1.38805,-0.687171,-1.64256,-0.889126,2.21547,1.49289,-1.36833,-0.759231,0.558057,-1.20048,-0.270238,0.986826,0.606316,-1.23445,-0.759231,0.558057,-1.20048,-0.270238,0.986826,0.606316,-1.23445,0.191985,-0.419974,0.987964,0.851072,-0.204737,-0.000735206,0.483487,-0.26818,-0.108267,-0.0665439,-0.249988,-0.0948711,-0.0676733,0.875397,-0.442811,1.56119,-2.917,0.115684,-1.63971,-2.917,0.106453,-1.63971,-0.809473,0.195411,-0.67038,-0.536131,0.436617,0.260412,-0.717425,1
1.30039,-0.660848,-1.72385,-0.939891,2.26917,1.52841,-1.45346,1.30039,-0.660848,-1.72385,-0.939891,2.26917,1.52841,-1.45346,1.38109,-0.68156,-1.65485,-0.892127,2.22374,1.49881,-1.38093,-0.689125,0.565295,-1.24728,-0.329631,0.775831,0.579927,-1.2654,-0.689125,0.565295,-1.24728,-0.329631,0.775831,0.579927,-1.2654,0.190064,-0.420648,0.98716,0.856321,-0.205089,0.000274277,0.473976,-0.200454,-0.0795344,-0.0874348,-0.172558,-0.0613486,-0.0885072,0.845943,-0.44256,1.54367,-2.94545,0.025034,-1.75159,-2.94545,0.102952,-1.75159,-0.806966,0.20712,-0.689956,-0.477643,0.454331,0.295975,-0.725298,1
1.29401,-0.653112,-1.73655,-0.940478,2.27896,1.53806,-1.46652,1.29401,-0.653112,-1.73655,-0.940478,2.27896,1.53806,-1.46652,1.37429,-0.675893,-1.66692,-0.897079,2.23064,1.50443,-1.39365,-0.678819,0.568758,-1.17621,-0.564013,0.668666,0.554893,-1.27476,-0.678819,0.568758,-1.17621,-0.564013,0.668666,0.554893,-1.27476,0.189035,-0.420964,0.985976,0.861272,-0.205042,0.0022352,0.464934,-0.113492,-0.0354363,-0.12907,-0.0791126,-0.01875,-0.12853,0.816507,-0.441867,1.52521,-2.94358,0.0692993,-1.84598,-2.94358,0.0993976,-1.84598,-0.802723,0.227812,-0.696298,-0.433991,0.483206,0.336324,-0.728664,1
1.28623,-0.649434,-1.74899,-0.949503,2.2866,1.54001,-1.47893,1.28623,-0.649434,-1.74899,-0.949503,2.2866,1.54001,-1.47893,1.36668,-0.670536,-1.67831,-0.904454,2.23728,1.50967,-1.40632,-0.804806,0.512098,-1.133,-0.779304,0.676949,0.525652,-1.26374,-0.804806,0.512098,-1.133,-0.779304,0.676949,0.525652,-1.26374,0.18846,-0.421378,0.98425,0.865985,-0.204198,0.0046004,0.456455,-0.109439,-0.0753136,-0.195037,-0.0697937,-0.0653724,-0.1912,0.786654,-0.440974,1.50582,-2.98524,0.0893623,-1.93973,-2.98524,0.09141,-1.93973,-0.804425,0.211014,-0.706806,-0.450487,0.493217,0.303437,-0.726071,1
1.27692,-0.653046,-1.76033,-0.965105,2.2942,1.54209,-1.4905,1.27692,-0.653046,-1.76033,-0.965105,2.2942,1.54209,-1.4905,1.35734,-0.665709,-1.68941,-0.913282,2.24464,1.51507,-1.41905,-0.962167,0.478639,-1.09192,-0.913309,0.760933,0.555564,-1.27725,-0.962167,0.478639,-1.09192,-0.913309,0.760933,0.555564,-1.27725,0.187405,-0.422435,0.982019,0.870842,-0.202735,0.0067738,0.447757,-0.156969,-0.117363,-0.236324,-0.117432,-0.112646,-0.230857,0.758027,-0.439839,1.48548,-2.86269,0.113532,-2.03372,-2.86269,0.0837909,-2.03372,-0.804244,0.126627,-0.709134,-0.518227,0.49562,0.270215,-0.714479,1
1.26675,-0.654921,-1.77014,-0.975966,2.30051,1.55079,-1.50326,1.26675,-0.654921,-1.77014,-0.975966,2.30051,1.55079,-1.50326,1.34725,-0.661038,-1.69982,-0.922604,2.25302,1.52116,-1.43196,-1.02406,0.458662,-1.03381,-0.933286,0.859355,0.629253,-1.29638,-1.02406,0.458662,-1.03381,-0.933286,0.859355,0.629253,-1.29638,0.185857,-0.423659,0.979675,0.875597,-0.201324,0.00822974,0.439011,-0.204451,-0.134253,-0.244312,-0.171523,-0.132228,-0.239287,0.728817,-0.439112,1.46385,-2.92102,0.0726908,-2.16333,-2.92102,0.0789258,-2.16333,-0.805053,0.0611665,-0.703227,-0.533624,0.474909,0.29627,-0.712955,1
1.25639,-0.656318,-1.78135,-0.986094,2.30802,1.55783,-1.51664,1.25639,-0.656318,-1.78135,-0.986094,2.30802,1.55783,-1.51664,1.33681,-0.6569,-1.71069,-0.931812,2.26204,1.52813,-1.44503,-1.04413,0.399737,-1.10993,-0.917144,0.913944,0.708072,-1.30988,-1.04413,0.399737,-1.10993,-0.917144,0.913944,0.708072,-1.30988,0.183792,-0.425432,0.977005,0.880459,-0.199917,0.00918029,0.429815,-0.247313,-0.193988,-0.282765,-0.216429,-0.194325,-0.277406,0.699471,-0.43803,1.44113,-2.93459,0.108129,-2.27137,-2.93459,0.0831002,-2.27137,-0.804159,0.00582307,-0.706612,-0.542825,0.459754,0.297053,-0.716106,1
1.24764,-0.652057,-1.79128,-0.996061,2.31786,1.56813,-1.5296,1.24764,-0.652057,-1.79128,-0.996061,2.31786,1.56813,-1.5296,1.32713,-0.652932,-1.72181,-0.940346,2.27128,1.53505,-1.458,-0.936294,0.402996,-1.10327,-0.843179,0.917951,0.681084,-1.28373,-0.936294,0.402996,-1.10327,-0.843179,0.917951,0.681084,-1.28373,0.181682,-0.427337,0.974365,0.885211,-0.198506,0.00982543,0.420596,-0.231148,-0.180628,-0.263734,-0.203299,-0.182009,-0.258672,0.670775,-0.436785,1.41731,-2.86963,0.124547,-2.38194,-2.86963,0.0959404,-2.38194,-0.794912,0.00875454,-0.69474,-0.557149,0.46576,0.330776,-0.716085,1
1.23928,-0.65437,-1.80256,-1.00377,2.32725,1.57488,-1.54216,1.23928,-0.65437,-1.80256,-1.00377,2.32725,1.57488,-1.54216,1.31826,-0.648924,-1.73339,-0.948981,2.28002,1.54122,-1.47038,-0.877075,0.392996,-1.18334,-0.876081,0.863212,0.599034,-1.23019,-0.877075,0.392996,-1.18334,-0.876081,0.863212,0.599034,-1.23019,0.180025,-0.42925,0.971642,0.889767,-0.196682,0.0109379,0.411717,-0.194679,-0.198414,-0.290202,-0.159943,-0.202951,-0.28307,0.642044,-0.43588,1.39291,-2.87307,0.0904679,-2.44021,-2.87307,0.100529,-2.44021,-0.789801,-0.0544611,-0.691627,-0.547849,0.472346,0.336649,-0.717874,1
1.23181,-0.646212,-1.81312,-1.00981,2.33568,1.58668,-1.55489,1.23181,-0.646212,-1.81312,-1.00981,2.33568,1.58668,-1.55489,1.31022,-0.644945,-1.74477,-0.957588,2.28854,1.54713,-1.48274,-0.775758,0.402045,-1.11192,-0.856078,0.846548,0.590058,-1.24257,-0.775758,0.402045,-1.11192,-0.856078,0.846548,0.590058,-1.24257,0.178652,-0.431035,0.968932,0.894095,-0.194786,0.0119859,0.403124,-0.16135,-0.161725,-0.271798,-0.130723,-0.166644,-0.265396,0.612627,-0.43515,1.36781,-2.94169,0.0730574,-2.51032,-2.94169,0.0989863,-2.51032,-0.784092,-0.0126656,-0.683455,-0.522243,0.471318,0.39544,-0.721514,1
1.22408,-0.652957,-1.82637,-1.02084,2.34552,1.58696,-1.56778,1.22408,-0.652957,-1.82637,-1.02084,2.34552,1.58696,-1.56778,1.30247,-0.641413,-1.75611,-0.966523,2.29683,1.5531,-1.49544,-0.787203,0.325536,-1.15116,-0.899858,0.828811,0.607064,-1.2797,-0.787203,0.325536,-1.15116,-0.899858,0.828811,0.607064,-1.2797,0.177362,-0.433032,0.965945,0.898384,-0.192667,0.0129476,0.394484,-0.175377,-0.215087,-0.323474,-0.143163,-0.223802,-0.315636,0.584121,-0.434343,1.34182,-2.8506,0.0806928,-2.59875,-2.8506,0.0948632,-2.59875,-0.783971,-0.115442,-0.702631,-0.543152,0.486857,0.338587,-0.723438,1
1.21646,-0.653337,-1.83733,-1.02912,2.35252,1.59647,-1.58061,1.21646,-0.653337,-1.83733,-1.02912,2.35252,1.59647,-1.58061,1.29459,-0.63872,-1.76726,-0.975626,2.30517,1.55951,-1.50845,-0.778191,0.25569,-1.09177,-0.908031,0.840182,0.654523,-1.30647,-0.778191,0.25569,-1.09177,-0.908031,0.840182,0.654523,-1.30647,0.175761,-0.435507,0.962581,0.902701,-0.190372,0.0134802,0.385626,-0.19418,-0.237558,-0.346728,-0.16716,-0.248923,-0.338818,0.555323,-0.432903,1.31534,-2.87986,0.144011,-2.64784,-2.87986,0.098706,-2.64784,-0.781329,-0.14617,-0.700631,-0.534887,0.473461,0.369598,-0.721664,1
1.20825,-0.657252,-1.84951,-1.0409,2.35875,1.59751,-1.59362,1.20825,-0.657252,-1.84951,-1.0409,2.35875,1.59751,-1.59362,1.28671,-0.637026,-1.77822,-0.984922,2.31372,1.56634,-1.52155,-0.796084,0.133795,-1.106,-0.932396,0.86371,0.695342,-1.31105,-0.796084,0.133795,-1.106,-0.932396,0.86371,0.695342,-1.31105,0.173859,-0.438531,0.958783,0.906985,-0.187799,0.0134671,0.376733,-0.231987,-0.310749,-0.407009,-0.207523,-0.327796,-0.397489,0.526471,-0.43161,1.28743,-2.88514,0.129306,-2.79073,-2.88514,0.102016,-2.79073,-0.784655,-0.202261,-0.712848,-0.559754,0.450219,0.311686,-0.72068,1
1.20033,-0.658783,-1.86061,-1.0517,2.36304,1.60484,-1.60661,1.20033,-0.658783,-1.86061,-1.0517,2.36304,1.60484,-1.60661,1.27865,-0.636082,-1.7894,-0.99448,2.32243,1.57375,-1.53465,-0.802711,0.0957563,-1.11837,-0.956593,0.872627,0.745533,-1.30809,-0.802711,0.0957563,-1.11837,-0.956593,0.872627,0.745533,-1.30809,0.171622,-0.442044,0.95454,0.911275,-0.185015,0.0131533,0.367661,-0.251999,-0.331556,-0.43553,-0.229218,-0.350124,-0.425871,0.497584,-0.431055,1.25855,-2.88873,0.0554413,-2.88798,-2.88873,0.0999203,-2.88798,-0.783247,-0.227006,-0.71203,-0.572233,0.406118,0.310908,-0.719634,1
1.19243,-0.661012,-1.87151,-1.06308,2.36906,1.60975,-1.6194,1.19243,-0.661012,-1.87151,-1.06308,2.36906,1.60975,-1.6194,1.27094,-0.63501,-1.80023,-1.0043,2.33126,1.58122,-1.54771,-0.758884,0.104577,-1.07267,-0.996321,0.885858,0.741998,-1.30671,-0.758884,0.104577,-1.07267,-0.996321,0.885858,0.741998,-1.30671,0.169497,-0.445347,0.950305,0.915345,-0.182233,0.0126839,0.35885,-0.229652,-0.308218,-0.437441,-0.209186,-0.328589,-0.427602,0.468706,-0.430465,1.22893,-2.88781,0.0590384,-2.96266,-2.88781,0.0970307,-2.96266,-0.785145,-0.260027,-0.712841,-0.587799,0.377979,0.28522,-0.716902,1
1.18499,-0.66366,-1.88287,-1.0732,2.37599,1.61653,-1.63259,1.18499,-0.66366,-1.88287,-1.0732,2.37599,1.61653,-1.63259,1.26332,-0.634384,-1.81138,-1.01453,2.33996,1.58842,-1.5607,-0.772438,0.0453614,-1.13988,-1.01595,0.865378,0.70892,-1.29711,-0.772438,0.0453614,-1.13988,-1.01595,0.865378,0.70892,-1.29711,0.167369,-0.448996,0.94572,0.919419,-0.178942,0.0123168,0.349995,-0.252196,-0.358766,-0.480474,-0.22819,-0.383453,-0.468932,0.439797,-0.429739,1.19804,-2.89087,0.0725448,-3.08911,-2.89087,0.0922659,-3.08911,-0.783296,-0.292761,-0.714926,-0.58669,0.360316,0.281131,-0.718892,1
1.17698,-0.666063,-1.89421,-1.08216,2.38382,1.62377,-1.64583,1.17698,-0.666063,-1.89421,-1.08216,2.38382,1.62377,-1.64583,1.25547,-0.634285,-1.82267,-1.0244,2.34831,1.59502,-1.57368,-0.775998,0.00296017,-1.10941,-0.987117,0.81861,0.645546,-1.29735,-0.775998,0.00296017,-1.10941,-0.987117,0.81861,0.645546,-1.29735,0.1649,-0.453053,0.940994,0.923605,-0.17528,0.0120232,0.340715,-0.272031,-0.375829,-0.485407,-0.247307,-0.402953,-0.473248,0.410892,-0.428903,1.16656,-2.89056,0.0836134,-3.14735,-2.89056,0.0849645,-3.14735,-0.784944,-0.31778,-0.715414,-0.577592,0.355118,0.287569,-0.721516,1
1.16979,-0.670721,-1.90557,-1.09192,2.39352,1.63014,-1.65903,1.16979,-0.670721,-1.90557,-1.09192,2.39352,1.63014,-1.65903,1.2479,-0.634568,-1.83364,-1.03439,2.35577,1.60107,-1.5866,-0.762252,-0.0439712,-1.1078,-0.988783,0.72492,0.591436,-1.29226,-0.762252,-0.0439712,-1.1078,-0.988783,0.72492,0.591436,-1.29226,0.162562,-0.457166,0.936118,0.927679,-0.171353,0.0119891,0.331522,-0.273268,-0.393133,-0.507197,-0.245107,-0.422183,-0.494403,0.38243,-0.428323,1.13419,-2.84618,0.0579983,-3.23755,-2.84618,0.0730959,-3.23755,-0.781071,-0.36153,-0.719338,-0.57534,0.37744,0.290765,-0.724336,1
1.16214,-0.676704,-1.91732,-1.10138,2.40185,1.63604,-1.67178,1.16214,-0.676704,-1.91732,-1.10138,2.40185,1.63604,-1.67178,1.23993,-0.635484,-1.84487,-1.04398,2.36253,1.60672,-1.59954,-0.798529,-0.104553,-1.11816,-0.959804,0.659494,0.557232,-1.29367,-0.798529,-0.104553,-1.11816,-0.959804,0.659494,0.557232,-1.29367,0.159783,-0.461716,0.931028,0.931873,-0.167171,0.0121741,0.321743,-0.31526,-0.428456,-0.528457,-0.284941,-0.45935,-0.515275,0.353678,-0.427562,1.10028,-2.87523,0.0760734,-3.39111,-2.87523,0.0684527,-3.39111,-0.777887,-0.412205,-0.724477,-0.574011,0.393176,0.293152,-0.722423,1
1.15448,-0.68288,-1.9288,-1.11132,2.40848,1.64101,-1.68463,1.15448,-0.68288,-1.9288,-1.11132,2.40848,1.64101,-1.68463,1.23226,-0.636981,-1.8559,-1.05398,2.36878,1.61215,-1.61248,-0.7556,-0.169953,-1.1024,-1.00083,0.619724,0.542144,-1.29581,-0.7556,-0.169953,-1.1024,-1.00083,0.619724,0.542144,-1.29581,0.157112,-0.466442,0.925595,0.935934,-0.162607,0.0124156,0.312143,-0.302322,-0.444515,-0.567458,-0.272205,-0.479498,-0.553435,0.32522,-0.426386,1.06492,-2.84576,0.117663,-3.5358,-2.84576,0.0758166,-3.5358,-0.777794,-0.458992,-0.728969,-0.57339,0.396912,0.288629,-0.721469,1
1.14646,-0.687309,-1.94044,-1.12129,2.4135,1.64574,-1.69751,1.14646,-0.687309,-1.94044,-1.12129,2.4135,1.64574,-1.69751,1.22462,-0.639163,-1.8671,-1.06409,2.37504,1.61771,-1.62547,-0.771826,-0.232165,-1.13428,-1.02202,0.629876,0.558644,-1.30146,-0.771826,-0.232165,-1.13428,-1.02202,0.629876,0.558644,-1.30146,0.154181,-0.471526,0.919783,0.939959,-0.157733,0.0124664,0.302395,-0.33489,-0.479486,-0.609338,-0.305542,-0.518371,-0.594668,0.297018,-0.425219,1.02909,-2.82023,0.11667,-3.58291,-2.82023,0.0849448,-3.58291,-0.781554,-0.481463,-0.733404,-0.572006,0.384521,0.280374,-0.720338,1
1.13867,-0.69175,-1.9523,-1.1327,2.41862,1.64948,-1.71046,1.13867,-0.69175,-1.9523,-1.1327,2.41862,1.64948,-1.71046,1.21692,-0.64177,-1.87852,-1.07452,2.38168,1.6234,-1.63853,-0.75898,-0.267434,-1.1269,-1.03396,0.678522,0.570999,-1.30635,-0.75898,-0.267434,-1.1269,-1.03396,0.678522,0.570999,-1.30635,0.151,-0.476874,0.913629,0.943942,-0.152503,0.0122892,0.292516,-0.35175,-0.488973,-0.630077,-0.326174,-0.53148,-0.615146,0.268728,-0.424422,0.99246,-2.82896,0.0797033,-3.66299,-2.82896,0.0902039,-3.66299,-0.782445,-0.499809,-0.737777,-0.581802,0.369401,0.260809,-0.719305,1
1.13119,-0.696623,-1.96362,-1.14392,2.42374,1.65459,-1.72331,1.13119,-0.696623,-1.96362,-1.14392,2.42374,1.65459,-1.72331,1.20954,-0.644708,-1.88949,-1.08498,2.38882,1.62921,-1.6516,-0.740752,-0.311667,-1.10905,-1.05641,0.725365,0.5794,-1.30644,-0.740752,-0.311667,-1.10905,-1.05641,0.725365,0.5794,-1.30644,0.147708,-0.482216,0.907372,0.947738,-0.147145,0.0115735,0.282857,-0.362655,-0.498617,-0.65571,-0.341104,-0.545325,-0.640388,0.240331,-0.423321,0.955244,-2.83969,0.110111,-3.72162,-2.83969,0.0960431,-3.72162,-0.783594,-0.519151,-0.741396,-0.589321,0.349195,0.25379,-0.717101,1
1.12173,-0.697365,-1.97441,-1.14956,2.43384,1.66578,-1.73653,1.12173,-0.697365,-1.97441,-1.14956,2.43384,1.66578,-1.73653,1.20169,-0.64842,-1.90124,-1.09543,2.39603,1.63567,-1.6643,-0.796741,-0.385488,-1.1886,-1.03038,0.708165,0.650153,-1.25565,-0.796741,-0.385488,-1.1886,-1.03038,0.708165,0.650153,-1.25565,0.143736,-0.488074,0.90058,0.951551,-0.141577,0.0107541,0.272748,-0.438861,-0.54397,-0.701531,-0.417807,-0.591356,-0.686692,0.214708,-0.422321,0.924186,-2.56237,0.0999987,-3.10574,-2.56237,0.101619,-3.10574,-0.79961,-0.489444,-0.73178,-0.541309,0.378088,0.3011,-0.722225,1
1.10804,-0.67603,-1.97792,-1.06004,2.44842,1.6899,-1.74858,1.10804,-0.67603,-1.97792,-1.06004,2.44842,1.6899,-1.74858,1.19397,-0.652473,-1.91282,-1.10595,2.40311,1.64197,-1.67698,-0.757925,-0.420529,-1.14531,-1.05871,0.709335,0.611625,-1.26686,-0.757925,-0.420529,-1.14531,-1.05871,0.709335,0.611625,-1.26686,0.139665,-0.493959,0.893609,0.955233,-0.135797,0.00985447,0.262664,-0.425885,-0.537685,-0.72047,-0.406944,-0.589274,-0.70526,0.193096,-0.416496,0.920308,-2.16118,0.582516,-0.387824,-2.16118,0.154384,-0.387824,-0.859327,-0.23557,-0.651039,0.459125,0.453074,0.479326,-0.715985,1
1.10009,-0.666054,-1.9904,-1.05905,2.45172,1.69759,-1.76097,1.10009,-0.666054,-1.9904,-1.05905,2.45172,1.69759,-1.76097,1.18645,-0.65702,-1.92429,-1.11607,2.40995,1.64761,-1.68976,-0.757338,-0.459369,-1.15566,-0.991876,0.674265,0.532267,-1.28227,-0.757338,-0.459369,-1.15566,-0.991876,0.674265,0.532267,-1.28227,0.135425,-0.500007,0.88653,0.958853,-0.129673,0.00890754,0.252401,-0.457288,-0.553154,-0.72271,-0.437515,-0.607272,-0.70754,0.174336,-0.408367,0.924831,-1.87601,0.812861,0.452268,-1.87601,0.26287,0.452268,-0.863635,-0.0903438,-0.661096,0.570272,0.417689,0.49988,-0.712111,1
1.09239,-0.680081,-1.99955,-1.07621,2.46861,1.69545,-1.77162,1.09239,-0.680081,-1.99955,-1.07621,2.46861,1.69545,-1.77162,1.1787,-0.661899,-1.93613,-1.12624,2.41636,1.65254,-1.70266,-0.773624,-0.499156,-1.18072,-1.02634,0.639464,0.500198,-1.292,-0.773624,-0.499156,-1.18072,-1.02634,0.639464,0.500198,-1.292,0.130951,-0.506275,0.879185,0.962476,-0.123053,0.008298,0.241722,-0.476286,-0.566514,-0.760498,-0.45456,-0.624547,-0.745105,0.156762,-0.400288,0.928609,-1.75742,0.807938,0.37781,-1.75742,0.406174,0.37781,-0.863141,-0.181818,-0.63421,0.500273,0.522477,0.429012,-0.689682,1
1.08467,-0.68528,-2.00781,-1.08732,2.47677,1.69432,-1.78432,1.08467,-0.68528,-2.00781,-1.08732,2.47677,1.69432,-1.78432,1.17122,-0.666923,-1.94735,-1.13546,2.42296,1.65811,-1.71565,-0.751214,-0.499036,-1.11062,-0.852023,0.67624,0.590509,-1.30173,-0.751214,-0.499036,-1.11062,-0.852023,0.67624,0.590509,-1.30173,0.126129,-0.512243,0.87209,0.965875,-0.117047,0.00708854,0.230944,-0.525126,-0.53248,-0.701443,-0.51414,-0.583159,-0.689034,0.1394,-0.393387,0.931988,-1.73618,0.690073,0.337863,-1.73618,0.546875,0.337863,-0.86552,-0.183575,-0.60454,0.481392,0.53814,0.36202,-0.686671,1
1.07608,-0.688962,-2.01922,-1.08924,2.47972,1.69839,-1.79706,1.07608,-0.688962,-2.01922,-1.08924,2.47972,1.69839,-1.79706,1.16307,-0.672139,-1.95873,-1.14158,2.43031,1.66537,-1.72861,-0.825287,-0.534137,-1.1403,-0.522249,0.750329,0.778214,-1.29393,-0.825287,-0.534137,-1.1403,-0.522249,0.750329,0.778214,-1.29393,0.119636,-0.518107,0.865696,0.969239,-0.112662,0.00478452,0.218769,-0.69376,-0.54238,-0.63126,-0.696142,-0.580045,-0.622836,0.12092,-0.384928,0.935553,-1.84803,0.845867,0.356573,-1.84803,0.675905,0.356573,-0.869918,-0.168231,-0.60491,0.523388,0.494091,0.330216,-0.684473,1
1.0685,-0.692081,-2.03036,-1.08909,2.48411,1.70247,-1.8095,1.0685,-0.692081,-2.03036,-1.08909,2.48411,1.70247,-1.8095,1.15552,-0.677653,-1.96957,-1.14277,2.43803,1.67434,-1.74141,-0.724274,-0.561029,-1.07114,0.0112529,0.77819,0.916017,-1.27243,-0.724274,-0.561029,-1.07114,0.0112529,0.77819,0.916017,-1.27243,0.111759,-0.523515,0.860639,0.972362,-0.110762,0.00101968,0.205533,-0.794903,-0.509969,-0.474608,-0.815282,-0.527148,-0.471717,0.103019,-0.376832,0.93678,-1.79006,0.809643,0.122619,-1.79006,0.766364,0.122619,-0.870187,-0.144283,-0.607951,0.536768,0.460829,0.281338,-0.680919,1
1.06213,-0.699905,-2.04144,-1.08372,2.49122,1.7058,-1.82133,1.06213,-0.699905,-2.04144,-1.08372,2.49122,1.7058,-1.82133,1.14915,-0.683693,-1.98039,-1.13918,2.44652,1.68303,-1.75387,-0.61069,-0.607143,-1.08572,0.482917,0.873774,0.840518,-1.23799,-0.61069,-0.607143,-1.08572,0.482917,0.873774,0.840518,-1.23799,0.102915,-0.528913,0.856743,0.975295,-0.110134,-0.00389991,0.191454,-0.877821,-0.525168,-0.356895,-0.909129,-0.534164,-0.356525,0.0857667,-0.368915,0.935893,-1.72523,0.791705,-0.0886381,-1.72523,0.789901,-0.0886381,-0.870178,-0.162119,-0.610463,0.554527,0.446998,0.227745,-0.674599,1
1.05693,-0.705546,-2.0521,-1.07574,2.50393,1.70514,-1.83373,1.05693,-0.705546,-2.0521,-1.07574,2.50393,1.70514,-1.83373,1.14394,-0.689656,-1.99152,-1.1322,2.45577,1.68975,-1.76609,-0.489173,-0.59317,-1.11719,0.693319,0.929897,0.635065,-1.21903,-0.489173,-0.59317,-1.11719,0.693319,0.929897,0.635065,-1.21903,0.0937616,-0.534319,0.853845,0.978069,-0.109698,-0.00915563,0.176816,-0.865999,-0.52281,-0.292411,-0.897339,-0.532967,-0.292032,0.0682518,-0.36147,0.935346,-1.75149,0.744537,-0.0547171,-1.75149,0.785692,-0.0547171,-0.870177,-0.158903,-0.605818,0.564544,0.481633,0.153877,-0.676366,1
1.05257,-0.707892,-2.06183,-1.07033,2.51601,1.70551,-1.84625,1.05257,-0.707892,-2.06183,-1.07033,2.51601,1.70551,-1.84625,1.13953,-0.694574,-2.00187,-1.12475,2.46505,1.69486,-1.7781,-0.446354,-0.43763,-1.00303,0.747906,0.915075,0.471173,-1.1891,-0.446354,-0.43763,-1.00303,0.747906,0.915075,0.471173,-1.1891,0.085306,-0.539041,0.851713,0.980497,-0.109268,-0.0140993,0.162749,-0.801874,-0.431157,-0.181482,-0.830611,-0.436731,-0.182146,0.0514893,-0.353539,0.934633,-1.67625,0.793073,-0.0712633,-1.67625,0.786055,-0.0712633,-0.869607,-0.133174,-0.599579,0.544208,0.509565,0.106557,-0.681488,1
1.04651,-0.711849,-2.07352,-1.06342,2.5241,1.69889,-1.85767,1.04651,-0.711849,-2.07352,-1.06342,2.5241,1.69889,-1.85767,1.13357,-0.697915,-2.01199,-1.11754,2.47365,1.69875,-1.78965,-0.660036,-0.308362,-1.02033,0.698734,0.841486,0.369758,-1.15329,-0.660036,-0.308362,-1.02033,0.698734,0.841486,0.369758,-1.15329,0.0766056,-0.543059,0.850282,0.982748,-0.10905,-0.0179367,0.148298,-0.875119,-0.387391,-0.13922,-0.892462,-0.389791,-0.139908,0.0339682,-0.345803,0.932977,-1.75211,0.773564,-0.165617,-1.75211,0.788904,-0.165617,-0.870598,-0.139333,-0.615332,0.541189,0.50448,0.00144355,-0.680185,1
1.03851,-0.718266,-2.08387,-1.05703,2.53221,1.69037,-1.86883,1.03851,-0.718266,-2.08387,-1.05703,2.53221,1.69037,-1.86883,1.12564,-0.70072,-2.0223,-1.11047,2.48174,1.70194,-1.8014,-0.823792,-0.282044,-1.03275,0.70161,0.802579,0.294819,-1.18473,-0.823792,-0.282044,-1.03275,0.70161,0.802579,0.294819,-1.18473,0.0670391,-0.546893,0.849027,0.984937,-0.108795,-0.0210391,0.132741,-0.960973,-0.377531,-0.1274,-0.972384,-0.379335,-0.127837,0.0163942,-0.337697,0.930157,-1.7574,0.810641,-0.282001,-1.7574,0.782602,-0.282001,-0.871262,-0.17546,-0.615709,0.534362,0.504723,-0.115672,-0.674342,1
1.02992,-0.722336,-2.09526,-1.051,2.54091,1.68594,-1.8812,1.02992,-0.722336,-2.09526,-1.051,2.54091,1.68594,-1.8812,1.117,-0.703729,-2.03296,-1.1032,2.48996,1.70411,-1.81356,-0.869309,-0.308302,-1.07571,0.741003,0.836769,0.19548,-1.22611,-0.869309,-0.308302,-1.07571,0.741003,0.836769,0.19548,-1.22611,0.0569409,-0.550873,0.847696,0.98702,-0.108021,-0.0239407,0.116404,-1.01372,-0.390403,-0.134166,-1.02346,-0.395887,-0.133721,-0.00144266,-0.329281,0.925808,-1.78369,0.84154,-0.434905,-1.78369,0.788409,-0.434905,-0.870753,-0.186077,-0.623,0.521976,0.509527,-0.181712,-0.676366,1
1.02165,-0.727357,-2.10561,-1.04516,2.55225,1.68447,-1.89417,1.02165,-0.727357,-2.10561,-1.04516,2.55225,1.68447,-1.89417,1.1086,-0.706628,-2.0439,-1.09624,2.49873,1.70517,-1.82586,-0.827687,-0.280905,-1.0998,0.664853,0.885148,0.0775399,-1.22412,-0.827687,-0.280905,-1.0998,0.664853,0.885148,0.0775399,-1.22412,0.0469792,-0.554839,0.846312,0.988895,-0.106566,-0.0267266,0.100085,-0.97537,-0.376429,-0.145846,-0.982842,-0.388542,-0.143864,-0.0189056,-0.321596,0.919986,-1.7463,0.768521,-0.582212,-1.7463,0.793481,-0.582212,-0.869548,-0.207288,-0.617135,0.510746,0.53523,-0.207054,-0.683035,1
1.01326,-0.730401,-2.11623,-1.03619,2.56248,1.68433,-1.90648,1.01326,-0.730401,-2.11623,-1.03619,2.56248,1.68433,-1.90648,1.10029,-0.70917,-2.05492,-1.09012,2.50763,1.70487,-1.83776,-0.834854,-0.241069,-1.09072,0.606333,0.890881,-0.069726,-1.18419,-0.834854,-0.241069,-1.09072,0.606333,0.890881,-0.069726,-1.18419,0.0373617,-0.558699,0.844877,0.990545,-0.104321,-0.0290592,0.0842181,-0.955073,-0.356752,-0.138707,-0.958969,-0.37445,-0.13535,-0.0363192,-0.314698,0.914866,-1.74136,0.689775,-0.511956,-1.74136,0.788288,-0.511956,-0.870294,-0.212308,-0.613098,0.539283,0.548514,-0.205412,-0.687183,1
1.00495,-0.730313,-2.12732,-1.02734,2.57184,1.68392,-1.91882,1.00495,-0.730313,-2.12732,-1.02734,2.57184,1.68392,-1.91882,1.092,-0.711126,-2.06511,-1.08418,2.51669,1.70328,-1.84968,-0.83598,-0.183807,-1.01159,0.602474,0.90906,-0.196714,-1.19635,-0.83598,-0.183807,-1.01159,0.602474,0.90906,-0.196714,-1.19635,0.0280383,-0.56217,0.843872,0.991936,-0.101801,-0.0313073,0.0686978,-0.932224,-0.317231,-0.0932038,-0.936447,-0.336734,-0.0895881,-0.0540242,-0.30618,0.908587,-1.7705,0.851843,-0.627935,-1.7705,0.787095,-0.627935,-0.870459,-0.191875,-0.62213,0.568442,0.55159,-0.193602,-0.691376,1
0.995932,-0.733373,-2.13869,-1.02446,2.58124,1.67412,-1.93072,0.995932,-0.733373,-2.13869,-1.02446,2.58124,1.67412,-1.93072,1.08284,-0.712946,-2.07569,-1.07756,2.52602,1.70045,-1.86179,-0.9352,-0.185365,-1.06563,0.679163,0.941811,-0.303053,-1.2168,-0.9352,-0.185365,-1.06563,0.679163,0.941811,-0.303053,-1.2168,0.0179904,-0.565636,0.843108,0.993154,-0.0989714,-0.0333612,0.0523181,-1.02397,-0.320199,-0.0776929,-1.0266,-0.341592,-0.0736757,-0.0708564,-0.2977,0.899337,-1.68322,0.848016,-0.92501,-1.68322,0.792595,-0.92501,-0.869126,-0.204266,-0.629998,0.531007,0.552184,-0.263363,-0.689306,1
0.987005,-0.733025,-2.14954,-1.01761,2.59026,1.67096,-1.94316,0.987005,-0.733025,-2.14954,-1.01761,2.59026,1.67096,-1.94316,1.07388,-0.714791,-2.08576,-1.07078,2.53545,1.69701,-1.87395,-0.874726,-0.185856,-0.987692,0.680529,0.937592,-0.356228,-1.20619,-0.874726,-0.185856,-0.987692,0.680529,0.937592,-0.356228,-1.20619,0.00801638,-0.568904,0.842493,0.994089,-0.0960076,-0.0355478,0.0361436,-0.980416,-0.292834,-0.0612478,-0.985857,-0.314926,-0.0574299,-0.0884393,-0.290027,0.889304,-1.75829,0.767291,-1.0033,-1.75829,0.791389,-1.0033,-0.868796,-0.182345,-0.637774,0.531667,0.54806,-0.260577,-0.692158,1
0.978126,-0.737758,-2.1598,-1.01173,2.59923,1.66413,-1.95482,0.978126,-0.737758,-2.1598,-1.01173,2.59923,1.66413,-1.95482,1.06492,-0.717222,-2.09585,-1.06327,2.54478,1.6935,-1.88574,-0.914994,-0.267483,-1.02576,0.785609,0.939395,-0.346772,-1.17929,-0.914994,-0.267483,-1.02576,0.785609,0.939395,-0.346772,-1.17929,-0.00235248,-0.57217,0.8418,0.994736,-0.0931094,-0.037879,0.0199197,-1.0621,-0.304912,-0.0776796,-1.06978,-0.325533,-0.0744321,-0.105643,-0.282903,0.879659,-1.7204,0.712419,-0.964457,-1.7204,0.783118,-0.964457,-0.867936,-0.205361,-0.63941,0.515451,0.544443,-0.293737,-0.690793,1
0.969086,-0.742537,-2.16989,-1.00445,2.60903,1.65876,-1.9667,0.969086,-0.742537,-2.16989,-1.00445,2.60903,1.65876,-1.9667,1.05589,-0.720351,-2.10596,-1.05506,2.55446,1.69006,-1.89778,-0.885225,-0.325967,-1.00258,0.823193,0.977266,-0.353735,-1.21352,-0.885225,-0.325967,-1.00258,0.823193,0.977266,-0.353735,-1.21352,-0.0132456,-0.575465,0.840955,0.995088,-0.090202,-0.0406419,0.00332461,-1.07395,-0.30274,-0.0922156,-1.08651,-0.324038,-0.0893656,-0.122054,-0.275232,0.869271,-1.64111,0.767121,-1.03883,-1.64111,0.781565,-1.03883,-0.86806,-0.221865,-0.639314,0.506119,0.545729,-0.313037,-0.689142,1
0.960495,-0.741931,-2.18141,-0.992435,2.61748,1.65627,-1.97926,0.960495,-0.741931,-2.18141,-0.992435,2.61748,1.65627,-1.97926,1.0473,-0.724132,-2.11633,-1.04673,2.56452,1.68596,-1.91019,-0.858847,-0.394914,-1.0554,0.846479,1.01692,-0.418955,-1.2473,-0.858847,-0.394914,-1.0554,0.846479,1.01692,-0.418955,-1.2473,-0.0242178,-0.578965,0.839773,0.995193,-0.0866801,-0.0435889,-0.013357,-1.09808,-0.322507,-0.130104,-1.11248,-0.348746,-0.126698,-0.140215,-0.26791,0.858131,-1.81609,0.732109,-1.114,-1.81609,0.775207,-1.114,-0.868087,-0.177995,-0.650794,0.54295,0.529607,-0.29695,-0.690747,1
0.952131,-0.747694,-2.1918,-0.984924,2.62848,1.64977,-1.99191,0.952131,-0.747694,-2.1918,-0.984924,2.62848,1.64977,-1.99191,1.03891,-0.728169,-2.12719,-1.03827,2.57475,1.68135,-1.9228,-0.824008,-0.399468,-1.09045,0.833332,1.0235,-0.473568,-1.26486,-0.824008,-0.399468,-1.09045,0.833332,1.0235,-0.473568,-1.26486,-0.0353193,-0.582489,0.838408,0.995025,-0.0827961,-0.0464467,-0.0302266,-1.087,-0.31379,-0.143136,-1.10094,-0.342665,-0.139449,-0.157357,-0.259235,0.845936,-1.71412,0.867584,-1.21952,-1.71412,0.768608,-1.21952,-0.867822,-0.195251,-0.646103,0.533474,0.537287,-0.315839,-0.691074,1
0.944503,-0.749794,-2.20248,-0.977588,2.63869,1.64347,-2.00477,0.944503,-0.749794,-2.20248,-0.977588,2.63869,1.64347,-2.00477,1.03124,-0.73217,-2.138,-1.03044,2.58478,1.67606,-1.93546,-0.754989,-0.402709,-1.07708,0.771071,0.99693,-0.544323,-1.26388,-0.754989,-0.402709,-1.07708,0.771071,0.99693,-0.544323,-1.26388,-0.0458302,-0.585943,0.836885,0.994626,-0.0784272,-0.0490384,-0.0465181,-1.02963,-0.3058,-0.161474,-1.04298,-0.339075,-0.157264,-0.174964,-0.25153,0.83108,-1.76075,0.770491,-1.48556,-1.76075,0.768169,-1.48556,-0.867417,-0.176244,-0.644803,0.528503,0.539103,-0.325976,-0.693169,1
0.936511,-0.756151,-2.21319,-0.971406,2.64852,1.63631,-2.01703,0.936511,-0.756151,-2.21319,-0.971406,2.64852,1.63631,-2.01703,1.02324,-0.736251,-2.14913,-1.0226,2.59466,1.67038,-1.948,-0.819343,-0.409599,-1.1216,0.799126,0.988129,-0.571898,-1.25104,-0.819343,-0.409599,-1.1216,0.799126,0.988129,-0.571898,-1.25104,-0.0566366,-0.589292,0.835259,0.99395,-0.0738681,-0.0513738,-0.0629884,-1.08855,-0.28988,-0.165203,-1.10068,-0.322815,-0.161215,-0.1918,-0.244551,0.816092,-1.68362,0.697897,-1.49885,-1.68362,0.76847,-1.49885,-0.867332,-0.198993,-0.640565,0.511897,0.538548,-0.340647,-0.690334,1
0.928199,-0.754797,-2.22412,-0.959305,2.65682,1.63399,-2.02951,0.928199,-0.754797,-2.22412,-0.959305,2.65682,1.63399,-2.02951,1.01505,-0.740286,-2.15991,-1.01474,2.60432,1.6647,-1.96043,-0.811793,-0.40453,-1.06495,0.776272,0.958045,-0.570532,-1.24073,-0.811793,-0.40453,-1.06495,0.776272,0.958045,-0.570532,-1.24073,-0.0675235,-0.592321,0.833705,0.992976,-0.0694719,-0.0536743,-0.0793168,-1.06865,-0.260172,-0.160671,-1.08196,-0.291758,-0.157263,-0.209947,-0.237008,0.801867,-1.81468,0.7543,-1.42252,-1.81468,0.769384,-1.42252,-0.868532,-0.145101,-0.642098,0.554353,0.524991,-0.307082,-0.690818,1
0.91976,-0.764283,-2.23564,-0.953841,2.66611,1.62609,-2.04158,0.91976,-0.764283,-2.23564,-0.953841,2.66611,1.62609,-2.04158,1.00651,-0.744702,-2.17107,-1.00671,2.61388,1.65886,-1.97282,-0.873978,-0.456529,-1.13783,0.821536,0.962551,-0.585704,-1.23954,-0.873978,-0.456529,-1.13783,0.821536,0.962551,-0.585704,-1.23954,-0.0788581,-0.595296,0.831921,0.991696,-0.0649208,-0.055853,-0.0959387,-1.14824,-0.258403,-0.188876,-1.16145,-0.290682,-0.185625,-0.227483,-0.22835,0.785366,-1.75356,0.865796,-1.65011,-1.75356,0.775481,-1.65011,-0.867537,-0.195809,-0.645653,0.528667,0.52227,-0.327684,-0.687579,1
0.911344,-0.772711,-2.24606,-0.950117,2.67719,1.61798,-2.05409,0.911344,-0.772711,-2.24606,-0.950117,2.67719,1.61798,-2.05409,0.99803,-0.749185,-2.18217,-0.998508,2.62359,1.6528,-1.98527,-0.827204,-0.437246,-1.09167,0.8067,0.970451,-0.612224,-1.24721,-0.827204,-0.437246,-1.09167,0.8067,0.970451,-0.612224,-1.24721,-0.090287,-0.598068,0.830148,0.990113,-0.060333,-0.0581053,-0.112515,-1.10832,-0.230843,-0.175854,-1.12378,-0.262826,-0.173145,-0.243609,-0.220291,0.76584,-1.61263,0.805841,-1.95252,-1.61263,0.782675,-1.95252,-0.866866,-0.235264,-0.638898,0.483904,0.535916,-0.348229,-0.688209,1
0.90297,-0.773783,-2.25711,-0.937535,2.68609,1.61425,-2.06645,0.90297,-0.773783,-2.25711,-0.937535,2.68609,1.61425,-2.06645,0.989806,-0.753543,-2.19317,-0.990527,2.63337,1.64651,-1.99775,-0.835857,-0.438097,-1.10995,0.804926,0.979348,-0.628654,-1.24851,-0.835857,-0.438097,-1.10995,0.804926,0.979348,-0.628654,-1.24851,-0.101518,-0.600628,0.828377,0.988269,-0.0556358,-0.060314,-0.128807,-1.12176,-0.211427,-0.181162,-1.13784,-0.243519,-0.178789,-0.261026,-0.213663,0.747568,-1.74171,0.662839,-1.82727,-1.74171,0.769259,-1.82727,-0.868361,-0.202391,-0.639357,0.529923,0.527243,-0.322552,-0.686977,1
0.894382,-0.77836,-2.26811,-0.929171,2.69593,1.60808,-2.07901,0.894382,-0.77836,-2.26811,-0.929171,2.69593,1.60808,-2.07901,0.981187,-0.757597,-2.20424,-0.982197,2.64313,1.64036,-2.01026,-0.863024,-0.393793,-1.10254,0.843095,0.970336,-0.612656,-1.25193,-0.863024,-0.393793,-1.10254,0.843095,0.970336,-0.612656,-1.25193,-0.113048,-0.602712,0.826855,0.986073,-0.0513409,-0.0624604,-0.145335,-1.13771,-0.161888,-0.143813,-1.15347,-0.188662,-0.142303,-0.277744,-0.206081,0.728294,-1.67183,0.758217,-1.92733,-1.67183,0.767281,-1.92733,-0.868048,-0.207623,-0.638703,0.53026,0.528038,-0.322814,-0.687485,1
0.885911,-0.783982,-2.27902,-0.920742,2.70564,1.60175,-2.09152,0.885911,-0.783982,-2.27902,-0.920742,2.70564,1.60175,-2.09152,0.972741,-0.761648,-2.21519,-0.974024,2.65272,1.63406,-2.02275,-0.836803,-0.417868,-1.09458,0.807503,0.95561,-0.635197,-1.2481,-0.836803,-0.417868,-1.09458,0.807503,0.95561,-0.635197,-1.2481,-0.124424,-0.604597,0.825301,0.983625,-0.0469943,-0.0645102,-0.161592,-1.11859,-0.155614,-0.167563,-1.13523,-0.184656,-0.166113,-0.294333,-0.198632,0.708398,-1.65884,0.74487,-1.98962,-1.65884,0.765345,-1.98962,-0.868299,-0.22334,-0.638276,0.532822,0.52916,-0.323142,-0.687702,1
0.877369,-0.789098,-2.2904,-0.911214,2.71439,1.59644,-2.10386,0.877369,-0.789098,-2.2904,-0.911214,2.71439,1.59644,-2.10386,0.964263,-0.766045,-2.2264,-0.966084,2.66233,1.62752,-2.0352,-0.855894,-0.442088,-1.12912,0.797244,0.962493,-0.659177,-1.24419,-0.855894,-0.442088,-1.12912,0.797244,0.962493,-0.659177,-1.24419,-0.135937,-0.606472,0.823426,0.980907,-0.0422951,-0.0664641,-0.177804,-1.14376,-0.145365,-0.19113,-1.16095,-0.176223,-0.189807,-0.311376,-0.190739,0.688455,-1.70437,0.789309,-1.99428,-1.70437,0.758758,-1.99428,-0.868935,-0.230537,-0.639957,0.548698,0.520679,-0.310847,-0.686553,1
0.869058,-0.793545,-2.30111,-0.905643,2.72465,1.58831,-2.11621,0.869058,-0.793545,-2.30111,-0.905643,2.72465,1.58831,-2.11621,0.955847,-0.77023,-2.23716,-0.958095,2.67186,1.62109,-2.04749,-0.82893,-0.406088,-1.05048,0.786111,0.939216,-0.632705,-1.21617,-0.82893,-0.406088,-1.05048,0.786111,0.939216,-0.632705,-1.21617,-0.147314,-0.607959,0.821747,0.977942,-0.0378758,-0.0684845,-0.193663,-1.10008,-0.104879,-0.16151,-1.11859,-0.131473,-0.161036,-0.328306,-0.182753,0.665652,-1.69295,0.798577,-2.28037,-1.69295,0.753304,-2.28037,-0.867889,-0.233153,-0.639442,0.524526,0.52792,-0.327778,-0.687119,1
0.86049,-0.797999,-2.31247,-0.899443,2.73242,1.58198,-2.12752,0.86049,-0.797999,-2.31247,-0.899443,2.73242,1.58198,-2.12752,0.947186,-0.774324,-2.24781,-0.950238,2.68096,1.61501,-2.05928,-0.894111,-0.418432,-1.08342,0.800444,0.910569,-0.605166,-1.17523,-0.894111,-0.418432,-1.08342,0.800444,0.910569,-0.605166,-1.17523,-0.158721,-0.609079,0.82009,0.97475,-0.0337601,-0.0703176,-0.209231,-1.15073,-0.0736752,-0.169899,-1.16781,-0.0978517,-0.169693,-0.346043,-0.175297,0.641313,-1.7737,0.745586,-2.43388,-1.7737,0.757654,-2.43388,-0.866963,-0.236747,-0.646627,0.507945,0.514618,-0.33035,-0.682399,1
0.851511,-0.80395,-2.3229,-0.891814,2.74215,1.57535,-2.13946,0.851511,-0.80395,-2.3229,-0.891814,2.74215,1.57535,-2.13946,0.938184,-0.778525,-2.25845,-0.942028,2.69026,1.60903,-2.07126,-0.882846,-0.414585,-1.04572,0.828486,0.937126,-0.600935,-1.20728,-0.882846,-0.414585,-1.04572,0.828486,0.937126,-0.600935,-1.20728,-0.170496,-0.60987,0.818471,0.971204,-0.0298115,-0.0723034,-0.225048,-1.1458,-0.0440486,-0.153151,-1.1658,-0.0652218,-0.153784,-0.362707,-0.168554,0.617213,-1.66644,0.674328,-2.40994,-1.66644,0.759901,-2.40994,-0.866731,-0.254253,-0.644535,0.502141,0.518906,-0.336808,-0.682002,1
0.842786,-0.807773,-2.33417,-0.880588,2.75054,1.57106,-2.15204,0.842786,-0.807773,-2.33417,-0.880588,2.75054,1.57106,-2.15204,0.929494,-0.782902,-2.26922,-0.933785,2.69976,1.60285,-2.08365,-0.877093,-0.45702,-1.0989,0.828067,0.960921,-0.621727,-1.24874,-0.877093,-0.45702,-1.0989,0.828067,0.960921,-0.621727,-1.24874,-0.182202,-0.610573,0.816731,0.967369,-0.0256818,-0.0743445,-0.240854,-1.16634,-0.0419069,-0.187582,-1.18764,-0.065365,-0.188387,-0.380454,-0.160103,0.593233,-1.77469,0.84509,-2.39807,-1.77469,0.762609,-2.39807,-0.867078,-0.248708,-0.649499,0.531974,0.507743,-0.317903,-0.683884,1
0.834282,-0.814772,-2.34539,-0.875187,2.76078,1.56157,-2.16433,0.834282,-0.814772,-2.34539,-0.875187,2.76078,1.56157,-2.16433,0.920834,-0.787527,-2.28028,-0.925467,2.70946,1.59651,-2.09628,-0.850062,-0.452152,-1.09974,0.83616,0.969462,-0.642167,-1.26549,-0.850062,-0.452152,-1.09974,0.83616,0.969462,-0.642167,-1.26549,-0.194063,-0.611161,0.81481,0.963211,-0.0213764,-0.0763943,-0.25677,-1.15106,-0.022645,-0.182443,-1.17328,-0.0455427,-0.183643,-0.397174,-0.151905,0.566462,-1.67202,0.819866,-2.67706,-1.67202,0.770191,-2.67706,-0.865513,-0.27245,-0.651117,0.502794,0.513249,-0.349367,-0.680507,1
0.826144,-0.817788,-2.35644,-0.868696,2.77071,1.55494,-2.17677,0.826144,-0.817788,-2.35644,-0.868696,2.77071,1.55494,-2.17677,0.912597,-0.791842,-2.29118,-0.917153,2.71898,1.59004,-2.10875,-0.823409,-0.434954,-1.08911,0.822294,0.940545,-0.641136,-1.23118,-0.823409,-0.434954,-1.08911,0.822294,0.940545,-0.641136,-1.23118,-0.205519,-0.61148,0.8131,0.95889,-0.0172278,-0.0783189,-0.272212,-1.12073,-0.000354011,-0.174493,-1.14208,-0.022035,-0.175877,-0.413874,-0.144986,0.538386,-1.66993,0.691824,-2.80759,-1.66993,0.76482,-2.80759,-0.864534,-0.259452,-0.652626,0.48457,0.517302,-0.35101,-0.68023,1
0.817607,-0.819408,-2.36725,-0.85899,2.77936,1.55018,-2.18882,0.817607,-0.819408,-2.36725,-0.85899,2.77936,1.55018,-2.18882,0.904035,-0.79621,-2.30209,-0.909224,2.72797,1.58376,-2.12061,-0.871634,-0.430436,-1.09637,0.79582,0.888312,-0.628432,-1.17948,-0.871634,-0.430436,-1.09637,0.79582,0.888312,-0.628432,-1.17948,-0.217013,-0.611553,0.811238,0.954398,-0.0131377,-0.0799365,-0.287337,-1.13724,0.0311708,-0.180666,-1.15624,0.010334,-0.181959,-0.431697,-0.136906,0.511245,-1.7823,0.808033,-2.71415,-1.7823,0.767191,-2.71415,-0.864281,-0.231981,-0.651564,0.502338,0.513931,-0.335871,-0.682187,1
0.809127,-0.828298,-2.37805,-0.858221,2.78927,1.53939,-2.20024,0.809127,-0.828298,-2.37805,-0.858221,2.78927,1.53939,-2.20024,0.895241,-0.800615,-2.31289,-0.901031,2.73693,1.57742,-2.13254,-0.874714,-0.445728,-1.07162,0.816649,0.899242,-0.638703,-1.20009,-0.874714,-0.445728,-1.07162,0.816649,0.899242,-0.638703,-1.20009,-0.228681,-0.611307,0.809456,0.949606,-0.00917705,-0.0815858,-0.302503,-1.14229,0.0525072,-0.179366,-1.16337,0.0330167,-0.181239,-0.447105,-0.130045,0.481813,-1.54086,0.686072,-2.94313,-1.54086,0.764891,-2.94313,-0.861133,-0.276833,-0.651614,0.4281,0.52338,-0.380217,-0.677004,1
0.800333,-0.83533,-2.38976,-0.850166,2.79688,1.53319,-2.2123,0.800333,-0.83533,-2.38976,-0.850166,2.79688,1.53319,-2.2123,0.886491,-0.805489,-2.32398,-0.89305,2.74613,1.57075,-2.14481,-0.881318,-0.501636,-1.12749,0.790883,0.929711,-0.677581,-1.2354,-0.881318,-0.501636,-1.12749,0.790883,0.929711,-0.677581,-1.2354,-0.240493,-0.611105,0.807264,0.944506,-0.00472936,-0.0832506,-0.317733,-1.16869,0.0488188,-0.231541,-1.19194,0.0247979,-0.233673,-0.463198,-0.123456,0.4522,-1.60931,0.65897,-2.96136,-1.60931,0.751465,-2.96136,-0.861586,-0.298412,-0.657834,0.428836,0.507478,-0.375579,-0.674877,1
0.791788,-0.836466,-2.40046,-0.838209,2.80623,1.52897,-2.22557,0.791788,-0.836466,-2.40046,-0.838209,2.80623,1.52897,-2.22557,0.878005,-0.81044,-2.33504,-0.885223,2.75556,1.56391,-2.15717,-0.824799,-0.47986,-1.0826,0.779785,0.937554,-0.684784,-1.2289,-0.824799,-0.47986,-1.0826,0.779785,0.937554,-0.684784,-1.2289,-0.252158,-0.610807,0.804965,0.939197,-0.000103345,-0.0849839,-0.332696,-1.11621,0.0639405,-0.215352,-1.1412,0.041372,-0.218097,-0.480804,-0.114506,0.422782,-1.76055,0.894995,-2.94174,-1.76055,0.745114,-2.94174,-0.862166,-0.260257,-0.654224,0.47014,0.506689,-0.349399,-0.683998,1
0.783707,-0.844466,-2.41254,-0.834496,2.81391,1.52129,-2.23764,0.783707,-0.844466,-2.41254,-0.834496,2.81391,1.52129,-2.23764,0.869675,-0.814912,-2.34586,-0.877637,2.76467,1.55718,-2.16914,-0.856702,-0.454118,-1.10037,0.753239,0.912262,-0.675639,-1.19287,-0.856702,-0.454118,-1.10037,0.753239,0.912262,-0.675639,-1.19287,-0.263425,-0.61017,0.802926,0.933807,0.0042368,-0.0865261,-0.347131,-1.1211,0.0980882,-0.210061,-1.14417,0.0766418,-0.21278,-0.498428,-0.105742,0.391343,-1.76239,0.876397,-3.14392,-1.76239,0.760359,-3.14392,-0.85968,-0.295548,-0.666792,0.431405,0.492359,-0.358844,-0.684962,1
