Afshin1997/kuka_rl_ros2/src/catch_and_throw/output_files/tm/nn_ema7.00_jvws3_realball_D23H17M48S57/recorded_data.csv
pure_target_joint_0,pure_target_joint_1,pure_target_joint_2,pure_target_joint_3,pure_target_joint_4,pure_target_joint_5,pure_target_joint_6,target_joint_0,target_joint_1,target_joint_2,target_joint_3,target_joint_4,target_joint_5,target_joint_6,pos_joint_0,pos_joint_1,pos_joint_2,pos_joint_3,pos_joint_4,pos_joint_5,pos_joint_6,vel_joint_0,vel_joint_1,vel_joint_2,vel_joint_3,vel_joint_4,vel_joint_5,vel_joint_6,vel_smooth_joint_0,vel_smooth_joint_1,vel_smooth_joint_2,vel_smooth_joint_3,vel_smooth_joint_4,vel_smooth_joint_5,vel_smooth_joint_6,ee_pos_x,ee_pos_y,ee_pos_z,ee_or_w,ee_or_x,ee_or_y,ee_or_z,ee_vel_x,ee_vel_y,ee_vel_z,ball_pos_x,ball_pos_y,ball_pos_z,ball_raw_vx,ball_raw_vy,ball_raw_vz,ball_ema_vx,ball_ema_vy,ball_ema_vz,action_0,action_1,action_2,action_3,action_4,action_5,action_6,command_published
1.81574,-1.03709,-1.8075,-1.1068,2.00253,1.17915,-0.863081,1.81574,-1.03709,-1.8075,-1.1068,2.00253,1.17915,-0.863081,1.78023,-1.06467,-1.81508,-1.11694,1.93723,1.11688,-0.916366,0,0,0,0,0,0,0,0,0,0,0,0,0,0,0.531029,-0.454462,0.694318,0.574595,0.175144,0.152581,0.784783,0,0,0,2.99362,-0.470224,0.334507,-3.29111,0.260469,4.80685,-3.25287,0.130292,4.63864,0.355098,0.275867,0.0757605,0.101407,0.652974,0.622709,0.532846,1
1.76189,-1.04086,-1.83159,-1.06916,1.99351,1.17933,-0.860281,1.76189,-1.04086,-1.83159,-1.06916,1.99351,1.17933,-0.860281,1.78023,-1.06467,-1.81508,-1.11694,1.93723,1.11688,-0.916366,0,0,0,0,0,0,0,0,0,0,0,0,0,0,0.531029,-0.454462,0.694318,0.574595,0.175144,0.152581,0.784783,0,0,0,2.96304,-0.468714,0.381138,-3.05765,0.150922,4.66312,-3.21225,0.159737,4.63261,-0.183365,0.238145,-0.165081,0.47782,0.562787,0.624536,0.560852,1
1.75028,-1.01436,-1.77125,-1.06181,2.00533,1.17906,-0.85261,1.75028,-1.01436,-1.77125,-1.06181,2.00533,1.17906,-0.85261,1.7844,-1.06143,-1.81419,-1.11575,1.9449,1.12419,-0.910105,0.834485,0.648289,0.178038,0.238309,1.5345,1.46337,1.25219,0.278162,0.216096,0.059346,0.0794364,0.511499,0.48779,0.417397,0.530997,-0.452052,0.697466,0.570774,0.171406,0.148495,0.789168,0.0805931,0.477959,0.583944,2.9314,-0.466796,0.427345,-3.16443,0.191808,4.6207,-3.18799,0.182458,4.59388,-0.341215,0.470716,0.429369,0.539435,0.604303,0.548647,0.574945,1
1.74727,-0.985124,-1.75836,-1.12601,2.013,1.16146,-0.831523,1.74727,-0.985124,-1.75836,-1.12601,2.013,1.16146,-0.831523,1.78501,-1.05649,-1.81554,-1.10935,1.95659,1.13637,-0.899374,-0.615496,0.416242,-0.427325,1.07017,0.983125,1.14397,1.04102,0.0729961,0.354844,-0.0830956,0.436159,0.839207,0.869113,0.764405,0.527568,-0.453548,0.702451,0.568871,0.165705,0.141554,0.793026,-0.617512,-0.693971,0.414469,2.89909,-0.464729,0.472423,-3.23133,0.206712,4.50774,-3.17842,0.196553,4.53001,-0.377422,0.713656,0.571739,-0.166598,0.564075,0.250866,0.678509,1
1.81543,-0.978298,-1.74422,-1.13591,2.02623,1.18797,-0.825938,1.81543,-0.978298,-1.74422,-1.13591,2.02623,1.18797,-0.825938,1.77853,-1.04992,-1.812,-1.0996,1.96615,1.14584,-0.889826,-0.752245,0.946888,1.08508,1.00625,1.04353,0.884534,0.991005,-0.177752,0.670473,0.278599,0.771575,1.18705,1.16396,1.09474,0.520167,-0.458211,0.710688,0.570967,0.158439,0.134198,0.794283,-0.770941,-0.284171,1.2017,2.86699,-0.462621,0.516239,-3.21009,0.210807,4.38159,-3.18047,0.200308,4.44401,0.369019,0.716206,0.677825,-0.363128,0.600797,0.421289,0.638876,1
1.7724,-0.972407,-1.7424,-1.11055,2.03491,1.20127,-0.818215,1.7724,-0.972407,-1.7424,-1.11055,2.03491,1.20127,-0.818215,1.77193,-1.03862,-1.80147,-1.09878,1.97571,1.15112,-0.879116,-0.656722,1.42448,1.14788,-0.725061,0.992805,0.275253,1.26734,-0.674821,0.929205,0.60188,0.450451,1.00649,0.767919,1.09979,0.513956,-0.456775,0.721477,0.568388,0.15086,0.128512,0.798537,-0.401627,0.525443,1.02811,2.83439,-0.460251,0.558879,-3.25968,0.237015,4.26407,-3.19163,0.203294,4.3431,0.00469468,0.662108,0.590713,-0.117732,0.591909,0.501519,0.609008,1
1.78957,-0.958243,-1.7306,-1.07716,2.05193,1.21385,-0.816036,1.78957,-0.958243,-1.7306,-1.07716,2.05193,1.21385,-0.816036,1.77448,-1.02598,-1.79027,-1.10597,1.98552,1.15652,-0.867932,1.09047,1.26981,1.22646,-0.797314,1.08406,0.837425,1.11826,-0.106165,1.21373,1.15314,-0.172043,1.04013,0.665737,1.12554,0.513206,-0.447062,0.731098,0.558724,0.143528,0.125084,0.807205,0.331462,1.4103,0.963033,2.80312,-0.458315,0.600642,-3.12707,0.193617,4.17622,-3.19012,0.202958,4.23849,0.150893,0.677403,0.596733,0.288101,0.664146,0.573298,0.518959,1
1.7679,-0.940376,-1.71864,-1.11639,2.05889,1.2049,-0.798584,1.7679,-0.940376,-1.71864,-1.11639,2.05889,1.2049,-0.798584,1.77848,-1.01474,-1.77987,-1.10961,1.99554,1.16504,-0.857736,-0.162081,1.12736,0.997856,-0.0251215,1.04825,0.964795,1.05239,0.0905559,1.27389,1.12407,-0.515832,1.04171,0.692491,1.146,0.511998,-0.438289,0.740599,0.550026,0.134677,0.120596,0.815346,-0.360759,0.449484,0.988027,2.77147,-0.456293,0.641292,-3.16505,0.202182,4.06508,-3.19997,0.209662,4.13397,-0.105858,0.743665,0.612289,-0.0677757,0.633452,0.398531,0.59152,1
1.80915,-0.93111,-1.70513,-1.12345,2.07074,1.21143,-0.791314,1.80915,-0.93111,-1.70513,-1.12345,2.07074,1.21143,-0.791314,1.77915,-1.00371,-1.7702,-1.1059,2.00625,1.17454,-0.848738,0.277373,1.21086,1.05442,0.765275,1.21647,1.047,0.87081,0.401921,1.20268,1.09291,-0.0190535,1.11626,0.949741,1.01382,0.50771,-0.433961,0.75151,0.545803,0.124407,0.114498,0.820678,-0.339995,0.438676,1.23732,2.73953,-0.454256,0.680986,-3.19359,0.203687,3.96935,-3.19539,0.209996,4.02523,0.299905,0.726044,0.65067,-0.175549,0.644961,0.368914,0.57424,1
1.79674,-0.922049,-1.70377,-1.10194,2.06955,1.23662,-0.778156,1.79674,-0.922049,-1.70377,-1.10194,2.06955,1.23662,-0.778156,1.78146,-0.993656,-1.76144,-1.09954,2.01635,1.18323,-0.841504,0.216028,0.943061,0.821224,0.596025,0.947431,0.815446,0.67822,0.11044,1.09376,0.957834,0.445393,1.07072,0.942415,0.867142,0.503831,-0.430136,0.762063,0.542565,0.114282,0.108513,0.825098,-0.275127,0.351676,0.953701,2.70774,-0.452354,0.719532,-3.17907,0.190246,3.85463,-3.18523,0.206481,3.9187,0.152838,0.716069,0.576693,-0.0239804,0.531942,0.53385,0.633476,1
1.75089,-0.910488,-1.6957,-1.07937,2.09119,1.22882,-0.769471,1.75089,-0.910488,-1.6957,-1.07937,2.09119,1.22882,-0.769471,1.77846,-0.98187,-1.75197,-1.10327,2.02576,1.18802,-0.83201,-0.281263,1.105,0.887551,-0.349464,0.882113,0.449297,0.890161,0.0707127,1.08631,0.921066,0.337279,1.01534,0.770582,0.813064,0.500011,-0.424676,0.770892,0.536653,0.107576,0.105124,0.830289,-0.298112,0.501113,0.803684,2.67572,-0.450392,0.757234,-3.20187,0.196171,3.77021,-3.18097,0.201931,3.81656,-0.275713,0.713823,0.562756,0.23896,0.654273,0.407915,0.625392,1
1.76901,-0.898219,-1.68086,-1.09002,2.10214,1.24309,-0.766934,1.76901,-0.898219,-1.68086,-1.09002,2.10214,1.24309,-0.766934,1.78379,-0.969577,-1.74145,-1.1052,2.03557,1.19616,-0.821462,0.344949,1.2657,1.00348,0.0869764,0.904809,1.07737,1.15324,0.0932382,1.10459,0.904085,0.111179,0.911451,0.780705,0.907208,0.498576,-0.415003,0.780789,0.527119,0.0980679,0.101223,0.838023,-0.217858,0.779571,1.03693,2.64381,-0.448628,0.793632,-3.19142,0.176433,3.63974,-3.17951,0.195196,3.71315,-0.147833,0.71358,0.605931,0.151877,0.665738,0.469249,0.545278,1
1.75406,-0.883226,-1.67279,-1.1175,2.1087,1.24059,-0.749124,1.75406,-0.883226,-1.67279,-1.1175,2.1087,1.24059,-0.749124,1.78127,-0.957706,-1.73217,-1.10183,2.04563,1.20419,-0.810862,-0.809002,1.25742,0.971224,0.598084,1.21326,0.655712,1.10227,-0.248439,1.20938,0.954085,0.111865,1.00006,0.72746,1.04856,0.492901,-0.411397,0.791249,0.522818,0.0884318,0.0961904,0.842371,-0.75372,0.00832311,1.12774,2.61196,-0.446899,0.829032,-3.1852,0.172871,3.54,-3.18792,0.190866,3.60749,-0.272053,0.7448,0.59381,-0.156689,0.630747,0.363982,0.617378,1
1.77393,-0.872169,-1.65942,-1.10474,2.12126,1.2449,-0.746468,1.77393,-0.872169,-1.65942,-1.10474,2.12126,1.2449,-0.746468,1.77668,-0.94582,-1.72236,-1.09811,2.05699,1.21132,-0.801408,-0.204245,1.26761,1.10512,0.215612,1.20237,0.84603,0.918061,-0.222766,1.26358,1.02661,0.300224,1.10681,0.859704,1.05786,0.486267,-0.408884,0.801813,0.519579,0.0791478,0.0905721,0.845914,-0.473592,0.481976,1.07052,2.5802,-0.444964,0.863641,-3.17521,0.193536,3.46096,-3.18884,0.187245,3.50442,-0.0274239,0.736506,0.629344,-0.0662467,0.642621,0.335852,0.549401,1
1.74809,-0.859859,-1.65281,-1.09499,2.13411,1.25439,-0.733313,1.74809,-0.859859,-1.65281,-1.09499,2.13411,1.25439,-0.733313,1.77322,-0.933529,-1.71223,-1.09955,2.06775,1.21805,-0.79169,-0.510289,1.33959,1.05036,-0.477951,1.09056,0.600266,1.13354,-0.507845,1.28821,1.04224,0.111915,1.16873,0.700669,1.05129,0.481151,-0.403635,0.811186,0.513678,0.0708189,0.0864246,0.850677,-0.43962,0.596577,0.894079,2.54859,-0.443101,0.8971,-3.16145,0.1863,3.34591,-3.18452,0.184786,3.40128,-0.251366,0.736695,0.594146,0.0455629,0.663547,0.3634,0.583767,1
1.765,-0.846749,-1.63978,-1.1047,2.14533,1.25772,-0.725644,1.765,-0.846749,-1.63978,-1.1047,2.14533,1.25772,-0.725644,1.77132,-0.921103,-1.70193,-1.10202,2.07829,1.22354,-0.781963,0.0696038,1.30312,1.1321,-0.072324,1.14433,0.568784,0.945221,-0.214977,1.30344,1.09586,-0.111554,1.14575,0.671693,0.99894,0.477029,-0.397103,0.820208,0.506559,0.0631433,0.0829161,0.855883,-0.288306,0.747971,0.986222,2.51708,-0.441249,0.929766,-3.15101,0.185165,3.2666,-3.17805,0.184148,3.30159,-0.0632256,0.743541,0.621484,-0.0268044,0.670443,0.341735,0.563181,1
1.74724,-0.834417,-1.63015,-1.11905,2.15747,1.24285,-0.710749,1.74724,-0.834417,-1.63015,-1.11905,2.15747,1.24285,-0.710749,1.76886,-0.908832,-1.69175,-1.10148,2.0893,1.22938,-0.772565,-0.553221,1.30416,1.03698,0.172637,1.19321,0.665973,1.0453,-0.331302,1.31562,1.07315,-0.125879,1.1427,0.611674,1.04135,0.471967,-0.391837,0.829742,0.50071,0.0547738,0.0787041,0.860288,-0.590253,0.372476,1.0065,2.48556,-0.439315,0.96153,-3.15228,0.193363,3.17637,-3.16901,0.18495,3.20438,-0.216167,0.744151,0.616035,-0.175706,0.681643,0.134663,0.618169,1
1.78248,-0.822514,-1.61763,-1.11126,2.16923,1.25617,-0.703582,1.78248,-0.822514,-1.61763,-1.11126,2.16923,1.25617,-0.703582,1.76625,-0.896459,-1.68161,-1.10118,2.10053,1.2353,-0.762982,-0.033431,1.3238,1.11379,-0.0936811,1.19302,0.596824,0.994306,-0.17235,1.31036,1.09429,0.00221073,1.17685,0.610527,0.994942,0.466845,-0.386413,0.839092,0.494564,0.0464455,0.0745936,0.864688,-0.338922,0.734036,0.954811,2.4537,-0.437414,0.992305,-3.18568,0.190091,3.07748,-3.16517,0.187578,3.11122,0.162233,0.739447,0.639763,-0.1008,0.687013,0.208656,0.594002,1
1.76065,-0.808425,-1.60979,-1.11506,2.18049,1.25322,-0.69049,1.76065,-0.808425,-1.60979,-1.11506,2.18049,1.25322,-0.69049,1.76389,-0.884014,-1.67123,-1.10365,2.11187,1.23852,-0.752972,-0.443256,1.32079,1.09386,-0.41011,1.21432,0.115399,1.12444,-0.343303,1.31625,1.08154,-0.110385,1.20018,0.459399,1.05468,0.462797,-0.379923,0.847625,0.48693,0.0400341,0.0713529,0.8696,-0.377778,0.633485,0.845432,2.42285,-0.435268,1.02212,-3.08466,0.214621,2.98178,-3.15482,0.192057,3.01796,-0.0323994,0.755884,0.614356,-0.114088,0.686258,0.14709,0.624824,1
1.77048,-0.795571,-1.59817,-1.10831,2.1927,1.26452,-0.683417,1.77048,-0.795571,-1.59817,-1.10831,2.1927,1.26452,-0.683417,1.76435,-0.871644,-1.66067,-1.10614,2.12334,1.24104,-0.74279,0.482782,1.30836,1.14606,-0.13646,1.22224,0.40295,1.04414,0.00203183,1.31765,1.1179,-0.213417,1.20986,0.371725,1.0543,0.459887,-0.372056,0.855999,0.477763,0.0338964,0.0682504,0.875178,-0.125114,0.996862,0.912039,2.39159,-0.433289,1.05073,-3.12588,0.197929,2.86115,-3.14529,0.194727,2.92094,0.0613378,0.760735,0.625018,-0.0217528,0.693627,0.234829,0.593733,1
1.76546,-0.782505,-1.58818,-1.12015,2.20499,1.25098,-0.67017,1.76546,-0.782505,-1.58818,-1.12015,2.20499,1.25098,-0.67017,1.76579,-0.859121,-1.65023,-1.10772,2.13481,1.24404,-0.732579,-0.136972,1.35005,1.07687,-0.19541,1.21651,0.24458,1.12085,-0.0324818,1.3264,1.1056,-0.247327,1.21769,0.25431,1.09648,0.457009,-0.363848,0.864491,0.468319,0.0273066,0.0651393,0.880732,-0.328074,0.744982,0.878402,2.36005,-0.431565,1.07837,-3.15461,0.172347,2.76316,-3.14034,0.194903,2.82259,-0.00332847,0.766162,0.620451,-0.124332,0.701749,0.0694237,0.624093,1
1.78558,-0.770505,-1.57608,-1.11964,2.21703,1.25289,-0.659872,1.78558,-0.770505,-1.57608,-1.11964,2.21703,1.25289,-0.659872,1.76581,-0.846397,-1.63992,-1.10855,2.14635,1.2474,-0.722438,0.124382,1.35345,1.11177,0.00625095,1.23422,0.45597,1.03909,0.156731,1.33729,1.11157,-0.10854,1.22432,0.367833,1.06803,0.453329,-0.356343,0.873071,0.459645,0.0204318,0.0620208,0.885699,-0.308634,0.827083,0.926954,2.32857,-0.429844,1.10492,-3.14834,0.17215,2.65551,-3.13809,0.192288,2.71987,0.19775,0.75892,0.63838,-0.110931,0.706752,0.0548919,0.625659,1
1.77919,-0.757038,-1.56734,-1.11671,2.22825,1.25364,-0.648272,1.77919,-0.757038,-1.56734,-1.11671,2.22825,1.25364,-0.648272,1.76625,-0.833619,-1.62951,-1.10989,2.15805,1.2496,-0.71225,-0.0211331,1.36111,1.10048,-0.273302,1.24997,0.0369263,1.12056,-0.011241,1.35487,1.09637,-0.154154,1.23356,0.245825,1.0935,0.450036,-0.348401,0.881396,0.450381,0.0142601,0.0591842,0.890758,-0.259016,0.84627,0.836223,2.29742,-0.428321,1.13032,-3.1146,0.152257,2.54023,-3.13389,0.185092,2.61377,0.129368,0.765815,0.621678,-0.0682434,0.702056,0.0404507,0.639776,1
1.76728,-0.744056,-1.55783,-1.10472,2.23998,1.25803,-0.639584,1.76728,-0.744056,-1.55783,-1.10472,2.23998,1.25803,-0.639584,1.76844,-0.820903,-1.61895,-1.1121,2.16984,1.25013,-0.701732,0.456493,1.34204,1.14149,-0.200883,1.2564,0.0735475,1.11469,0.18658,1.3522,1.11791,-0.155978,1.24686,0.188815,1.09144,0.447743,-0.339377,0.889335,0.439686,0.00912478,0.0567334,0.896311,-0.123511,1.0486,0.841801,2.26621,-0.426876,1.15481,-3.12076,0.144485,2.449,-3.12987,0.17483,2.50755,-0.0116269,0.768463,0.611171,0.0738169,0.701398,0.079036,0.621484,1
1.75588,-0.730799,-1.54844,-1.10609,2.25227,1.24661,-0.629861,1.75588,-0.730799,-1.54844,-1.10609,2.25227,1.24661,-0.629861,1.77148,-0.808172,-1.60844,-1.11342,2.1816,1.25083,-0.69111,0.205231,1.36167,1.09434,-0.0875973,1.24231,0.0749643,1.14071,0.21353,1.35494,1.1121,-0.187261,1.24956,0.0618127,1.12532,0.445441,-0.330143,0.897335,0.428707,0.00372843,0.054244,0.901806,-0.236964,0.913896,0.850197,2.23489,-0.425091,1.17852,-3.13182,0.178543,2.37097,-3.13313,0.166429,2.4047,-0.156056,0.773731,0.599994,0.0733093,0.706758,-0.0421291,0.612481,1
1.78046,-0.718349,-1.53662,-1.11752,2.26418,1.24387,-0.617169,1.78046,-0.718349,-1.53662,-1.11752,2.26418,1.24387,-0.617169,1.77179,-0.795336,-1.59823,-1.11274,2.1933,1.25196,-0.680613,-0.120056,1.36553,1.07582,0.213678,1.24321,0.161525,1.09258,0.180556,1.35641,1.10388,-0.024934,1.2473,0.103346,1.11599,0.441685,-0.322632,0.905662,0.419617,-0.00223452,0.0515495,0.906234,-0.418742,0.691216,0.909177,2.20378,-0.423398,1.20133,-3.11108,0.169262,2.28034,-3.12893,0.162812,2.30708,0.0867525,0.769869,0.616133,-0.0477983,0.708835,-0.0809231,0.63444,1
1.79652,-0.706031,-1.52607,-1.12739,2.27748,1.22837,-0.605715,1.79652,-0.706031,-1.52607,-1.12739,2.27748,1.22837,-0.605715,1.76945,-0.782435,-1.58819,-1.11113,2.20507,1.25196,-0.670395,-0.361457,1.37502,1.05854,0.134096,1.25707,-0.142505,1.07937,-0.0920938,1.36741,1.07623,0.0867256,1.24753,0.0313281,1.10422,0.437047,-0.316501,0.914055,0.412066,-0.00775304,0.0489563,0.909805,-0.443672,0.616189,0.871819,2.17257,-0.421592,1.22306,-3.12114,0.180662,2.17345,-3.12329,0.164436,2.21106,0.270707,0.764046,0.621194,-0.162621,0.724078,-0.235928,0.646802,1
1.76828,-0.693848,-1.51806,-1.09397,2.29001,1.22753,-0.596501,1.76828,-0.693848,-1.51806,-1.09397,2.29001,1.22753,-0.596501,1.76934,-0.769551,-1.57801,-1.11136,2.21691,1.25046,-0.659938,0.296272,1.36344,1.10221,-0.164145,1.25879,-0.175396,1.13889,-0.0617468,1.368,1.07886,0.0612098,1.25302,-0.0521255,1.10361,0.433748,-0.308744,0.92184,0.40259,-0.0120627,0.0469491,0.914096,-0.178955,1.00657,0.7847,2.14149,-0.41981,1.24368,-3.10805,0.178212,2.06242,-3.1191,0.167998,2.11529,-0.0105872,0.757023,0.599461,0.173903,0.730989,-0.229318,0.634367,1
1.74371,-0.679607,-1.51296,-1.08976,2.30167,1.21494,-0.591783,1.74371,-0.679607,-1.51296,-1.08976,2.30167,1.21494,-0.591783,1.77369,-0.756777,-1.56761,-1.11388,2.22893,1.24718,-0.649131,0.608109,1.35134,1.10623,-0.359755,1.29279,-0.500855,1.15614,0.180975,1.36327,1.089,-0.129935,1.26955,-0.272919,1.1248,0.432562,-0.298343,0.928882,0.389933,-0.0149048,0.0455342,0.919596,-0.0145881,1.19409,0.713858,2.11046,-0.417949,1.26332,-3.10311,0.186044,1.9636,-3.11658,0.174104,2.01884,-0.299743,0.771703,0.546487,0.241192,0.727429,-0.322446,0.573489,1
1.75274,-0.665745,-1.50043,-1.12893,2.31483,1.19534,-0.573226,1.75274,-0.665745,-1.50043,-1.12893,2.31483,1.19534,-0.573226,1.77542,-0.744121,-1.55748,-1.11294,2.24114,1.24292,-0.638445,-0.190116,1.33871,1.04974,0.50527,1.30133,-0.409922,1.11693,0.238089,1.35116,1.08606,-0.00620989,1.2843,-0.362058,1.13732,0.429933,-0.290207,0.936581,0.379597,-0.0179818,0.0435838,0.92395,-0.438571,0.585531,0.908267,2.07942,-0.416255,1.28204,-3.10421,0.169411,1.87237,-3.11265,0.17763,1.92018,-0.226785,0.783755,0.570545,-0.159907,0.7369,-0.475853,0.652189,1
1.75558,-0.655053,-1.49054,-1.12885,2.32754,1.18762,-0.563856,1.75558,-0.655053,-1.49054,-1.12885,2.32754,1.18762,-0.563856,1.77095,-0.731327,-1.54816,-1.10825,2.25332,1.23804,-0.628613,-0.725403,1.37726,0.937337,0.492342,1.28755,-0.61514,0.98075,-0.10247,1.35577,1.03111,0.212619,1.29389,-0.508639,1.08461,0.424839,-0.285855,0.944989,0.373875,-0.0214735,0.0413177,0.926309,-0.554065,0.369861,0.878535,2.04862,-0.414442,1.29987,-3.0802,0.181335,1.78236,-3.10599,0.178132,1.82048,-0.153674,0.762744,0.576264,-0.205963,0.742206,-0.504155,0.647566,1
1.75108,-0.643158,-1.48469,-1.08865,2.34085,1.17808,-0.5572,1.75108,-0.643158,-1.48469,-1.08865,2.34085,1.17808,-0.5572,1.76599,-0.718258,-1.5389,-1.10876,2.26556,1.23062,-0.618285,-0.352773,1.39836,1.02459,-0.537085,1.31197,-0.939683,1.19989,-0.422764,1.37144,1.00389,0.153509,1.30029,-0.654915,1.09919,0.421274,-0.279909,0.951974,0.366386,-0.0222146,0.0406499,0.929309,-0.20049,0.869067,0.619173,2.01839,-0.412848,1.31712,-3.023,0.159347,1.72566,-3.09349,0.176803,1.72632,-0.149101,0.750998,0.542153,0.201101,0.752856,-0.525402,0.610852,1
1.73847,-0.629291,-1.48032,-1.09867,2.35396,1.1688,-0.54572,1.73847,-0.629291,-1.48032,-1.09867,2.35396,1.1688,-0.54572,1.76339,-0.705386,-1.52923,-1.11321,2.27795,1.22191,-0.607217,-0.207881,1.34032,1.03039,-0.416265,1.32047,-0.913123,1.15467,-0.428685,1.37198,0.997439,-0.153669,1.30666,-0.822649,1.11177,0.419534,-0.271717,0.957786,0.355938,-0.02116,0.0408396,0.933377,-0.181028,0.876579,0.614793,1.98671,-0.410445,1.33357,-3.1673,0.240356,1.64473,-3.09154,0.181683,1.63915,-0.249175,0.760948,0.489092,0.145473,0.76006,-0.531112,0.614968,1
1.72718,-0.616718,-1.47099,-1.11418,2.36609,1.15888,-0.532853,1.72718,-0.616718,-1.47099,-1.11418,2.36609,1.15888,-0.532853,1.76113,-0.692854,-1.51998,-1.11195,2.29048,1.21321,-0.596844,-0.267825,1.32337,0.939898,0.620361,1.34109,-0.935275,1.05567,-0.27616,1.35402,0.998293,-0.110996,1.32451,-0.92936,1.13674,0.416641,-0.265284,0.964776,0.347484,-0.0215206,0.0397924,0.936594,-0.400158,0.530245,0.85442,1.95551,-0.409213,1.34874,-3.12049,0.123122,1.51709,-3.09455,0.179301,1.5527,-0.339568,0.76136,0.489914,-0.0223434,0.756069,-0.543271,0.639911,1
1.72162,-0.604404,-1.46406,-1.09812,2.3782,1.15104,-0.523294,1.72162,-0.604404,-1.46406,-1.09812,2.3782,1.15104,-0.523294,1.75743,-0.680232,-1.51166,-1.10797,2.30317,1.20435,-0.586726,-0.504788,1.35658,0.834658,0.247816,1.35263,-0.946593,1.09198,-0.326831,1.34009,0.934981,0.150637,1.33806,-0.931664,1.10078,0.4129,-0.260316,0.972196,0.340843,-0.0222935,0.0384183,0.93907,-0.36707,0.545413,0.727849,1.92407,-0.40775,1.36251,-3.14424,0.146332,1.37638,-3.10324,0.173848,1.4595,-0.358123,0.758284,0.476003,0.0985093,0.750343,-0.533054,0.634317,1
1.71467,-0.591462,-1.45723,-1.09044,2.39095,1.14227,-0.513064,1.71467,-0.591462,-1.45723,-1.09044,2.39095,1.14227,-0.513064,1.75191,-0.667487,-1.50363,-1.10774,2.31583,1.19532,-0.576143,-0.658597,1.35198,0.86926,-0.171658,1.33858,-0.970379,1.15285,-0.47707,1.34398,0.881272,0.232173,1.3441,-0.950749,1.10017,0.409733,-0.254842,0.978445,0.333653,-0.0216925,0.0380933,0.941676,-0.310275,0.623924,0.605083,1.89337,-0.406034,1.37557,-3.0694,0.171629,1.30621,-3.10756,0.170291,1.36239,-0.372343,0.760251,0.464027,0.172954,0.751216,-0.530495,0.630791,1
1.70317,-0.57865,-1.45043,-1.09244,2.40331,1.13298,-0.501373,1.70317,-0.57865,-1.45043,-1.09244,2.40331,1.13298,-0.501373,1.74578,-0.65481,-1.4956,-1.10728,2.32837,1.18634,-0.565444,-0.643608,1.34233,0.839832,0.243784,1.32704,-0.939934,1.12248,-0.602331,1.3503,0.847917,0.106647,1.33942,-0.952302,1.12244,0.406427,-0.249559,0.984598,0.326674,-0.0210999,0.0378333,0.944144,-0.390279,0.515982,0.695491,1.86253,-0.404224,1.38767,-3.08453,0.181037,1.21013,-3.11052,0.167779,1.26153,-0.426132,0.761601,0.451671,0.148354,0.749466,-0.533542,0.640718,1
1.69518,-0.566199,-1.44286,-1.08748,2.41578,1.12391,-0.49096,1.69518,-0.566199,-1.44286,-1.08748,2.41578,1.12391,-0.49096,1.73962,-0.642139,-1.48782,-1.10435,2.34089,1.1775,-0.554919,-0.664392,1.34957,0.814611,0.370339,1.3331,-0.938191,1.1146,-0.655532,1.34796,0.841234,0.147488,1.33291,-0.949502,1.12997,0.402571,-0.244919,0.991245,0.320525,-0.0212265,0.0371467,0.946273,-0.41571,0.485185,0.714239,1.83171,-0.402598,1.39851,-3.08154,0.162539,1.08424,-3.10905,0.165617,1.15423,-0.444462,0.759398,0.44964,0.168634,0.748883,-0.535831,0.639584,1
1.68834,-0.553664,-1.43556,-1.08176,2.42833,1.11559,-0.480666,1.68834,-0.553664,-1.43556,-1.08176,2.42833,1.11559,-0.480666,1.73275,-0.629424,-1.48026,-1.10151,2.35342,1.16861,-0.544287,-0.787757,1.35214,0.794201,0.241452,1.32884,-0.948892,1.14282,-0.698586,1.34801,0.816215,0.285192,1.32966,-0.942339,1.12663,0.398672,-0.240411,0.997712,0.314597,-0.021188,0.036621,0.948282,-0.405175,0.484212,0.661506,1.80094,-0.400909,1.4086,-3.07741,0.168929,1.00889,-3.09451,0.162018,1.04926,-0.444134,0.757595,0.446936,0.19743,0.749176,-0.530239,0.636212,1
1.68068,-0.541197,-1.42877,-1.07849,2.44099,1.10706,-0.469836,1.68068,-0.541197,-1.42877,-1.07849,2.44099,1.10706,-0.469836,1.72527,-0.61673,-1.47277,-1.09892,2.36592,1.15967,-0.533571,-0.801392,1.34564,0.796561,0.304501,1.32779,-0.952087,1.13473,-0.75118,1.34911,0.801791,0.30543,1.32991,-0.94639,1.13071,0.394796,-0.235949,1.00396,0.308768,-0.0209452,0.0362557,0.950215,-0.41476,0.474567,0.664239,1.77018,-0.399047,1.41781,-3.07564,0.18622,0.921059,-3.08536,0.170067,0.951215,-0.445934,0.755324,0.439988,0.204277,0.750723,-0.526105,0.637343,1
1.67849,-0.530508,-1.42365,-1.0737,2.45288,1.09872,-0.460742,1.67849,-0.530508,-1.42365,-1.0737,2.45288,1.09872,-0.460742,1.71861,-0.605552,-1.46615,-1.09639,2.37695,1.15176,-0.524145,-0.624125,1.04799,0.620362,0.237146,1.03408,-0.741486,0.883728,-0.737758,1.24859,0.737042,0.261033,1.23024,-0.880822,1.05376,0.391369,-0.231983,1.00943,0.303643,-0.0207549,0.0359336,0.951882,-0.317484,0.38078,0.508045,1.73947,-0.397248,1.42596,-3.07065,0.179905,0.81495,-3.07766,0.174274,0.856367,-0.40125,0.750448,0.425054,0.226881,0.75932,-0.530369,0.63403,1
1.67174,-0.517789,-1.41705,-1.07641,2.46572,1.08995,-0.449337,1.67174,-0.517789,-1.41705,-1.07641,2.46572,1.08995,-0.449337,1.71102,-0.59261,-1.45859,-1.09277,2.3898,1.14276,-0.513255,-0.807962,1.36914,0.794058,0.380247,1.3632,-0.950679,1.15626,-0.744493,1.25425,0.736994,0.307298,1.24169,-0.881417,1.05824,0.387305,-0.227422,1.01582,0.297773,-0.0207544,0.0354402,0.953753,-0.421792,0.492805,0.666499,1.70869,-0.395616,1.43319,-3.07866,0.163135,0.722718,-3.07746,0.17413,0.759795,-0.392756,0.748214,0.415418,0.163588,0.759234,-0.528057,0.639177,1
1.66692,-0.505797,-1.41144,-1.07053,2.47875,1.08252,-0.438951,1.66692,-0.505797,-1.41144,-1.07053,2.47875,1.08252,-0.438951,1.70405,-0.579981,-1.45139,-1.08905,2.40252,1.13388,-0.502582,-0.680664,1.3175,0.73881,0.408701,1.34105,-0.936263,1.11421,-0.70425,1.24488,0.717743,0.342031,1.24611,-0.876143,1.0514,0.383513,-0.222773,1.02194,0.291787,-0.0206598,0.0349429,0.955622,-0.380704,0.505265,0.635942,1.67768,-0.393964,1.43938,-3.10063,0.165233,0.618815,-3.07874,0.172871,0.663688,-0.371248,0.741841,0.399457,0.185166,0.762274,-0.513628,0.636317,1
1.65718,-0.493511,-1.40648,-1.0624,2.49113,1.07407,-0.428819,1.65718,-0.493511,-1.40648,-1.0624,2.49113,1.07407,-0.428819,1.6976,-0.567543,-1.44448,-1.08597,2.41517,1.12507,-0.491987,-0.688678,1.32499,0.730517,0.25462,1.3463,-0.935313,1.13578,-0.725768,1.33721,0.754461,0.347856,1.35018,-0.940752,1.13542,0.380157,-0.217796,1.02766,0.285426,-0.0202251,0.0346264,0.957561,-0.335616,0.558556,0.579485,1.6468,-0.392537,1.44439,-3.08791,0.142679,0.501084,-3.08119,0.169654,0.566262,-0.404218,0.740319,0.37996,0.235743,0.759648,-0.510011,0.631685,1
1.65103,-0.48096,-1.40146,-1.06186,2.50385,1.06576,-0.417934,1.65103,-0.48096,-1.40146,-1.06186,2.50385,1.06576,-0.417934,1.69132,-0.555129,-1.43775,-1.08317,2.42788,1.11643,-0.481333,-0.649563,1.31371,0.700572,0.33646,1.35457,-0.903111,1.12865,-0.672968,1.31873,0.7233,0.33326,1.34731,-0.924896,1.12621,0.377,-0.212625,1.03313,0.278842,-0.0196596,0.0344039,0.959519,-0.338646,0.549703,0.58137,1.61579,-0.3911,1.44856,-3.1016,0.143719,0.416863,-3.08572,0.163319,0.465828,-0.402895,0.741689,0.362904,0.213075,0.759711,-0.506739,0.63399,1
1.64532,-0.469076,-1.39526,-1.05949,2.51684,1.05827,-0.407365,1.64532,-0.469076,-1.39526,-1.05949,2.51684,1.05827,-0.407365,1.68477,-0.542773,-1.43135,-1.07942,2.44059,1.10794,-0.470767,-0.734866,1.31185,0.662232,0.453194,1.34603,-0.901831,1.1171,-0.691035,1.31685,0.697774,0.348091,1.34897,-0.913418,1.12718,0.373632,-0.207794,1.03867,0.272701,-0.0193455,0.0340376,0.961302,-0.373533,0.490835,0.594983,1.58477,-0.389532,1.45175,-3.10134,0.156748,0.319815,-3.09102,0.156847,0.365057,-0.394507,0.736965,0.360862,0.199306,0.762542,-0.496637,0.634022,1
1.64012,-0.457345,-1.392,-1.05438,2.52971,1.05116,-0.397084,1.64012,-0.457345,-1.392,-1.05438,2.52971,1.05116,-0.397084,1.67795,-0.530401,-1.42526,-1.07559,2.45326,1.09947,-0.460209,-0.71691,1.31659,0.633705,0.365599,1.34714,-0.897719,1.12576,-0.700446,1.31405,0.665503,0.385084,1.34925,-0.900887,1.12384,0.370312,-0.203026,1.04407,0.266752,-0.0189415,0.0337722,0.962987,-0.335151,0.528339,0.553427,1.5541,-0.387984,1.45396,-3.06687,0.154817,0.220239,-3.09227,0.152934,0.265347,-0.378238,0.730569,0.332566,0.212045,0.764427,-0.4831,0.631256,1
1.63541,-0.445586,-1.38852,-1.05003,2.54268,1.04397,-0.386825,1.63541,-0.445586,-1.38852,-1.05003,2.54268,1.04397,-0.386825,1.67132,-0.518069,-1.41927,-1.07227,2.46598,1.09113,-0.449616,-0.692314,1.30462,0.639187,0.340508,1.35442,-0.875015,1.12511,-0.714697,1.31102,0.645041,0.386434,1.3492,-0.891522,1.12266,0.367269,-0.19798,1.04918,0.260489,-0.0183286,0.0336401,0.964717,-0.317888,0.549721,0.53173,1.52358,-0.386499,1.45514,-3.05191,0.14849,0.117981,-3.08747,0.151123,0.165608,-0.359169,0.724828,0.307436,0.222452,0.766957,-0.471616,0.627906,1
1.63047,-0.433751,-1.38504,-1.04893,2.55562,1.03705,-0.376285,1.63047,-0.433751,-1.38504,-1.04893,2.55562,1.03705,-0.376285,1.66496,-0.505853,-1.41357,-1.06884,2.47874,1.08303,-0.439062,-0.661382,1.29174,0.57443,0.385075,1.35712,-0.848649,1.11785,-0.690202,1.30431,0.615774,0.363727,1.35289,-0.873794,1.1229,0.36435,-0.192914,1.05412,0.254163,-0.0177198,0.0334723,0.96642,-0.308214,0.535348,0.518606,1.49295,-0.384783,1.45542,-3.06332,0.171685,0.0281215,-3.07966,0.152626,0.0679331,-0.344885,0.721021,0.285369,0.199136,0.768734,-0.459733,0.627766,1
1.62656,-0.422325,-1.3829,-1.04763,2.56855,1.03122,-0.365971,1.62656,-0.422325,-1.3829,-1.04763,2.56855,1.03122,-0.365971,1.65891,-0.493741,-1.40839,-1.06513,2.49154,1.07513,-0.428571,-0.625962,1.28234,0.529132,0.402278,1.36171,-0.829846,1.11165,-0.659886,1.2929,0.580916,0.375954,1.35775,-0.85117,1.1182,0.361546,-0.187909,1.05893,0.247898,-0.017127,0.033259,0.968064,-0.293363,0.536195,0.502499,1.46244,-0.383113,1.45476,-3.05123,0.166932,-0.0661612,-3.07123,0.156927,-0.0278192,-0.323482,0.714159,0.254969,0.175004,0.770141,-0.439145,0.626001,1
1.62406,-0.411482,-1.38229,-1.04417,2.58165,1.02622,-0.355933,1.62406,-0.411482,-1.38229,-1.04417,2.58165,1.02622,-0.355933,1.65313,-0.481699,-1.40359,-1.06166,2.50437,1.06743,-0.418099,-0.603437,1.27681,0.494007,0.339059,1.3646,-0.808812,1.11344,-0.63026,1.28363,0.532523,0.375471,1.36114,-0.829102,1.11431,0.358983,-0.182797,1.06348,0.241512,-0.0163867,0.033115,0.969694,-0.261017,0.556244,0.465735,1.43209,-0.381766,1.45322,-3.03448,0.134706,-0.153291,-3.06034,0.157291,-0.123338,-0.290767,0.702167,0.21302,0.174904,0.772767,-0.412088,0.621651,1
1.62211,-0.400844,-1.3826,-1.04136,2.59477,1.02161,-0.345938,1.62211,-0.400844,-1.3826,-1.04136,2.59477,1.02161,-0.345938,1.64766,-0.46975,-1.39923,-1.05869,2.51723,1.06002,-0.407638,-0.561794,1.26288,0.435036,0.294547,1.36678,-0.767036,1.10954,-0.597064,1.27401,0.486058,0.345295,1.36436,-0.801898,1.11154,0.356743,-0.177547,1.06769,0.234965,-0.0154356,0.033079,0.971318,-0.229021,0.564888,0.429317,1.40141,-0.380565,1.4504,-3.06805,0.120091,-0.282443,-3.05443,0.152586,-0.22112,-0.255507,0.689063,0.166314,0.173349,0.775415,-0.384132,0.616994,1
1.61968,-0.390453,-1.38564,-1.04212,2.60779,1.01822,-0.335976,1.61968,-0.390453,-1.38564,-1.04212,2.60779,1.01822,-0.335976,1.6427,-0.457986,-1.39555,-1.05584,2.53012,1.05306,-0.397241,-0.496462,1.23835,0.353141,0.310714,1.37218,-0.714874,1.1,-0.553897,1.25934,0.427395,0.314773,1.36785,-0.763574,1.10766,0.354752,-0.172324,1.07162,0.228373,-0.0144333,0.0330152,0.972907,-0.208354,0.552326,0.406252,1.37074,-0.378988,1.44672,-3.06705,0.157708,-0.367916,-3.05457,0.149547,-0.319221,-0.230199,0.675332,0.0991037,0.137217,0.776758,-0.348445,0.612651,1
1.61906,-0.380617,-1.39226,-1.04155,2.62077,1.01687,-0.326688,1.61906,-0.380617,-1.39226,-1.04155,2.62077,1.01687,-0.326688,1.63835,-0.446449,-1.39265,-1.05293,2.54306,1.04658,-0.38693,-0.432372,1.21443,0.267614,0.3081,1.37697,-0.665048,1.09157,-0.496876,1.23855,0.35193,0.304454,1.37198,-0.715653,1.10037,0.352977,-0.167216,1.07531,0.221793,-0.0134418,0.0328584,0.974447,-0.183299,0.541695,0.37861,1.34056,-0.377294,1.44197,-3.01806,0.169411,-0.475407,-3.05181,0.149117,-0.418809,-0.19283,0.658324,0.00390532,0.113813,0.777085,-0.297101,0.602415,1
1.61251,-0.371202,-1.40892,-1.03156,2.63314,1.02061,-0.317814,1.61251,-0.371202,-1.40892,-1.03156,2.63314,1.02061,-0.317814,1.63447,-0.43514,-1.39079,-1.05046,2.55603,1.04066,-0.376692,-0.393848,1.18999,0.13708,0.22209,1.37852,-0.597613,1.08422,-0.440894,1.21426,0.252612,0.280301,1.37589,-0.659178,1.09193,0.351568,-0.162236,1.07859,0.215291,-0.0122614,0.0327226,0.975925,-0.135322,0.525536,0.320689,1.31052,-0.375812,1.43625,-3.00418,0.14824,-0.571823,-3.04427,0.147603,-0.519983,-0.219595,0.639383,-0.181363,0.188985,0.771129,-0.200511,0.588776,1
1.5871,-0.36048,-1.43176,-1.01137,2.6437,1.03944,-0.308715,1.5871,-0.36048,-1.43176,-1.01137,2.6437,1.03944,-0.308715,1.63113,-0.4241,-1.39042,-1.04855,2.569,1.03554,-0.366594,-0.321195,1.15791,-0.0488952,0.186385,1.37844,-0.497035,1.06266,-0.382472,1.18744,0.118599,0.238859,1.37798,-0.586565,1.07948,0.3506,-0.157522,1.08136,0.209073,-0.0108726,0.0326174,0.977296,-0.0937325,0.486481,0.270369,1.28046,-0.374027,1.42966,-3.00562,0.178456,-0.658941,-3.03543,0.151567,-0.620284,-0.440234,0.636197,-0.413403,0.371784,0.747001,0.0390119,0.578789,1
1.56911,-0.343623,-1.44498,-1.00681,2.65113,1.0635,-0.300419,1.56911,-0.343623,-1.44498,-1.00681,2.65113,1.0635,-0.300419,1.62769,-0.413375,-1.39279,-1.04583,2.58191,1.03185,-0.356724,-0.404159,1.12303,-0.429602,0.379858,1.3643,-0.299286,1.03614,-0.373067,1.15698,-0.113806,0.262778,1.37375,-0.464645,1.06101,0.349592,-0.154006,1.08388,0.204342,-0.00989437,0.0322836,0.978317,-0.132092,0.283805,0.265263,1.25036,-0.372329,1.42217,-3.01008,0.169817,-0.748551,-3.02612,0.159159,-0.718233,-0.585736,0.69752,-0.521939,0.390157,0.692208,0.316478,0.563056,1
1.55703,-0.330581,-1.45763,-1.06526,2.6597,1.07166,-0.292408,1.55703,-0.330581,-1.45763,-1.06526,2.6597,1.07166,-0.292408,1.62135,-0.402787,-1.39904,-1.0403,2.59448,1.03158,-0.347048,-0.911847,1.12658,-0.871401,0.770342,1.31074,0.209421,1.02077,-0.545734,1.13584,-0.449966,0.445529,1.35116,-0.195634,1.03986,0.34724,-0.153262,1.08667,0.203428,-0.0109361,0.0314549,0.978523,-0.334323,-0.0889462,0.323228,1.21997,-0.370701,1.41388,-3.03938,0.162813,-0.829661,-3.01853,0.164925,-0.81061,-0.643107,0.722057,-0.5859,-0.249647,0.652183,0.400861,0.546403,1
1.55996,-0.326282,-1.46631,-1.08709,2.67018,1.08875,-0.291779,1.55996,-0.326282,-1.46631,-1.08709,2.67018,1.08875,-0.291779,1.61166,-0.391448,-1.40783,-1.03336,2.60624,1.03614,-0.337594,-1.13287,1.27352,-0.989261,0.707081,1.19529,0.728436,0.989949,-0.816293,1.17438,-0.763421,0.619094,1.29011,0.212857,1.01562,0.3434,-0.153912,1.08965,0.205763,-0.0146259,0.030938,0.978003,-0.409369,-0.0544761,0.312149,1.18972,-0.369031,1.40455,-3.02465,0.166935,-0.933015,-3.01572,0.166212,-0.902773,-0.51702,0.651652,-0.584768,-0.537299,0.63942,0.526064,0.458154,1
1.5566,-0.326405,-1.48522,-1.08071,2.67092,1.10811,-0.309193,1.5566,-0.326405,-1.48522,-1.08071,2.67092,1.10811,-0.309193,1.60083,-0.379336,-1.41754,-1.03436,2.61718,1.04315,-0.32843,-1.16622,1.29838,-1.06773,-0.822999,1.13237,0.759216,0.959271,-1.07031,1.23283,-0.976132,0.218141,1.2128,0.565691,0.989997,0.341796,-0.152825,1.0902,0.207781,-0.0162434,0.0325898,0.977497,0.0628642,0.223628,-0.164668,1.1595,-0.367432,1.39414,-3.02185,0.15997,-1.0406,-3.0188,0.165977,-0.995225,-0.44225,0.529311,-0.676871,-0.463549,0.53739,0.64962,0.192371,1
1.54114,-0.315712,-1.49723,-1.09156,2.68098,1.11164,-0.29565,1.54114,-0.315712,-1.49723,-1.09156,2.68098,1.11164,-0.29565,1.59148,-0.368047,-1.42743,-1.04376,2.62781,1.05147,-0.320388,-0.839612,1.1122,-1.03551,-1.15399,1.12828,0.992834,0.761869,-1.04623,1.22803,-1.03083,-0.423304,1.15198,0.826829,0.903696,0.343185,-0.15032,1.08795,0.208182,-0.0148735,0.035351,0.977338,0.18764,0.259545,-0.301961,1.12944,-0.365802,1.38282,-3.00655,0.162929,-1.13171,-3.02073,0.166128,-1.08906,-0.503457,0.523349,-0.698005,-0.478045,0.531678,0.601718,0.247375,1
1.53299,-0.300962,-1.50625,-1.1093,2.69104,1.10636,-0.284524,1.53299,-0.300962,-1.50625,-1.1093,2.69104,1.10636,-0.284524,1.58412,-0.358823,-1.43825,-1.0526,2.63727,1.06199,-0.316106,-0.732687,0.86329,-1.25095,-0.748795,0.895934,1.22834,0.184098,-0.912838,1.09129,-1.11806,-0.908596,1.0522,0.993464,0.635079,0.344466,-0.149033,1.08537,0.21033,-0.0145614,0.0373073,0.97681,0.0754154,-0.00334046,-0.247433,1.09946,-0.364169,1.37056,-2.99766,0.163391,-1.22592,-3.01899,0.16392,-1.18471,-0.511292,0.578611,-0.679997,-0.567033,0.537622,0.443713,0.315821,1
1.52437,-0.296758,-1.51801,-1.12101,2.69876,1.10668,-0.283044,1.52437,-0.296758,-1.51801,-1.12101,2.69876,1.10668,-0.283044,1.57621,-0.350396,-1.45005,-1.06009,2.6459,1.07261,-0.312985,-0.934053,0.923643,-1.25631,-0.838166,0.934329,1.03945,0.461635,-0.83545,0.966376,-1.18092,-0.913652,0.986181,1.08688,0.469201,0.345288,-0.149082,1.08292,0.214272,-0.014654,0.0389855,0.975886,0.0900472,-0.0377644,-0.268388,1.06948,-0.36269,1.35768,-2.99821,0.147888,-1.28839,-3.0141,0.161469,-1.27796,-0.51838,0.536376,-0.67958,-0.609214,0.528675,0.340705,0.29941,1
1.51399,-0.29237,-1.53094,-1.13012,2.70733,1.12055,-0.276056,1.51399,-0.29237,-1.53094,-1.13012,2.70733,1.12055,-0.276056,1.5675,-0.34099,-1.46155,-1.06914,2.65484,1.08062,-0.307843,-0.919009,1.06598,-1.19046,-1.06955,0.963901,0.68548,0.621013,-0.861916,0.95097,-1.23257,-0.885503,0.931388,0.984424,0.422249,0.346874,-0.148582,1.08015,0.217244,-0.0128661,0.0413084,0.975158,0.196156,0.0981566,-0.316092,1.03929,-0.361251,1.34376,-3.01919,0.143871,-1.39173,-3.00918,0.1582,-1.37018,-0.535038,0.486207,-0.693992,-0.60987,0.524869,0.399265,0.317872,1
1.50907,-0.28396,-1.54242,-1.13984,2.71849,1.1372,-0.27231,1.50907,-0.28396,-1.54242,-1.13984,2.71849,1.1372,-0.27231,1.55885,-0.331642,-1.47282,-1.0794,2.66375,1.08635,-0.302511,-0.918112,0.928976,-1.20349,-1.10823,0.932346,0.541282,0.518411,-0.923725,0.972866,-1.21675,-1.00531,0.943525,0.755404,0.533686,0.349203,-0.148067,1.07697,0.219908,-0.00942484,0.0437794,0.974492,0.221611,-0.0137849,-0.355867,1.00912,-0.359894,1.32897,-3.01697,0.135675,-1.47973,-3.00787,0.153165,-1.45943,-0.497779,0.476824,-0.696017,-0.604406,0.547325,0.508482,0.302016,1
1.51058,-0.284386,-1.55379,-1.15057,2.73016,1.14745,-0.274027,1.51058,-0.284386,-1.55379,-1.15057,2.73016,1.14745,-0.274027,1.55,-0.32341,-1.48433,-1.08967,2.6725,1.09248,-0.297384,-0.95902,0.826618,-1.24131,-1.07722,0.92732,0.747507,0.567969,-0.932047,0.940524,-1.21175,-1.085,0.941189,0.65809,0.569131,0.351398,-0.148682,1.07354,0.223001,-0.00600298,0.0456444,0.973731,0.174428,-0.130017,-0.369152,0.978993,-0.358395,1.31325,-3.01253,0.149921,-1.57101,-3.00838,0.149445,-1.54704,-0.394269,0.390241,-0.694541,-0.608944,0.576529,0.549727,0.233573,1
1.5085,-0.286622,-1.56575,-1.16267,2.7379,1.15414,-0.275071,1.5085,-0.286622,-1.56575,-1.16267,2.7379,1.15414,-0.275071,1.54146,-0.315556,-1.49599,-1.09976,2.68152,1.10064,-0.292226,-0.862501,0.841416,-1.23635,-1.06723,0.984479,0.973518,0.530382,-0.913211,0.86567,-1.22705,-1.08423,0.948048,0.754102,0.538921,0.353154,-0.149708,1.07007,0.226013,-0.00360649,0.0469949,0.972983,0.148084,-0.104309,-0.365554,0.949024,-0.356857,1.29634,-2.99688,0.15381,-1.69156,-3.00908,0.147069,-1.63851,-0.32958,0.289338,-0.697638,-0.62908,0.563846,0.53503,0.171547,1
1.49711,-0.28893,-1.57681,-1.17471,2.74581,1.15647,-0.277899,1.49711,-0.28893,-1.57681,-1.17471,2.74581,1.15647,-0.277899,1.53447,-0.308617,-1.5076,-1.10989,2.69107,1.10993,-0.288022,-0.636349,0.645275,-1.23005,-1.08332,1.04099,0.999069,0.372708,-0.81929,0.771103,-1.2359,-1.07592,0.984262,0.906698,0.490353,0.354838,-0.151038,1.06646,0.228651,-0.00171858,0.0475188,0.972346,0.168767,-0.175424,-0.399972,0.919002,-0.355498,1.27843,-3.00226,0.135851,-1.79096,-3.00924,0.144757,-1.73425,-0.373671,0.19687,-0.692165,-0.648193,0.547397,0.465406,0.101234,1
1.49195,-0.323872,-1.58725,-1.18609,2.75281,1.16428,-0.288172,1.49195,-0.323872,-1.58725,-1.18609,2.75281,1.16428,-0.288172,1.52894,-0.30352,-1.51922,-1.12031,2.70062,1.11902,-0.285049,-0.544356,0.449992,-1.23924,-1.12812,0.992755,0.935442,0.265716,-0.681069,0.645561,-1.23522,-1.09289,1.00607,0.969343,0.389602,0.356723,-0.15331,1.06246,0.231234,0.00050434,0.0470789,0.971758,0.188893,-0.283044,-0.446659,0.889017,-0.354066,1.25943,-2.99844,0.143239,-1.90024,-3.00734,0.144334,-1.83589,-0.369963,-0.203525,-0.680271,-0.657829,0.521843,0.452612,-0.0312227,1
1.48145,-0.346274,-1.59643,-1.19364,2.76601,1.17367,-0.294802,1.48145,-0.346274,-1.59643,-1.19364,2.76601,1.17367,-0.294802,1.52308,-0.300053,-1.53081,-1.13109,2.7098,1.12706,-0.283174,-0.691774,0.296218,-1.225,-1.16146,0.958908,0.783243,0.140487,-0.62416,0.463829,-1.23143,-1.1243,0.99755,0.905918,0.259637,0.358689,-0.156929,1.05809,0.234626,0.00350838,0.0459789,0.970991,0.175771,-0.442908,-0.481604,0.859217,-0.352717,1.23951,-2.98008,0.134939,-1.99149,-3.00146,0.143415,-1.93804,-0.416291,-0.462213,-0.656216,-0.625532,0.562123,0.46611,-0.116276,1
1.47261,-0.364708,-1.60189,-1.20143,2.77841,1.1773,-0.316846,1.47261,-0.364708,-1.60189,-1.20143,2.77841,1.1773,-0.316846,1.51673,-0.301699,-1.54221,-1.14208,2.71859,1.13448,-0.283215,-0.659989,-0.590493,-1.19925,-1.17208,0.911339,0.793439,-0.132007,-0.63204,0.0519059,-1.22116,-1.15389,0.954334,0.837375,0.0913988,0.360414,-0.164363,1.05291,0.239224,0.00729035,0.0424768,0.970007,0.134037,-1.01762,-0.617931,0.829972,-0.35069,1.21837,-2.92443,0.202635,-2.11426,-2.98928,0.149141,-2.04351,-0.441226,-0.630094,-0.596793,-0.593528,0.598239,0.428185,-0.336318,1
1.46146,-0.377754,-1.6158,-1.2149,2.78823,1.18713,-0.3272,1.46146,-0.377754,-1.6158,-1.2149,2.78823,1.18713,-0.3272,1.51002,-0.309236,-1.55325,-1.1527,2.72771,1.14218,-0.28509,-0.760574,-0.986309,-1.14983,-1.09032,1.01999,0.838649,-0.258618,-0.704112,-0.426861,-1.19136,-1.14129,0.963412,0.80511,-0.0833791,0.361448,-0.176106,1.04696,0.244747,0.0112058,0.0357877,0.968861,0.044436,-1.31738,-0.656619,0.800221,-0.349484,1.19669,-2.97514,0.12061,-2.16786,-2.97931,0.149456,-2.14481,-0.485587,-0.685182,-0.625482,-0.621985,0.605247,0.449472,-0.421103,1
1.45546,-0.391399,-1.62834,-1.22374,2.79308,1.20297,-0.327166,1.45546,-0.391399,-1.62834,-1.22374,2.79308,1.20297,-0.327166,1.50266,-0.319595,-1.56345,-1.16267,2.73764,1.14957,-0.289829,-0.80021,-1.20133,-1.02377,-1.03208,1.08574,0.738458,-0.719457,-0.740258,-0.926042,-1.12428,-1.09816,1.00569,0.790182,-0.370027,0.361769,-0.189938,1.04073,0.251559,0.015041,0.0271924,0.967343,-0.00791582,-1.43809,-0.674957,0.7707,-0.348113,1.17408,-2.95213,0.137112,-2.26088,-2.96993,0.1487,-2.24038,-0.471964,-0.718041,-0.648885,-0.610712,0.554441,0.533945,-0.37337,1
1.44984,-0.404848,-1.638,-1.23033,2.79773,1.21515,-0.330529,1.44984,-0.404848,-1.638,-1.23033,2.79773,1.21515,-0.330529,1.4947,-0.331107,-1.57359,-1.17283,2.74781,1.15686,-0.297022,-0.885258,-1.24218,-1.1242,-1.12031,1.0764,0.805952,-0.803634,-0.815347,-1.14327,-1.09927,-1.08091,1.06071,0.794353,-0.593903,0.361708,-0.204735,1.03406,0.259764,0.0190715,0.0178748,0.965318,-0.0371813,-1.51043,-0.746189,0.740491,-0.346645,1.15044,-3.02082,0.146773,-2.36444,-2.96844,0.148921,-2.33388,-0.448657,-0.737416,-0.64413,-0.574994,0.49918,0.582902,-0.335079,1
1.44252,-0.417642,-1.64979,-1.24215,2.80099,1.22496,-0.338843,1.44252,-0.417642,-1.64979,-1.24215,2.80099,1.22496,-0.338843,1.48664,-0.343028,-1.5844,-1.18317,2.75732,1.16542,-0.303693,-0.830321,-1.28806,-1.17005,-1.08034,0.952251,0.999924,-0.625054,-0.838596,-1.24385,-1.10601,-1.07758,1.03813,0.848111,-0.716048,0.361199,-0.21984,1.02694,0.268166,0.0226878,0.00859342,0.963067,-0.0898058,-1.51008,-0.767751,0.710981,-0.345111,1.12589,-2.95107,0.153425,-2.45433,-2.96726,0.148516,-2.42512,-0.441282,-0.746138,-0.653884,-0.589813,0.436644,0.595447,-0.351502,1
1.43397,-0.430824,-1.66305,-1.25782,2.79817,1.23471,-0.352288,1.43397,-0.430824,-1.66305,-1.25782,2.79817,1.23471,-0.352288,1.47909,-0.355308,-1.59525,-1.19292,2.76578,1.17515,-0.30928,-0.778885,-1.31921,-1.13832,-0.996099,0.850819,1.06507,-0.565842,-0.831488,-1.28315,-1.14419,-1.06558,0.959823,0.956981,-0.664843,0.360134,-0.23477,1.01974,0.276129,0.0254509,-0.000513015,0.960783,-0.1374,-1.48242,-0.76174,0.681412,-0.343564,1.09996,-2.95692,0.15474,-2.59367,-2.96831,0.148058,-2.52095,-0.451185,-0.755162,-0.677973,-0.648958,0.323955,0.595581,-0.43008,1
1.42186,-0.442792,-1.67576,-1.27112,2.78387,1.24179,-0.364147,1.42186,-0.442792,-1.67576,-1.27112,2.78387,1.24179,-0.364147,1.47176,-0.36777,-1.60609,-1.20258,2.77323,1.18515,-0.314958,-0.778626,-1.32806,-1.16351,-1.0537,0.73917,1.06002,-0.636052,-0.795944,-1.31177,-1.15729,-1.04338,0.847414,1.04167,-0.608983,0.3588,-0.249458,1.01232,0.284223,0.0280375,-0.00929778,0.958303,-0.145893,-1.46453,-0.809324,0.651817,-0.341984,1.07422,-2.95947,0.157988,-2.57417,-2.97073,0.146295,-2.60755,-0.498999,-0.750227,-0.696706,-0.685379,0.106409,0.566386,-0.49189,1
1.41342,-0.450641,-1.68792,-1.28492,2.74753,1.25308,-0.368703,1.41342,-0.450641,-1.68792,-1.28492,2.74753,1.25308,-0.368703,1.46428,-0.38035,-1.61732,-1.21318,2.77904,1.1951,-0.321821,-0.807288,-1.34408,-1.21784,-1.18869,0.509564,1.0547,-0.811321,-0.788266,-1.33045,-1.17322,-1.0795,0.699851,1.05993,-0.671072,0.357512,-0.263942,1.00428,0.293241,0.0311495,-0.0173237,0.955374,-0.138782,-1.44905,-0.889644,0.620299,-0.342479,1.04613,-3.15176,-0.0495017,-2.80824,-2.98789,0.129844,-2.70673,-0.508631,-0.70291,-0.706009,-0.717469,-0.315056,0.579747,-0.468823,1
1.40931,-0.456465,-1.69973,-1.29811,2.74401,1.2639,-0.370767,1.40931,-0.456465,-1.69973,-1.29811,2.74401,1.2639,-0.370767,1.45615,-0.392921,-1.62893,-1.22462,2.78159,1.2047,-0.329954,-0.913341,-1.32802,-1.24723,-1.23844,0.0606943,0.987794,-0.910526,-0.833085,-1.33338,-1.20952,-1.16028,0.436476,1.03417,-0.785967,0.356223,-0.278086,0.995673,0.303696,0.0349036,-0.0237678,0.951833,-0.160691,-1.41705,-0.927333,0.56255,-0.338436,0.989378,-2.95345,0.16447,-2.89648,-2.97402,0.127762,-2.8861,-0.46844,-0.635434,-0.708001,-0.734964,-0.375743,0.591981,-0.408135,1
1.3875,-0.471814,-1.71267,-1.30781,2.75328,1.25519,-0.379098,1.3875,-0.471814,-1.71267,-1.30781,2.75328,1.25519,-0.379098,1.44758,-0.404875,-1.64071,-1.23652,2.77782,1.21423,-0.338053,-0.909546,-1.21871,-1.25696,-1.28885,-0.806651,1.03454,-0.8162,-0.876725,-1.29693,-1.24067,-1.23866,-0.0787977,1.02568,-0.846016,0.35501,-0.2909,0.986876,0.315249,0.0388877,-0.0269174,0.94783,-0.142952,-1.23198,-0.933349,0.533346,-0.337227,0.959282,-2.92047,0.120899,-3.00962,-2.96557,0.127895,-2.97454,-0.600718,-0.669387,-0.719544,-0.712835,-0.245394,0.409598,-0.410452,1
1.37989,-0.485763,-1.72456,-1.32033,2.76401,1.25539,-0.389187,1.37989,-0.485763,-1.72456,-1.32033,2.76401,1.25539,-0.389187,1.43954,-0.415683,-1.65254,-1.24878,2.77071,1.22409,-0.345075,-0.804937,-1.08599,-1.25644,-1.31365,-0.710863,1.05989,-0.684159,-0.875941,-1.21091,-1.25354,-1.28032,-0.485607,1.02741,-0.803628,0.354003,-0.302101,0.9781,0.326369,0.0428085,-0.0279132,0.94386,-0.127148,-1.10803,-0.92537,0.503453,-0.335944,0.927628,-2.98925,0.12832,-3.16542,-2.95916,0.130057,-3.07005,-0.596487,-0.700807,-0.720138,-0.715481,-0.0669663,0.31298,-0.441115,1
1.37401,-0.498414,-1.73548,-1.33372,2.78642,1.26524,-0.398116,1.37401,-0.498414,-1.73548,-1.33372,2.78642,1.26524,-0.398116,1.43029,-0.426507,-1.6645,-1.26083,2.76589,1.23187,-0.351737,-1.13932,-1.20647,-1.28267,-1.25094,-0.335793,0.620836,-0.728594,-0.951268,-1.17039,-1.26535,-1.28448,-0.617769,0.905088,-0.742984,0.352529,-0.314128,0.96917,0.337433,0.0477449,-0.030059,0.939657,-0.246728,-1.35523,-0.960917,0.474151,-0.334686,0.895285,-2.93022,0.12573,-3.23432,-2.94796,0.135056,-3.17453,-0.562746,-0.719072,-0.709835,-0.72889,0.205243,0.333622,-0.463787,1
1.36565,-0.510082,-1.74657,-1.34673,2.79139,1.26907,-0.40805,1.36565,-0.510082,-1.74657,-1.34673,2.79139,1.26907,-0.40805,1.41993,-0.438168,-1.67655,-1.27269,2.76437,1.23706,-0.358975,-1.06626,-1.26742,-1.27832,-1.26846,-0.00938147,0.48827,-0.804516,-1.00351,-1.18663,-1.27248,-1.27768,-0.352012,0.722998,-0.739089,0.35051,-0.327608,0.959833,0.348664,0.0540273,-0.0342415,0.935063,-0.25565,-1.3849,-1.00514,0.444857,-0.333874,0.861824,-2.92938,0.0812203,-3.34609,-2.93318,0.139621,-3.27428,-0.542827,-0.719134,-0.700222,-0.740339,0.270203,0.320135,-0.490749,1
1.37012,-0.522612,-1.75799,-1.35939,2.78841,1.2904,-0.414785,1.37012,-0.522612,-1.75799,-1.35939,2.78841,1.2904,-0.414785,1.41038,-0.450183,-1.68845,-1.2848,2.76692,1.24227,-0.366707,-0.968456,-1.28437,-1.25235,-1.3026,0.519216,0.611629,-0.836393,-1.05801,-1.25275,-1.27111,-1.274,0.0580141,0.573578,-0.789834,0.348236,-0.341381,0.950097,0.358937,0.0604452,-0.0405695,0.930519,-0.284987,-1.38047,-1.04035,0.415861,-0.332418,0.827503,-2.89958,0.145605,-3.43206,-2.94018,0.123754,-3.38438,-0.402658,-0.724288,-0.695364,-0.745822,0.214936,0.481334,-0.48078,1
1.36815,-0.536177,-1.76911,-1.37067,2.77842,1.30311,-0.419338,1.36815,-0.536177,-1.76911,-1.37067,2.77842,1.30311,-0.419338,1.40135,-0.462223,-1.70016,-1.29715,2.77182,1.2478,-0.374822,-0.950906,-1.27451,-1.23601,-1.3202,0.521127,0.566425,-0.884873,-0.995208,-1.27543,-1.25556,-1.29709,0.343654,0.555441,-0.841928,0.345705,-0.355034,0.940075,0.36861,0.0667936,-0.0480615,0.925935,-0.299258,-1.34151,-1.06166,0.389709,-0.333221,0.793401,-2.61524,-0.0802904,-3.41018,-2.90032,0.0976126,-3.47604,-0.332082,-0.739544,-0.689487,-0.735195,0.0660121,0.553118,-0.445167,1
1.34628,-0.543587,-1.78139,-1.38224,2.75062,1.30371,-0.425293,1.34628,-0.543587,-1.78139,-1.38224,2.75062,1.30371,-0.425293,1.39398,-0.474281,-1.71177,-1.30961,2.7758,1.25501,-0.382963,-0.635525,-1.28705,-1.23092,-1.32566,0.336011,0.942474,-0.847422,-0.851629,-1.28198,-1.23976,-1.31615,0.458785,0.706843,-0.856229,0.343297,-0.367638,0.929882,0.377546,0.0724031,-0.0551071,0.92151,-0.248295,-1.17816,-1.07601,0.379898,-0.361472,0.762884,-0.981072,-2.82507,-3.05173,-2.66472,-0.232218,-3.5051,-0.477061,-0.693055,-0.696169,-0.726361,-0.251793,0.486942,-0.423302,1
1.333,-0.537773,-1.79108,-1.38992,2.73882,1.29909,-0.418897,1.333,-0.537773,-1.79108,-1.38992,2.73882,1.29909,-0.418897,1.3887,-0.484972,-1.72199,-1.32062,2.77859,1.26284,-0.390002,-0.494947,-1.00236,-0.958638,-1.03243,0.261686,0.734,-0.659973,-0.693793,-1.18797,-1.14185,-1.2261,0.372941,0.747633,-0.797422,0.341241,-0.377985,0.920764,0.384859,0.0767,-0.0609844,0.917759,-0.208501,-0.901665,-0.849904,0.371849,-0.390357,0.732734,-0.80497,-2.88853,-3.01498,-2.28024,-0.771992,-3.47823,-0.557001,-0.528016,-0.690894,-0.692979,-0.397659,0.362544,-0.288952,1
1.32339,-0.560868,-1.80064,-1.39126,2.75435,1.29452,-0.431608,1.32339,-0.560868,-1.80064,-1.39126,2.75435,1.29452,-0.431608,1.38416,-0.496298,-1.73242,-1.33169,2.77855,1.27175,-0.396491,-0.426326,-1.06198,-0.977178,-1.03813,-0.00351224,0.835226,-0.608429,-0.518933,-1.11713,-1.05558,-1.13207,0.198061,0.837233,-0.705274,0.339256,-0.387849,0.911338,0.39193,0.080671,-0.0657974,0.914086,-0.201116,-0.864677,-0.879524,0.363266,-0.419877,0.701882,-0.858274,-2.95198,-3.08522,-1.83799,-1.41997,-3.42502,-0.607647,-0.645693,-0.682219,-0.595691,-0.242043,0.227755,-0.351175,1
1.3331,-0.579148,-1.80505,-1.3844,2.76505,1.31678,-0.450961,1.3331,-0.579148,-1.80505,-1.3844,2.76505,1.31678,-0.450961,1.37422,-0.506075,-1.74439,-1.34377,2.77099,1.27827,-0.40211,-1.09755,-0.844128,-1.24352,-1.22878,-0.85653,0.554422,-0.447032,-0.672943,-0.969489,-1.05978,-1.09978,-0.199452,0.707883,-0.571811,0.336179,-0.397981,0.901696,0.402161,0.0863763,-0.0664218,0.909062,-0.363576,-0.948208,-0.9354,0.356392,-0.448228,0.669558,-0.687391,-2.83508,-3.23246,-1.38731,-2.05398,-3.37396,-0.41118,-0.730726,-0.60664,-0.406227,-0.0593558,0.385099,-0.488504,1
1.3259,-0.586959,-1.81059,-1.37615,2.7897,1.34098,-0.453813,1.3259,-0.586959,-1.81059,-1.37615,2.7897,1.34098,-0.453813,1.36397,-0.515801,-1.75584,-1.35414,2.76569,1.28234,-0.407317,-1.08066,-1.20015,-1.193,-0.988538,-0.30223,0.324364,-0.646883,-0.868181,-1.03542,-1.1379,-1.08515,-0.387424,0.571337,-0.567448,0.332538,-0.408517,0.892577,0.41194,0.0923969,-0.0682869,0.903939,-0.472202,-1.18595,-0.976892,0.348216,-0.477864,0.637041,-0.817588,-2.9636,-3.25164,-1.02215,-2.58841,-3.34313,-0.380689,-0.711581,-0.547543,-0.22017,0.240006,0.586358,-0.464961,1
1.3298,-0.596007,-1.81866,-1.37602,2.79635,1.35438,-0.446456,1.3298,-0.596007,-1.81866,-1.37602,2.79635,1.35438,-0.446456,1.35614,-0.527917,-1.76627,-1.36154,2.76444,1.28765,-0.414964,-0.613469,-1.36429,-1.03284,-0.6086,0.0161749,0.775787,-0.958599,-0.930561,-1.13619,-1.15645,-0.941972,-0.380862,0.551524,-0.684171,0.328214,-0.419818,0.883803,0.421314,0.0966378,-0.0731684,0.898778,-0.457414,-1.09582,-0.867712,0.340579,-0.506891,0.603028,-0.763711,-2.90274,-3.40129,-0.807897,-2.8988,-3.36422,-0.26334,-0.680894,-0.523917,-0.144725,0.319102,0.667308,-0.314912,1
1.3285,-0.606402,-1.82944,-1.36898,2.79315,1.36388,-0.447548,1.3285,-0.606402,-1.82944,-1.36898,2.79315,1.36388,-0.447548,1.35104,-0.53925,-1.77485,-1.3666,2.76458,1.2941,-0.422927,-0.47777,-1.06251,-0.804377,-0.473978,0.012597,0.604183,-0.746558,-0.723967,-1.20898,-1.01007,-0.690372,-0.0911528,0.568111,-0.784013,0.324264,-0.429365,0.876434,0.429226,0.0989055,-0.0782623,0.894348,-0.365246,-0.838818,-0.686085,0.333743,-0.535933,0.567825,-0.683621,-2.90414,-3.52029,-0.771627,-2.9087,-3.44796,-0.225407,-0.671522,-0.545922,-0.0237967,0.285756,0.697795,-0.246216,1
1.31913,-0.623015,-1.83744,-1.38526,2.79344,1.37306,-0.453392,1.31913,-0.623015,-1.83744,-1.38526,2.79344,1.37306,-0.453392,1.34594,-0.550866,-1.7837,-1.3687,2.77092,1.30604,-0.428894,-0.42971,-1.20212,-0.930933,-0.194926,0.677402,1.28735,-0.467664,-0.506983,-1.20964,-0.922717,-0.425834,0.235391,0.889108,-0.724274,0.318069,-0.439798,0.869911,0.436672,0.0970267,-0.0865997,0.890171,-0.560779,-0.983235,-0.667407,0.325187,-0.565484,0.530841,-0.855619,-2.95519,-3.69845,-0.767305,-2.91484,-3.5583,-0.26811,-0.721493,-0.537392,-0.16561,0.225221,0.670213,-0.244979,1
1.321,-0.635912,-1.84568,-1.39479,2.79833,1.3819,-0.455277,1.321,-0.635912,-1.84568,-1.39479,2.79833,1.3819,-0.455277,1.34222,-0.562073,-1.7927,-1.36949,2.77617,1.31785,-0.432907,-0.365266,-1.1805,-0.978348,0.0135847,0.452356,1.22568,-0.389898,-0.424249,-1.14838,-0.904552,-0.21844,0.380785,1.03907,-0.534707,0.312177,-0.449456,0.863863,0.443103,0.0946405,-0.0942097,0.886469,-0.571746,-0.958378,-0.605325,0.317288,-0.594641,0.493739,-0.789896,-2.91567,-3.71015,-0.76721,-2.91741,-3.66813,-0.212121,-0.738396,-0.529763,-0.252998,0.221691,0.640476,-0.223692,1
1.33915,-0.648737,-1.85607,-1.39399,2.80162,1.39103,-0.46595,1.33915,-0.648737,-1.85607,-1.39399,2.80162,1.39103,-0.46595,1.33808,-0.57383,-1.80177,-1.37129,2.77996,1.32911,-0.436833,-0.504734,-1.30982,-0.949993,-0.371996,0.358997,1.17047,-0.44099,-0.433237,-1.23081,-0.953091,-0.184446,0.496252,1.22783,-0.432851,0.306409,-0.459098,0.857108,0.449566,0.0930964,-0.101335,0.882584,-0.55284,-0.978313,-0.798356,0.309796,-0.623446,0.455986,-0.749201,-2.88048,-3.77533,-0.775138,-2.92072,-3.76966,0.0107347,-0.74907,-0.542984,-0.226999,0.216678,0.619213,-0.291175,1
1.34962,-0.661369,-1.86484,-1.39777,2.8073,1.40367,-0.467591,1.34962,-0.661369,-1.86484,-1.39777,2.8073,1.40367,-0.467591,1.33411,-0.586225,-1.81063,-1.3755,2.78351,1.33987,-0.440717,-0.348988,-1.32318,-0.933421,-0.513698,0.394681,1.11919,-0.387726,-0.406329,-1.27116,-0.95392,-0.290703,0.402011,1.17178,-0.406205,0.301318,-0.46849,0.849126,0.45529,0.0929467,-0.108598,0.878794,-0.453715,-0.900963,-0.866302,0.301876,-0.652588,0.417412,-0.791985,-2.91415,-3.85741,-0.775153,-2.91425,-3.86807,0.155128,-0.751438,-0.542117,-0.222771,0.237843,0.637942,-0.268735,1
1.35827,-0.673827,-1.87532,-1.39843,2.81058,1.41484,-0.473188,1.35827,-0.673827,-1.87532,-1.39843,2.81058,1.41484,-0.473188,1.33334,-0.598723,-1.8196,-1.37967,2.78718,1.35024,-0.445192,0.154755,-1.33183,-0.97105,-0.381252,0.384671,1.08624,-0.552777,-0.232989,-1.32161,-0.951488,-0.422315,0.37945,1.1253,-0.460498,0.297694,-0.476873,0.840938,0.459875,0.0932559,-0.11576,0.875453,-0.255541,-0.768094,-0.844931,0.293864,-0.681994,0.377869,-0.801164,-2.9407,-3.95425,-0.783105,-2.91636,-3.95414,0.249256,-0.751037,-0.557248,-0.187608,0.23403,0.646021,-0.279964,1
1.36921,-0.686298,-1.88481,-1.40361,2.81602,1.42495,-0.477142,1.36921,-0.686298,-1.88481,-1.40361,2.81602,1.42495,-0.477142,1.33586,-0.61127,-1.8287,-1.38328,2.79104,1.36075,-0.449976,0.366506,-1.33408,-0.962395,-0.385915,0.432913,1.14284,-0.469052,0.0574245,-1.3297,-0.955622,-0.426955,0.404088,1.11609,-0.469852,0.295438,-0.484266,0.832764,0.463326,0.0935518,-0.122838,0.872633,-0.160371,-0.689474,-0.859339,0.285706,-0.711152,0.336976,-0.815856,-2.91576,-4.08935,-0.793458,-2.91652,-4.03864,0.333553,-0.750277,-0.561093,-0.203261,0.249838,0.641998,-0.27166,1
1.38693,-0.698836,-1.89289,-1.40925,2.81815,1.43622,-0.480667,1.38693,-0.698836,-1.89289,-1.40925,2.81815,1.43622,-0.480667,1.33992,-0.623816,-1.83792,-1.38657,2.79502,1.37155,-0.45453,0.488634,-1.33174,-0.995961,-0.315981,0.414321,1.15272,-0.496844,0.336632,-1.33255,-0.976469,-0.36105,0.410635,1.12727,-0.506224,0.293819,-0.491125,0.824546,0.466154,0.0937484,-0.129864,0.870085,-0.116884,-0.654872,-0.854422,0.27792,-0.73974,0.295299,-0.778559,-2.85879,-4.16767,-0.788912,-2.90835,-4.12239,0.470141,-0.750195,-0.549684,-0.226837,0.231269,0.64661,-0.261365,1
1.39738,-0.709364,-1.90127,-1.40673,2.81787,1.44753,-0.483153,1.39738,-0.709364,-1.90127,-1.40673,2.81787,1.44753,-0.483153,1.34398,-0.634878,-1.8462,-1.38919,2.79846,1.38113,-0.458657,0.380548,-1.03716,-0.775655,-0.246086,0.322674,0.897741,-0.386942,0.411896,-1.23433,-0.911337,-0.315994,0.38997,1.06444,-0.450946,0.292588,-0.496974,0.817254,0.468625,0.0939309,-0.135956,0.867804,-0.0868213,-0.499563,-0.674824,0.270396,-0.768538,0.252463,-0.752425,-2.87983,-4.28359,-0.787847,-2.90302,-4.22013,0.533997,-0.744858,-0.550737,-0.175441,0.194016,0.663987,-0.244956,1
1.41065,-0.722108,-1.90949,-1.41469,2.82426,1.45871,-0.484804,1.41065,-0.722108,-1.90949,-1.41469,2.82426,1.45871,-0.484804,1.35164,-0.647726,-1.85569,-1.39304,2.8026,1.39215,-0.46316,0.939765,-1.36101,-0.990732,-0.431575,0.414114,1.17352,-0.46618,0.602983,-1.2433,-0.920783,-0.331214,0.383703,1.07466,-0.449988,0.292929,-0.502645,0.808385,0.469871,0.0948061,-0.142936,0.865911,0.137733,-0.485956,-0.930437,0.262918,-0.797465,0.208821,-0.747764,-2.89264,-4.36425,-0.78406,-2.89894,-4.32129,0.59009,-0.743827,-0.538033,-0.21649,0.216658,0.665606,-0.216439,1
1.42163,-0.734672,-1.91847,-1.42152,2.82956,1.46973,-0.487984,1.42163,-0.734672,-1.91847,-1.42152,2.82956,1.46973,-0.487984,1.36067,-0.660268,-1.8649,-1.39633,2.80601,1.40322,-0.467325,0.977337,-1.30738,-0.968473,-0.277012,0.315845,1.1798,-0.421488,0.765884,-1.23518,-0.91162,-0.318224,0.350878,1.08369,-0.42487,0.294034,-0.507509,0.799816,0.470497,0.0955158,-0.149324,0.864414,0.146157,-0.443797,-0.858309,0.254871,-0.826451,0.164291,-0.80466,-2.89859,-4.45296,-0.779339,-2.89256,-4.42133,0.609573,-0.744036,-0.535724,-0.2519,0.235513,0.665091,-0.206593,1
1.43341,-0.747011,-1.92604,-1.42877,2.83441,1.48082,-0.488745,1.43341,-0.747011,-1.92604,-1.42877,2.83441,1.48082,-0.488745,1.37035,-0.672626,-1.87391,-1.39957,2.80938,1.41434,-0.47102,1.07308,-1.31768,-0.947423,-0.402727,0.396344,1.18152,-0.367059,0.996727,-1.32869,-0.968876,-0.370438,0.375435,1.17828,-0.418242,0.295602,-0.511889,0.791275,0.470623,0.0962483,-0.15556,0.863164,0.227919,-0.385706,-0.915569,0.246459,-0.854982,0.118457,-0.841202,-2.85308,-4.58347,-0.781729,-2.88315,-4.52174,0.630603,-0.743858,-0.521318,-0.292015,0.250288,0.664868,-0.177249,1
