Afshin1997/kuka_rl_ros2/src/catch_and_throw/output_files/tm/nn_ema7.00_jvws1_simball_D29H08M41S44/recorded_data.csv
pure_target_joint_0,pure_target_joint_1,pure_target_joint_2,pure_target_joint_3,pure_target_joint_4,pure_target_joint_5,pure_target_joint_6,target_joint_0,target_joint_1,target_joint_2,target_joint_3,target_joint_4,target_joint_5,target_joint_6,pos_joint_0,pos_joint_1,pos_joint_2,pos_joint_3,pos_joint_4,pos_joint_5,pos_joint_6,vel_joint_0,vel_joint_1,vel_joint_2,vel_joint_3,vel_joint_4,vel_joint_5,vel_joint_6,vel_smooth_joint_0,vel_smooth_joint_1,vel_smooth_joint_2,vel_smooth_joint_3,vel_smooth_joint_4,vel_smooth_joint_5,vel_smooth_joint_6,ee_pos_x,ee_pos_y,ee_pos_z,ee_or_w,ee_or_x,ee_or_y,ee_or_z,eep_vel_x,eep_vel_y,eep_vel_z,ee_vel_offset_x,ee_vel_offset_y,ee_vel_offset_z,ball_pos_x,ball_pos_y,ball_pos_z,ball_raw_vx,ball_raw_vy,ball_raw_vz,ball_ema_vx,ball_ema_vy,ball_ema_vz,action_0,action_1,action_2,action_3,action_4,action_5,action_6,command_published
1.70994,-1.01378,-1.83769,-1.16271,1.93435,1.16226,-0.948299,1.70994,-1.01378,-1.83769,-1.16271,1.93435,1.16226,-0.948299,1.78123,-1.07399,-1.81917,-1.12075,1.93723,1.11683,-0.916331,1.1977e-05,0,2.39759e-05,0,-3.83266e-05,2.39759e-05,2.39541e-05,1.1977e-05,0,2.39759e-05,0,-3.83266e-05,2.39759e-05,2.39541e-05,0.534429,-0.456426,0.689106,0.572339,0.180442,0.151408,0.785458,3.10215e-06,1.57675e-05,9.03525e-06,1.74703e-06,1.79689e-05,9.65399e-06,1.0858,-1.845,0.0576441,0.00300407,-0.00225306,0.00175834,0.00300407,0.000232884,0.00175834,-0.712879,0.602103,-0.185233,-0.419682,-0.028799,0.454303,-0.319684,1
1.70819,-1.00762,-1.83853,-1.17741,1.98224,1.17194,-0.95423,1.70819,-1.00762,-1.83853,-1.17741,1.98224,1.17194,-0.95423,1.78123,-1.07399,-1.81917,-1.12075,1.93723,1.11683,-0.916331,-1.19776e-05,2.39552e-05,-3.59547e-05,2.39771e-05,0,0,-2.39552e-05,-1.19776e-05,2.39552e-05,-3.59547e-05,2.39771e-05,0,0,-2.39552e-05,0.534429,-0.456426,0.689106,0.57234,0.180442,0.151408,0.785458,-5.14275e-06,-7.05128e-06,-1.91524e-06,-4.35998e-06,-6.88217e-06,-2.32337e-06,1.08578,-1.84497,0.0575915,-0.00194311,0.00299215,-0.00526309,-0.00194311,0.000624997,-0.00526309,-0.730329,0.663689,-0.19358,-0.566682,0.450086,0.551056,-0.378988,1
1.72172,-1.00667,-1.81523,-1.15922,1.98799,1.19063,-0.944722,1.72172,-1.00667,-1.81523,-1.15922,1.98799,1.19063,-0.944722,1.78123,-1.07399,-1.81917,-1.12075,1.93723,1.11683,-0.916331,-1.19776e-05,2.39771e-05,0,0,1.91642e-05,0,3.59547e-05,-1.19776e-05,2.39771e-05,0,0,1.91642e-05,0,3.59547e-05,0.534429,-0.456426,0.689107,0.57234,0.180442,0.151408,0.785458,-7.65947e-06,-9.67254e-07,1.37038e-05,-8.08302e-06,-1.00408e-06,1.39227e-05,1.08582,-1.84494,0.0576578,0.000298023,0.00525713,0.00495911,0.000298023,0.000387856,0.00495911,-0.595082,0.673194,0.0394004,-0.38477,0.507609,0.737954,-0.283909,1
1.71749,-1.0121,-1.79772,-1.15129,2.00131,1.18964,-0.935776,1.71749,-1.0121,-1.79772,-1.15129,2.00131,1.18964,-0.935776,1.78123,-1.07399,-1.81917,-1.12075,1.93723,1.11683,-0.916331,0,0,1.19776e-05,2.39771e-05,0,2.39771e-05,0,0,0,1.19776e-05,2.39771e-05,0,2.39771e-05,0,0.534429,-0.456426,0.689107,0.57234,0.180442,0.151408,0.785458,-6.83558e-06,-5.29022e-06,1.12432e-05,-8.67536e-06,-5.16841e-06,1.21842e-05,1.08579,-1.84499,0.057621,-0.00286102,-0.00560284,-0.00368357,-0.00286102,0.000143051,-0.00368357,-0.637357,0.618891,0.214502,-0.305457,0.640786,0.728118,-0.194453,1
1.71267,-1.01248,-1.80877,-1.14388,2.00034,1.18831,-0.939861,1.71267,-1.01248,-1.80877,-1.14388,2.00034,1.18831,-0.939861,1.78122,-1.07399,-1.81925,-1.12084,1.93731,1.11694,-0.916453,-0.00086289,-0.00127037,-0.0166825,-0.0188037,0.0162223,0.0220036,-0.0244005,-0.00086289,-0.00127037,-0.0166825,-0.0188037,0.0162223,0.0220036,-0.0244005,0.534431,-0.456417,0.689059,0.572361,0.18044,0.151403,0.785443,0.000527129,0.00199322,-0.0096318,0.000453901,0.00182451,-0.00958824,1.08578,-1.84497,0.0576299,-0.000619888,0.00234842,0.00089407,-0.000619888,0.000274607,0.00089407,-0.685566,0.615165,0.104812,-0.23041,0.630331,0.713682,-0.234077,1
1.7188,-1.00852,-1.82601,-1.09842,1.99557,1.1938,-0.940402,1.7188,-1.00852,-1.82601,-1.09842,1.99557,1.1938,-0.940402,1.78121,-1.07381,-1.82037,-1.12271,1.94012,1.11987,-0.919584,-0.00040746,0.036551,-0.131284,-0.255821,0.408394,0.424939,-0.432189,-0.00040746,0.036551,-0.131284,-0.255821,0.408394,0.424939,-0.432189,0.534279,-0.45612,0.688567,0.572931,0.179901,0.150662,0.785294,-0.0152596,0.0523017,-0.056646,-0.0273967,0.0472054,-0.0502631,1.08577,-1.84497,0.0576609,-0.000870228,-0.000154972,0.00309944,-0.000870228,0.000319311,0.00309944,-0.624075,0.652909,-0.0563674,0.242945,0.554494,0.739252,-0.208176,1
1.71763,-1.00555,-1.82029,-1.09876,2.01126,1.19931,-0.937027,1.71763,-1.00555,-1.82029,-1.09876,2.01126,1.19931,-0.937027,1.78056,-1.0723,-1.8207,-1.12724,1.94872,1.12901,-0.924897,-0.103062,0.185188,0.0183115,-0.521961,1.0075,1.07386,-0.527354,-0.103062,0.185188,0.0183115,-0.521961,1.0075,1.07386,-0.527354,0.532974,-0.455069,0.689054,0.57339,0.177018,0.147175,0.786275,-0.126657,0.129849,0.0605878,-0.172911,0.118217,0.0840919,1.08579,-1.845,0.0576576,0.00196695,-0.00293255,-0.000333786,0.00196695,-0.000298449,-0.000333786,-0.629327,0.667513,0.0040881,0.284776,0.625372,0.703012,-0.121301,1
1.71011,-1.00097,-1.81758,-1.12164,2.02647,1.20829,-0.932148,1.71011,-1.00097,-1.81758,-1.12164,2.02647,1.20829,-0.932148,1.7778,-1.07047,-1.81962,-1.13371,1.96217,1.14271,-0.929716,-0.333453,0.165163,0.133909,-0.666224,1.43259,1.43418,-0.47043,-0.333453,0.165163,0.133909,-0.666224,1.43259,1.43418,-0.47043,0.530013,-0.454528,0.690183,0.573396,0.172795,0.140572,0.788415,-0.267114,0.0457934,0.0796761,-0.333852,0.0180435,0.112531,1.08581,-1.84497,0.0575978,0.00181198,0.00247955,-0.00597239,0.00181198,-0.00022522,-0.00597239,-0.67686,0.69503,0.0203784,0.120749,0.643048,0.65578,-0.0243156,1
1.7036,-0.999603,-1.82225,-1.13173,2.04173,1.22148,-0.940951,1.7036,-0.999603,-1.82225,-1.13173,2.04173,1.22148,-0.940951,1.77376,-1.06951,-1.81834,-1.13926,1.97683,1.15744,-0.934028,-0.406232,0.0760861,0.0994907,-0.502199,1.43758,1.45204,-0.413195,-0.406232,0.0760861,0.0994907,-0.502199,1.43758,1.45204,-0.413195,0.526132,-0.455423,0.69119,0.573938,0.168537,0.132554,0.790329,-0.321886,-0.085034,0.0542779,-0.39111,-0.120785,0.0868183,1.08578,-1.84496,0.0576171,-0.00259876,0.00113249,0.00192523,-0.00259876,-0.000278439,0.00192523,-0.701631,0.699058,-0.0391361,0.0752912,0.648975,0.640376,-0.0692326,1
1.7024,-0.996342,-1.8182,-1.14353,2.05416,1.235,-0.955049,1.7024,-0.996342,-1.8182,-1.14353,2.05416,1.235,-0.955049,1.7706,-1.06836,-1.81867,-1.14158,1.98901,1.17098,-0.937248,-0.278819,0.152604,-0.0644737,-0.125112,1.14047,1.31678,-0.280772,-0.278819,0.152604,-0.0644737,-0.125112,1.14047,1.31678,-0.280772,0.522474,-0.456991,0.692307,0.575353,0.164317,0.125786,0.791295,-0.296398,-0.135291,0.112659,-0.359689,-0.160016,0.140948,1.08577,-1.84495,0.0576561,-0.00156164,0.000870228,0.0039041,-0.00156164,0.000422341,0.0039041,-0.681988,0.720149,0.00474046,-0.0195153,0.651532,0.640237,-0.178016,1
1.70221,-0.990009,-1.80784,-1.14822,2.06394,1.24514,-0.968978,1.70221,-0.990009,-1.80784,-1.14822,2.06394,1.24514,-0.968978,1.76856,-1.06533,-1.82002,-1.14025,1.99895,1.18261,-0.93872,-0.182851,0.350794,-0.145988,0.196669,0.965024,1.1138,-0.0968663,-0.182851,0.350794,-0.145988,0.196669,0.965024,1.1138,-0.0968663,0.519002,-0.458599,0.694776,0.577448,0.159606,0.120587,0.791542,-0.28507,-0.142541,0.254322,-0.344069,-0.156092,0.279554,1.08577,-1.84494,0.0576414,8.34465e-05,0.00184774,-0.00147223,8.34465e-05,0.000587106,-0.00147223,-0.663523,0.75318,0.121793,-0.0797155,0.64992,0.625248,-0.302579,1
1.6987,-0.984794,-1.8026,-1.15717,2.07411,1.25247,-0.973443,1.6987,-0.984794,-1.8026,-1.15717,2.07411,1.25247,-0.973443,1.76687,-1.06122,-1.82181,-1.1381,2.00837,1.1925,-0.939003,-0.177602,0.414393,-0.211601,0.194176,0.949915,0.947295,-0.0310624,-0.177602,0.414393,-0.211601,0.194176,0.949915,0.947295,-0.0310624,0.515763,-0.460032,0.697733,0.579396,0.155245,0.116177,0.791645,-0.266226,-0.134944,0.256607,-0.316795,-0.147336,0.277464,1.08578,-1.845,0.0576407,0.00149012,-0.00597239,-7.15256e-05,0.00149012,0.000247785,-7.15256e-05,-0.681702,0.764248,0.192098,-0.190724,0.657401,0.599743,-0.344398,1
1.69582,-0.979855,-1.80676,-1.1565,2.08458,1.26183,-0.975262,1.69582,-0.979855,-1.80676,-1.1565,2.08458,1.26183,-0.975262,1.76431,-1.05633,-1.82389,-1.13722,2.01867,1.20151,-0.939887,-0.287004,0.531944,-0.174127,0.0366349,1.05867,0.895645,-0.123279,-0.287004,0.531944,-0.174127,0.0366349,1.05867,0.895645,-0.123279,0.512393,-0.461406,0.700648,0.581485,0.15148,0.112003,0.791444,-0.299632,-0.103594,0.29454,-0.348766,-0.11655,0.314126,1.08574,-1.84494,0.0576431,-0.00396967,0.00545979,0.000244379,-0.00396967,0.000568799,0.000244379,-0.68489,0.764763,0.171321,-0.192859,0.659082,0.603205,-0.353745,1
1.69291,-0.973627,-1.81736,-1.14408,2.0964,1.2731,-0.975658,1.69291,-0.973627,-1.81736,-1.14408,2.0964,1.2731,-0.975658,1.75995,-1.05003,-1.82461,-1.13902,2.03021,1.21095,-0.94276,-0.494913,0.651208,-0.0426149,-0.253592,1.17999,0.95989,-0.349979,-0.494913,0.651208,-0.0426149,-0.253592,1.17999,0.95989,-0.349979,0.50835,-0.46213,0.70419,0.583904,0.147282,0.10771,0.791051,-0.37306,-0.0530433,0.337095,-0.426021,-0.0659557,0.357432,1.08587,-1.84503,0.0575984,0.0128388,-0.0087738,-0.00447035,0.0128388,-0.000572205,-0.00447035,-0.670449,0.764018,0.0725412,-0.0505626,0.661926,0.62155,-0.328981,1
1.68526,-0.9667,-1.84114,-1.1247,2.10664,1.28349,-0.981073,1.68526,-0.9667,-1.84114,-1.1247,2.10664,1.28349,-0.981073,1.75336,-1.04316,-1.82398,-1.14288,2.0425,1.22087,-0.948204,-0.70782,0.690515,0.101372,-0.418563,1.24597,1.00078,-0.603488,-0.70782,0.690515,0.101372,-0.418563,1.24597,1.00078,-0.603488,0.503397,-0.462871,0.708006,0.587257,0.142764,0.103145,0.790006,-0.459295,-0.063164,0.365972,-0.516883,-0.0785118,0.387183,1.08581,-1.84498,0.0576095,-0.00580549,0.004673,0.00110269,-0.00580549,-0.000752722,0.00110269,-0.680941,0.764585,-0.171532,0.181814,0.641383,0.626273,-0.32869,1
1.67719,-0.96039,-1.85376,-1.11734,2.1146,1.29527,-0.986905,1.67719,-0.96039,-1.85376,-1.11734,2.1146,1.29527,-0.986905,1.7454,-1.03633,-1.82197,-1.14751,2.05498,1.23084,-0.955322,-0.813854,0.67786,0.223513,-0.472635,1.24982,0.994991,-0.734796,-0.813854,0.67786,0.223513,-0.472635,1.24982,0.994991,-0.734796,0.497837,-0.463756,0.712047,0.591276,0.137998,0.0982236,0.78848,-0.502503,-0.0721953,0.381869,-0.563228,-0.0892783,0.403221,1.08581,-1.84498,0.0576044,-0.000679493,0.000524521,-0.000500679,-0.000679493,-0.000688008,-0.000500679,-0.682054,0.759367,-0.317882,0.301693,0.596239,0.644273,-0.315833,1
1.66849,-0.953892,-1.85904,-1.12248,2.12461,1.30407,-0.991472,1.66849,-0.953892,-1.85904,-1.12248,2.12461,1.30407,-0.991472,1.73703,-1.02989,-1.82034,-1.15182,2.0673,1.24077,-0.962577,-0.848739,0.634874,0.117155,-0.393361,1.22115,0.996166,-0.711871,-0.848739,0.634874,0.117155,-0.393361,1.22115,0.996166,-0.711871,0.492103,-0.465091,0.715752,0.595656,0.133463,0.0932893,0.786562,-0.523964,-0.141357,0.336592,-0.582169,-0.159904,0.356088,1.0858,-1.84499,0.0576173,-0.00025034,-0.00144243,0.0012815,-0.00025034,-0.000604561,0.0012815,-0.685429,0.759941,-0.386981,0.293373,0.573149,0.632943,-0.288955,1
1.65971,-0.946762,-1.86156,-1.12296,2.13452,1.31261,-0.999532,1.65971,-0.946762,-1.86156,-1.12296,2.13452,1.31261,-0.999532,1.7286,-1.02347,-1.82049,-1.15395,2.07921,1.25105,-0.968939,-0.824676,0.64518,-0.0613938,-0.160585,1.17621,1.03427,-0.612164,-0.824676,0.64518,-0.0613938,-0.160585,1.17621,1.03427,-0.612164,0.486014,-0.467405,0.719331,0.600821,0.128851,0.0885702,0.783943,-0.549896,-0.225372,0.336051,-0.608466,-0.241513,0.354775,1.0858,-1.84499,0.0576258,-0.000476837,0.000154972,0.000852346,-0.000476837,-0.000108991,0.000852346,-0.688911,0.767122,-0.410688,0.309952,0.553073,0.615622,-0.30593,1
1.65284,-0.938997,-1.86532,-1.11596,2.14392,1.3224,-1.00771,1.65284,-0.938997,-1.86532,-1.11596,2.14392,1.3224,-1.00771,1.7214,-1.01643,-1.82293,-1.15369,2.09046,1.26166,-0.974518,-0.68579,0.727233,-0.311981,0.0961638,1.10806,1.07613,-0.545631,-0.68579,0.727233,-0.311981,0.0961638,1.10806,1.07613,-0.545631,0.480118,-0.469944,0.723026,0.60653,0.123902,0.0846184,0.780775,-0.52922,-0.249769,0.358023,-0.586467,-0.25749,0.375628,1.08575,-1.84496,0.0576399,-0.00472069,0.00333786,0.00141263,-0.00472069,8.30208e-05,0.00141263,-0.68559,0.774376,-0.423977,0.377296,0.53457,0.607441,-0.331873,1
1.64547,-0.93082,-1.87251,-1.11067,2.15378,1.33116,-1.01317,1.64547,-0.93082,-1.87251,-1.11067,2.15378,1.33116,-1.01317,1.71524,-1.00866,-1.82822,-1.15107,2.10102,1.27286,-0.979709,-0.599166,0.791086,-0.601575,0.305006,1.03828,1.12847,-0.51084,-0.599166,0.791086,-0.601575,0.305006,1.03828,1.12847,-0.51084,0.474314,-0.472821,0.726739,0.613096,0.118588,0.0816228,0.77678,-0.526192,-0.295113,0.349522,-0.579917,-0.295099,0.365458,1.08578,-1.84498,0.0576295,0.00257492,-0.00219345,-0.00103712,0.00257492,0.000679493,-0.00103712,-0.697694,0.778413,-0.442875,0.404065,0.527614,0.583047,-0.334649,1
1.63887,-0.922248,-1.88211,-1.10431,2.16135,1.34105,-1.01942,1.63887,-0.922248,-1.88211,-1.10431,2.16135,1.34105,-1.01942,1.70971,-1.00031,-1.83578,-1.14776,2.11095,1.28433,-0.984758,-0.538584,0.853945,-0.78513,0.335111,0.97972,1.15558,-0.50806,-0.538584,0.853945,-0.78513,0.335111,0.97972,1.15558,-0.50806,0.46873,-0.475658,0.730187,0.620056,0.113293,0.0796265,0.77224,-0.506087,-0.276947,0.333016,-0.554795,-0.269532,0.347015,1.08578,-1.84497,0.057613,0.000584126,0.000560284,-0.00165701,0.000584126,0.000215428,-0.00165701,-0.708422,0.780625,-0.463347,0.434469,0.504006,0.567195,-0.346575,1
1.63318,-0.912521,-1.89141,-1.10041,2.16787,1.35245,-1.02589,1.63318,-0.912521,-1.89141,-1.10041,2.16787,1.35245,-1.02589,1.70411,-0.990695,-1.84363,-1.14416,2.12059,1.29578,-0.990088,-0.581058,0.99106,-0.785993,0.37804,0.958397,1.14027,-0.544673,-0.581058,0.99106,-0.785993,0.37804,0.958397,1.14027,-0.544673,0.462964,-0.478043,0.734304,0.627352,0.107443,0.078263,0.767307,-0.543707,-0.251163,0.418632,-0.593672,-0.236193,0.432487,1.08579,-1.845,0.0576131,0.000703335,-0.00286102,1.19209e-05,0.000703335,-8.81297e-05,1.19209e-05,-0.70924,0.781744,-0.477795,0.43749,0.472752,0.566718,-0.358027,1
1.62473,-0.902861,-1.90191,-1.09473,2.17352,1.36257,-1.03124,1.62473,-0.902861,-1.90191,-1.09473,2.17352,1.36257,-1.03124,1.69742,-0.980862,-1.85174,-1.1403,2.13002,1.30697,-0.995996,-0.697955,0.974497,-0.823588,0.39332,0.936864,1.10875,-0.606021,-0.697955,0.974497,-0.823588,0.39332,0.936864,1.10875,-0.606021,0.456624,-0.480844,0.738524,0.635379,0.10156,0.077132,0.761597,-0.602424,-0.309577,0.403464,-0.649931,-0.294901,0.416049,1.08577,-1.84496,0.0576351,-0.00246763,0.0041008,0.00220537,-0.00246763,0.000191161,0.00220537,-0.72693,0.780011,-0.501646,0.455671,0.435021,0.556013,-0.352445,1
1.61722,-0.893718,-1.91075,-1.08984,2.18043,1.37354,-1.03809,1.61722,-0.893718,-1.91075,-1.08984,2.18043,1.37354,-1.03809,1.69009,-0.971454,-1.85943,-1.13534,2.13937,1.31773,-1.00231,-0.732326,0.925325,-0.740751,0.532724,0.93648,1.07107,-0.638691,-0.732326,0.925325,-0.740751,0.532724,0.93648,1.07107,-0.638691,0.449725,-0.484214,0.742958,0.643994,0.0955349,0.0756904,0.755259,-0.648797,-0.353658,0.441697,-0.701365,-0.340241,0.454917,1.08577,-1.84495,0.0576292,0.000286102,0.000715256,-0.000596046,0.000286102,0.000281845,-0.000596046,-0.728652,0.777361,-0.513234,0.454934,0.410645,0.558053,-0.357751,1
1.61039,-0.885594,-1.91995,-1.08166,2.18527,1.38433,-1.04497,1.61039,-0.885594,-1.91995,-1.08166,2.18527,1.38433,-1.04497,1.6832,-0.963066,-1.86712,-1.12967,2.14851,1.32793,-1.00879,-0.675412,0.808572,-0.796635,0.576024,0.904515,0.997256,-0.650783,-0.675412,0.808572,-0.796635,0.576024,0.904515,0.997256,-0.650783,0.442956,-0.48785,0.747036,0.652593,0.0898252,0.0740356,0.748714,-0.621692,-0.381598,0.374813,-0.669352,-0.371091,0.386205,1.08581,-1.84499,0.057639,0.00360012,-0.0033021,0.000983477,0.00360012,-9.53674e-05,0.000983477,-0.728127,0.774718,-0.528323,0.480188,0.367592,0.563956,-0.361782,1
1.6038,-0.878026,-1.92905,-1.07472,2.19134,1.39385,-1.05194,1.6038,-0.878026,-1.92905,-1.07472,2.19134,1.39385,-1.05194,1.67659,-0.95528,-1.87567,-1.12317,2.15723,1.33746,-1.01537,-0.657087,0.774608,-0.866026,0.685706,0.858494,0.944117,-0.659065,-0.657087,0.774608,-0.866026,0.685706,0.858494,0.944117,-0.659065,0.436254,-0.491856,0.750754,0.66144,0.0845182,0.0726353,0.741672,-0.633145,-0.415457,0.367379,-0.678196,-0.403484,0.37766,1.0858,-1.845,0.0576341,-0.000548363,-0.00150204,-0.000494719,-0.000548363,-0.000169447,-0.000494719,-0.727863,0.772541,-0.533816,0.484547,0.341068,0.563874,-0.3657,1
1.59736,-0.870916,-1.93841,-1.06595,2.19566,1.40376,-1.05989,1.59736,-0.870916,-1.93841,-1.06595,2.19566,1.40376,-1.05989,1.67034,-0.947863,-1.88424,-1.11624,2.16532,1.34693,-1.02193,-0.612062,0.727365,-0.858823,0.683429,0.789847,0.948012,-0.655182,-0.612062,0.727365,-0.858823,0.683429,0.789847,0.948012,-0.655182,0.429608,-0.495732,0.754419,0.670195,0.07906,0.0714019,0.7345,-0.614001,-0.390205,0.347866,-0.65804,-0.375185,0.357429,1.08581,-1.84499,0.0576061,0.000536442,0.00127554,-0.00280142,0.000536442,-0.000260132,-0.00280142,-0.729747,0.76947,-0.541755,0.502941,0.303421,0.568247,-0.379562,1
1.59037,-0.864263,-1.94817,-1.05758,2.19967,1.41251,-1.06705,1.59037,-0.864263,-1.94817,-1.05758,2.19967,1.41251,-1.06705,1.66419,-0.940858,-1.89335,-1.10968,2.17262,1.35646,-1.02846,-0.624034,0.701742,-0.929699,0.660227,0.712187,0.959565,-0.654055,-0.624034,0.701742,-0.929699,0.660227,0.712187,0.959565,-0.654055,0.42311,-0.499485,0.757628,0.678798,0.0737747,0.0706252,0.727188,-0.61865,-0.391812,0.311036,-0.658313,-0.373178,0.319217,1.08579,-1.84499,0.0576162,-0.00144243,-1.19209e-05,0.00101328,-0.00144243,-0.000235864,0.00101328,-0.73816,0.765948,-0.548196,0.521029,0.270494,0.560538,-0.3859,1
1.58343,-0.857187,-1.95767,-1.04999,2.2031,1.42149,-1.075,1.58343,-0.857187,-1.95767,-1.04999,2.2031,1.42149,-1.075,1.65774,-0.933465,-1.90269,-1.10277,2.17925,1.3662,-1.03503,-0.649549,0.746312,-0.934038,0.700411,0.645266,0.972736,-0.65819,-0.649549,0.746312,-0.934038,0.700411,0.645266,0.972736,-0.65819,0.416309,-0.503071,0.761114,0.6876,0.0680267,0.0703064,0.719469,-0.6473,-0.374934,0.349159,-0.687046,-0.349531,0.356846,1.08577,-1.84495,0.0576525,-0.00195503,0.00430346,0.00363588,-0.00195503,-0.000102605,0.00363588,-0.743039,0.762777,-0.549873,0.527844,0.238467,0.552844,-0.399745,1
1.57571,-0.850384,-1.96793,-1.04217,2.2046,1.43023,-1.08213,1.57571,-0.850384,-1.96793,-1.04217,2.2046,1.43023,-1.08213,1.6509,-0.926257,-1.91232,-1.09617,2.18526,1.37606,-1.04164,-0.698362,0.710251,-0.971346,0.645894,0.584039,0.989694,-0.663823,-0.698362,0.710251,-0.971346,0.645894,0.584039,0.989694,-0.663823,0.409362,-0.506628,0.764365,0.696416,0.0622997,0.0703505,0.711459,-0.664764,-0.380999,0.308543,-0.700583,-0.353495,0.314975,1.08577,-1.84496,0.0576412,0.000333786,-0.00137091,-0.00113249,0.000333786,0.00027035,-0.00113249,-0.751858,0.758732,-0.556055,0.539975,0.19343,0.54172,-0.404893,1
1.56828,-0.843066,-1.97709,-1.0356,2.20815,1.43944,-1.08982,1.56828,-0.843066,-1.97709,-1.0356,2.20815,1.43944,-1.08982,1.64375,-0.918804,-1.92174,-1.08959,2.19065,1.38618,-1.04838,-0.716532,0.766997,-0.929427,0.670143,0.523325,1.01629,-0.678531,-0.716532,0.766997,-0.929427,0.670143,0.523325,1.01629,-0.678531,0.402192,-0.509876,0.767841,0.705228,0.0561314,0.0707065,0.703209,-0.687258,-0.340396,0.362025,-0.724658,-0.305401,0.368097,1.08581,-1.84498,0.0576108,0.00323057,-0.00211,-0.0030458,0.00323057,0.00051558,-0.0030458,-0.754739,0.757386,-0.553498,0.539891,0.174941,0.532531,-0.414477,1
1.56059,-0.835182,-1.98648,-1.02935,2.21249,1.44841,-1.09705,1.56059,-0.835182,-1.98648,-1.02935,2.21249,1.44841,-1.09705,1.6362,-0.910881,-1.93133,-1.08259,2.19541,1.39628,-1.05539,-0.775338,0.788844,-0.978442,0.721853,0.465188,1.00887,-0.711451,-0.775338,0.788844,-0.978442,0.721853,0.465188,1.00887,-0.711451,0.394689,-0.512956,0.771669,0.714321,0.0495524,0.0715562,0.694384,-0.732757,-0.355323,0.37821,-0.76737,-0.315583,0.383068,1.08579,-1.845,0.0576372,-0.00180006,-0.00224113,0.00264049,-0.00180006,0.000146031,0.00264049,-0.75604,0.756986,-0.551566,0.532359,0.170818,0.521331,-0.416628,1
1.55304,-0.82757,-1.99583,-1.02193,2.2175,1.45872,-1.10445,1.55304,-0.82757,-1.99583,-1.02193,2.2175,1.45872,-1.10445,1.62837,-0.903141,-1.94105,-1.07495,2.1996,1.40629,-1.06273,-0.768998,0.773516,-0.95886,0.772186,0.401875,0.992319,-0.740213,-0.768998,0.773516,-0.95886,0.772186,0.401875,0.992319,-0.740213,0.386894,-0.516124,0.775562,0.723665,0.0427797,0.0726363,0.684984,-0.741749,-0.34232,0.393166,-0.775324,-0.298821,0.397084,1.08578,-1.84498,0.0576399,-0.000822544,0.00230074,0.000274181,-0.000822544,-0.000132407,0.000274181,-0.753237,0.755709,-0.547797,0.530237,0.179002,0.524349,-0.417188,1
1.546,-0.819995,-2.00525,-1.01338,2.22159,1.46915,-1.11203,1.546,-0.819995,-2.00525,-1.01338,2.22159,1.46915,-1.11203,1.62104,-0.895348,-1.95074,-1.06709,2.203,1.41598,-1.07024,-0.730697,0.774223,-0.983607,0.797891,0.324545,0.960837,-0.754569,-0.730697,0.774223,-0.983607,0.797891,0.324545,0.960837,-0.754569,0.379355,-0.518834,0.77958,0.732782,0.0358439,0.0741658,0.67546,-0.7262,-0.314826,0.397219,-0.755461,-0.266898,0.399564,1.08581,-1.84501,0.0576334,0.00326633,-0.00309944,-0.000649691,0.00326633,-0.000637344,-0.000649691,-0.750385,0.75353,-0.545137,0.537103,0.185879,0.531719,-0.417897,1
1.53847,-0.812842,-2.01531,-1.00517,2.22593,1.47907,-1.11953,1.53847,-0.812842,-2.01531,-1.00517,2.22593,1.47907,-1.11953,1.61348,-0.887879,-1.96093,-1.05863,2.20606,1.42542,-1.0779,-0.758668,0.742562,-1.01802,0.857428,0.301056,0.935803,-0.768495,-0.758668,0.742562,-1.01802,0.857428,0.301056,0.935803,-0.768495,0.371565,-0.521781,0.783484,0.742092,0.028984,0.0759095,0.665354,-0.757529,-0.338009,0.392371,-0.784188,-0.28924,0.39359,1.08577,-1.84497,0.0576193,-0.00395775,0.00362396,-0.00141263,-0.00395775,-0.000676087,-0.00141263,-0.750026,0.750375,-0.543721,0.534533,0.198768,0.536543,-0.416319,1
1.53129,-0.805861,-2.02489,-0.99564,2.22726,1.48924,-1.12806,1.53129,-0.805861,-2.02489,-0.99564,2.22726,1.48924,-1.12806,1.60618,-0.88056,-1.97083,-1.05043,2.209,1.43451,-1.08561,-0.722728,0.729906,-0.985668,0.81093,0.295035,0.905651,-0.770185,-0.722728,0.729906,-0.985668,0.81093,0.295035,0.905651,-0.770185,0.363995,-0.524398,0.787342,0.751009,0.0222447,0.077694,0.655327,-0.728766,-0.297388,0.385094,-0.753063,-0.248397,0.385288,1.08581,-1.845,0.0575944,0.00356436,-0.00231266,-0.00248551,0.00356436,-0.000398074,-0.00248551,-0.748899,0.746983,-0.540552,0.547939,0.182591,0.547305,-0.424533,1
1.52351,-0.798737,-2.03472,-0.987364,2.23104,1.49822,-1.13597,1.52351,-0.798737,-2.03472,-0.987364,2.23104,1.49822,-1.13597,1.59871,-0.873236,-1.98072,-1.04213,2.21224,1.44364,-1.09329,-0.759675,0.734161,-0.994332,0.843347,0.3372,0.915023,-0.769729,-0.759675,0.734161,-0.994332,0.843347,0.3372,0.915023,-0.769729,0.356225,-0.526931,0.791283,0.759803,0.0154047,0.0793513,0.645109,-0.766157,-0.301648,0.40005,-0.791101,-0.25206,0.399632,1.08577,-1.845,0.057671,-0.00352859,-0.000560284,0.0076592,-0.00352859,-0.000189883,0.0076592,-0.752039,0.744994,-0.540015,0.547696,0.18796,0.545747,-0.426736,1
1.51536,-0.791942,-2.04504,-0.978274,2.23322,1.50761,-1.14417,1.51536,-0.791942,-2.04504,-0.978274,2.23322,1.50761,-1.14417,1.59083,-0.866063,-1.99075,-1.03402,2.21582,1.45288,-1.10102,-0.790114,0.706418,-0.999821,0.795507,0.364159,0.927594,-0.773624,-0.790114,0.706418,-0.999821,0.795507,0.364159,0.927594,-0.773624,0.3482,-0.529508,0.795098,0.768517,0.00864068,0.0808963,0.634635,-0.779201,-0.298657,0.374905,-0.802575,-0.25025,0.373725,1.08583,-1.84532,0.0578238,0.00531673,-0.0320435,0.0152767,0.00531673,-0.00355925,0.0152767,-0.754743,0.741217,-0.542933,0.557413,0.174054,0.547332,-0.431495,1
1.50755,-0.784815,-2.05451,-0.969816,2.23631,1.51708,-1.15249,1.50755,-0.784815,-2.05451,-0.969816,2.23631,1.51708,-1.15249,1.58311,-0.858844,-2.00034,-1.02613,2.21959,1.46227,-1.10873,-0.768051,0.735359,-0.948134,0.791372,0.379115,0.947367,-0.77052,-0.768051,0.735359,-0.948134,0.791372,0.379115,0.947367,-0.77052,0.340236,-0.531684,0.799021,0.776842,0.00167809,0.0822813,0.624295,-0.772477,-0.248485,0.406685,-0.797713,-0.196921,0.404775,1.08682,-1.84464,0.0576042,0.0987768,0.0681996,-0.0219584,0.0987768,0.00128448,-0.0219584,-0.755622,0.740284,-0.541709,0.563127,0.16718,0.548111,-0.437622,1
1.4991,-0.777692,-2.06484,-0.961713,2.2406,1.52622,-1.15991,1.4991,-0.777692,-2.06484,-0.961713,2.2406,1.52622,-1.15991,1.57501,-0.851409,-2.01023,-1.0179,2.22322,1.47189,-1.11652,-0.82851,0.738032,-1.00457,0.825586,0.356355,0.967344,-0.782516,-0.82851,0.738032,-1.00457,0.825586,0.356355,0.967344,-0.782516,0.331931,-0.533747,0.803114,0.785226,-0.00559522,0.08387,0.613478,-0.820379,-0.260945,0.407891,-0.842668,-0.206355,0.404529,1.08677,-1.8446,0.0576148,-0.00425577,0.00369549,0.001055,-0.00425577,0.00556324,0.001055,-0.759107,0.737169,-0.546172,0.561918,0.173802,0.543359,-0.43386,1
1.49101,-0.77083,-2.07477,-0.952614,2.24297,1.53647,-1.1679,1.49101,-0.77083,-2.07477,-0.952614,2.24297,1.53647,-1.1679,1.56696,-0.844222,-2.01996,-1.00978,2.22667,1.48172,-1.12444,-0.78411,0.721146,-0.954078,0.807802,0.334841,0.988532,-0.793733,-0.78411,0.721146,-0.954078,0.807802,0.334841,0.988532,-0.793733,0.323652,-0.535593,0.807104,0.79336,-0.0129868,0.0854658,0.602583,-0.793755,-0.216295,0.408901,-0.816403,-0.159426,0.404523,1.08684,-1.84465,0.0575847,0.00711679,-0.0048399,-0.00300407,0.00711679,0.00754126,-0.00300407,-0.759591,0.733919,-0.548037,0.571612,0.163091,0.547482,-0.434591,1
1.48297,-0.763664,-2.08456,-0.944475,2.24735,1.54611,-1.17569,1.48297,-0.763664,-2.08456,-0.944475,2.24735,1.54611,-1.17569,1.55908,-0.83682,-2.02966,-1.00124,2.22979,1.49148,-1.13242,-0.806987,0.739973,-0.990701,0.882043,0.309167,0.977303,-0.802122,-0.806987,0.739973,-0.990701,0.882043,0.309167,0.977303,-0.802122,0.315366,-0.537082,0.811354,0.801324,-0.0206935,0.0872771,0.591469,-0.826819,-0.211657,0.43527,-0.846882,-0.150975,0.42921,1.08596,-1.84402,0.0575894,-0.0883341,0.063169,0.000470877,-0.0883341,0.0155279,0.000470877,-0.761067,0.731565,-0.548969,0.567605,0.17557,0.546264,-0.432694,1
1.47452,-0.756767,-2.09499,-0.935113,2.24929,1.55597,-1.18361,1.47452,-0.756767,-2.09499,-0.935113,2.24929,1.55597,-1.18361,1.55084,-0.829591,-2.03973,-0.992386,2.23285,1.50125,-1.14054,-0.809036,0.718821,-0.993841,0.875032,0.303012,0.977639,-0.814981,-0.809036,0.718821,-0.993841,0.875032,0.303012,0.977639,-0.814981,0.306792,-0.538645,0.815535,0.809325,-0.0284124,0.0892021,0.579852,-0.828928,-0.198655,0.424424,-0.846806,-0.137446,0.417142,1.08637,-1.84466,0.0572878,0.0412583,-0.0640988,-0.0301659,0.0412583,0.0129125,-0.0301659,-0.763146,0.728244,-0.552589,0.572727,0.164347,0.547293,-0.430679,1
1.46684,-0.750017,-2.10499,-0.925759,2.24956,1.5659,-1.19185,1.46684,-0.750017,-2.10499,-0.925759,2.24956,1.5659,-1.19185,1.54321,-0.82252,-2.04945,-0.983698,2.23585,1.51088,-1.14864,-0.765487,0.704762,-0.981688,0.886675,0.30084,0.960284,-0.808308,-0.765487,0.704762,-0.981688,0.886675,0.30084,0.960284,-0.808308,0.298611,-0.539783,0.819686,0.816815,-0.0361478,0.0910722,0.568518,-0.808125,-0.171107,0.426273,-0.824716,-0.109228,0.417835,1.08663,-1.845,0.0570775,0.0255585,-0.0333786,-0.0210285,0.0255585,0.00544361,-0.0210285,-0.763634,0.725026,-0.555431,0.579386,0.137127,0.550141,-0.432045,1
1.45825,-0.743178,-2.11555,-0.916849,2.25252,1.57505,-1.1998,1.45825,-0.743178,-2.11555,-0.916849,2.25252,1.57505,-1.1998,1.53504,-0.815428,-2.05968,-0.974511,2.23899,1.52063,-1.15672,-0.82227,0.712012,-1.0276,0.912346,0.316737,0.977829,-0.806642,-0.82227,0.712012,-1.0276,0.912346,0.316737,0.977829,-0.806642,0.289954,-0.541005,0.823902,0.824386,-0.0440225,0.0930335,0.556592,-0.853555,-0.174402,0.431219,-0.867747,-0.11081,0.421288,1.0867,-1.84516,0.0569899,0.00705719,-0.0160217,-0.00876188,0.00705719,-0.00834465,-0.00876188,-0.767886,0.722504,-0.558631,0.576619,0.135366,0.544185,-0.43085,1
1.45048,-0.736389,-2.12575,-0.906907,2.24931,1.58521,-1.20845,1.45048,-0.736389,-2.12575,-0.906907,2.24931,1.58521,-1.20845,1.52725,-0.808404,-2.06957,-0.965813,2.24212,1.53033,-1.16474,-0.767417,0.693556,-0.979327,0.862969,0.313994,0.970974,-0.800003,-0.767417,0.693556,-0.979327,0.862969,0.313994,0.970974,-0.800003,0.281652,-0.541809,0.828031,0.831442,-0.0518532,0.0949628,0.544975,-0.808428,-0.131024,0.419924,-0.82184,-0.0676904,0.409013,1.08668,-1.84514,0.0570251,-0.00164509,0.00196695,0.00352859,-0.00164509,-0.0127767,0.00352859,-0.767738,0.720148,-0.561743,0.589051,0.0718335,0.548717,-0.437042,1
1.44185,-0.730006,-2.13624,-0.898459,2.24809,1.59433,-1.21644,1.44185,-0.730006,-2.13624,-0.898459,2.24809,1.59433,-1.21644,1.51919,-0.801486,-2.07964,-0.95673,2.24522,1.54009,-1.17272,-0.823049,0.699704,-1.02054,0.914275,0.300955,0.977721,-0.798672,-0.823049,0.699704,-1.02054,0.914275,0.300955,0.977721,-0.798672,0.273092,-0.542569,0.832193,0.838406,-0.0598155,0.0969508,0.533009,-0.855437,-0.133113,0.43222,-0.865672,-0.0671398,0.419464,1.08661,-1.84501,0.0570417,-0.00711679,0.012219,0.00165105,-0.00711679,-0.0136035,0.00165105,-0.773376,0.714791,-0.565976,0.582713,0.0286896,0.542327,-0.437197,1
1.43324,-0.723214,-2.14686,-0.888732,2.24303,1.60362,-1.22503,1.43324,-0.723214,-2.14686,-0.888732,2.24303,1.60362,-1.22503,1.51096,-0.794344,-2.08984,-0.947833,2.24782,1.54983,-1.18073,-0.815595,0.712887,-1.00923,0.881258,0.249547,0.974485,-0.802484,-0.815595,0.712887,-1.00923,0.881258,0.249547,0.974485,-0.802484,0.264574,-0.542994,0.836383,0.845133,-0.0678633,0.0993631,0.520838,-0.836735,-0.0940113,0.432957,-0.842914,-0.0256315,0.41821,1.08652,-1.84497,0.0571107,-0.00957251,0.00462532,0.00690818,-0.00957251,-0.0131624,0.00690818,-0.777237,0.711305,-0.570219,0.591017,-0.0479213,0.537971,-0.442995,1
1.4248,-0.716993,-2.15737,-0.879532,2.23905,1.61297,-1.23307,1.4248,-0.716993,-2.15737,-0.879532,2.23905,1.61297,-1.23307,1.50297,-0.787355,-2.09968,-0.9388,2.24996,1.55961,-1.18875,-0.800614,0.69394,-0.986686,0.904724,0.193747,0.980741,-0.802987,-0.800614,0.69394,-0.986686,0.904724,0.193747,0.980741,-0.802987,0.256231,-0.543081,0.840599,0.851495,-0.0761163,0.101872,0.508708,-0.828351,-0.069372,0.435018,-0.832255,0.001524,0.418314,1.08652,-1.84491,0.0571084,0.00089407,0.0054121,-0.000238419,0.00089407,-0.00199165,-0.000238419,-0.781771,0.70362,-0.576885,0.592681,-0.109097,0.533648,-0.443124,1
1.41567,-0.710874,-2.1684,-0.870358,2.23585,1.62157,-1.23984,1.41567,-0.710874,-2.1684,-0.870358,2.23585,1.62157,-1.23984,1.49453,-0.780425,-2.11017,-0.929601,2.25099,1.56921,-1.19684,-0.854856,0.696433,-1.0597,0.927662,0.0728276,0.958522,-0.811376,-0.854856,0.696433,-1.0597,0.927662,0.0728276,0.958522,-0.811376,0.247768,-0.543132,0.844668,0.857813,-0.0842827,0.105178,0.495975,-0.855072,-0.0683715,0.427564,-0.848669,0.00569301,0.407789,1.08652,-1.84495,0.057091,-0.000977516,-0.00356436,-0.00174046,-0.000977516,0.00282867,-0.00174046,-0.788588,0.695503,-0.58236,0.592429,-0.151339,0.523622,-0.429996,1
1.40747,-0.704408,-2.1788,-0.860745,2.23535,1.63107,-1.24742,1.40747,-0.704408,-2.1788,-0.860745,2.23535,1.63107,-1.24742,1.48639,-0.773306,-2.12018,-0.920206,2.25084,1.57886,-1.205,-0.79582,0.714517,-0.981269,0.93858,-0.0479189,0.969092,-0.816278,-0.79582,0.714517,-0.981269,0.93858,-0.0479189,0.969092,-0.816278,0.239626,-0.542574,0.848942,0.863694,-0.0928862,0.108977,0.483249,-0.805619,0.000508376,0.453764,-0.796694,0.0803029,0.430734,1.08653,-1.8449,0.0570843,0.00101328,0.00468493,-0.000667572,0.00101328,0.00440904,-0.000667572,-0.789208,0.688982,-0.58625,0.594617,-0.154959,0.522106,-0.424194,1
1.39827,-0.699697,-2.19036,-0.850489,2.22877,1.64007,-1.25433,1.39827,-0.699697,-2.19036,-0.850489,2.22877,1.64007,-1.25433,1.47811,-0.766622,-2.1306,-0.910968,2.24941,1.58834,-1.21321,-0.851788,0.652593,-1.07366,0.931629,-0.170545,0.943925,-0.823648,-0.851788,0.652593,-1.07366,0.931629,-0.170545,0.943925,-0.823648,0.231659,-0.542033,0.852807,0.869345,-0.101196,0.1135,0.470231,-0.827539,-0.0317436,0.398724,-0.80659,0.0465824,0.373264,1.08653,-1.84493,0.0570987,0.000441074,-0.00287294,0.00144243,0.000441074,0.00305985,0.00144243,-0.798353,0.669254,-0.597519,0.604785,-0.206406,0.517332,-0.411192,1
1.38965,-0.694155,-2.20198,-0.84131,2.22602,1.64849,-1.26197,1.38965,-0.694155,-2.20198,-0.84131,2.22602,1.64849,-1.26197,1.46966,-0.759705,-2.14108,-0.901298,2.24696,1.59785,-1.22147,-0.824032,0.712803,-1.02076,0.975888,-0.268262,0.954843,-0.824979,-0.824032,0.712803,-1.02076,0.975888,-0.268262,0.954843,-0.824979,0.22369,-0.541119,0.856859,0.874742,-0.109843,0.11863,0.456824,-0.804392,0.0400304,0.451739,-0.780385,0.12501,0.422074,1.08652,-1.84489,0.0570795,-0.000607967,0.00386238,-0.00191927,-0.000607967,0.00160294,-0.00191927,-0.800183,0.6555,-0.609031,0.599881,-0.209352,0.506376,-0.405036,1
1.38116,-0.68911,-2.21292,-0.831236,2.22071,1.65727,-1.26975,1.38116,-0.68911,-2.21292,-0.831236,2.22071,1.65727,-1.26975,1.46151,-0.752816,-2.1514,-0.892003,2.2438,1.6073,-1.22957,-0.829425,0.666759,-1.05448,0.925637,-0.322527,0.944332,-0.805444,-0.829425,0.666759,-1.05448,0.925637,-0.322527,0.944332,-0.805444,0.216156,-0.539864,0.86077,0.879622,-0.118424,0.124122,0.443661,-0.788536,0.0345254,0.404586,-0.75749,0.116335,0.373165,1.08652,-1.84492,0.0570988,-0.000536442,-0.00247955,0.00193119,-0.000536442,0.000755702,0.00193119,-0.803574,0.637053,-0.61526,0.607662,-0.230948,0.499735,-0.401719,1
1.37211,-0.68417,-2.2244,-0.822318,2.21637,1.66571,-1.27748,1.37211,-0.68417,-2.2244,-0.822318,2.21637,1.66571,-1.27748,1.4529,-0.746215,-2.16217,-0.882415,2.24046,1.61674,-1.23748,-0.859806,0.670594,-1.0713,0.975228,-0.343064,0.944704,-0.785214,-0.859806,0.670594,-1.0713,0.975228,-0.343064,0.944704,-0.785214,0.208355,-0.538742,0.864511,0.88434,-0.126859,0.129846,0.430105,-0.812931,0.0475154,0.418386,-0.77794,0.130022,0.384187,1.08652,-1.8449,0.0571322,0.000333786,0.00213385,0.00333786,0.000333786,0.00045257,0.00333786,-0.807896,0.620455,-0.622322,0.600969,-0.240889,0.489687,-0.400023,1
1.36388,-0.677973,-2.23482,-0.813114,2.21405,1.67441,-1.2834,1.36388,-0.677973,-2.23482,-0.813114,2.21405,1.67441,-1.2834,1.44455,-0.739351,-2.17267,-0.872927,2.23657,1.6261,-1.24512,-0.831339,0.681467,-1.0518,0.943796,-0.401644,0.932986,-0.758141,-0.831339,0.681467,-1.0518,0.943796,-0.401644,0.932986,-0.758141,0.200914,-0.53715,0.868364,0.888533,-0.135421,0.135895,0.416777,-0.774527,0.0843626,0.416236,-0.735005,0.166687,0.379297,1.08652,-1.84487,0.0571045,-2.38419e-05,0.00288486,-0.00277162,-2.38419e-05,0.000975387,-0.00277162,-0.806618,0.613784,-0.621528,0.598128,-0.22518,0.483142,-0.382824,1
1.35482,-0.673237,-2.24637,-0.803783,2.20976,1.68314,-1.28999,1.35482,-0.673237,-2.24637,-0.803783,2.20976,1.68314,-1.28999,1.43593,-0.732715,-2.18359,-0.863294,2.2324,1.63544,-1.25261,-0.871605,0.662257,-1.10436,0.982444,-0.423733,0.930841,-0.747643,-0.871605,0.662257,-1.10436,0.982444,-0.423733,0.930841,-0.747643,0.193381,-0.535604,0.872034,0.892487,-0.143819,0.142231,0.403179,-0.804445,0.0784159,0.407945,-0.759058,0.159245,0.368432,1.08651,-1.84494,0.0570761,-0.00157356,-0.00702143,-0.00283718,-0.00157356,7.06741e-05,-0.00283718,-0.811132,0.594779,-0.627852,0.595102,-0.226338,0.476964,-0.373797,1
1.3463,-0.66821,-2.25782,-0.794772,2.20783,1.69119,-1.29525,1.3463,-0.66821,-2.25782,-0.794772,2.20783,1.69119,-1.29525,1.42737,-0.726223,-2.1945,-0.853713,2.22796,1.64465,-1.26007,-0.842184,0.646666,-1.08468,0.949956,-0.451344,0.913644,-0.744371,-0.842184,0.646666,-1.08468,0.949956,-0.451344,0.913644,-0.744371,0.186019,-0.533942,0.875586,0.896091,-0.152075,0.148727,0.389582,-0.769208,0.0985162,0.392665,-0.720664,0.176668,0.351386,1.08653,-1.84492,0.0570848,0.00245571,0.00129938,0.000864267,0.00245571,-6.81196e-05,0.000864267,-0.810692,0.580126,-0.633247,0.589401,-0.201308,0.465398,-0.351831,1
1.33786,-0.662593,-2.26956,-0.785421,2.20254,1.70028,-1.30183,1.33786,-0.662593,-2.26956,-0.785421,2.20254,1.70028,-1.30183,1.41893,-0.719643,-2.20555,-0.84397,2.2233,1.65363,-1.26749,-0.859093,0.659117,-1.12195,0.99583,-0.462715,0.892445,-0.739578,-0.859093,0.659117,-1.12195,0.99583,-0.462715,0.892445,-0.739578,0.178814,-0.532074,0.87918,0.899359,-0.160285,0.155457,0.375892,-0.783765,0.113119,0.406887,-0.730279,0.190148,0.362766,1.08652,-1.84491,0.0570964,-0.00113249,0.00171661,0.00116229,-0.00113249,-0.000355073,0.00116229,-0.810693,0.570499,-0.640145,0.585495,-0.207561,0.466485,-0.343462,1
1.32922,-0.65877,-2.28179,-0.775618,2.19915,1.71024,-1.30862,1.32922,-0.65877,-2.28179,-0.775618,2.19915,1.71024,-1.30862,1.4102,-0.71321,-2.21672,-0.834266,2.21886,1.66259,-1.27476,-0.85901,0.638073,-1.10123,0.958105,-0.439475,0.894686,-0.722908,-0.85901,0.638073,-1.10123,0.958105,-0.439475,0.894686,-0.722908,0.171507,-0.530204,0.88266,0.902356,-0.168323,0.162169,0.362107,-0.7699,0.123707,0.388614,-0.715432,0.197014,0.343506,1.08652,-1.84492,0.0571323,0.000584126,-0.00150204,0.00359416,0.000584126,-0.000336766,0.00359416,-0.809788,0.544405,-0.650741,0.586476,-0.197092,0.476444,-0.33857,1
1.32114,-0.655131,-2.29362,-0.765928,2.19554,1.72051,-1.3146,1.32114,-0.655131,-2.29362,-0.765928,2.19554,1.72051,-1.3146,1.40179,-0.707021,-2.22776,-0.824758,2.21456,1.67135,-1.28177,-0.85442,0.610642,-1.12484,0.969166,-0.422084,0.868393,-0.690527,-0.85442,0.610642,-1.12484,0.969166,-0.422084,0.868393,-0.690527,0.1645,-0.528267,0.885977,0.904944,-0.176094,0.168789,0.348679,-0.768258,0.121798,0.375583,-0.710945,0.190893,0.329471,1.08653,-1.84489,0.0571136,0.000143051,0.00362396,-0.00187159,0.000143051,-0.000178388,-0.00187159,-0.806531,0.518901,-0.658622,0.588306,-0.190152,0.491645,-0.328337,1
1.31254,-0.653227,-2.30613,-0.75702,2.1939,1.73035,-1.32138,1.31254,-0.653227,-2.30613,-0.75702,2.1939,1.73035,-1.32138,1.39287,-0.700884,-2.23913,-0.815055,2.21069,1.68012,-1.2884,-0.885015,0.621787,-1.12575,0.957865,-0.382087,0.873306,-0.655366,-0.885015,0.621787,-1.12575,0.957865,-0.382087,0.873306,-0.655366,0.15717,-0.526346,0.889277,0.907314,-0.183736,0.175413,0.335042,-0.778926,0.139875,0.379223,-0.720139,0.206489,0.331557,1.08653,-1.84492,0.0571054,0.000202656,-0.00290871,-0.000822544,0.000202656,-0.000138794,-0.000822544,-0.803256,0.476572,-0.670006,0.580349,-0.167964,0.502323,-0.329747,1
1.3051,-0.652228,-2.31819,-0.748223,2.19239,1.74003,-1.32704,1.3051,-0.652228,-2.31819,-0.748223,2.19239,1.74003,-1.32704,1.38439,-0.694697,-2.25016,-0.805703,2.20685,1.68881,-1.29479,-0.848595,0.608581,-1.10829,0.947631,-0.381933,0.871065,-0.635245,-0.848595,0.608581,-1.10829,0.947631,-0.381933,0.871065,-0.635245,0.150287,-0.524141,0.892537,0.909207,-0.191296,0.181989,0.321913,-0.748605,0.158657,0.371813,-0.689112,0.222986,0.322688,1.08655,-1.84492,0.057072,0.00203848,-0.000476837,-0.00333786,0.00203848,0.000329954,-0.00333786,-0.792966,0.424697,-0.680325,0.574798,-0.144644,0.512226,-0.322486,1
1.29741,-0.656629,-2.33108,-0.739538,2.18431,1.75095,-1.33385,1.29741,-0.656629,-2.33108,-0.739538,2.18431,1.75095,-1.33385,1.37546,-0.688986,-2.26169,-0.796187,2.20314,1.69767,-1.30106,-0.900786,0.564097,-1.1677,0.940992,-0.369144,0.890024,-0.624268,-0.900786,0.564097,-1.1677,0.940992,-0.369144,0.890024,-0.624268,0.14311,-0.522162,0.89551,0.910936,-0.1986,0.188658,0.308482,-0.780591,0.13846,0.337739,-0.71651,0.198103,0.287505,1.08651,-1.84493,0.0571017,-0.00394583,-0.000846386,0.00296831,-0.00394583,-0.000106863,0.00296831,-0.780518,0.323564,-0.693848,0.566496,-0.188291,0.532821,-0.327948,1
1.29047,-0.664904,-2.3435,-0.730172,2.17677,1.76172,-1.34019,1.29047,-0.664904,-2.3435,-0.730172,2.17677,1.76172,-1.34019,1.36677,-0.683245,-2.27315,-0.786768,2.19948,1.70672,-1.30724,-0.856529,0.580682,-1.13191,0.954582,-0.360822,0.909905,-0.617102,-0.856529,0.580682,-1.13191,0.954582,-0.360822,0.909905,-0.617102,0.136165,-0.519943,0.898451,0.91227,-0.205968,0.195337,0.295269,-0.748664,0.179027,0.354706,-0.685701,0.239086,0.301919,1.08651,-1.84492,0.0570827,0.000464916,0.00089407,-0.00189543,0.000464916,-0.000294617,-0.00189543,-0.762983,0.183404,-0.70346,0.565954,-0.227095,0.550041,-0.329548,1
1.28424,-0.6904,-2.35591,-0.718768,2.16534,1.7742,-1.34737,1.28424,-0.6904,-2.35591,-0.718768,2.16534,1.7742,-1.34737,1.35799,-0.677571,-2.28483,-0.777237,2.19618,1.71614,-1.31342,-0.893967,0.55107,-1.19373,0.942106,-0.320039,0.952916,-0.618048,-0.893967,0.55107,-1.19373,0.942106,-0.320039,0.952916,-0.618048,0.129146,-0.517607,0.901337,0.913317,-0.213428,0.201954,0.281984,-0.773825,0.169629,0.326521,-0.708003,0.226008,0.27242,1.08651,-1.84491,0.057123,-0.000441074,0.00129938,0.00402331,-0.000441074,-0.000115803,0.00402331,-0.737546,-0.128293,-0.710812,0.584688,-0.308449,0.58059,-0.339551,1
1.27965,-0.71315,-2.36845,-0.706746,2.15357,1.78611,-1.35669,1.27965,-0.71315,-2.36845,-0.706746,2.15357,1.78611,-1.35669,1.34925,-0.672414,-2.29668,-0.767859,2.19326,1.7258,-1.31957,-0.851807,0.50764,-1.16627,0.943125,-0.294671,0.971563,-0.613039,-0.851807,0.50764,-1.16627,0.943125,-0.294671,0.971563,-0.613039,0.122143,-0.515418,0.903891,0.914117,-0.220658,0.208399,0.268832,-0.748932,0.175466,0.308916,-0.68506,0.229429,0.254275,1.08654,-1.84488,0.0571217,0.00281334,0.00296831,-0.00012517,0.00281334,0.000163487,-0.00012517,-0.69604,-0.407354,-0.717697,0.611132,-0.396824,0.603105,-0.371275,1
1.27953,-0.721641,-2.38021,-0.694204,2.14315,1.80056,-1.36683,1.27953,-0.721641,-2.38021,-0.694204,2.14315,1.80056,-1.36683,1.34071,-0.667782,-2.30871,-0.758451,2.18988,1.73565,-1.32569,-0.87212,0.438637,-1.22821,0.938978,-0.355837,0.996418,-0.613303,-0.87212,0.438637,-1.22821,0.938978,-0.355837,0.996418,-0.613303,0.115314,-0.513332,0.906112,0.914592,-0.227705,0.215058,0.255778,-0.759846,0.148487,0.259721,-0.689558,0.197812,0.203198,1.08654,-1.8449,0.0570967,-0.000107288,-0.00221729,-0.0025034,-0.000107288,0.000560284,-0.0025034,-0.611774,-0.538598,-0.715023,0.642466,-0.467237,0.649059,-0.411398,1
1.27536,-0.72387,-2.39238,-0.684047,2.14234,1.81114,-1.37323,1.27536,-0.72387,-2.39238,-0.684047,2.14234,1.81114,-1.37323,1.33201,-0.663565,-2.32088,-0.748948,2.18558,1.7459,-1.33191,-0.854365,0.430508,-1.20299,0.958582,-0.460455,1.03024,-0.625532,-0.854365,0.430508,-1.20299,0.958582,-0.460455,1.03024,-0.625532,0.108532,-0.511284,0.908026,0.914713,-0.23471,0.222189,0.242579,-0.734834,0.173547,0.257099,-0.660707,0.223143,0.196004,1.08649,-1.84493,0.0571037,-0.00427961,-0.00319481,0.000703335,-0.00427961,0.000245231,0.000703335,-0.566486,-0.603053,-0.714981,0.649008,-0.432338,0.65244,-0.413139,1
1.26672,-0.724418,-2.40457,-0.67599,2.14868,1.82,-1.37779,1.26672,-0.724418,-2.40457,-0.67599,2.14868,1.82,-1.37779,1.32364,-0.65963,-2.33285,-0.739134,2.17984,1.75662,-1.33832,-0.84081,0.365336,-1.20458,0.980837,-0.615698,1.09305,-0.64853,-0.84081,0.365336,-1.20458,0.980837,-0.615698,1.09305,-0.64853,0.102114,-0.509052,0.909755,0.914315,-0.241963,0.22988,0.229427,-0.718137,0.167035,0.21811,-0.637914,0.215428,0.152064,1.08652,-1.84492,0.0570765,0.00293255,0.00158548,-0.00271797,0.00293255,8.81297e-05,-0.00271797,-0.569263,-0.647878,-0.717234,0.631443,-0.311605,0.633857,-0.39469,1
1.25856,-0.727143,-2.41568,-0.667396,2.14561,1.83042,-1.38546,1.25856,-0.727143,-2.41568,-0.667396,2.14561,1.83042,-1.38546,1.31519,-0.656773,-2.34517,-0.72916,2.17229,1.76788,-1.34519,-0.841769,0.267303,-1.2348,1.00658,-0.802349,1.13608,-0.702245,-0.841769,0.267303,-1.2348,1.00658,-0.802349,1.13608,-0.702245,0.0957844,-0.507239,0.910765,0.913548,-0.248938,0.238356,0.215976,-0.713778,0.134994,0.158999,-0.624743,0.179202,0.0883566,1.08648,-1.84492,0.0571283,-0.00476837,-0.000488758,0.00517368,-0.00476837,-0.000259706,0.00517368,-0.566299,-0.7037,-0.70514,0.617635,-0.266891,0.625361,-0.402649,1
1.25226,-0.730049,-2.42714,-0.662329,2.13866,1.84309,-1.39744,1.25226,-0.730049,-2.42714,-0.662329,2.13866,1.84309,-1.39744,1.30728,-0.654598,-2.35708,-0.718739,2.16325,1.77983,-1.35266,-0.773145,0.197109,-1.1805,1.04336,-0.931878,1.21771,-0.758632,-0.773145,0.197109,-1.1805,1.04336,-0.931878,1.21771,-0.758632,0.0898381,-0.505414,0.911427,0.912259,-0.256213,0.247188,0.202574,-0.67034,0.137546,0.127931,-0.580625,0.182142,0.0522962,1.08654,-1.84493,0.0571106,0.00683069,-0.000524521,-0.0017643,0.00683069,-0.000566244,-0.0017643,-0.550109,-0.754508,-0.700631,0.564096,-0.245878,0.632547,-0.447704,1
1.24566,-0.73102,-2.43781,-0.655216,2.14544,1.85631,-1.40784,1.24566,-0.73102,-2.43781,-0.655216,2.14544,1.85631,-1.40784,1.29948,-0.653561,-2.36933,-0.70787,2.15418,1.79213,-1.3604,-0.787455,0.072818,-1.23553,1.1169,-0.872205,1.23666,-0.773193,-0.787455,0.072818,-1.23553,1.1169,-0.872205,1.23666,-0.773193,0.0837408,-0.504069,0.911565,0.91075,-0.263208,0.255924,0.189101,-0.716385,0.0866383,0.081417,-0.626577,0.124299,0.00663201,1.08651,-1.84492,0.0571042,-0.00324249,0.000452995,-0.00064373,-0.00324249,-0.000618185,-0.00064373,-0.53819,-0.774592,-0.684765,0.526545,-0.0873823,0.64178,-0.474408,1
1.24103,-0.731819,-2.44849,-0.651425,2.16026,1.86958,-1.41883,1.24103,-0.731819,-2.44849,-0.651425,2.16026,1.86958,-1.41883,1.29207,-0.653358,-2.38127,-0.696489,2.14737,1.80451,-1.36795,-0.715955,-0.00275644,-1.18001,1.12397,-0.620626,1.22199,-0.750651,-0.715955,-0.00275644,-1.18001,1.12397,-0.620626,1.22199,-0.750651,0.0773732,-0.50294,0.911635,0.90921,-0.270155,0.263326,0.176106,-0.704263,0.0706929,0.0670195,-0.627891,0.104356,-0.00142487,1.08655,-1.84494,0.0570836,0.00340939,-0.00143051,-0.00206232,0.00340939,-0.000348687,-0.00206232,-0.510409,-0.784604,-0.672258,0.450642,0.128911,0.650639,-0.508808,1
1.23618,-0.733511,-2.45891,-0.647496,2.17912,1.88118,-1.42698,1.23618,-0.733511,-2.45891,-0.647496,2.17912,1.88118,-1.42698,1.28509,-0.654327,-2.39309,-0.685082,2.14273,1.81662,-1.37543,-0.70016,-0.127911,-1.18267,1.16172,-0.415911,1.20515,-0.753347,-0.70016,-0.127911,-1.18267,1.16172,-0.415911,1.20515,-0.753347,0.0708159,-0.502344,0.91135,0.907812,-0.276582,0.269439,0.163652,-0.736592,0.0227724,0.0277522,-0.668298,0.0503368,-0.0342304,1.08653,-1.84489,0.0570854,-0.00135899,0.00480413,0.000178814,-0.00135899,0.000326548,0.000178814,-0.489102,-0.791842,-0.658255,0.375863,0.36388,0.645624,-0.515468,1
1.22817,-0.735611,-2.47016,-0.641098,2.19085,1.89049,-1.43441,1.22817,-0.735611,-2.47016,-0.641098,2.19085,1.89049,-1.43441,1.27801,-0.65641,-2.40499,-0.674058,2.1396,1.8284,-1.38331,-0.706799,-0.236059,-1.19175,1.08442,-0.271023,1.17212,-0.801489,-0.706799,-0.236059,-1.19175,1.08442,-0.271023,1.17212,-0.801489,0.0639729,-0.502371,0.910561,0.90662,-0.282291,0.274681,0.151333,-0.751035,-0.0349624,-0.0395437,-0.687441,-0.0157439,-0.0941673,1.08653,-1.84489,0.0570902,-0.000631809,-0.000703335,0.000488758,-0.000631809,0.000427025,0.000488758,-0.498452,-0.792017,-0.651722,0.329607,0.512527,0.620898,-0.511,1
1.21747,-0.738502,-2.48171,-0.631109,2.19283,1.90137,-1.44338,1.21747,-0.738502,-2.48171,-0.631109,2.19283,1.90137,-1.44338,1.27136,-0.659422,-2.41623,-0.663516,2.13914,1.84032,-1.39177,-0.649885,-0.320514,-1.10522,1.03734,0.0413993,1.19844,-0.864515,-0.649885,-0.320514,-1.10522,1.03734,0.0413993,1.19844,-0.864515,0.0569976,-0.502703,0.909475,0.905677,-0.287899,0.278169,0.13959,-0.744575,-0.0542532,-0.0689831,-0.698374,-0.0354172,-0.114387,1.08652,-1.84488,0.0571293,-7.15256e-05,0.00171661,0.0039041,-7.15256e-05,0.00080594,0.0039041,-0.538903,-0.790791,-0.654779,0.324072,0.536939,0.610441,-0.516104,1
1.20574,-0.742271,-2.49296,-0.617233,2.19897,1.91211,-1.45243,1.20574,-0.742271,-2.49296,-0.617233,2.19897,1.91211,-1.45243,1.26463,-0.663732,-2.42755,-0.654215,2.14218,1.8524,-1.40097,-0.682902,-0.470944,-1.13731,0.905323,0.405326,1.21458,-0.936159,-0.682902,-0.470944,-1.13731,0.905323,0.405326,1.21458,-0.936159,0.0495333,-0.503788,0.907691,0.905284,-0.292834,0.279758,0.128239,-0.79988,-0.137958,-0.166252,-0.766482,-0.126649,-0.197825,1.0865,-1.84493,0.0571293,-0.0025034,-0.00511408,5.96046e-06,-0.0025034,0.000430431,5.96046e-06,-0.588983,-0.785384,-0.654028,0.369821,0.56792,0.597114,-0.514604,1
1.19486,-0.747469,-2.50508,-0.602896,2.20394,1.9236,-1.46268,1.19486,-0.747469,-2.50508,-0.602896,2.20394,1.9236,-1.46268,1.25793,-0.668908,-2.43848,-0.645631,2.14937,1.86468,-1.4106,-0.662169,-0.522501,-1.07804,0.83326,0.817536,1.21473,-0.966791,-0.662169,-0.522501,-1.07804,0.83326,0.817536,1.21473,-0.966791,0.041532,-0.505188,0.905654,0.905411,-0.297637,0.279058,0.117344,-0.817688,-0.148925,-0.183381,-0.802865,-0.137519,-0.203393,1.08588,-1.84527,0.0571659,-0.061512,-0.0338197,0.00365973,-0.061512,-0.00361502,0.00365973,-0.630726,-0.785602,-0.666038,0.427345,0.545703,0.589208,-0.520799,1
1.18559,-0.753132,-2.51535,-0.591214,2.2115,1.93545,-1.47183,1.18559,-0.753132,-2.51535,-0.591214,2.2115,1.93545,-1.47183,1.25142,-0.674406,-2.44901,-0.638121,2.15998,1.87689,-1.4202,-0.648051,-0.556477,-1.04125,0.738079,1.13057,1.22568,-0.955454,-0.648051,-0.556477,-1.04125,0.738079,1.13057,1.22568,-0.955454,0.0333343,-0.506696,0.903475,0.905922,-0.302226,0.276563,0.107138,-0.825368,-0.157429,-0.208558,-0.824312,-0.145816,-0.219859,1.08585,-1.84528,0.0571579,-0.00369549,-0.00116825,-0.000804663,-0.00369549,-0.00650329,-0.000804663,-0.658343,-0.787267,-0.663418,0.469068,0.515226,0.585548,-0.516307,1
1.17736,-0.759604,-2.52632,-0.587675,2.22181,1.94633,-1.48198,1.17736,-0.759604,-2.52632,-0.587675,2.22181,1.94633,-1.48198,1.24485,-0.680033,-2.45947,-0.630839,2.17195,1.88877,-1.42964,-0.667758,-0.569957,-1.059,0.732231,1.19776,1.17702,-0.941435,-0.667758,-0.569957,-1.059,0.732231,1.19776,1.17702,-0.941435,0.024989,-0.508179,0.901284,0.906518,-0.306629,0.273462,0.0970675,-0.841513,-0.156469,-0.214614,-0.840456,-0.147172,-0.223857,1.0859,-1.84528,0.0571531,0.0051856,-0.000393391,-0.000476837,0.0051856,-0.00836253,-0.000476837,-0.674856,-0.795711,-0.668576,0.431639,0.498637,0.575597,-0.523419,1
1.16844,-0.767039,-2.53732,-0.590125,2.23276,1.95677,-1.49143,1.16844,-0.767039,-2.53732,-0.590125,2.23276,1.95677,-1.49143,1.23793,-0.686491,-2.47018,-0.623471,2.18351,1.9004,-1.439,-0.687819,-0.680521,-1.06719,0.741771,1.13433,1.15256,-0.934508,-0.687819,-0.680521,-1.06719,0.741771,1.13433,1.15256,-0.934508,0.0163936,-0.510011,0.898645,0.907091,-0.310507,0.270626,0.0867907,-0.863325,-0.198596,-0.274019,-0.858811,-0.19367,-0.281555,1.08589,-1.84526,0.0571696,-0.000977516,0.00172853,0.00164509,-0.000977516,-0.00811177,0.00164509,-0.694914,-0.805483,-0.671421,0.33346,0.492467,0.563735,-0.524302,1
1.1598,-0.775711,-2.55026,-0.599125,2.24489,1.96869,-1.50161,1.1598,-0.775711,-2.55026,-0.599125,2.24489,1.96869,-1.50161,1.23144,-0.694101,-2.4809,-0.615854,2.19371,1.91169,-1.44835,-0.641321,-0.781174,-1.08118,0.78405,0.979309,1.12207,-0.935599,-0.641321,-0.781174,-1.08118,0.78405,0.979309,1.12207,-0.935599,0.00801246,-0.512308,0.895404,0.907559,-0.313856,0.268246,0.076649,-0.843907,-0.232784,-0.325064,-0.833821,-0.230891,-0.333533,1.08586,-1.84526,0.0571706,-0.00334978,0.000858307,0.000107288,-0.00334978,-0.00652117,0.000107288,-0.716326,-0.816101,-0.693677,0.167288,0.511822,0.569985,-0.532625,1
1.15194,-0.784653,-2.5633,-0.621773,2.25643,1.98071,-1.51195,1.15194,-0.784653,-2.5633,-0.621773,2.25643,1.98071,-1.51195,1.22489,-0.702303,-2.49202,-0.607104,2.2027,1.92273,-1.45775,-0.657607,-0.829181,-1.12072,0.893416,0.878011,1.10446,-0.941399,-0.657607,-0.829181,-1.12072,0.893416,0.878011,1.10446,-0.941399,-0.000476946,-0.514648,0.892017,0.907748,-0.317125,0.266588,0.0660082,-0.867236,-0.228488,-0.331076,-0.850014,-0.228051,-0.343076,1.08587,-1.84526,0.0571512,0.00188351,-0.000536442,-0.00194907,0.00188351,-0.00345026,-0.00194907,-0.729568,-0.8235,-0.712732,-0.146691,0.537295,0.579826,-0.541947,1
1.14352,-0.793959,-2.57709,-0.635824,2.26902,1.99179,-1.52381,1.14352,-0.793959,-2.57709,-0.635824,2.26902,1.99179,-1.52381,1.21852,-0.711032,-2.50326,-0.598415,2.21098,1.93367,-1.46725,-0.626653,-0.892409,-1.11986,0.855594,0.820028,1.09513,-0.952424,-0.626653,-0.892409,-1.11986,0.855594,0.820028,1.09513,-0.952424,-0.00882059,-0.517147,0.888258,0.907795,-0.320106,0.265268,0.0554446,-0.845571,-0.251905,-0.380813,-0.827012,-0.253935,-0.391573,1.08584,-1.84528,0.057144,-0.0035882,-0.00163317,-0.000715256,-0.0035882,8.81297e-05,-0.000715256,-0.749968,-0.829268,-0.738231,-0.374097,0.580405,0.581204,-0.565578,1
1.13633,-0.80301,-2.58928,-0.63854,2.27828,2.00357,-1.53468,1.13633,-0.80301,-2.58928,-0.63854,2.27828,2.00357,-1.53468,1.21259,-0.720052,-2.51427,-0.590487,2.21936,1.94433,-1.47685,-0.585248,-0.898329,-1.09829,0.756439,0.84762,1.06014,-0.961317,-0.585248,-0.898329,-1.09829,0.756439,0.84762,1.06014,-0.961317,-0.0168323,-0.519793,0.884173,0.907876,-0.322717,0.26374,0.0453504,-0.80579,-0.258683,-0.409393,-0.790023,-0.262412,-0.41677,1.08589,-1.84528,0.0571528,0.00557899,-0.000226498,0.000882149,0.00557899,1.95844e-05,0.000882149,-0.762525,-0.829582,-0.750131,-0.480524,0.589121,0.592335,-0.57838,1
1.1291,-0.812163,-2.60201,-0.639592,2.28845,2.01281,-1.54382,1.1291,-0.812163,-2.60201,-0.639592,2.28845,2.01062,-1.54382,1.20636,-0.729067,-2.52567,-0.586023,2.22842,1.95494,-1.48656,-0.644197,-0.898161,-1.15201,0.344299,0.932946,1.06636,-0.97505,-0.644197,-0.898161,-1.15201,0.344299,0.932946,1.06636,-0.97505,-0.0246053,-0.522978,0.879162,0.908321,-0.323999,0.262059,0.0360898,-0.792245,-0.314874,-0.530903,-0.77846,-0.328191,-0.52807,1.08588,-1.84524,0.057158,-0.00190735,0.00394583,0.00051856,-0.00190735,0.000255874,0.00051856,-0.772612,-0.830965,-0.763462,-0.535691,0.600241,0.578667,-0.572625,1
