Afshin1997/kuka_rl_ros2/src/catch_and_throw/output_files/tm/idealpd_6/tm_received_joint_vel_np.csv
joint_0,joint_1,joint_2,joint_3,joint_4,joint_5,joint_6
0.000000000000000000e+00,0.000000000000000000e+00,2.994330498040653765e-05,5.988660996081307530e-05,4.790928869624622166e-05,-1.198277604999020696e-04,0.000000000000000000e+00
0.000000000000000000e+00,-2.999784737767186016e-05,-2.994330498040653765e-05,-1.198277604999020696e-04,0.000000000000000000e+00,5.988660996081307530e-05,-8.988445915747433901e-05
0.000000000000000000e+00,0.000000000000000000e+00,0.000000000000000000e+00,5.994115053908899426e-05,0.000000000000000000e+00,0.000000000000000000e+00,0.000000000000000000e+00
0.000000000000000000e+00,2.999784737767186016e-05,0.000000000000000000e+00,2.994330498040653765e-05,-4.790928869624622166e-05,-5.988660996081307530e-05,-5.994115053908899426e-05
0.000000000000000000e+00,-2.999784737767186016e-05,2.994330498040653765e-05,-8.988445915747433901e-05,0.000000000000000000e+00,1.797143777366727591e-04,2.097122196573764086e-04
0.000000000000000000e+00,0.000000000000000000e+00,-2.994330498040653765e-05,8.988445915747433901e-05,0.000000000000000000e+00,0.000000000000000000e+00,-1.497710618423298001e-04
0.000000000000000000e+00,-2.994330498040653765e-05,2.994330498040653765e-05,2.994330498040653765e-05,4.790928869624622166e-05,-1.797143777366727591e-04,8.988445915747433901e-05
0.000000000000000000e+00,0.000000000000000000e+00,0.000000000000000000e+00,0.000000000000000000e+00,-4.790928869624622166e-05,1.198277604999020696e-04,0.000000000000000000e+00
0.000000000000000000e+00,0.000000000000000000e+00,0.000000000000000000e+00,-2.994330498040653765e-05,0.000000000000000000e+00,5.988660996081307530e-05,0.000000000000000000e+00
0.000000000000000000e+00,5.994115053908899426e-05,0.000000000000000000e+00,-2.994330498040653765e-05,4.790928869624622166e-05,-5.988660996081307530e-05,0.000000000000000000e+00
-2.994330498040653765e-05,0.000000000000000000e+00,5.994115053908899426e-05,2.994330498040653765e-05,-4.790928869624622166e-05,-5.994115053908899426e-05,-8.988445915747433901e-05
2.994330498040653765e-05,0.000000000000000000e+00,-5.994115053908899426e-05,-2.994330498040653765e-05,0.000000000000000000e+00,5.994115053908899426e-05,8.988445915747433901e-05
0.000000000000000000e+00,-5.994115053908899426e-05,-2.994330498040653765e-05,0.000000000000000000e+00,0.000000000000000000e+00,-5.994115053908899426e-05,0.000000000000000000e+00
0.000000000000000000e+00,5.994115053908899426e-05,2.994330498040653765e-05,2.994330498040653765e-05,4.790928869624622166e-05,5.994115053908899426e-05,-8.988445915747433901e-05
0.000000000000000000e+00,0.000000000000000000e+00,0.000000000000000000e+00,-2.994330498040653765e-05,-4.790928869624622166e-05,1.497710618423298001e-04,8.988445915747433901e-05
-5.994115053908899426e-05,5.988660996081307530e-05,-2.994330498040653765e-05,2.994330498040653765e-05,0.000000000000000000e+00,-1.497710618423298001e-04,0.000000000000000000e+00
5.994115053908899426e-05,-8.988445915747433901e-05,0.000000000000000000e+00,-2.994330498040653765e-05,0.000000000000000000e+00,-1.198277604999020696e-04,0.000000000000000000e+00
0.000000000000000000e+00,-2.994330498040653765e-05,0.000000000000000000e+00,5.988660996081307530e-05,4.790928869624622166e-05,1.198277604999020696e-04,0.000000000000000000e+00
2.994330498040653765e-05,5.994115053908899426e-05,2.994330498040653765e-05,2.999784555868245661e-05,-4.790928869624622166e-05,-5.994115053908899426e-05,-8.988445915747433901e-05
-2.994330498040653765e-05,5.988660996081307530e-05,0.000000000000000000e+00,-8.988445915747433901e-05,0.000000000000000000e+00,0.000000000000000000e+00,0.000000000000000000e+00
0.000000000000000000e+00,-8.988445915747433901e-05,-2.994330498040653765e-05,2.994330498040653765e-05,0.000000000000000000e+00,0.000000000000000000e+00,8.988445915747433901e-05
0.000000000000000000e+00,0.000000000000000000e+00,2.994330498040653765e-05,2.994330498040653765e-05,4.790928869624622166e-05,0.000000000000000000e+00,-8.988445915747433901e-05
0.000000000000000000e+00,0.000000000000000000e+00,-2.994330498040653765e-05,-2.994330498040653765e-05,-4.790928869624622166e-05,0.000000000000000000e+00,0.000000000000000000e+00
0.000000000000000000e+00,0.000000000000000000e+00,-5.994115053908899426e-05,-8.988445915747433901e-05,0.000000000000000000e+00,0.000000000000000000e+00,0.000000000000000000e+00
2.994330498040653765e-05,0.000000000000000000e+00,5.994115053908899426e-05,-2.994330498040653765e-05,0.000000000000000000e+00,1.198277604999020696e-04,8.988445915747433901e-05
-2.994330498040653765e-05,8.988445915747433901e-05,0.000000000000000000e+00,1.198277604999020696e-04,0.000000000000000000e+00,-1.797143777366727591e-04,-8.988445915747433901e-05
-2.994330498040653765e-05,-2.994330498040653765e-05,-5.994115053908899426e-05,0.000000000000000000e+00,0.000000000000000000e+00,-8.988445915747433901e-05,8.988445915747433901e-05
-2.999784737767186016e-05,-5.994115053908899426e-05,8.988445915747433901e-05,0.000000000000000000e+00,0.000000000000000000e+00,2.097122196573764086e-04,0.000000000000000000e+00
0.000000000000000000e+00,0.000000000000000000e+00,0.000000000000000000e+00,-2.994330498040653765e-05,0.000000000000000000e+00,5.988660996081307530e-05,-8.988445915747433901e-05
5.994115053908899426e-05,8.988445915747433901e-05,0.000000000000000000e+00,-5.994115053908899426e-05,4.790928869624622166e-05,-5.988660996081307530e-05,8.988445915747433901e-05
0.000000000000000000e+00,-8.988445915747433901e-05,-2.994330498040653765e-05,1.198277604999020696e-04,-4.790928869624622166e-05,5.988660996081307530e-05,-8.988445915747433901e-05
2.994330498040653765e-05,0.000000000000000000e+00,2.994330498040653765e-05,-2.994330498040653765e-05,4.790928869624622166e-05,-1.198277604999020696e-04,0.000000000000000000e+00
-2.994330498040653765e-05,2.999784737767186016e-05,0.000000000000000000e+00,0.000000000000000000e+00,0.000000000000000000e+00,5.994115053908899426e-05,1.497710618423298001e-04
-5.994115053908899426e-05,0.000000000000000000e+00,0.000000000000000000e+00,5.994115053908899426e-05,-4.790928869624622166e-05,-5.994115053908899426e-05,-1.497710618423298001e-04
5.994115053908899426e-05,-2.999784737767186016e-05,-2.994330498040653765e-05,-5.994115053908899426e-05,0.000000000000000000e+00,0.000000000000000000e+00,0.000000000000000000e+00
-5.994115053908899426e-05,-2.994330498040653765e-05,2.994330498040653765e-05,0.000000000000000000e+00,0.000000000000000000e+00,0.000000000000000000e+00,8.988445915747433901e-05
0.000000000000000000e+00,5.994115053908899426e-05,0.000000000000000000e+00,-2.994330498040653765e-05,0.000000000000000000e+00,5.994115053908899426e-05,-8.988445915747433901e-05
5.994115053908899426e-05,-2.999784737767186016e-05,0.000000000000000000e+00,-5.994115053908899426e-05,4.790928869624622166e-05,0.000000000000000000e+00,0.000000000000000000e+00
0.000000000000000000e+00,-2.994330498040653765e-05,-2.994330498040653765e-05,8.988445915747433901e-05,-4.790928869624622166e-05,-5.994115053908899426e-05,8.988445915747433901e-05
-5.994115053908899426e-05,2.994330498040653765e-05,-5.994115053908899426e-05,0.000000000000000000e+00,4.790928869624622166e-05,0.000000000000000000e+00,-8.988445915747433901e-05
5.994115053908899426e-05,0.000000000000000000e+00,5.994115053908899426e-05,-8.988445915747433901e-05,-4.790928869624622166e-05,5.994115053908899426e-05,0.000000000000000000e+00
0.000000000000000000e+00,-2.994330498040653765e-05,2.994330498040653765e-05,1.198277604999020696e-04,0.000000000000000000e+00,0.000000000000000000e+00,8.988445915747433901e-05
0.000000000000000000e+00,5.994115053908899426e-05,-2.994330498040653765e-05,-2.994330498040653765e-05,4.790928869624622166e-05,-5.994115053908899426e-05,-8.988445915747433901e-05
-5.994115053908899426e-05,-2.999784737767186016e-05,0.000000000000000000e+00,0.000000000000000000e+00,0.000000000000000000e+00,-5.988660996081307530e-05,0.000000000000000000e+00
5.994115053908899426e-05,-2.994330498040653765e-05,2.994330498040653765e-05,0.000000000000000000e+00,-4.790928869624622166e-05,1.198277604999020696e-04,8.988445915747433901e-05
0.000000000000000000e+00,0.000000000000000000e+00,0.000000000000000000e+00,-2.994330498040653765e-05,0.000000000000000000e+00,5.988660996081307530e-05,0.000000000000000000e+00
0.000000000000000000e+00,1.198277604999020696e-04,0.000000000000000000e+00,2.994330498040653765e-05,0.000000000000000000e+00,-5.988660996081307530e-05,-8.988445915747433901e-05
0.000000000000000000e+00,-8.988445915747433901e-05,-2.994330498040653765e-05,-8.988445915747433901e-05,4.790928869624622166e-05,0.000000000000000000e+00,8.988445915747433901e-05
0.000000000000000000e+00,-2.994330498040653765e-05,0.000000000000000000e+00,5.994115053908899426e-05,-4.790928869624622166e-05,-5.994115053908899426e-05,0.000000000000000000e+00
0.000000000000000000e+00,0.000000000000000000e+00,0.000000000000000000e+00,2.994330498040653765e-05,0.000000000000000000e+00,-5.988660996081307530e-05,-8.988445915747433901e-05
-5.994115053908899426e-05,0.000000000000000000e+00,0.000000000000000000e+00,0.000000000000000000e+00,0.000000000000000000e+00,1.797143777366727591e-04,8.988445915747433901e-05
5.994115053908899426e-05,0.000000000000000000e+00,-5.994115053908899426e-05,0.000000000000000000e+00,0.000000000000000000e+00,0.000000000000000000e+00,5.988660996081307530e-05
0.000000000000000000e+00,5.994115053908899426e-05,5.994115053908899426e-05,0.000000000000000000e+00,4.790928869624622166e-05,-1.797143777366727591e-04,-5.988660996081307530e-05
0.000000000000000000e+00,-2.999784737767186016e-05,2.994330498040653765e-05,0.000000000000000000e+00,0.000000000000000000e+00,1.198277604999020696e-04,0.000000000000000000e+00
-5.994115053908899426e-05,-2.994330498040653765e-05,0.000000000000000000e+00,0.000000000000000000e+00,-4.790928869624622166e-05,1.497710618423298001e-04,-8.988445915747433901e-05
5.994115053908899426e-05,2.994330498040653765e-05,-2.994330498040653765e-05,-2.994330498040653765e-05,0.000000000000000000e+00,-2.097122196573764086e-04,-5.994115053908899426e-05
0.000000000000000000e+00,2.999784737767186016e-05,2.994330498040653765e-05,2.994330498040653765e-05,4.790928869624622166e-05,0.000000000000000000e+00,1.498256024206057191e-04
2.994330498040653765e-05,-2.999784737767186016e-05,5.994115053908899426e-05,0.000000000000000000e+00,-4.790928869624622166e-05,0.000000000000000000e+00,0.000000000000000000e+00
2.999784737767186016e-05,2.999784737767186016e-05,-5.994115053908899426e-05,-2.994330498040653765e-05,0.000000000000000000e+00,0.000000000000000000e+00,0.000000000000000000e+00
-5.994115053908899426e-05,-2.999784737767186016e-05,-2.994330498040653765e-05,2.994330498040653765e-05,4.790928869624622166e-05,0.000000000000000000e+00,-8.988445915747433901e-05
0.000000000000000000e+00,-2.994330498040653765e-05,0.000000000000000000e+00,-8.988445915747433901e-05,-4.790928869624622166e-05,5.994115053908899426e-05,8.988445915747433901e-05
0.000000000000000000e+00,5.994115053908899426e-05,2.994330498040653765e-05,-2.994330498040653765e-05,0.000000000000000000e+00,0.000000000000000000e+00,0.000000000000000000e+00
2.994330498040653765e-05,5.988660996081307530e-05,-2.994330498040653765e-05,1.497710618423298001e-04,0.000000000000000000e+00,0.000000000000000000e+00,-8.988445915747433901e-05
-2.994330498040653765e-05,-5.988660996081307530e-05,0.000000000000000000e+00,0.000000000000000000e+00,0.000000000000000000e+00,-5.994115053908899426e-05,0.000000000000000000e+00
2.994330498040653765e-05,-5.994115053908899426e-05,0.000000000000000000e+00,-2.994330498040653765e-05,0.000000000000000000e+00,1.198277604999020696e-04,8.988445915747433901e-05
-2.994330498040653765e-05,2.994330498040653765e-05,0.000000000000000000e+00,-2.994330498040653765e-05,0.000000000000000000e+00,0.000000000000000000e+00,0.000000000000000000e+00
0.000000000000000000e+00,8.988445915747433901e-05,0.000000000000000000e+00,2.994330498040653765e-05,4.790928869624622166e-05,-5.988660996081307530e-05,0.000000000000000000e+00
0.000000000000000000e+00,0.000000000000000000e+00,2.994330498040653765e-05,5.994115053908899426e-05,-4.790928869624622166e-05,-5.994115053908899426e-05,0.000000000000000000e+00
2.994330498040653765e-05,-5.988660996081307530e-05,0.000000000000000000e+00,-8.988445915747433901e-05,0.000000000000000000e+00,0.000000000000000000e+00,0.000000000000000000e+00
-2.994330498040653765e-05,-2.999784737767186016e-05,0.000000000000000000e+00,-5.994115053908899426e-05,4.790928869624622166e-05,0.000000000000000000e+00,0.000000000000000000e+00
2.994330498040653765e-05,0.000000000000000000e+00,0.000000000000000000e+00,1.198277604999020696e-04,0.000000000000000000e+00,0.000000000000000000e+00,0.000000000000000000e+00
2.999784737767186016e-05,-2.994330498040653765e-05,0.000000000000000000e+00,-2.994330498040653765e-05,-1.438151230104267597e-04,-5.988660996081307530e-05,0.000000000000000000e+00
0.000000000000000000e+00,5.994115053908899426e-05,5.994115053908899426e-05,0.000000000000000000e+00,9.590584522811695933e-05,1.198277604999020696e-04,-8.988445915747433901e-05
0.000000000000000000e+00,5.988660996081307530e-05,-5.994115053908899426e-05,0.000000000000000000e+00,0.000000000000000000e+00,5.988660996081307530e-05,8.988445915747433901e-05
0.000000000000000000e+00,-2.994330498040653765e-05,0.000000000000000000e+00,0.000000000000000000e+00,0.000000000000000000e+00,-5.988660996081307530e-05,5.988660996081307530e-05
-2.999784737767186016e-05,-2.994330498040653765e-05,-2.994330498040653765e-05,0.000000000000000000e+00,0.000000000000000000e+00,-5.994115053908899426e-05,-5.988660996081307530e-05
0.000000000000000000e+00,0.000000000000000000e+00,0.000000000000000000e+00,0.000000000000000000e+00,0.000000000000000000e+00,0.000000000000000000e+00,-8.988445915747433901e-05
2.999784737767186016e-05,5.988660996081307530e-05,0.000000000000000000e+00,-2.994330498040653765e-05,0.000000000000000000e+00,0.000000000000000000e+00,8.988445915747433901e-05
0.000000000000000000e+00,-2.994330498040653765e-05,0.000000000000000000e+00,2.994330498040653765e-05,0.000000000000000000e+00,1.198277604999020696e-04,5.988660996081307530e-05
2.994330498040653765e-05,-2.994330498040653765e-05,0.000000000000000000e+00,-2.994330498040653765e-05,4.790928869624622166e-05,0.000000000000000000e+00,-5.988660996081307530e-05
-2.994330498040653765e-05,-5.994115053908899426e-05,2.994330498040653765e-05,2.994330498040653765e-05,-4.790928869624622166e-05,-2.695988223422318697e-04,0.000000000000000000e+00
-2.999784737767186016e-05,5.994115053908899426e-05,0.000000000000000000e+00,2.994330498040653765e-05,0.000000000000000000e+00,1.497710618423298001e-04,5.988660996081307530e-05
2.999784737767186016e-05,0.000000000000000000e+00,-2.994330498040653765e-05,-2.994330498040653765e-05,4.790928869624622166e-05,2.097122196573764086e-04,-1.497710618423298001e-04
-2.999784737767186016e-05,-2.999784737767186016e-05,2.994330498040653765e-05,0.000000000000000000e+00,-4.790928869624622166e-05,-8.988445915747433901e-05,8.988445915747433901e-05
2.999784737767186016e-05,-2.994330498040653765e-05,-2.994330498040653765e-05,0.000000000000000000e+00,0.000000000000000000e+00,-1.198277604999020696e-04,0.000000000000000000e+00
-2.999784737767186016e-05,0.000000000000000000e+00,0.000000000000000000e+00,-2.994330498040653765e-05,4.790928869624622166e-05,0.000000000000000000e+00,-8.988445915747433901e-05
0.000000000000000000e+00,2.994330498040653765e-05,2.994330498040653765e-05,2.994330498040653765e-05,0.000000000000000000e+00,0.000000000000000000e+00,0.000000000000000000e+00
2.999784737767186016e-05,0.000000000000000000e+00,0.000000000000000000e+00,-8.988445915747433901e-05,-1.438151230104267597e-04,1.198277604999020696e-04,1.497710618423298001e-04
-2.999784737767186016e-05,-2.994330498040653765e-05,-2.994330498040653765e-05,8.988445915747433901e-05,9.590584522811695933e-05,8.988445915747433901e-05,-1.497710618423298001e-04
-2.994330498040653765e-05,0.000000000000000000e+00,0.000000000000000000e+00,-8.988445915747433901e-05,4.790928869624622166e-05,-2.097122196573764086e-04,8.988445915747433901e-05
2.994330498040653765e-05,0.000000000000000000e+00,0.000000000000000000e+00,0.000000000000000000e+00,-4.790928869624622166e-05,-5.988660996081307530e-05,5.988660996081307530e-05
0.000000000000000000e+00,0.000000000000000000e+00,2.994330498040653765e-05,5.994115053908899426e-05,0.000000000000000000e+00,1.198277604999020696e-04,-1.497710618423298001e-04
0.000000000000000000e+00,2.994330498040653765e-05,0.000000000000000000e+00,0.000000000000000000e+00,0.000000000000000000e+00,0.000000000000000000e+00,8.988445915747433901e-05
0.000000000000000000e+00,2.999784737767186016e-05,0.000000000000000000e+00,2.994330498040653765e-05,0.000000000000000000e+00,0.000000000000000000e+00,0.000000000000000000e+00
-2.994330498040653765e-05,0.000000000000000000e+00,0.000000000000000000e+00,5.994115053908899426e-05,0.000000000000000000e+00,-5.994115053908899426e-05,-8.988445915747433901e-05
2.994330498040653765e-05,-2.999784737767186016e-05,-2.994330498040653765e-05,-5.994115053908899426e-05,0.000000000000000000e+00,0.000000000000000000e+00,8.988445915747433901e-05
0.000000000000000000e+00,-2.994330498040653765e-05,0.000000000000000000e+00,-8.988445915747433901e-05,0.000000000000000000e+00,1.198277604999020696e-04,-8.988445915747433901e-05
2.999784737767186016e-05,0.000000000000000000e+00,8.988445915747433901e-05,5.994115053908899426e-05,0.000000000000000000e+00,8.988445915747433901e-05,8.988445915747433901e-05
-5.994115053908899426e-05,-2.994330498040653765e-05,-5.994115053908899426e-05,2.994330498040653765e-05,0.000000000000000000e+00,-8.988445915747433901e-05,0.000000000000000000e+00
2.994330498040653765e-05,2.994330498040653765e-05,0.000000000000000000e+00,0.000000000000000000e+00,0.000000000000000000e+00,0.000000000000000000e+00,-8.988445915747433901e-05
0.000000000000000000e+00,0.000000000000000000e+00,-2.994330498040653765e-05,-2.994330498040653765e-05,0.000000000000000000e+00,-5.988660996081307530e-05,8.988445915747433901e-05
0.000000000000000000e+00,0.000000000000000000e+00,0.000000000000000000e+00,0.000000000000000000e+00,0.000000000000000000e+00,0.000000000000000000e+00,0.000000000000000000e+00
-2.994330498040653765e-05,0.000000000000000000e+00,2.994330498040653765e-05,2.994330498040653765e-05,0.000000000000000000e+00,0.000000000000000000e+00,0.000000000000000000e+00
2.994330498040653765e-05,0.000000000000000000e+00,0.000000000000000000e+00,-8.988445915747433901e-05,0.000000000000000000e+00,-5.994115053908899426e-05,0.000000000000000000e+00
2.999784737767186016e-05,0.000000000000000000e+00,0.000000000000000000e+00,1.198277604999020696e-04,0.000000000000000000e+00,-5.988660996081307530e-05,0.000000000000000000e+00
-2.999784737767186016e-05,0.000000000000000000e+00,-2.994330498040653765e-05,0.000000000000000000e+00,0.000000000000000000e+00,5.988660996081307530e-05,0.000000000000000000e+00
-2.994330498040653765e-05,5.994115053908899426e-05,-5.994115053908899426e-05,-5.988660996081307530e-05,0.000000000000000000e+00,1.198277604999020696e-04,0.000000000000000000e+00
0.000000000000000000e+00,-2.999784737767186016e-05,5.994115053908899426e-05,8.988445915747433901e-05,0.000000000000000000e+00,-1.198277604999020696e-04,-8.988445915747433901e-05
2.994330498040653765e-05,-2.994330498040653765e-05,8.988445915747433901e-05,-5.994115053908899426e-05,0.000000000000000000e+00,-5.988660996081307530e-05,8.988445915747433901e-05
2.999784737767186016e-05,2.994330498040653765e-05,-5.994115053908899426e-05,-8.988445915747433901e-05,0.000000000000000000e+00,1.198277604999020696e-04,-8.988445915747433901e-05
0.000000000000000000e+00,8.988445915747433901e-05,-8.988445915747433901e-05,8.988445915747433901e-05,0.000000000000000000e+00,5.988660996081307530e-05,8.988445915747433901e-05
-2.999784737767186016e-05,-8.988445915747433901e-05,0.000000000000000000e+00,-8.988445915747433901e-05,4.790928869624622166e-05,-1.198277604999020696e-04,-8.988445915747433901e-05
0.000000000000000000e+00,-2.994330498040653765e-05,8.988445915747433901e-05,5.994115053908899426e-05,-4.790928869624622166e-05,0.000000000000000000e+00,8.988445915747433901e-05
2.999784737767186016e-05,0.000000000000000000e+00,5.994115053908899426e-05,0.000000000000000000e+00,0.000000000000000000e+00,0.000000000000000000e+00,0.000000000000000000e+00
-5.994115053908899426e-05,1.198277604999020696e-04,-8.988445915747433901e-05,0.000000000000000000e+00,4.790928869624622166e-05,0.000000000000000000e+00,0.000000000000000000e+00
0.000000000000000000e+00,-5.988660996081307530e-05,2.994330498040653765e-05,0.000000000000000000e+00,0.000000000000000000e+00,0.000000000000000000e+00,0.000000000000000000e+00
2.994330498040653765e-05,-2.999784737767186016e-05,0.000000000000000000e+00,-5.994115053908899426e-05,-1.438151230104267597e-04,1.198277604999020696e-04,0.000000000000000000e+00
-2.994330498040653765e-05,2.999784737767186016e-05,-2.994330498040653765e-05,1.198277604999020696e-04,9.590584522811695933e-05,-1.198277604999020696e-04,0.000000000000000000e+00
0.000000000000000000e+00,-2.999784737767186016e-05,2.994330498040653765e-05,-2.994330498040653765e-05,0.000000000000000000e+00,-5.988660996081307530e-05,5.988660996081307530e-05
2.994330498040653765e-05,2.999784737767186016e-05,0.000000000000000000e+00,-2.994330498040653765e-05,0.000000000000000000e+00,1.797143777366727591e-04,-5.988660996081307530e-05
0.000000000000000000e+00,-2.999784737767186016e-05,-2.994330498040653765e-05,5.988660996081307530e-05,0.000000000000000000e+00,0.000000000000000000e+00,0.000000000000000000e+00
2.999784737767186016e-05,2.999784737767186016e-05,0.000000000000000000e+00,-2.994330498040653765e-05,0.000000000000000000e+00,-1.198277604999020696e-04,5.988660996081307530e-05
0.000000000000000000e+00,-2.999784737767186016e-05,0.000000000000000000e+00,-8.988445915747433901e-05,0.000000000000000000e+00,0.000000000000000000e+00,-5.988660996081307530e-05
-2.999784737767186016e-05,-2.994330498040653765e-05,0.000000000000000000e+00,8.988445915747433901e-05,0.000000000000000000e+00,5.994115053908899426e-05,0.000000000000000000e+00
2.999784737767186016e-05,2.994330498040653765e-05,8.988445915747433901e-05,0.000000000000000000e+00,0.000000000000000000e+00,-5.994115053908899426e-05,0.000000000000000000e+00
0.000000000000000000e+00,-2.994330498040653765e-05,-5.994115053908899426e-05,2.994330498040653765e-05,0.000000000000000000e+00,2.097122196573764086e-04,8.988445915747433901e-05
-5.994115053908899426e-05,0.000000000000000000e+00,-8.988445915747433901e-05,-1.198277604999020696e-04,4.790928869624622166e-05,0.000000000000000000e+00,-2.999784737767186016e-05
2.994330498040653765e-05,2.994330498040653765e-05,5.994115053908899426e-05,8.988445915747433901e-05,-4.790928869624622166e-05,-1.497710618423298001e-04,-5.988660996081307530e-05
-2.994330498040653765e-05,0.000000000000000000e+00,0.000000000000000000e+00,0.000000000000000000e+00,0.000000000000000000e+00,0.000000000000000000e+00,5.988660996081307530e-05
0.000000000000000000e+00,0.000000000000000000e+00,0.000000000000000000e+00,-8.988445915747433901e-05,0.000000000000000000e+00,5.988660996081307530e-05,-5.988660996081307530e-05
2.994330498040653765e-05,-2.994330498040653765e-05,0.000000000000000000e+00,8.988445915747433901e-05,4.790928869624622166e-05,-5.988660996081307530e-05,-8.988445915747433901e-05
2.999784737767186016e-05,-5.994115053908899426e-05,2.994330498040653765e-05,0.000000000000000000e+00,-4.790928869624622166e-05,5.988660996081307530e-05,8.988445915747433901e-05
