Afshin1997/kuka_rl_ros2/src/catch_and_throw/output_files/tm/nn_ema7.00_jvws1_realball_D01H09M24S15/recorded_data.csv
pure_target_joint_0,pure_target_joint_1,pure_target_joint_2,pure_target_joint_3,pure_target_joint_4,pure_target_joint_5,pure_target_joint_6,target_joint_0,target_joint_1,target_joint_2,target_joint_3,target_joint_4,target_joint_5,target_joint_6,pos_joint_0,pos_joint_1,pos_joint_2,pos_joint_3,pos_joint_4,pos_joint_5,pos_joint_6,vel_joint_0,vel_joint_1,vel_joint_2,vel_joint_3,vel_joint_4,vel_joint_5,vel_joint_6,vel_smooth_joint_0,vel_smooth_joint_1,vel_smooth_joint_2,vel_smooth_joint_3,vel_smooth_joint_4,vel_smooth_joint_5,vel_smooth_joint_6,ee_pos_x,ee_pos_y,ee_pos_z,ee_or_w,ee_or_x,ee_or_y,ee_or_z,eep_vel_x,eep_vel_y,eep_vel_z,ee_vel_offset_x,ee_vel_offset_y,ee_vel_offset_z,ball_pos_x,ball_pos_y,ball_pos_z,ball_raw_vx,ball_raw_vy,ball_raw_vz,ball_ema_vx,ball_ema_vy,ball_ema_vz,action_0,action_1,action_2,action_3,action_4,action_5,action_6,command_published
1.72802,-0.992531,-1.86163,-1.15018,1.96795,1.07937,-0.93215,1.72802,-0.992531,-1.86163,-1.15018,1.96795,1.07937,-0.93215,1.78089,-1.07164,-1.81822,-1.11989,1.93718,1.11681,-0.916303,2.39541e-05,0,-1.1977e-05,-1.19989e-05,0,-3.5953e-05,-5.99071e-05,2.39541e-05,0,-1.1977e-05,-1.19989e-05,0,-3.5953e-05,-5.99071e-05,0.533882,-0.455929,0.690981,0.572903,0.179172,0.151761,0.78527,1.72087e-05,1.27457e-05,-9.01886e-06,1.92469e-05,1.2791e-05,-1.00635e-05,2.96788,-0.525762,0.130217,-3.64223,0.118756,5.05875,-3.64223,0.0944804,5.05875,-0.528749,0.791051,-0.434102,-0.302814,0.307654,-0.374366,-0.158468,1
1.72543,-0.991111,-1.86722,-1.14437,1.96943,1.08269,-0.942174,1.72543,-0.991111,-1.86722,-1.14437,1.96943,1.08269,-0.942174,1.78089,-1.07164,-1.81822,-1.11989,1.93718,1.11681,-0.916303,-2.39541e-05,0,4.793e-05,5.99071e-05,-1.91633e-05,0,-2.39759e-05,-2.39541e-05,0,4.793e-05,5.99071e-05,-1.91633e-05,0,-2.39759e-05,0.533882,-0.455929,0.690981,0.572903,0.179172,0.151761,0.785269,-2.19563e-05,-2.26011e-05,3.09558e-05,-2.45962e-05,-2.29602e-05,3.23199e-05,2.93255,-0.524173,0.181889,-3.53327,0.158894,5.16716,-3.53327,0.102999,5.16716,-0.55463,0.805253,-0.489954,-0.24472,0.322512,-0.341126,-0.258707,1
1.72034,-0.990686,-1.86859,-1.1383,1.97594,1.07925,-0.950189,1.72034,-0.990686,-1.86859,-1.1383,1.97594,1.07925,-0.950189,1.78089,-1.07159,-1.81828,-1.12003,1.93718,1.1168,-0.916303,0.0017976,0.00581221,-0.017185,-0.0297082,-0.000153411,-0.000575226,-2.39759e-05,0.0017976,0.00581221,-0.017185,-0.0297082,-0.000153411,-0.000575226,-2.39759e-05,0.533907,-0.455876,0.690951,0.572865,0.179198,0.151813,0.785282,0.00597161,0.0100419,-0.0100158,0.00714796,0.0106279,-0.0106397,2.89746,-0.522285,0.233362,-3.50962,0.188816,5.14731,-3.50962,0.115883,5.14731,-0.605522,0.809064,-0.503096,-0.182758,0.387562,-0.375548,-0.338859,1
1.72282,-0.990548,-1.86645,-1.15809,1.987,1.07535,-0.943866,1.72282,-0.990548,-1.86645,-1.15809,1.987,1.07535,-0.943866,1.78108,-1.07139,-1.81978,-1.12131,1.9381,1.1158,-0.917003,0.0229253,0.0266883,-0.223009,-0.186698,0.162905,-0.175912,-0.116472,0.0229253,0.0266883,-0.223009,-0.186698,0.162905,-0.175912,-0.116472,0.534429,-0.455716,0.690135,0.572715,0.180373,0.152298,0.785028,0.0614284,0.0194249,-0.115236,0.0777762,0.0134757,-0.123438,2.86286,-0.520291,0.283687,-3.45957,0.199437,5.03255,-3.45957,0.134044,5.03255,-0.582534,0.808452,-0.466707,-0.367838,0.489063,-0.404519,-0.268626,1
1.73118,-0.988848,-1.85124,-1.16884,1.99945,1.06477,-0.927457,1.73118,-0.988848,-1.85124,-1.16884,1.99945,1.06477,-0.927457,1.7811,-1.07015,-1.8239,-1.12433,1.94335,1.11133,-0.919073,-0.0181317,0.170508,-0.462413,-0.33023,0.625447,-0.498532,-0.242615,-0.0181317,0.170508,-0.462413,-0.33023,0.625447,-0.498532,-0.242615,0.535624,-0.455983,0.688345,0.572577,0.184527,0.152731,0.784078,0.084433,-0.0160081,-0.16398,0.117947,-0.0392114,-0.180817,2.82838,-0.51846,0.332983,-3.4482,0.183111,4.92951,-3.4482,0.152089,4.92951,-0.499151,0.81303,-0.273405,-0.445079,0.561016,-0.465523,-0.083836,1
1.73602,-0.984999,-1.84684,-1.17634,2.00911,1.05161,-0.916249,1.73602,-0.984999,-1.84684,-1.17634,2.00911,1.05161,-0.916249,1.77994,-1.0672,-1.83074,-1.12841,1.9509,1.10575,-0.923386,-0.1492,0.331632,-0.758069,-0.423729,0.788927,-0.576212,-0.494482,-0.1492,0.331632,-0.758069,-0.423729,0.788927,-0.576212,-0.494482,0.536592,-0.45685,0.686185,0.573742,0.189913,0.153831,0.781722,0.0414711,-0.0810843,-0.205851,0.0869936,-0.108242,-0.229631,2.79389,-0.516842,0.38144,-3.44899,0.161755,4.84574,-3.44899,0.174324,4.84574,-0.439255,0.821966,-0.160999,-0.479277,0.58213,-0.541447,0.0713659,1
1.73435,-0.98039,-1.86096,-1.18201,2.01806,1.04287,-0.918884,1.73435,-0.98039,-1.86096,-1.18201,2.01806,1.04287,-0.918884,1.77791,-1.06298,-1.8396,-1.13289,1.9594,1.0995,-0.92957,-0.20423,0.449039,-0.916736,-0.476949,0.866909,-0.645887,-0.637151,-0.20423,0.449039,-0.916736,-0.476949,0.866909,-0.645887,-0.637151,0.537311,-0.458217,0.683808,0.576151,0.195958,0.155706,0.778078,0.0235776,-0.101273,-0.215472,0.0761391,-0.129484,-0.244045,2.75873,-0.515337,0.428442,-3.5161,0.150561,4.70018,-3.5161,0.177733,4.70018,-0.435639,0.82593,-0.213611,-0.491253,0.58659,-0.566296,0.106863,1
1.73219,-0.975185,-1.87668,-1.18475,2.02701,1.03806,-0.936302,1.73219,-0.975185,-1.87668,-1.18475,2.02701,1.03806,-0.936302,1.77609,-1.05777,-1.84866,-1.13877,1.96868,1.09227,-0.934567,-0.189346,0.548302,-0.875547,-0.616275,0.949129,-0.752281,-0.419187,-0.189346,0.548302,-0.875547,-0.616275,0.949129,-0.752281,-0.419187,0.538364,-0.45888,0.681458,0.577531,0.202615,0.157864,0.774909,0.0477717,-0.0244771,-0.188531,0.103497,-0.0519701,-0.220059,2.72402,-0.513589,0.474057,-3.47114,0.174773,4.56147,-3.47114,0.175356,4.56147,-0.439004,0.82586,-0.280203,-0.459817,0.583267,-0.542127,-0.0173556,1
1.72083,-0.969874,-1.89303,-1.17859,2.03583,1.03513,-0.95382,1.72083,-0.969874,-1.89303,-1.17859,2.03583,1.03513,-0.95382,1.77321,-1.05218,-1.85553,-1.14632,1.97887,1.08361,-0.935939,-0.325943,0.544876,-0.623423,-0.808895,1.04006,-0.905491,-0.0420297,-0.325943,0.544876,-0.623423,-0.808895,1.04006,-0.905491,-0.0420297,0.539165,-0.459189,0.679558,0.576898,0.209948,0.159137,0.773166,0.0161822,0.00321764,-0.161436,0.0716334,-0.0304472,-0.194012,2.6895,-0.511717,0.518952,-3.45178,0.187182,4.4895,-3.45178,0.172256,4.4895,-0.523808,0.823064,-0.375038,-0.322649,0.569634,-0.484733,-0.178806,1
1.71729,-0.9659,-1.89912,-1.17569,2.04536,1.03607,-0.962503,1.71729,-0.9659,-1.89912,-1.17569,2.04536,1.03607,-0.962503,1.76908,-1.0472,-1.85978,-1.1554,1.98962,1.07336,-0.934294,-0.44133,0.481958,-0.374696,-0.931605,1.08896,-1.05801,0.211275,-0.44133,0.481958,-0.374696,-0.931605,1.08896,-1.05801,0.211275,0.5397,-0.459477,0.677713,0.574442,0.218147,0.159275,0.772696,-0.00944852,0.00638466,-0.153302,0.0455588,-0.0341085,-0.187012,2.65498,-0.509904,0.563241,-3.45161,0.181276,4.42897,-3.45161,0.171066,4.42896,-0.517862,0.813043,-0.393414,-0.202867,0.557366,-0.372817,-0.282097,1
1.70604,-0.961905,-1.89511,-1.16949,2.05723,1.03807,-0.964026,1.70604,-0.961905,-1.89511,-1.16949,2.05723,1.03807,-0.964026,1.76414,-1.04235,-1.86368,-1.16517,2.00055,1.06211,-0.932465,-0.50172,0.505363,-0.402057,-0.985307,1.08988,-1.12498,0.14083,-0.50172,0.505363,-0.402057,-0.985307,1.08988,-1.12498,0.14083,0.540074,-0.460008,0.675578,0.571813,0.227012,0.159325,0.772082,-0.02578,-0.00853658,-0.175618,0.0332782,-0.050173,-0.21347,2.62008,-0.508077,0.606348,-3.48985,0.182766,4.31067,-3.48985,0.173731,4.31067,-0.581001,0.804473,-0.314247,-0.0432358,0.566793,-0.240348,-0.315616,1
1.70098,-0.955546,-1.88805,-1.18947,2.0709,1.02649,-0.964668,1.70098,-0.955546,-1.88805,-1.18947,2.0709,1.02649,-0.964668,1.75928,-1.03612,-1.8683,-1.17438,2.01124,1.05117,-0.932905,-0.484091,0.663715,-0.489148,-0.878022,1.06215,-1.07571,-0.106614,-0.484091,0.663715,-0.489148,-0.878022,1.06215,-1.07571,-0.106614,0.540279,-0.460358,0.674027,0.570522,0.235165,0.160206,0.770413,-0.0478369,-0.00667274,-0.0967672,0.00875914,-0.0421391,-0.134491,2.58522,-0.506408,0.648133,-3.48599,0.166816,4.17851,-3.48599,0.176806,4.17851,-0.58309,0.805756,-0.197549,-0.15087,0.596623,-0.246854,-0.317631,1
1.69272,-0.947006,-1.87596,-1.19945,2.08174,1.01394,-0.968659,1.69272,-0.947006,-1.87596,-1.19945,2.08174,1.01394,-0.968659,1.75413,-1.02888,-1.87455,-1.18162,2.02151,1.04154,-0.935912,-0.519373,0.734639,-0.67087,-0.666927,1.0164,-0.921274,-0.371065,-0.519373,0.734639,-0.67087,-0.666927,1.0164,-0.921274,-0.371065,0.539828,-0.461522,0.672982,0.571541,0.242288,0.161723,0.767126,-0.114023,-0.109711,-0.0640538,-0.0623637,-0.143943,-0.0998728,2.55095,-0.504649,0.688789,-3.42736,0.175929,4.06563,-3.42736,0.178798,4.06563,-0.614101,0.818752,-0.0141558,-0.178301,0.60235,-0.275965,-0.327466,1
1.691,-0.938864,-1.88026,-1.21637,2.09452,1.01385,-0.977884,1.691,-0.938864,-1.88026,-1.21637,2.09452,1.01385,-0.977884,1.74937,-1.02143,-1.88215,-1.18665,2.03127,1.03403,-0.941293,-0.461033,0.756499,-0.782302,-0.437914,0.969998,-0.692046,-0.581082,-0.461033,0.756499,-0.782302,-0.437914,0.969998,-0.692046,-0.581082,0.538925,-0.463355,0.67229,0.574519,0.248073,0.163488,0.762666,-0.146456,-0.167202,-0.0191724,-0.104763,-0.19849,-0.0491977,2.51663,-0.502917,0.728965,-3.4318,0.173193,4.01753,-3.4318,0.177308,4.01753,-0.583703,0.825646,0.0188269,-0.297189,0.632497,-0.201758,-0.36591,1
1.6871,-0.930798,-1.87815,-1.21761,2.10559,1.0243,-0.989997,1.6871,-0.930798,-1.87815,-1.21761,2.10559,1.0243,-0.989997,1.74497,-1.01343,-1.88994,-1.18988,2.04087,1.02854,-0.947846,-0.429513,0.809399,-0.755816,-0.319699,0.963575,-0.524503,-0.665273,-0.429513,0.809399,-0.755816,-0.319699,0.963575,-0.524503,-0.665273,0.537538,-0.465415,0.672505,0.578713,0.252283,0.165116,0.757748,-0.172422,-0.165704,0.0616641,-0.140997,-0.193402,0.0382252,2.48212,-0.500942,0.768205,-3.45154,0.197518,3.92406,-3.45154,0.177594,3.92406,-0.578627,0.826283,0.11788,-0.277254,0.647268,-0.0424295,-0.421505,1
1.69495,-0.92345,-1.87068,-1.22666,2.11679,1.03241,-0.999896,1.69495,-0.92345,-1.87068,-1.22666,2.11679,1.03241,-0.999896,1.74081,-1.00519,-1.89524,-1.19382,2.0509,1.02349,-0.954288,-0.429298,0.82408,-0.445297,-0.418068,1.01982,-0.514867,-0.634341,-0.429298,0.82408,-0.445297,-0.418068,1.01982,-0.514867,-0.634341,0.536185,-0.466481,0.673627,0.582142,0.255629,0.166105,0.753773,-0.162915,-0.0627174,0.152929,-0.140218,-0.088308,0.135309,2.44765,-0.49938,0.805822,-3.44656,0.156191,3.76171,-3.44656,0.176188,3.76171,-0.458586,0.817368,0.245578,-0.328363,0.658899,0.089221,-0.456073,1
1.68995,-0.915914,-1.87164,-1.22024,2.12757,1.03414,-1.00575,1.68995,-0.915914,-1.87164,-1.22024,2.12757,1.03414,-1.00575,1.73516,-0.997348,-1.89777,-1.19885,2.06157,1.01773,-0.960392,-0.612709,0.772115,-0.194844,-0.531502,1.08453,-0.591616,-0.607316,-0.612709,0.772115,-0.194844,-0.531502,1.08453,-0.591616,-0.607316,0.534326,-0.467557,0.675167,0.585022,0.259058,0.166107,0.750365,-0.222639,-0.0830663,0.174124,-0.203243,-0.115658,0.158006,2.41358,-0.497859,0.84204,-3.40662,0.152144,3.62176,-3.40662,0.172919,3.62176,-0.45213,0.814345,0.261351,-0.213861,0.659968,0.164118,-0.4536,1
1.68955,-0.908901,-1.86696,-1.22424,2.1391,1.03658,-1.01291,1.68955,-0.908901,-1.86696,-1.22424,2.1391,1.03658,-1.01291,1.72815,-0.989731,-1.89794,-1.20495,2.07297,1.01263,-0.966767,-0.717825,0.767081,0.0470992,-0.632963,1.1579,-0.448473,-0.655553,-0.717825,0.767081,0.0470992,-0.632963,1.1579,-0.448473,-0.655553,0.531857,-0.468518,0.677195,0.587677,0.261978,0.165154,0.747481,-0.269258,-0.0447497,0.235345,-0.260816,-0.0772651,0.226771,2.3799,-0.496462,0.877576,-3.36862,0.139686,3.55365,-3.36862,0.167707,3.55365,-0.386086,0.808304,0.309725,-0.192818,0.661309,0.239551,-0.461428,1
1.6785,-0.902043,-1.85787,-1.21698,2.15106,1.04233,-1.02386,1.6785,-0.902043,-1.85787,-1.21698,2.15106,1.04233,-1.02386,1.72069,-0.981969,-1.89602,-1.2117,2.08493,1.01046,-0.974068,-0.757913,0.778143,0.229036,-0.678815,1.2076,-0.13956,-0.755864,-0.757913,0.778143,0.229036,-0.678815,1.2076,-0.13956,-0.755864,0.528849,-0.468803,0.680138,0.59042,0.263082,0.163329,0.74533,-0.308492,0.00962139,0.310344,-0.315641,-0.0180534,0.313218,2.34614,-0.494609,0.912526,-3.37605,0.185242,3.495,-3.37605,0.164691,3.495,-0.421921,0.799265,0.381538,-0.0528063,0.661315,0.31867,-0.497962,1
1.66689,-0.89589,-1.84964,-1.21239,2.1641,1.04681,-1.03629,1.66689,-0.89589,-1.84964,-1.21239,2.1641,1.04681,-1.03629,1.71276,-0.974324,-1.89352,-1.21815,2.09716,1.01079,-0.982327,-0.801141,0.750279,0.250728,-0.614075,1.22881,0.0747714,-0.843842,-0.801141,0.750279,0.250728,-0.614075,1.22881,0.0747714,-0.843842,0.52525,-0.469179,0.683526,0.59381,0.262886,0.160904,0.743229,-0.355825,-0.0252597,0.332331,-0.37268,-0.0530535,0.341933,2.27794,-0.49042,0.980004,-3.41048,0.207859,3.30551,-3.41048,0.173488,3.30551,-0.458695,0.784346,0.438762,0.0575283,0.669468,0.36021,-0.539663,1
1.66348,-0.891289,-1.84234,-1.21511,2.17613,1.05595,-1.04775,1.66348,-0.891289,-1.84234,-1.21511,2.17613,1.05595,-1.04775,1.70534,-0.96748,-1.89053,-1.22353,2.10936,1.01246,-0.99093,-0.700246,0.659597,0.325196,-0.514052,1.21611,0.194176,-0.862317,-0.700246,0.659597,0.325196,-0.514052,1.21611,0.194176,-0.862317,0.521584,-0.469673,0.687069,0.597407,0.261938,0.157878,0.741328,-0.328726,-0.00715842,0.343486,-0.353257,-0.0335743,0.358334,2.24408,-0.488702,1.01227,-3.38571,0.171804,3.22615,-3.38571,0.181689,3.22615,-0.418645,0.761904,0.481857,0.084204,0.66765,0.434842,-0.568203,1
1.65854,-0.88703,-1.83763,-1.2071,2.18764,1.06386,-1.0587,1.65854,-0.88703,-1.83763,-1.2071,2.18764,1.06386,-1.0587,1.69917,-0.961225,-1.88706,-1.22787,2.1213,1.0151,-0.999542,-0.613339,0.62688,0.343172,-0.364168,1.18856,0.291018,-0.862641,-0.613339,0.62688,0.343172,-0.364168,1.18856,0.291018,-0.862641,0.518233,-0.469828,0.690839,0.600837,0.260267,0.154528,0.739849,-0.317174,-0.00888343,0.378987,-0.348474,-0.0331392,0.398364,2.21046,-0.486958,1.04344,-3.36227,0.174406,3.11711,-3.36227,0.187176,3.11711,-0.406295,0.741955,0.494305,0.20765,0.663474,0.487587,-0.591547,1
1.64611,-0.88106,-1.83274,-1.19254,2.19913,1.06934,-1.06905,1.64611,-0.88106,-1.83274,-1.19254,2.19913,1.06934,-1.06905,1.69307,-0.954726,-1.88332,-1.23003,2.13309,1.01878,-1.0084,-0.59106,0.652862,0.396501,-0.189358,1.17216,0.386626,-0.896747,-0.59106,0.652862,0.396501,-0.189358,1.17216,0.386626,-0.896747,0.514387,-0.470399,0.695571,0.605162,0.257442,0.150756,0.738089,-0.342989,-0.0236694,0.465436,-0.383564,-0.0454425,0.490843,2.17644,-0.485679,1.07383,-3.40245,0.127903,3.03936,-3.40245,0.183738,3.03936,-0.469603,0.736658,0.505847,0.374882,0.66039,0.505576,-0.606475,1
1.64317,-0.877019,-1.82282,-1.18883,2.20956,1.07615,-1.07844,1.64317,-0.877019,-1.82282,-1.18883,2.20956,1.07615,-1.07844,1.68802,-0.948367,-1.87804,-1.23138,2.14471,1.02346,-1.0179,-0.484775,0.626797,0.567967,-0.131452,1.16156,0.493511,-0.969238,-0.484775,0.626797,0.567967,-0.131452,1.16156,0.493511,-0.969238,0.510734,-0.470224,0.701096,0.609404,0.253418,0.146608,0.736826,-0.309755,0.0545442,0.531682,-0.360022,0.0381042,0.563337,2.14236,-0.484608,1.10273,-3.40734,0.107101,2.88957,-3.40734,0.168232,2.88957,-0.448509,0.713475,0.552212,0.425549,0.648471,0.52691,-0.605454,1
1.62822,-0.870439,-1.81564,-1.18101,2.22039,1.08035,-1.08813,1.62822,-0.870439,-1.81564,-1.18101,2.22039,1.08035,-1.08813,1.68282,-0.942058,-1.87194,-1.23163,2.15647,1.02938,-1.02814,-0.540908,0.646834,0.620074,0.019414,1.18225,0.619211,-1.04187,-0.540908,0.646834,0.620074,0.019414,1.18225,0.619211,-1.04187,0.506615,-0.47019,0.707301,0.614251,0.24836,0.141876,0.735448,-0.374872,0.00710798,0.608815,-0.436069,-0.00955717,0.646377,2.10827,-0.482892,1.13054,-3.40946,0.171646,2.78095,-3.40946,0.155246,2.78095,-0.545992,0.716189,0.563053,0.506231,0.639119,0.509705,-0.599958,1
1.62167,-0.864441,-1.8056,-1.1754,2.2307,1.08696,-1.09663,1.62167,-0.864441,-1.8056,-1.1754,2.2307,1.08696,-1.09663,1.67746,-0.935109,-1.8652,-1.23047,2.16831,1.03636,-1.03899,-0.527749,0.706957,0.699719,0.158656,1.18501,0.722836,-1.0975,-0.527749,0.706957,0.699719,0.158656,1.18501,0.722836,-1.0975,0.501942,-0.470178,0.714554,0.619862,0.242075,0.136783,0.733799,-0.406017,0.0204191,0.709783,-0.477778,0.00785063,0.752858,2.07417,-0.481065,1.15742,-3.4101,0.182703,2.68844,-3.4101,0.150136,2.68844,-0.557943,0.706678,0.596017,0.550708,0.623936,0.506054,-0.576408,1
1.61269,-0.857409,-1.79852,-1.17007,2.24148,1.09346,-1.10652,1.61269,-0.857409,-1.79852,-1.17007,2.24148,1.09346,-1.10652,1.67219,-0.928129,-1.85775,-1.22725,2.18008,1.04413,-1.05012,-0.525041,0.68879,0.753335,0.378681,1.17556,0.788148,-1.11526,-0.525041,0.68879,0.753335,0.378681,1.17556,0.788148,-1.11526,0.496744,-0.470451,0.72272,0.626115,0.234707,0.131057,0.731926,-0.451766,-0.0276728,0.781952,-0.534057,-0.0403828,0.829273,2.04023,-0.479115,1.18334,-3.39382,0.194928,2.59185,-3.39382,0.154768,2.59185,-0.595057,0.707204,0.592293,0.571852,0.613948,0.493243,-0.564028,1
1.60465,-0.850981,-1.79162,-1.16293,2.25205,1.1009,-1.11626,1.60465,-0.850981,-1.79162,-1.16293,2.25205,1.1009,-1.11626,1.66732,-0.921485,-1.85023,-1.22209,2.1917,1.05208,-1.06123,-0.472072,0.662401,0.7495,0.564144,1.15581,0.788352,-1.10806,-0.472072,0.662401,0.7495,0.564144,1.15581,0.788352,-1.10806,0.491276,-0.471133,0.731276,0.63276,0.226861,0.124859,0.729766,-0.464161,-0.0589341,0.815677,-0.551877,-0.0716089,0.863691,2.00627,-0.477546,1.20834,-3.39544,0.156909,2.50053,-3.39544,0.160381,2.50053,-0.626735,0.705039,0.58601,0.591611,0.60351,0.488189,-0.55027,1
1.59856,-0.843742,-1.78369,-1.15641,2.26365,1.10571,-1.12736,1.59856,-0.843742,-1.78369,-1.15641,2.26365,1.10571,-1.12736,1.66305,-0.914853,-1.84251,-1.21516,2.20312,1.05962,-1.07213,-0.413231,0.658949,0.782192,0.718174,1.13359,0.748218,-1.0817,-0.413231,0.658949,0.782192,0.718174,1.13359,0.748218,-1.0817,0.485705,-0.471922,0.740323,0.63954,0.218678,0.118399,0.727427,-0.467086,-0.060691,0.861327,-0.559096,-0.0720232,0.909242,1.97211,-0.476149,1.23215,-3.41641,0.139746,2.38053,-3.41641,0.166039,2.38053,-0.644872,0.711111,0.588247,0.587466,0.605301,0.460943,-0.552367,1
1.59226,-0.836853,-1.77639,-1.14848,2.27432,1.11028,-1.13804,1.59226,-0.836853,-1.77639,-1.14848,2.27432,1.11028,-1.13804,1.65897,-0.908637,-1.83449,-1.20765,2.21422,1.06679,-1.08267,-0.41492,0.60809,0.806352,0.762035,1.10114,0.713165,-1.04422,-0.41492,0.60809,0.806352,0.762035,1.10114,0.713165,-1.04422,0.480089,-0.472742,0.749321,0.646085,0.210549,0.111739,0.725091,-0.477629,-0.0747531,0.847403,-0.57073,-0.0867421,0.893152,1.93803,-0.474284,1.25495,-3.40767,0.186467,2.28007,-3.40767,0.171343,2.28007,-0.667158,0.717842,0.581019,0.59174,0.601026,0.434966,-0.553676,1
1.58576,-0.830096,-1.76867,-1.13915,2.28455,1.11591,-1.148,1.58576,-0.830096,-1.76867,-1.13915,2.28455,1.11591,-1.148,1.65439,-0.902601,-1.82614,-1.19958,2.22514,1.07384,-1.09284,-0.472659,0.612548,0.848548,0.828211,1.08718,0.703242,-1.00992,-0.472659,0.612548,0.848548,0.828211,1.08718,0.703242,-1.00992,0.474038,-0.47383,0.758415,0.652651,0.202334,0.10477,0.722586,-0.524831,-0.096614,0.875182,-0.621939,-0.108336,0.920212,1.90443,-0.472658,1.27702,-3.35988,0.16259,2.20675,-3.35988,0.168671,2.20675,-0.686353,0.725043,0.574711,0.604342,0.594086,0.420708,-0.551627,1
1.57942,-0.823216,-1.761,-1.12968,2.29411,1.12246,-1.15771,1.57942,-0.823216,-1.761,-1.12968,2.29411,1.12246,-1.15771,1.64929,-0.896121,-1.81727,-1.19126,2.23595,1.08095,-1.1028,-0.520331,0.655378,0.895381,0.822986,1.07629,0.711643,-0.993458,-0.520331,0.655378,0.895381,0.822986,1.07629,0.711643,-0.993458,0.467549,-0.474768,0.767895,0.659231,0.19375,0.0976912,0.719953,-0.557069,-0.0745175,0.902762,-0.657021,-0.0832974,0.946644,1.8709,-0.471185,1.29805,-3.35343,0.147381,2.1035,-3.35343,0.163632,2.1035,-0.698761,0.729043,0.562702,0.61582,0.58164,0.415055,-0.549018,1
1.57176,-0.816566,-1.75354,-1.12106,2.30404,1.13031,-1.16681,1.57176,-0.816566,-1.75354,-1.12106,2.30404,1.13031,-1.16681,1.64373,-0.88965,-1.80826,-1.18322,2.24671,1.08803,-1.11277,-0.566661,0.646522,0.903566,0.803104,1.07677,0.704872,-1.00012,-0.566661,0.646522,0.903566,0.803104,1.07677,0.704872,-1.00012,0.460813,-0.475667,0.777223,0.665711,0.185247,0.0905583,0.717155,-0.582272,-0.0783274,0.886366,-0.682797,-0.0871841,0.927675,1.83726,-0.469894,1.31788,-3.36417,0.129098,1.9827,-3.36417,0.156714,1.9827,-0.719719,0.730838,0.547256,0.621549,0.573343,0.42278,-0.540386,1
1.56338,-0.809324,-1.74513,-1.11289,2.31537,1.13686,-1.17545,1.56338,-0.809324,-1.74513,-1.11289,2.31537,1.13686,-1.17545,1.63764,-0.883015,-1.7993,-1.17498,2.25754,1.09482,-1.12287,-0.631692,0.674836,0.886195,0.825686,1.08121,0.664374,-1.01326,-0.631692,0.674836,0.886195,0.825686,1.08121,0.664374,-1.01326,0.453717,-0.476692,0.786555,0.672333,0.176825,0.0833716,0.713968,-0.622344,-0.0952432,0.891167,-0.722866,-0.103937,0.929733,1.8038,-0.468449,1.33657,-3.34558,0.1445,1.86886,-3.34558,0.153228,1.86886,-0.742611,0.736909,0.541666,0.620925,0.578296,0.420486,-0.525718,1
1.55481,-0.80214,-1.73736,-1.10377,2.32611,1.14431,-1.1846,1.55481,-0.80214,-1.73736,-1.10377,2.32611,1.14431,-1.1846,1.63082,-0.876003,-1.7906,-1.16655,2.26835,1.1013,-1.13307,-0.690464,0.707986,0.874606,0.848408,1.07744,0.642155,-1.0218,-0.690464,0.707986,0.874606,0.848408,1.07744,0.642155,-1.0218,0.446183,-0.477863,0.795921,0.679217,0.168467,0.0762858,0.710256,-0.66117,-0.102024,0.901079,-0.762371,-0.109325,0.937388,1.7708,-0.466909,1.35437,-3.30048,0.153935,1.77991,-3.30048,0.150555,1.77991,-0.760099,0.738632,0.532422,0.62774,0.577558,0.430113,-0.515326,1
1.54704,-0.795458,-1.73035,-1.0935,2.33516,1.1531,-1.19406,1.54704,-0.795458,-1.73035,-1.0935,2.33516,1.1531,-1.19406,1.62403,-0.868894,-1.78159,-1.15781,2.27901,1.10783,-1.14326,-0.677533,0.708141,0.900733,0.887514,1.0598,0.654786,-1.01723,-0.677533,0.708141,0.900733,0.887514,1.0598,0.654786,-1.01723,0.438481,-0.478783,0.805423,0.685975,0.159867,0.0691114,0.706473,-0.672895,-0.0823583,0.911951,-0.777049,-0.0871162,0.946895,1.73739,-0.465177,1.3717,-3.34085,0.173265,1.73372,-3.34085,0.148419,1.73372,-0.769902,0.73436,0.512399,0.643072,0.561518,0.452691,-0.50801,1
1.53877,-0.7888,-1.7239,-1.08378,2.34544,1.16001,-1.20336,1.53877,-0.7888,-1.7239,-1.08378,2.34544,1.16001,-1.20336,1.61691,-0.861898,-1.77332,-1.14885,2.28944,1.11433,-1.15331,-0.725938,0.703156,0.797906,0.903345,1.03886,0.643713,-1.00036,-0.725938,0.703156,0.797906,0.903345,1.03886,0.643713,-1.00036,0.430537,-0.479952,0.814583,0.69285,0.151463,0.0620412,0.702259,-0.703215,-0.117548,0.873729,-0.805025,-0.121969,0.905288,1.7039,-0.463455,1.38801,-3.34866,0.172144,1.63088,-3.34866,0.152178,1.63088,-0.781428,0.730983,0.494164,0.650767,0.559982,0.456793,-0.500451,1
1.53079,-0.781459,-1.7162,-1.07412,2.35576,1.16495,-1.21264,1.53079,-0.781459,-1.7162,-1.07412,2.35576,1.16495,-1.21264,1.60967,-0.854616,-1.76504,-1.13948,2.29982,1.12099,-1.1631,-0.715955,0.735035,0.849894,0.951523,1.03842,0.674081,-0.970638,-0.715955,0.735035,0.849894,0.951523,1.03842,0.674081,-0.970638,0.422311,-0.480945,0.823911,0.699657,0.142775,0.0548966,0.697913,-0.722521,-0.0804047,0.910717,-0.829343,-0.0809117,0.941594,1.67032,-0.461791,1.40332,-3.3583,0.166458,1.53087,-3.3583,0.158324,1.53087,-0.788853,0.731564,0.488357,0.653543,0.559442,0.439661,-0.495399,1
1.5227,-0.77489,-1.70977,-1.06452,2.36585,1.17113,-1.22139,1.5227,-0.77489,-1.70977,-1.06452,2.36585,1.17113,-1.22139,1.60242,-0.847474,-1.75653,-1.13017,2.31021,1.12801,-1.1726,-0.737012,0.700999,0.834063,0.928932,1.03826,0.705828,-0.945543,-0.737012,0.700999,0.834063,0.928932,1.03826,0.705828,-0.945543,0.413949,-0.481728,0.833119,0.706131,0.133944,0.0475347,0.69367,-0.736911,-0.0834527,0.874258,-0.844472,-0.0836894,0.902582,1.63709,-0.460251,1.41772,-3.32325,0.153938,1.4402,-3.32325,0.163205,1.4402,-0.797175,0.72584,0.467554,0.656523,0.556396,0.431289,-0.487899,1
1.5138,-0.768232,-1.70445,-1.05426,2.3757,1.17786,-1.22952,1.5138,-0.768232,-1.70445,-1.05426,2.3757,1.17786,-1.22952,1.59452,-0.840379,-1.74872,-1.12045,2.3206,1.1353,-1.18195,-0.801225,0.721456,0.776381,0.997124,1.03857,0.734172,-0.931629,-0.801225,0.721456,0.776381,0.997124,1.03857,0.734172,-0.931629,0.405079,-0.482877,0.842106,0.712861,0.125105,0.0400824,0.688892,-0.794242,-0.112328,0.878261,-0.904508,-0.110582,0.904696,1.60412,-0.458723,1.43122,-3.29648,0.152799,1.34946,-3.29648,0.163851,1.34946,-0.807182,0.721468,0.442688,0.661847,0.550947,0.425653,-0.475697,1
1.50612,-0.76138,-1.69756,-1.04446,2.38479,1.18435,-1.24002,1.50612,-0.76138,-1.69756,-1.04446,2.38479,1.18435,-1.24002,1.58672,-0.832929,-1.74054,-1.11054,2.33089,1.1429,-1.19121,-0.769119,0.742154,0.826477,0.972975,1.02239,0.765224,-0.924186,-0.769119,0.742154,0.826477,0.972975,1.02239,0.765224,-0.924186,0.39606,-0.483519,0.851317,0.719354,0.115827,0.0325823,0.684143,-0.783497,-0.0491531,0.886038,-0.895721,-0.0428919,0.910559,1.5709,-0.45735,1.44348,-3.32267,0.137314,1.22598,-3.32267,0.159958,1.22598,-0.80597,0.715492,0.429865,0.660847,0.538955,0.414465,-0.488135,1
1.49769,-0.754594,-1.69232,-1.03455,2.39437,1.19132,-1.24898,1.49769,-0.754594,-1.69232,-1.03455,2.39437,1.19132,-1.24898,1.57885,-0.825755,-1.73282,-1.10066,2.34106,1.15039,-1.2004,-0.805432,0.712108,0.745677,1.00243,1.01404,0.742717,-0.917511,-0.805432,0.712108,0.745677,1.00243,1.01404,0.742717,-0.917511,0.386997,-0.484225,0.860117,0.725736,0.106809,0.0251332,0.679167,-0.810066,-0.0864237,0.846349,-0.920414,-0.0806586,0.867592,1.53764,-0.456098,1.45472,-3.32525,0.12522,1.12398,-3.32525,0.151835,1.12398,-0.811633,0.711605,0.405027,0.661085,0.533059,0.409231,-0.485848,1
1.48926,-0.746965,-1.68567,-1.02431,2.40426,1.19773,-1.2583,1.48926,-0.746965,-1.68567,-1.02431,2.40426,1.19773,-1.2583,1.57058,-0.818322,-1.72546,-1.09029,2.35126,1.15765,-1.20948,-0.821911,0.754258,0.747882,1.0278,1.01581,0.726322,-0.905982,-0.821911,0.754258,0.747882,1.0278,1.01581,0.726322,-0.905982,0.377572,-0.484971,0.868947,0.732232,0.0977698,0.0177212,0.673768,-0.829454,-0.0589352,0.863469,-0.94051,-0.0498683,0.882439,1.50414,-0.454818,1.46517,-3.35065,0.127944,1.04527,-3.35065,0.14356,1.04527,-0.81316,0.713566,0.39794,0.65984,0.529983,0.40082,-0.488152,1
1.4814,-0.739964,-1.67793,-1.01505,2.41432,1.20163,-1.26823,1.4814,-0.739964,-1.67793,-1.01505,2.41432,1.20163,-1.26823,1.56263,-0.810843,-1.71793,-1.08009,2.36134,1.16478,-1.21846,-0.7989,0.741279,0.739673,1.0273,1.00463,0.711509,-0.895567,-0.7989,0.741279,0.739673,1.0273,1.00463,0.711509,-0.895567,0.368317,-0.485263,0.877664,0.738307,0.0887566,0.0103801,0.668519,-0.821354,-0.0387426,0.843972,-0.93142,-0.028264,0.860208,1.47076,-0.453173,1.47426,-3.33769,0.164568,0.908768,-3.33769,0.140516,0.908768,-0.812268,0.708795,0.400034,0.650446,0.529786,0.368554,-0.497692,1
1.47218,-0.732656,-1.67298,-1.0048,2.42467,1.2075,-1.27592,1.47218,-0.732656,-1.67298,-1.0048,2.42467,1.2075,-1.27592,1.55409,-0.803578,-1.71126,-1.06959,2.37135,1.17173,-1.22744,-0.86424,0.730013,0.6501,1.0526,0.995751,0.68784,-0.89957,-0.86424,0.730013,0.6501,1.0526,0.995751,0.68784,-0.89957,0.358702,-0.485961,0.885997,0.744642,0.0800188,0.00311843,0.662643,-0.859887,-0.0760107,0.811507,-0.967572,-0.0650016,0.824865,1.43725,-0.451517,1.48256,-3.35054,0.165579,0.829911,-3.35054,0.142269,0.829911,-0.819126,0.709219,0.382826,0.647816,0.533122,0.357735,-0.484788,1
1.46437,-0.725902,-1.66781,-0.994312,2.43347,1.2128,-1.28636,1.46437,-0.725902,-1.66781,-0.994312,2.43347,1.2128,-1.28636,1.54589,-0.795941,-1.70437,-1.05901,2.38121,1.1786,-1.23651,-0.804986,0.767956,0.701768,1.06044,0.97929,0.689005,-0.908983,-0.804986,0.767956,0.701768,1.06044,0.97929,0.689005,-0.908983,0.349189,-0.486055,0.894461,0.750689,0.0710735,-0.00401035,0.65681,-0.838605,-0.00266236,0.834624,-0.947513,0.013051,0.846011,1.40359,-0.450197,1.49003,-3.36601,0.131956,0.747693,-3.36601,0.14346,0.747693,-0.81522,0.700396,0.365611,0.646973,0.522611,0.342003,-0.498416,1
1.45552,-0.71939,-1.66249,-0.984831,2.44363,1.21649,-1.29427,1.45552,-0.71939,-1.66249,-0.984831,2.44363,1.21649,-1.29427,1.53743,-0.788582,-1.69795,-1.04857,2.39093,1.18544,-1.24563,-0.866679,0.722285,0.612188,1.05152,0.972771,0.67804,-0.913525,-0.866679,0.722285,0.612188,1.05152,0.972771,0.67804,-0.913525,0.339594,-0.486244,0.902504,0.756713,0.0623789,-0.0110471,0.650671,-0.866418,-0.0472314,0.777764,-0.972164,-0.0323685,0.786265,1.37009,-0.448794,1.49615,-3.3502,0.140363,0.611436,-3.3502,0.145612,0.611436,-0.819149,0.691913,0.354635,0.637435,0.526987,0.310532,-0.486374,1
1.44703,-0.711901,-1.65491,-0.975628,2.45425,1.21561,-1.30409,1.44703,-0.711901,-1.65491,-0.975628,2.45425,1.21561,-1.30409,1.52876,-0.781149,-1.69167,-1.03783,2.40065,1.19193,-1.25486,-0.85406,0.75681,0.651268,1.08164,0.973269,0.641249,-0.924022,-0.85406,0.75681,0.651268,1.08164,0.973269,0.641249,-0.924022,0.32981,-0.486367,0.910502,0.762733,0.053755,-0.0180564,0.644222,-0.869635,-0.00283315,0.801091,-0.975865,0.0149527,0.807436,1.33692,-0.447251,1.50096,-3.31763,0.154281,0.481057,-3.31763,0.148448,0.481057,-0.817297,0.692479,0.367612,0.621999,0.536018,0.23676,-0.492257,1
1.43875,-0.704491,-1.64911,-0.966425,2.46499,1.21776,-1.31344,1.43875,-0.704491,-1.64911,-0.966425,2.46499,1.21776,-1.31344,1.52031,-0.773663,-1.68513,-1.02751,2.4104,1.19814,-1.26404,-0.85454,0.736881,0.632717,1.03185,0.977143,0.613746,-0.915754,-0.85454,0.736881,0.632717,1.03185,0.977143,0.613746,-0.915754,0.320281,-0.48604,0.918345,0.768295,0.0453125,-0.0249841,0.638002,-0.854463,0.00985642,0.763454,-0.957193,0.0273056,0.767241,1.30429,-0.445355,1.50541,-3.26291,0.189564,0.444734,-3.26291,0.153414,0.444734,-0.815611,0.691722,0.360264,0.610812,0.545919,0.196233,-0.494044,1
1.4295,-0.697515,-1.64722,-0.955316,2.47423,1.22399,-1.32246,1.4295,-0.697515,-1.64722,-0.955316,2.47423,1.22399,-1.32246,1.51139,-0.76652,-1.67924,-1.01683,2.42023,1.20407,-1.27323,-0.894039,0.7135,0.590461,1.07554,0.986423,0.58508,-0.919732,-0.894039,0.7135,0.590461,1.07554,0.986423,0.58508,-0.919732,0.31043,-0.486109,0.92584,0.774014,0.0371837,-0.0319674,0.631267,-0.887088,-0.0160968,0.743999,-0.989222,0.00121672,0.745441,1.27115,-0.44422,1.50873,-3.3133,0.113538,0.332415,-3.3133,0.150457,0.332415,-0.818853,0.690049,0.320211,0.615139,0.539941,0.199195,-0.492365,1
1.42227,-0.690386,-1.64031,-0.947445,2.48462,1.21522,-1.33361,1.42227,-0.690386,-1.64031,-0.947445,2.48462,1.21522,-1.33361,1.5028,-0.759099,-1.67309,-1.00652,2.42998,1.20955,-1.28235,-0.847733,0.749476,0.619175,1.03024,0.97603,0.535563,-0.909917,-0.847733,0.749476,0.619175,1.03024,0.97603,0.535563,-0.909917,0.300924,-0.485583,0.933307,0.779274,0.0291962,-0.0387145,0.624804,-0.845693,0.0508831,0.745447,-0.944195,0.07041,0.744928,1.23864,-0.442919,1.51098,-3.25128,0.130063,0.225186,-3.25128,0.147094,0.225186,-0.80531,0.687128,0.327749,0.590785,0.546464,0.0567232,-0.512638,1
1.41271,-0.680902,-1.63493,-0.938235,2.49671,1.21345,-1.34218,1.41271,-0.680902,-1.63493,-0.938235,2.49671,1.21345,-1.34218,1.4939,-0.751801,-1.66729,-0.99593,2.43989,1.2142,-1.29143,-0.905196,0.72105,0.570065,1.05782,0.998675,0.441009,-0.909762,-0.905196,0.72105,0.570065,1.05782,0.998675,0.441009,-0.909762,0.291269,-0.485243,0.940589,0.784529,0.0216593,-0.0454212,0.618047,-0.874875,0.0131486,0.718453,-0.969655,0.0301723,0.715756,1.20608,-0.441556,1.51251,-3.25568,0.136364,0.152397,-3.25568,0.145375,0.152397,-0.811893,0.70899,0.323595,0.576949,0.568155,-0.00748904,-0.507502,1
1.40416,-0.672771,-1.63991,-0.932463,2.50657,1.20646,-1.35286,1.40416,-0.672771,-1.63991,-0.932463,2.50657,1.20646,-1.35286,1.48512,-0.744615,-1.6613,-0.985799,2.44994,1.21789,-1.30056,-0.865661,0.724933,0.606244,1.01182,1.00659,0.350183,-0.912266,-0.865661,0.724933,0.606244,1.01182,1.00659,0.350183,-0.912266,0.281951,-0.484702,0.947629,0.789399,0.0147352,-0.0519838,0.611498,-0.833066,0.0559748,0.707357,-0.923227,0.0717095,0.702923,1.17323,-0.440291,1.51303,-3.28505,0.126415,0.0525594,-3.28505,0.140476,0.0525594,-0.80959,0.718445,0.21386,0.533369,0.566315,-0.114296,-0.523017,1
1.39484,-0.664852,-1.64336,-0.929096,2.51636,1.20251,-1.36082,1.39484,-0.664852,-1.64336,-0.929096,2.51636,1.20251,-1.36082,1.47611,-0.737421,-1.6558,-0.975366,2.46009,1.22078,-1.30974,-0.916341,0.713524,0.529115,1.04277,1.01814,0.251675,-0.922489,-0.916341,0.713524,0.529115,1.04277,1.01814,0.251675,-0.922489,0.272538,-0.484262,0.95454,0.794325,0.00820097,-0.0584003,0.604624,-0.857477,0.0234919,0.684725,-0.942819,0.0377785,0.678808,1.14047,-0.438745,1.51261,-3.27626,0.154695,-0.0425458,-3.27626,0.136825,-0.0425458,-0.812698,0.72569,0.124404,0.462704,0.562767,-0.18275,-0.510753,1
1.38679,-0.656802,-1.66176,-0.939493,2.52389,1.19615,-1.36801,1.38679,-0.656802,-1.66176,-0.939493,2.52389,1.19615,-1.36801,1.46728,-0.73019,-1.65029,-0.965392,2.47029,1.22198,-1.31913,-0.863791,0.72854,0.566853,0.986147,1.02149,0.0775242,-0.943029,-0.863791,0.72854,0.566853,0.986147,1.02149,0.0775242,-0.943029,0.263629,-0.483637,0.961266,0.798968,0.00259935,-0.0643987,0.59791,-0.794713,0.0711199,0.6782,-0.871621,0.0822404,0.67137,1.10756,-0.43738,1.51133,-3.29103,0.136411,-0.128114,-3.29103,0.13394,-0.128114,-0.804884,0.733885,-0.114741,0.258993,0.535984,-0.258252,-0.48884,1
1.37774,-0.647985,-1.66434,-0.953305,2.53222,1.18802,-1.37609,1.37774,-0.647985,-1.66434,-0.953305,2.53222,1.18802,-1.37609,1.45837,-0.722993,-1.64515,-0.955474,2.48064,1.2217,-1.32863,-0.912997,0.714423,0.47774,0.986986,1.0442,-0.0635389,-0.953551,-0.912997,0.714423,0.47774,0.986986,1.0442,-0.0635389,-0.953551,0.254929,-0.483091,0.967808,0.803548,-0.0021861,-0.0700918,0.591095,-0.80369,0.0349736,0.646891,-0.873081,0.0425884,0.639426,1.07493,-0.435763,1.50909,-3.26287,0.161782,-0.223517,-3.26287,0.140217,-0.223517,-0.80635,0.750077,-0.191949,0.0216869,0.515827,-0.336749,-0.474589,1
1.36954,-0.639916,-1.65698,-0.972159,2.54112,1.18127,-1.38785,1.36954,-0.639916,-1.65698,-0.972159,2.54112,1.18127,-1.38785,1.44931,-0.71575,-1.64139,-0.945849,2.49123,1.22027,-1.33828,-0.886776,0.733286,0.346192,0.944335,1.06279,-0.172413,-0.966482,-0.886776,0.733286,0.346192,0.944335,1.06279,-0.172413,-0.966482,0.246488,-0.482794,0.973953,0.808305,-0.00605589,-0.0752526,0.583904,-0.761283,0.0362156,0.612688,-0.821298,0.0418854,0.605322,1.04204,-0.434158,1.50604,-3.28964,0.160423,-0.305235,-3.28964,0.145642,-0.305235,-0.797721,0.758341,-0.155947,-0.263102,0.498879,-0.389956,-0.495731,1
1.3612,-0.631731,-1.648,-0.979985,2.5504,1.1793,-1.40013,1.3612,-0.631731,-1.648,-0.979985,2.5504,1.1793,-1.40013,1.44069,-0.708276,-1.6397,-0.937387,2.50186,1.2177,-1.34783,-0.870562,0.746708,0.0798131,0.794308,1.06107,-0.290815,-0.948302,-0.870562,0.746708,0.0798131,0.794308,1.06107,-0.290815,-0.948302,0.239002,-0.482509,0.979471,0.813065,-0.00872686,-0.0793367,0.576675,-0.680255,0.0138724,0.525885,-0.722759,0.0166195,0.520112,1.00957,-0.433017,1.5017,-3.24657,0.114125,-0.433373,-3.24657,0.145942,-0.433373,-0.794874,0.765449,-0.0829589,-0.425981,0.485441,-0.383987,-0.523086,1
1.35416,-0.622406,-1.63971,-0.984367,2.55874,1.17751,-1.41219,1.35416,-0.622406,-1.63971,-0.984367,2.55874,1.17751,-1.41219,1.432,-0.7001,-1.64116,-0.931475,2.51226,1.21397,-1.35696,-0.857337,0.85633,-0.192459,0.513201,1.03293,-0.398713,-0.901392,-0.857337,0.85633,-0.192459,0.513201,1.03293,-0.398713,-0.901392,0.23289,-0.482155,0.98407,0.818004,-0.00981269,-0.0814668,0.56933,-0.544304,0.0625568,0.451963,-0.563804,0.0660443,0.449379,0.977783,-0.431478,1.49661,-3.1787,0.153944,-0.509775,-3.1787,0.146851,-0.509775,-0.778321,0.776946,0.014462,-0.52892,0.464808,-0.364657,-0.552287,1
1.346,-0.612194,-1.63941,-0.984587,2.56879,1.17402,-1.42271,1.346,-0.612194,-1.63941,-0.984587,2.56879,1.17402,-1.42271,1.42313,-0.690863,-1.64409,-0.928858,2.52223,1.20934,-1.3657,-0.917223,0.929543,-0.328028,0.165315,0.986719,-0.484019,-0.86865,-0.917223,0.929543,-0.328028,0.165315,0.986719,-0.484019,-0.86865,0.228356,-0.481054,0.988076,0.822709,-0.0096872,-0.081691,0.562479,-0.423347,0.110154,0.372567,-0.421986,0.112856,0.372975,0.945135,-0.430526,1.49053,-3.2648,0.0951946,-0.607324,-3.2648,0.140026,-0.607324,-0.77134,0.786692,0.046849,-0.557292,0.465536,-0.353141,-0.5701,1
1.33516,-0.602511,-1.63633,-0.987271,2.58148,1.16935,-1.43123,1.33516,-0.602511,-1.63633,-0.987271,2.58148,1.16935,-1.43123,1.41267,-0.681432,-1.64701,-0.929838,2.53182,1.204,-1.37457,-1.08455,0.957599,-0.245611,-0.182021,0.947947,-0.546662,-0.89806,-1.08455,0.957599,-0.245611,-0.182021,0.947947,-0.546662,-0.89806,0.224692,-0.479753,0.991294,0.827356,-0.00831792,-0.0806316,0.555797,-0.360409,0.152549,0.312706,-0.345487,0.152686,0.314874,0.912194,-0.429262,1.48343,-3.29412,0.126335,-0.71007,-3.29412,0.133959,-0.71007,-0.775054,0.789212,0.106831,-0.574329,0.49665,-0.346421,-0.566583,1
1.32285,-0.594042,-1.62829,-0.992307,2.59469,1.16611,-1.43989,1.32285,-0.594042,-1.62829,-0.992307,2.59469,1.16611,-1.43989,1.40101,-0.672332,-1.64785,-0.934161,2.54107,1.19865,-1.384,-1.19927,0.880287,-0.0468355,-0.508575,0.919395,-0.527918,-0.960847,-1.19927,0.880287,-0.0468355,-0.508575,0.919395,-0.527918,-0.960847,0.221795,-0.478029,0.9939,0.83151,-0.0062074,-0.0791593,0.549807,-0.296703,0.170358,0.230347,-0.275641,0.164439,0.23284,0.879029,-0.427637,1.4754,-3.31652,0.162551,-0.80297,-3.31652,0.13093,-0.80297,-0.781585,0.782902,0.195609,-0.581463,0.536201,-0.325344,-0.558933,1
1.31007,-0.587539,-1.61754,-0.998117,2.60694,1.16681,-1.44972,1.31007,-0.587539,-1.61754,-0.998117,2.60694,1.16681,-1.44972,1.38832,-0.664318,-1.64733,-0.940612,2.55014,1.1936,-1.39416,-1.27387,0.789001,0.0972424,-0.692849,0.899338,-0.494026,-1.03404,-1.27387,0.789001,0.0972424,-0.692849,0.899338,-0.494026,-1.03404,0.21916,-0.476637,0.995701,0.835516,-0.00342143,-0.0777665,0.543924,-0.268487,0.158765,0.165888,-0.245746,0.147852,0.168094,0.846103,-0.426105,1.46666,-3.29262,0.153208,-0.874031,-3.29262,0.13263,-0.874031,-0.782448,0.767796,0.297897,-0.575047,0.568005,-0.267935,-0.555633,1
1.30047,-0.583594,-1.60717,-1.00825,2.61723,1.17146,-1.46032,1.30047,-0.583594,-1.60717,-1.00825,2.61723,1.17146,-1.46032,1.37579,-0.656493,-1.64559,-0.948517,2.55905,1.18884,-1.40484,-1.25237,0.771408,0.17773,-0.813258,0.892473,-0.469805,-1.07508,-1.25237,0.771408,0.17773,-0.813258,0.892473,-0.469805,-1.07508,0.217199,-0.474852,0.997215,0.839122,-0.000407348,-0.0762876,0.538566,-0.209435,0.187901,0.135904,-0.184625,0.174902,0.138057,0.813362,-0.424456,1.45648,-3.27404,0.164872,-1.01795,-3.27404,0.140421,-1.01795,-0.75322,0.728986,0.384257,-0.597321,0.581737,-0.173778,-0.55474,1
1.29309,-0.580336,-1.59881,-1.01794,2.62489,1.1796,-1.47124,1.29309,-0.580336,-1.59881,-1.01794,2.62489,1.1796,-1.47124,1.36374,-0.648803,-1.64324,-0.9566,2.56828,1.18432,-1.41561,-1.17835,0.773313,0.263264,-0.801932,0.932089,-0.44568,-1.07416,-1.17835,0.773313,0.263264,-0.801932,0.932089,-0.44568,-1.07416,0.215536,-0.4729,0.99866,0.842393,0.00260652,-0.0750696,0.533603,-0.17396,0.224092,0.147999,-0.152728,0.209882,0.14944,0.780717,-0.423479,1.44507,-3.2645,0.0977367,-1.14172,-3.2645,0.140335,-1.14172,-0.706446,0.684671,0.444316,-0.613357,0.566065,-0.0472473,-0.556299,1
1.28864,-0.576091,-1.59192,-1.02619,2.63313,1.17735,-1.48101,1.28864,-0.576091,-1.59192,-1.02619,2.63313,1.17735,-1.48101,1.35256,-0.640965,-1.64007,-0.964568,2.57819,1.17991,-1.4261,-1.09619,0.783488,0.3406,-0.792249,1.01372,-0.424779,-1.04077,-1.09619,0.783488,0.3406,-0.792249,1.01372,-0.424779,-1.04077,0.214275,-0.470541,1.00026,0.845073,0.00552205,-0.0742493,0.529442,-0.134872,0.261185,0.160722,-0.117572,0.24464,0.161344,0.748919,-0.42166,1.43292,-3.17977,0.181869,-1.21468,-3.17977,0.147662,-1.21468,-0.639184,0.648734,0.48146,-0.616211,0.549424,-0.0256076,-0.549138,1
1.28436,-0.571731,-1.58732,-1.03334,2.64281,1.18157,-1.49023,1.28436,-0.571731,-1.58732,-1.03334,2.64281,1.18157,-1.49023,1.34247,-0.633294,-1.63568,-0.972761,2.58889,1.17634,-1.43628,-0.98339,0.757242,0.460949,-0.826381,1.09027,-0.331084,-1.01304,-0.98339,0.757242,0.460949,-0.826381,1.09027,-0.331084,-1.01304,0.213488,-0.467747,1.00187,0.846964,0.00818064,-0.0741151,0.526396,-0.0769011,0.304128,0.154729,-0.0655997,0.285097,0.154297,0.717008,-0.420025,1.41969,-3.1911,0.163481,-1.32308,-3.1911,0.15104,-1.32308,-0.581109,0.615634,0.483663,-0.605755,0.539158,0.0523013,-0.539482,1
1.2813,-0.571186,-1.58484,-1.0399,2.65295,1.18807,-1.49937,1.2813,-0.571186,-1.58484,-1.0399,2.65295,1.18807,-1.49937,1.33315,-0.626153,-1.63029,-0.981098,2.60019,1.17433,-1.44633,-0.911003,0.707926,0.580974,-0.843279,1.13724,-0.154552,-1.00505,-0.911003,0.707926,0.580974,-0.843279,1.13724,-0.154552,-1.00505,0.212863,-0.464776,1.00331,0.848289,0.0103735,-0.074819,0.524118,-0.0545284,0.331773,0.14451,-0.0526126,0.312937,0.142906,0.684556,-0.41899,1.40555,-3.24522,0.103572,-1.41387,-3.24522,0.146062,-1.41387,-0.518516,0.549677,0.454535,-0.587979,0.527647,0.137387,-0.530328,1
1.28377,-0.577935,-1.59014,-1.04889,2.65549,1.20442,-1.5069,1.28377,-0.577935,-1.59014,-1.04889,2.65549,1.20442,-1.5069,1.32467,-0.619233,-1.62337,-0.989971,2.61136,1.174,-1.45643,-0.838917,0.679594,0.709244,-0.907792,1.10599,-0.0154001,-1.0127,-0.838917,0.679594,0.709244,-0.907792,1.10599,-0.0154001,-1.0127,0.212673,-0.46114,1.00472,0.849017,0.0118654,-0.0759801,0.522739,-0.00363404,0.383612,0.133024,-0.00582355,0.366997,0.131091,0.652294,-0.417885,1.39063,-3.22626,0.110409,-1.49173,-3.22626,0.139446,-1.49173,-0.409084,0.412976,0.332279,-0.589201,0.44127,0.30424,-0.504718,1
1.27372,-0.582541,-1.61821,-1.05854,2.64116,1.21829,-1.51298,1.27372,-0.582541,-1.61821,-1.05854,2.64116,1.21829,-1.51298,1.31617,-0.612952,-1.61601,-0.998884,2.62207,1.17445,-1.46657,-0.849775,0.612625,0.757098,-0.886363,1.05587,0.0685395,-1.01377,-0.849775,0.612625,0.757098,-0.886363,1.05587,0.0685395,-1.01377,0.212397,-0.457659,1.0059,0.849729,0.0131518,-0.0773347,0.521351,-0.0233382,0.363727,0.116092,-0.0294176,0.348377,0.113766,0.620059,-0.416973,1.37444,-3.22344,0.0912756,-1.61921,-3.22344,0.129669,-1.61921,-0.424495,0.304117,-0.0220378,-0.596578,0.190882,0.438445,-0.464119,1
1.2603,-0.570894,-1.6299,-1.07184,2.62553,1.21722,-1.52431,1.2603,-0.570894,-1.6299,-1.07184,2.62553,1.21722,-1.52431,1.30812,-0.606853,-1.60793,-1.00799,2.63211,1.17574,-1.4766,-0.791372,0.610966,0.810822,-0.926084,0.98625,0.153167,-0.997328,-0.791372,0.610966,0.810822,-0.926084,0.98625,0.153167,-0.997328,0.212403,-0.453811,1.00703,0.8502,0.0140235,-0.0786671,0.52036,0.0209904,0.407128,0.10936,0.0147234,0.395378,0.107345,0.588158,-0.41557,1.35762,-3.19018,0.140235,-1.68195,-3.19018,0.125856,-1.68195,-0.478198,0.359593,-0.21967,-0.638426,-0.0658029,0.414798,-0.477161,1
1.24247,-0.552022,-1.61921,-1.08519,2.64003,1.20491,-1.54118,1.24247,-0.552022,-1.61921,-1.08519,2.64003,1.20491,-1.54118,1.3002,-0.600791,-1.60074,-1.01707,2.64161,1.17837,-1.48638,-0.793757,0.601343,0.678483,-0.890911,0.937854,0.318749,-0.971371,-0.793757,0.601343,0.678483,-0.890911,0.937854,0.318749,-0.971371,0.212368,-0.450003,1.00794,0.850889,0.0144172,-0.0798549,0.51904,-0.00594088,0.378325,0.084705,-0.0155583,0.372013,0.0828394,0.55625,-0.414011,1.33998,-3.19076,0.15589,-1.76373,-3.19076,0.120973,-1.76373,-0.577342,0.487683,-0.184716,-0.681194,-0.0158757,0.265491,-0.547913,1
1.22975,-0.554608,-1.60901,-1.09235,2.6333,1.21069,-1.55478,1.22975,-0.554608,-1.60901,-1.09235,2.6333,1.21069,-1.55478,1.2929,-0.594915,-1.59576,-1.02622,2.64974,1.18348,-1.49572,-0.694338,0.582504,0.418372,-0.928349,0.742161,0.581593,-0.917108,-0.694338,0.582504,0.418372,-0.928349,0.742161,0.581593,-0.917108,0.212409,-0.446377,1.0083,0.852027,0.0139816,-0.0806205,0.517064,0.029527,0.356327,0.015407,0.021556,0.360727,0.0148919,0.524631,-0.412273,1.32153,-3.16187,0.17384,-1.84524,-3.16187,0.126885,-1.84524,-0.631509,0.40307,-0.132464,-0.661292,-0.16443,0.272069,-0.590644,1
1.22779,-0.563309,-1.63604,-1.08954,2.59646,1.24591,-1.55976,1.22779,-0.563309,-1.63604,-1.08954,2.59646,1.24591,-1.55976,1.28672,-0.588979,-1.59464,-1.03548,2.6532,1.19126,-1.50438,-0.605441,0.604435,-0.000802942,-0.905735,0.204763,0.836755,-0.852898,-0.605441,0.604435,-0.000802942,-0.905735,0.204763,0.836755,-0.852898,0.212998,-0.442694,1.00799,0.854251,0.0121975,-0.079288,0.513634,0.0589835,0.338162,-0.0455219,0.061655,0.36788,-0.0421097,0.49207,-0.41089,1.30205,-3.25611,0.138348,-1.94801,-3.25611,0.13745,-1.94801,-0.589326,0.256698,-0.414052,-0.540536,-0.567433,0.546531,-0.553831,1
1.22214,-0.552863,-1.64944,-1.09493,2.59079,1.25872,-1.56874,1.22214,-0.552863,-1.64944,-1.09493,2.59079,1.25872,-1.56874,1.28072,-0.582212,-1.59742,-1.04448,2.65174,1.19985,-1.51286,-0.592499,0.708731,-0.34612,-0.904608,-0.22271,0.834359,-0.854659,-0.592499,0.708731,-0.34612,-0.904608,-0.22271,0.834359,-0.854659,0.213986,-0.438853,1.00739,0.857954,0.00939693,-0.0751652,0.508112,0.0983317,0.344437,-0.0708452,0.119607,0.393095,-0.0637213,0.460261,-0.409672,1.28165,-3.18091,0.121737,-2.04042,-3.18091,0.143226,-2.04042,-0.585879,0.293486,-0.520219,-0.50442,-0.609524,0.588713,-0.55882,1
1.21875,-0.539255,-1.63796,-1.10979,2.59839,1.25007,-1.58083,1.21875,-0.539255,-1.63796,-1.10979,2.59839,1.25007,-1.58083,1.2749,-0.574043,-1.60102,-1.05406,2.64889,1.20694,-1.52207,-0.586519,0.858866,-0.333897,-0.956427,-0.313002,0.664246,-0.948314,-0.586519,0.858866,-0.333897,-0.956427,-0.313002,0.664246,-0.948314,0.215879,-0.434275,1.00695,0.862033,0.00686603,-0.0693136,0.502043,0.171073,0.434572,-0.0366998,0.205428,0.487753,-0.0284201,0.428672,-0.408608,1.26013,-3.15894,0.106445,-2.15162,-3.15894,0.142904,-2.15162,-0.561487,0.347875,-0.36934,-0.557265,-0.505014,0.431217,-0.587591,1
1.20927,-0.531559,-1.61313,-1.11033,2.6075,1.25626,-1.59311,1.20927,-0.531559,-1.61313,-1.11033,2.6075,1.25626,-1.59311,1.26819,-0.565537,-1.60324,-1.06369,2.6443,1.21349,-1.53247,-0.708419,0.807646,-0.207238,-0.965415,-0.516096,0.667818,-1.0654,-0.708419,0.807646,-0.207238,-0.965415,-0.516096,0.667818,-1.0654,0.217754,-0.429145,1.00679,0.866428,0.00387925,-0.0627395,0.495329,0.132677,0.428913,-0.0407001,0.168896,0.487818,-0.032782,0.39675,-0.407874,1.23752,-3.19214,0.0734001,-2.2615,-3.19214,0.13035,-2.2615,-0.589238,0.339778,-0.0989206,-0.466446,-0.367952,0.427758,-0.606387,1
1.20208,-0.553301,-1.63421,-1.09916,2.59323,1.27706,-1.60156,1.20208,-0.553301,-1.63421,-1.09916,2.59323,1.27706,-1.60156,1.26042,-0.558937,-1.60641,-1.07323,2.63589,1.22135,-1.54328,-0.773276,0.594332,-0.358224,-0.936797,-0.950145,0.835353,-1.07808,-0.773276,0.594332,-0.358224,-0.936797,-0.950145,0.835353,-1.07808,0.218914,-0.42516,1.00579,0.871699,0.000254149,-0.0554476,0.486894,0.0612804,0.29188,-0.135967,0.101148,0.361235,-0.1283,0.364799,-0.406882,1.21447,-3.1951,0.0992209,-2.30454,-3.1951,0.115965,-2.30454,-0.583409,0.0563535,-0.278051,-0.259282,-0.426625,0.55708,-0.582749,1
1.20671,-0.564093,-1.652,-1.09494,2.58093,1.29556,-1.60948,1.20671,-0.564093,-1.652,-1.09494,2.58093,1.29556,-1.60948,1.25348,-0.553796,-1.61172,-1.08219,2.62377,1.23135,-1.55389,-0.666619,0.514567,-0.593781,-0.889125,-1.2707,1.04561,-1.05567,-0.666619,0.514567,-0.593781,-0.889125,-1.2707,1.04561,-1.05567,0.219909,-0.42193,1.00403,0.877445,-0.00445256,-0.0474153,0.477308,0.0637114,0.238366,-0.196879,0.106963,0.320162,-0.190001,0.333187,-0.405454,1.19018,-3.16128,0.14272,-2.42918,-3.16128,0.108109,-2.42918,-0.467674,-0.102965,-0.402813,-0.127537,-0.428346,0.642097,-0.555862,1
1.20575,-0.541878,-1.66107,-1.12345,2.5653,1.30427,-1.61779,1.20575,-0.541878,-1.66107,-1.12345,2.5653,1.30427,-1.61779,1.2473,-0.547778,-1.61861,-1.09095,2.61185,1.2415,-1.56439,-0.60791,0.648571,-0.691126,-0.869268,-1.11439,0.990713,-1.05036,-0.60791,0.648571,-0.691126,-0.869268,-1.11439,0.990713,-1.05036,0.221273,-0.418525,1.00223,0.88308,-0.00931843,-0.0389585,0.467509,0.098206,0.27527,-0.173881,0.144723,0.354924,-0.168667,0.301133,-0.403571,1.16522,-3.20536,0.188336,-2.49602,-3.20536,0.114706,-2.49602,-0.415511,0.0589961,-0.424606,-0.325031,-0.465516,0.627756,-0.534012,1
1.18851,-0.528312,-1.66909,-1.145,2.55257,1.3101,-1.63074,1.18851,-0.528312,-1.66909,-1.145,2.55257,1.3101,-1.63074,1.24129,-0.540542,-1.62315,-1.09872,2.60361,1.25091,-1.57511,-0.609336,0.715921,-0.358068,-0.749548,-0.756159,0.919972,-1.0776,-0.609336,0.715921,-0.358068,-0.749548,-0.756159,0.919972,-1.0776,0.222452,-0.414293,1.00141,0.887789,-0.014273,-0.0321407,0.458905,0.0737029,0.35977,-0.0657432,0.104222,0.43071,-0.0633008,0.269053,-0.402438,1.13927,-3.208,0.113344,-2.59449,-3.208,0.122132,-2.59449,-0.527786,0.122298,-0.459359,-0.462841,-0.510389,0.591944,-0.556255,1
1.16992,-0.517668,-1.67897,-1.15744,2.54084,1.316,-1.64078,1.16992,-0.517668,-1.67897,-1.15744,2.54084,1.316,-1.64078,1.23471,-0.535848,-1.62554,-1.10494,2.59687,1.26001,-1.58585,-0.656984,0.363557,-0.218372,-0.588975,-0.66184,0.914531,-1.06872,-0.656984,0.363557,-0.218372,-0.588975,-0.66184,0.914531,-1.06872,0.222293,-0.411466,1.00056,0.89206,-0.0188235,-0.0276322,0.450679,-0.0652339,0.163998,-0.108654,-0.0504395,0.219298,-0.108152,0.237167,-0.400932,1.11241,-3.18855,0.150567,-2.6862,-3.18855,0.132895,-2.6862,-0.647955,0.181806,-0.534349,-0.525018,-0.560297,0.559901,-0.549329,1
1.15883,-0.507806,-1.6878,-1.16523,2.52864,1.32305,-1.647,1.15883,-0.507806,-1.6878,-1.16523,2.52864,1.32305,-1.647,1.22929,-0.534206,-1.62849,-1.10998,2.59006,1.26976,-1.59623,-0.496459,0.124274,-0.354713,-0.485446,-0.698252,0.98713,-1.02561,-0.496459,0.124274,-0.354713,-0.485446,-0.698252,0.98713,-1.02561,0.221432,-0.410443,0.998949,0.896104,-0.0229297,-0.0245811,0.442569,-0.0940885,0.0234041,-0.17899,-0.0848235,0.0720245,-0.179334,0.20531,-0.399747,1.08397,-3.18579,0.118524,-2.84436,-3.18579,0.140348,-2.84436,-0.704581,0.263992,-0.593039,-0.552487,-0.614216,0.532903,-0.507704,1
1.15457,-0.501185,-1.69578,-1.16571,2.51886,1.33171,-1.65366,1.15457,-0.501185,-1.69578,-1.16571,2.51886,1.33171,-1.65366,1.22561,-0.532612,-1.63404,-1.11504,2.58216,1.28045,-1.60608,-0.33468,0.188265,-0.613691,-0.526037,-0.827431,1.10162,-0.975121,-0.33468,0.188265,-0.613691,-0.526037,-0.827431,1.10162,-0.975121,0.221161,-0.409617,0.996831,0.900102,-0.0272331,-0.0208432,0.434327,-0.0202386,0.0421142,-0.220533,-0.00279835,0.0986308,-0.221215,0.173731,-0.398693,1.05425,-3.15784,0.105354,-2.97132,-3.15784,0.137928,-2.97132,-0.710402,0.314266,-0.617457,-0.506682,-0.632984,0.512577,-0.475758,1
1.14875,-0.504784,-1.69978,-1.12383,2.50961,1.34981,-1.65641,1.14875,-0.504784,-1.69978,-1.12383,2.50961,1.34981,-1.65641,1.22244,-0.529948,-1.64143,-1.12156,2.57304,1.29339,-1.61567,-0.323846,0.285459,-0.765415,-0.69207,-0.937669,1.33673,-0.960404,-0.323846,0.285459,-0.765415,-0.69207,-0.937669,1.33673,-0.960404,0.22159,-0.408143,0.994213,0.904039,-0.0323934,-0.0160028,0.425921,0.0301732,0.0907757,-0.274033,0.0537732,0.157988,-0.275724,0.145466,-0.396328,1.03151,-2.82649,0.236553,-2.2747,-2.82649,0.142239,-2.2747,-0.736914,0.251636,-0.583503,-0.0226387,-0.634299,0.564198,-0.407359,1
1.14105,-0.518529,-1.69824,-1.06287,2.50294,1.36478,-1.64076,1.14105,-0.518529,-1.69824,-1.06287,2.50294,1.36478,-1.64076,1.21836,-0.526596,-1.64961,-1.12934,2.56246,1.30599,-1.62541,-0.44942,0.349984,-0.843794,-0.813042,-1.0987,1.2218,-0.973059,-0.44942,0.349984,-0.843794,-0.813042,-1.0987,1.2218,-0.973059,0.222394,-0.40651,0.991232,0.908136,-0.0374567,-0.00971967,0.416884,0.0455587,0.0861779,-0.309492,0.0863669,0.155938,-0.311685,0.121336,-0.393312,1.03158,-2.413,0.301546,0.00687838,-2.413,0.161555,0.00687838,-0.77304,0.0806707,-0.486319,0.664735,-0.59514,0.587962,-0.153499,1
1.13387,-0.520936,-1.71326,-1.06702,2.49691,1.37772,-1.64384,1.13387,-0.520936,-1.71326,-1.06702,2.49691,1.37772,-1.64384,1.21244,-0.522993,-1.6586,-1.13813,2.5508,1.31742,-1.6349,-0.637648,0.364018,-0.907276,-0.907492,-1.18359,1.13099,-0.936015,-0.637648,0.364018,-0.907276,-0.907492,-1.18359,1.13099,-0.936015,0.223069,-0.405373,0.987817,0.912482,-0.0418921,-0.00215968,0.406961,0.00776876,0.0344875,-0.351131,0.0612156,0.102637,-0.354199,0.0981794,-0.388272,1.03983,-2.31568,0.503984,0.82556,-2.31568,0.218409,0.82556,-0.785719,0.0205686,-0.546561,0.711086,-0.538916,0.603069,-0.0893543,1
1.12408,-0.518474,-1.72811,-1.07385,2.4844,1.38805,-1.62839,1.12408,-0.518474,-1.72811,-1.07385,2.4844,1.38805,-1.62839,1.20513,-0.519407,-1.66767,-1.14732,2.5386,1.32807,-1.64365,-0.761245,0.354442,-0.902363,-0.907911,-1.22921,1.05505,-0.853142,-0.761245,0.354442,-0.902363,-0.907911,-1.22921,1.05505,-0.853142,0.223439,-0.404634,0.984192,0.916741,-0.0459719,0.00597699,0.396782,-0.0379846,-0.00337883,-0.358912,0.0211516,0.0627423,-0.363309,0.0742895,-0.383597,1.04843,-2.389,0.467524,0.859857,-2.389,0.286908,0.859857,-0.810498,0.00933128,-0.604494,0.734728,-0.542005,0.599787,0.152581,1
1.11138,-0.518102,-1.73949,-1.0777,2.471,1.39694,-1.61999,1.11138,-0.518102,-1.73949,-1.0777,2.471,1.39694,-1.61999,1.19648,-0.515989,-1.67671,-1.15413,2.52623,1.33826,-1.65058,-0.892871,0.338898,-0.896562,-0.59442,-1.23753,1.0238,-0.60372,-0.892871,0.338898,-0.896562,-0.59442,-1.23753,1.0238,-0.60372,0.222485,-0.404432,0.981205,0.920899,-0.0506001,0.013698,0.386259,-0.188979,-0.0584871,-0.267421,-0.137005,0.011209,-0.27397,0.0507451,-0.379398,1.05516,-2.35444,0.419852,0.672483,-2.35444,0.354614,0.672483,-0.850981,-0.0211349,-0.627807,0.764279,-0.552252,0.586776,0.305863,1
1.10069,-0.526958,-1.74981,-1.07935,2.45893,1.40724,-1.62426,1.10069,-0.526958,-1.74981,-1.07935,2.45893,1.40724,-1.62426,1.18755,-0.512692,-1.68503,-1.1564,2.51427,1.3489,-1.65363,-0.889707,0.317937,-0.82885,-0.102516,-1.1849,1.05313,-0.231289,-0.889707,0.317937,-0.82885,-0.102516,-1.1849,1.05313,-0.231289,0.219821,-0.404269,0.979693,0.924396,-0.0568847,0.0199327,0.376643,-0.340641,-0.070608,-0.107223,-0.307196,0.00654799,-0.116361,0.026769,-0.374749,1.06198,-2.39761,0.464898,0.682199,-2.39761,0.412157,0.682199,-0.86854,-0.142659,-0.647765,0.770468,-0.55336,0.583374,0.293683,1
1.09194,-0.540134,-1.75889,-1.07804,2.44511,1.41532,-1.64035,1.09194,-0.540134,-1.75889,-1.07804,2.44511,1.41532,-1.64035,1.17905,-0.510134,-1.69402,-1.1539,2.50343,1.35967,-1.65365,-0.821575,0.236431,-0.912729,0.38251,-1.05126,1.07707,0.0818783,-0.821575,0.236431,-0.912729,0.38251,-1.05126,1.07707,0.0818783,0.215435,-0.40483,0.979343,0.927547,-0.0641324,0.0244968,0.367346,-0.494588,-0.146993,0.0088227,-0.478425,-0.0684135,-0.0020154,0.00256921,-0.370424,1.06716,-2.41998,0.432545,0.518095,-2.41998,0.441819,0.518095,-0.871164,-0.300004,-0.648726,0.758625,-0.583197,0.556502,0.133022,1
1.0866,-0.548201,-1.76694,-1.07105,2.43232,1.4251,-1.67074,1.0866,-0.548201,-1.76694,-1.07105,2.43232,1.4251,-1.67074,1.17263,-0.507898,-1.70334,-1.14654,2.49334,1.37027,-1.65081,-0.578541,0.223967,-0.949953,0.838497,-1.00528,1.04673,0.35189,-0.578541,0.223967,-0.949953,0.838497,-1.00528,1.04673,0.35189,0.210173,-0.40532,0.980368,0.930072,-0.0725729,0.0276935,0.35907,-0.535167,-0.122733,0.143908,-0.531462,-0.0378947,0.13061,-0.0211429,-0.365565,1.07218,-2.37121,0.485942,0.502253,-2.37121,0.456379,0.502253,-0.860366,-0.403028,-0.635947,0.754842,-0.61021,0.548276,-0.19932,1
1.08482,-0.548198,-1.77776,-1.06157,2.41735,1.43462,-1.68441,1.08482,-0.548198,-1.77776,-1.06157,2.41735,1.43462,-1.68441,1.16828,-0.505879,-1.71392,-1.1362,2.48302,1.38014,-1.64562,-0.40111,0.194748,-1.0965,1.0833,-1.0397,0.972148,0.55589,-0.40111,0.194748,-1.0965,1.0833,-1.0397,0.972148,0.55589,0.204801,-0.405839,0.982031,0.932113,-0.0814122,0.0307993,0.351551,-0.543669,-0.141252,0.18677,-0.538479,-0.0547072,0.171529,-0.045442,-0.361192,1.07488,-2.42991,0.437307,0.270247,-2.42991,0.451004,0.270247,-0.834537,-0.42319,-0.638407,0.746287,-0.656731,0.54479,-0.387986,1
1.08189,-0.541624,-1.78784,-1.04942,2.4087,1.44045,-1.68103,1.08189,-0.541624,-1.78784,-1.04942,2.4087,1.44045,-1.68103,1.16495,-0.504363,-1.72499,-1.12512,2.47241,1.38962,-1.64076,-0.31403,0.135689,-1.09853,1.0743,-1.06982,0.940797,0.425031,-0.31403,0.135689,-1.09853,1.0743,-1.06982,0.940797,0.425031,0.199577,-0.406471,0.98366,0.934047,-0.0901094,0.0340277,0.343917,-0.512014,-0.144114,0.163528,-0.503056,-0.0601807,0.147116,-0.0692538,-0.357148,1.07619,-2.38118,0.404367,0.130248,-2.38118,0.446236,0.130248,-0.830514,-0.372615,-0.628484,0.757036,-0.637111,0.50835,-0.402741,1
1.0768,-0.533656,-1.7957,-1.03719,2.40366,1.44421,-1.66541,1.0768,-0.533656,-1.7957,-1.03719,2.40366,1.44421,-1.66541,1.16094,-0.503345,-1.73593,-1.11458,2.46141,1.39901,-1.63927,-0.453255,0.0912262,-1.09493,1.0674,-1.109,0.944908,0.0394531,-0.453255,0.0912262,-1.09493,1.0674,-1.109,0.944908,0.0394531,0.194241,-0.407341,0.984949,0.936475,-0.0985203,0.0374487,0.334524,-0.573471,-0.179008,0.145172,-0.559476,-0.0957969,0.127276,-0.0920977,-0.352901,1.07698,-2.28438,0.42465,0.0797153,-2.28438,0.442596,0.0797153,-0.841463,-0.303107,-0.5977,0.773865,-0.577422,0.452085,-0.261396,1
1.0705,-0.523337,-1.80577,-1.02659,2.39531,1.45549,-1.64576,1.0705,-0.523337,-1.80577,-1.02659,2.39531,1.45549,-1.64576,1.15525,-0.502797,-1.74613,-1.10445,2.44982,1.4086,-1.64235,-0.597999,0.0462101,-0.985488,0.989814,-1.17882,0.964109,-0.426497,-0.597999,0.0462101,-0.985488,0.989814,-1.17882,0.964109,-0.426497,0.188376,-0.408391,0.986029,0.939613,-0.106987,0.0408926,0.322504,-0.604647,-0.180205,0.12029,-0.585773,-0.0972297,0.100759,-0.115423,-0.348186,1.07795,-2.3325,0.471553,0.0964999,-2.3325,0.439832,0.0964999,-0.847487,-0.205405,-0.596431,0.778586,-0.54501,0.468883,-0.0341534,1
1.06313,-0.521495,-1.81829,-1.01633,2.38311,1.46948,-1.62636,1.06313,-0.521495,-1.81829,-1.01633,2.38311,1.46948,-1.62636,1.14839,-0.502707,-1.75593,-1.0942,2.43753,1.41816,-1.64995,-0.71211,-0.0147762,-0.988304,1.01577,-1.24505,0.954486,-0.853329,-0.71211,-0.0147762,-0.988304,1.01577,-1.24505,0.954486,-0.853329,0.18205,-0.409616,0.987006,0.943364,-0.115554,0.0443453,0.307807,-0.667098,-0.217909,0.104444,-0.642462,-0.135893,0.0833698,-0.139426,-0.343301,1.07783,-2.40031,0.488469,-0.0119686,-2.40031,0.444344,-0.0119686,-0.852607,-0.187877,-0.623615,0.778707,-0.54417,0.51314,0.235879,1
1.05479,-0.521535,-1.82733,-1.00889,2.3747,1.47607,-1.6293,1.05479,-0.521535,-1.82733,-1.00889,2.3747,1.47607,-1.6293,1.14109,-0.50396,-1.76555,-1.08487,2.42493,1.42747,-1.65892,-0.734281,-0.155971,-0.946516,0.912674,-1.25808,0.916652,-0.858147,-0.734281,-0.155971,-0.946516,0.912674,-1.25808,0.916652,-0.858147,0.175612,-0.411562,0.987273,0.947081,-0.123275,0.047774,0.292503,-0.672094,-0.278685,0.031771,-0.643244,-0.206218,0.0115889,-0.162202,-0.338574,1.07577,-2.27765,0.472733,-0.20591,-2.27765,0.448983,-0.20591,-0.862996,-0.175753,-0.617876,0.7598,-0.502331,0.485997,0.29615,1
1.04561,-0.532641,-1.83657,-0.999365,2.36101,1.49052,-1.6401,1.04561,-0.532641,-1.83657,-0.999365,2.36101,1.49052,-1.6401,1.13319,-0.506261,-1.77478,-1.07541,2.41299,1.43608,-1.66432,-0.81268,-0.253868,-0.912674,0.94974,-1.16356,0.856852,-0.415148,-0.81268,-0.253868,-0.912674,0.94974,-1.16356,0.856852,-0.415148,0.168649,-0.414157,0.987314,0.950143,-0.130127,0.0509721,0.278742,-0.742827,-0.335239,0.0173439,-0.715138,-0.271168,-0.00173855,-0.186838,-0.334372,1.07454,-2.4636,0.420213,-0.123382,-2.4636,0.454314,-0.123382,-0.875857,-0.263795,-0.617865,0.760494,-0.519817,0.544439,0.242187,1
1.03682,-0.546728,-1.84633,-0.991478,2.34305,1.49749,-1.66042,1.03682,-0.546728,-1.84633,-0.991478,2.34305,1.49749,-1.66042,1.12443,-0.509026,-1.78354,-1.06546,2.4023,1.44486,-1.66455,-0.901732,-0.275571,-0.871569,1.02657,-1.04327,0.889952,0.101085,-0.901732,-0.275571,-0.871569,1.02657,-1.04327,0.889952,0.101085,0.160914,-0.416974,0.98742,0.952376,-0.136704,0.0537656,0.26721,-0.820923,-0.338844,0.0381947,-0.797679,-0.276229,0.0185617,-0.210639,-0.330172,1.0705,-2.38002,0.41995,-0.403798,-2.38002,0.455709,-0.403798,-0.87611,-0.377024,-0.627968,0.739846,-0.592448,0.526285,0.0412534,1
1.02826,-0.55669,-1.85677,-0.981045,2.32763,1.50469,-1.68399,1.02826,-0.55669,-1.85677,-0.981045,2.32763,1.50469,-1.68399,1.11485,-0.511269,-1.7922,-1.05404,2.39251,1.45434,-1.66023,-0.966086,-0.203212,-0.85853,1.16773,-0.96025,0.96194,0.532878,-0.966086,-0.203212,-0.85853,1.16773,-0.96025,0.96194,0.532878,0.152344,-0.419349,0.98809,0.953911,-0.143943,0.0564386,0.257193,-0.884831,-0.281992,0.102021,-0.864494,-0.213103,0.0793337,-0.234274,-0.325863,1.06717,-2.36353,0.430939,-0.333035,-2.36353,0.450259,-0.333035,-0.865878,-0.454209,-0.645638,0.729923,-0.64881,0.503474,-0.237601,1
1.01977,-0.567064,-1.86598,-0.970256,2.31687,1.51065,-1.68888,1.01977,-0.567064,-1.86598,-0.970256,2.31687,1.51065,-1.68888,1.10532,-0.51312,-1.80089,-1.04216,2.38323,1.46432,-1.6536,-0.952137,-0.18647,-0.884296,1.20592,-0.916072,1.01204,0.66602,-0.952137,-0.18647,-0.884296,1.20592,-0.916072,1.01204,0.66602,0.143669,-0.421254,0.98895,0.954944,-0.151497,0.0592488,0.248235,-0.897007,-0.254104,0.109731,-0.875826,-0.183678,0.0851792,-0.258351,-0.321564,1.06079,-2.40774,0.429851,-0.637591,-2.40774,0.439796,-0.637591,-0.855495,-0.539441,-0.650887,0.719016,-0.663615,0.463339,-0.352807,1
1.01016,-0.570912,-1.87134,-0.956732,2.30987,1.51634,-1.68342,1.01016,-0.570912,-1.87134,-0.956732,2.30987,1.51634,-1.68342,1.09597,-0.515407,-1.8103,-1.02978,2.37401,1.47451,-1.6489,-0.916544,-0.249374,-0.955996,1.22024,-0.935688,1.02388,0.378741,-0.916544,-0.249374,-0.955996,1.22024,-0.935688,1.02388,0.378741,0.134735,-0.423324,0.989636,0.956143,-0.159012,0.0620389,0.238027,-0.910207,-0.277487,0.0760738,-0.884497,-0.20967,0.0508774,-0.281279,-0.317432,1.05359,-2.29281,0.413203,-0.719655,-2.29281,0.429052,-0.719655,-0.85818,-0.555055,-0.610423,0.73051,-0.641436,0.418245,-0.34514,1
1.00107,-0.565932,-1.87736,-0.942368,2.30161,1.52774,-1.67534,1.00107,-0.565932,-1.87736,-0.942368,2.30161,1.52774,-1.67534,1.08735,-0.518395,-1.8205,-1.018,2.36377,1.48455,-1.6485,-0.851999,-0.315154,-1.0458,1.18524,-1.05476,0.9913,-0.0761101,-0.851999,-0.315154,-1.0458,1.18524,-1.05476,0.9913,-0.0761101,0.126214,-0.425693,0.989713,0.957678,-0.166083,0.0652529,0.225857,-0.88588,-0.305239,0.0222029,-0.849611,-0.241328,-0.00345788,-0.304511,-0.312929,1.04585,-2.32322,0.450286,-0.774062,-2.32322,0.4265,-0.774062,-0.86284,-0.475371,-0.568613,0.756276,-0.621574,0.431906,-0.26839,1
0.992639,-0.562881,-1.89027,-0.929914,2.29282,1.54204,-1.65396,0.992639,-0.562881,-1.89027,-0.929914,2.29282,1.54204,-1.65396,1.07905,-0.521865,-1.83144,-1.00678,2.35201,1.49397,-1.65259,-0.817258,-0.35409,-1.10124,1.0972,-1.21462,0.926132,-0.520044,-0.817258,-0.35409,-1.10124,1.0972,-1.21462,0.926132,-0.520044,0.11811,-0.428326,0.989263,0.95954,-0.17266,0.0692116,0.21138,-0.841355,-0.320183,-0.0333314,-0.791369,-0.261216,-0.0593892,-0.327611,-0.308694,1.038,-2.30998,0.423577,-0.785041,-2.30998,0.428394,-0.785041,-0.864138,-0.410159,-0.58829,0.768669,-0.591966,0.480684,-0.0137216,1
0.98446,-0.560455,-1.90063,-0.919607,2.28655,1.55078,-1.64293,0.98446,-0.560455,-1.90063,-0.919607,2.28655,1.55078,-1.64293,1.07116,-0.525721,-1.84231,-0.995694,2.33917,1.50258,-1.6601,-0.786435,-0.39734,-1.08458,1.1133,-1.29741,0.844665,-0.80513,-0.786435,-0.39734,-1.08458,1.1133,-1.29741,0.844665,-0.80513,0.110373,-0.43101,0.988593,0.961473,-0.178882,0.0735245,0.195359,-0.82873,-0.322641,-0.0456753,-0.772382,-0.268023,-0.0720318,-0.350495,-0.303874,1.02964,-2.28839,0.481996,-0.836122,-2.28839,0.435246,-0.836122,-0.867004,-0.347336,-0.583209,0.760864,-0.526217,0.482052,0.171743,1
0.975493,-0.560707,-1.91126,-0.913156,2.27824,1.55355,-1.65052,0.975493,-0.560707,-1.91126,-0.913156,2.27824,1.55355,-1.65052,1.06307,-0.53007,-1.85316,-0.984984,2.32624,1.5101,-1.66813,-0.816335,-0.444089,-1.07489,1.06302,-1.27502,0.729056,-0.778214,-0.816335,-0.444089,-1.07489,1.06302,-1.27502,0.729056,-0.778214,0.102643,-0.434037,0.987647,0.963276,-0.184221,0.0780672,0.179073,-0.836616,-0.349401,-0.0755724,-0.775468,-0.304921,-0.099696,-0.373624,-0.299684,1.01835,-2.31292,0.418979,-1.12878,-2.31292,0.43806,-1.12878,-0.875717,-0.306368,-0.581074,0.718277,-0.480069,0.434553,0.176079,1
0.967371,-0.563495,-1.92168,-0.902223,2.26326,1.56323,-1.66267,0.967371,-0.563495,-1.92168,-0.902223,2.26326,1.56323,-1.66267,1.05512,-0.534536,-1.86276,-0.974218,2.31466,1.51686,-1.67372,-0.782276,-0.445491,-0.921422,1.05649,-1.1226,0.666416,-0.475751,-0.782276,-0.445491,-0.921422,1.05649,-1.1226,0.666416,-0.475751,0.094907,-0.436873,0.986902,0.964589,-0.189058,0.0820695,0.164593,-0.81528,-0.310981,-0.052224,-0.762254,-0.271561,-0.0746688,-0.397707,-0.294905,1.0081,-2.40827,0.477889,-1.02583,-2.40827,0.444752,-1.02583,-0.877472,-0.289582,-0.589131,0.719948,-0.51397,0.46369,0.11057,1
0.959668,-0.581376,-1.93319,-0.894739,2.24357,1.56652,-1.68408,0.959668,-0.581376,-1.93319,-0.894739,2.24357,1.56652,-1.68408,1.04718,-0.539353,-1.87166,-0.963863,2.30441,1.52404,-1.67493,-0.811352,-0.495896,-0.894812,1.05687,-0.994965,0.742849,0.00879663,-0.811352,-0.495896,-0.894812,1.05687,-0.994965,0.742849,0.00879663,0.0870266,-0.439669,0.98601,0.965326,-0.193511,0.0857263,0.152809,-0.860026,-0.316664,-0.0699513,-0.812883,-0.279639,-0.0917186,-0.420908,-0.290844,0.996143,-2.32013,0.406101,-1.19536,-2.32013,0.445798,-1.19536,-0.875119,-0.420231,-0.615266,0.691237,-0.608441,0.424793,-0.0914496,1
0.9521,-0.605645,-1.94631,-0.88975,2.22975,1.57209,-1.6999,0.9521,-0.605645,-1.94631,-0.88975,2.22975,1.57209,-1.6999,1.03892,-0.54429,-1.88031,-0.952874,2.29509,1.53245,-1.67188,-0.817201,-0.487267,-0.843842,1.08877,-0.918973,0.879101,0.381971,-0.817201,-0.487267,-0.843842,1.08877,-0.918973,0.879101,0.381971,0.0785843,-0.442168,0.985206,0.96553,-0.198359,0.0891994,0.142999,-0.879005,-0.271032,-0.0584344,-0.837058,-0.229385,-0.0825795,-0.445247,-0.286943,0.983747,-2.43387,0.390133,-1.23956,-2.43387,0.437958,-1.23956,-0.868229,-0.613541,-0.659963,0.631239,-0.653396,0.39647,-0.280163,1
0.944565,-0.619341,-1.95436,-0.885033,2.22146,1.57654,-1.70262,0.944565,-0.619341,-1.95436,-0.885033,2.22146,1.57654,-1.70262,1.0308,-0.548864,-1.88891,-0.941502,2.28629,1.54156,-1.66759,-0.827711,-0.450043,-0.889216,1.16769,-0.871361,0.916744,0.400906,-0.827711,-0.450043,-0.889216,1.16769,-0.871361,0.916744,0.400906,0.0701053,-0.444174,0.98456,0.965417,-0.203615,0.0926853,0.13387,-0.907161,-0.236322,-0.0347293,-0.863675,-0.192691,-0.0610074,-0.468331,-0.282641,0.96942,-2.30843,0.430167,-1.43273,-2.30843,0.431643,-1.43273,-0.86231,-0.704774,-0.654456,0.564691,-0.648313,0.349813,-0.350263,1
0.935661,-0.623007,-1.96166,-0.868112,2.2143,1.58731,-1.70025,0.935661,-0.623007,-1.96166,-0.868112,2.2143,1.58731,-1.70025,1.02214,-0.553349,-1.8986,-0.929864,2.27735,1.55065,-1.66551,-0.864312,-0.447238,-0.97753,1.14565,-0.916365,0.903561,0.126724,-0.864312,-0.447238,-0.97753,1.14565,-0.916365,0.903561,0.126724,0.0613022,-0.446223,0.983789,0.965387,-0.208768,0.0965713,0.122958,-0.921621,-0.239649,-0.059727,-0.869036,-0.199749,-0.0867189,-0.491086,-0.277709,0.953754,-2.27547,0.493199,-1.56658,-2.27547,0.430508,-1.56658,-0.864761,-0.696582,-0.630581,0.617521,-0.630524,0.3666,-0.347349,1
0.927092,-0.625441,-1.96976,-0.849389,2.20749,1.60008,-1.69451,0.927092,-0.625441,-1.96976,-0.849389,2.20749,1.60008,-1.69451,1.01394,-0.557804,-1.9084,-0.918356,2.26702,1.55916,-1.66694,-0.815067,-0.453962,-0.998179,1.14879,-1.07627,0.833092,-0.228713,-0.815067,-0.453962,-0.998179,1.14879,-1.07627,0.833092,-0.228713,0.0530358,-0.448133,0.982886,0.965338,-0.213832,0.101015,0.110428,-0.881288,-0.22996,-0.0719306,-0.818463,-0.193185,-0.100404,-0.514003,-0.273889,0.936611,-2.29164,0.382012,-1.71425,-2.29164,0.4285,-1.71425,-0.868462,-0.676364,-0.613637,0.689664,-0.595282,0.409239,-0.275677,1
0.918166,-0.628586,-1.97909,-0.834703,2.19984,1.61194,-1.67355,0.918166,-0.628586,-1.97909,-0.834703,2.19984,1.61194,-1.67355,1.0054,-0.56308,-1.9194,-0.907571,2.255,1.56674,-1.67193,-0.863257,-0.545188,-1.11783,1.06439,-1.23433,0.734975,-0.585468,-0.863257,-0.545188,-1.11783,1.06439,-1.23433,0.734975,-0.585468,0.0447944,-0.450794,0.981235,0.965432,-0.217884,0.106391,0.095643,-0.902213,-0.30147,-0.154621,-0.824539,-0.277409,-0.181062,-0.559145,-0.265506,0.903963,-2.28221,0.375968,-1.64317,-2.28221,0.429003,-1.64317,-0.87238,-0.655065,-0.596955,0.728677,-0.55169,0.451978,-0.0161388,1
0.909948,-0.636485,-1.99063,-0.831451,2.19464,1.61233,-1.6614,0.909948,-0.636485,-1.99063,-0.831451,2.19464,1.61233,-1.6614,0.996946,-0.568404,-1.93029,-0.897099,2.24215,1.57347,-1.67941,-0.839,-0.532712,-1.08018,1.02701,-1.29393,0.650939,-0.77752,-0.839,-0.532712,-1.08018,1.02701,-1.29393,0.650939,-0.77752,0.0368726,-0.453464,0.979449,0.965397,-0.221531,0.112126,0.0797556,-0.861589,-0.283174,-0.158287,-0.779311,-0.264625,-0.184716,-0.580352,-0.258642,0.88331,-2.12069,0.686339,-2.06528,-2.12069,0.455766,-2.06528,-0.869986,-0.680809,-0.60331,0.65648,-0.475077,0.388587,0.180097,1
0.900648,-0.641401,-1.99965,-0.827473,2.18508,1.61798,-1.6773,0.900648,-0.641401,-1.99965,-0.827473,2.18508,1.61798,-1.6773,0.988333,-0.574285,-1.94117,-0.887353,2.22951,1.5801,-1.68668,-0.873672,-0.602821,-1.08696,0.98212,-1.24578,0.674333,-0.686449,-0.873672,-0.602821,-1.08696,0.98212,-1.24578,0.674333,-0.686449,0.0288731,-0.456438,0.977226,0.965178,-0.224526,0.117876,0.0642234,-0.897075,-0.308997,-0.203796,-0.815714,-0.296949,-0.228551,-0.580352,-0.258642,0.88331,-2.12069,0.686339,-2.06528,-2.12069,0.455766,-2.06528,-0.876848,-0.67116,-0.584735,0.598805,-0.444317,0.378769,0.0938296,1
0.892054,-0.647873,-2.01479,-0.820333,2.15991,1.63243,-1.71038,0.892054,-0.647873,-2.01479,-0.820333,2.15991,1.63243,-1.71038,0.979527,-0.580246,-1.95153,-0.877097,2.21798,1.58744,-1.69101,-0.874762,-0.597153,-1.01316,1.01792,-1.12373,0.763738,-0.322815,-0.874762,-0.597153,-1.01316,1.01792,-1.12373,0.763738,-0.322815,0.0204659,-0.45907,0.975136,0.964583,-0.227715,0.123289,0.0502565,-0.913523,-0.263889,-0.185678,-0.839673,-0.249376,-0.211582,-0.628137,-0.251566,0.844124,-2.52098,0.361413,-2.07896,-2.52098,0.451677,-2.07896,-0.87473,-0.676274,-0.632629,0.56764,-0.58069,0.449975,-0.193719,1
0.884369,-0.662876,-2.02655,-0.822492,2.14829,1.6375,-1.72225,0.884369,-0.662876,-2.02655,-0.822492,2.14829,1.6375,-1.72225,0.971061,-0.58674,-1.9613,-0.866807,2.20775,1.5958,-1.69074,-0.844417,-0.665141,-0.973395,1.04546,-0.989691,0.856246,0.136048,-0.844417,-0.665141,-0.973395,1.04546,-0.989691,0.856246,0.136048,0.0118304,-0.461585,0.972883,0.963704,-0.230834,0.128294,0.0391282,-0.942127,-0.261506,-0.204129,-0.877243,-0.246906,-0.229131,-0.628137,-0.251566,0.844124,-2.52098,0.361413,-2.07896,-2.52098,0.451677,-2.07896,-0.866924,-0.761364,-0.652483,0.443146,-0.594629,0.41701,-0.315105,1
0.877328,-0.676002,-2.02635,-0.828679,2.15897,1.61397,-1.72079,0.877328,-0.676002,-2.02635,-0.828679,2.15897,1.61397,-1.72079,0.962525,-0.593947,-1.97115,-0.855965,2.19896,1.6041,-1.68745,-0.850314,-0.736533,-0.982263,1.06767,-0.848044,0.817968,0.356683,-0.850314,-0.736533,-0.982263,1.06767,-0.848044,0.817968,0.356683,0.00254507,-0.464289,0.970512,0.962809,-0.233395,0.1329,0.0293981,-0.991078,-0.282885,-0.226803,-0.931532,-0.274773,-0.247991,-0.640162,-0.242945,0.826214,-1.2025,0.862053,-1.7911,-1.2025,0.49484,-1.7911,-0.851975,-0.820553,-0.551983,0.272859,-0.39993,0.0986735,-0.333385,1
0.868834,-0.682676,-2.03763,-0.829592,2.14565,1.63714,-1.72489,0.868834,-0.682676,-2.03763,-0.829592,2.14565,1.63714,-1.72489,0.954519,-0.60117,-1.98048,-0.845336,2.19098,1.61189,-1.68541,-0.788713,-0.713103,-0.919405,1.07211,-0.79489,0.768184,0.126593,-0.788713,-0.713103,-0.919405,1.07211,-0.79489,0.768184,0.126593,-0.00648378,-0.46686,0.968168,0.961925,-0.235692,0.136976,0.0196549,-0.950263,-0.24902,-0.208155,-0.894049,-0.242074,-0.228686,-0.691531,-0.237448,0.777556,-1.63534,0.709979,-2.18326,-1.63534,0.444985,-2.18326,-0.856855,-0.81506,-0.571486,0.15744,-0.453276,0.252526,-0.394877,1
0.86472,-0.684035,-1.96022,-0.785187,2.21679,1.56383,-1.67688,0.86472,-0.684035,-1.96022,-0.785187,2.21679,1.56383,-1.67688,0.946147,-0.608665,-1.99043,-0.835117,2.18217,1.61974,-1.68724,-0.85726,-0.773288,-1.02466,0.984494,-0.92148,0.790366,-0.287843,-0.85726,-0.773288,-1.02466,0.984494,-0.92148,0.790366,-0.287843,-0.0155811,-0.469581,0.965402,0.960934,-0.237835,0.141349,0.00781388,-0.980688,-0.285743,-0.2856,-0.91357,-0.286915,-0.306199,-0.691531,-0.237448,0.777556,0,0,0,0,0.378799,0,-0.81427,-0.753694,0.302085,0.499302,0.346189,-0.559127,0.103641,1
0.855928,-0.678469,-1.97824,-0.777711,2.1657,1.58664,-1.64756,0.855928,-0.678469,-1.97824,-0.777711,2.1657,1.58664,-1.64756,0.937761,-0.616544,-2.00064,-0.826318,2.17187,1.6269,-1.69313,-0.820829,-0.775446,-1.00892,0.838493,-1.0553,0.650681,-0.671137,-0.820829,-0.775446,-1.00892,0.838493,-1.0553,0.650681,-0.671137,-0.0242045,-0.472727,0.961973,0.959863,-0.239236,0.146277,-0.00567071,-0.905732,-0.304717,-0.32867,-0.831581,-0.316518,-0.347209,-0.691531,-0.237448,0.777556,0,0,0,0,0.310456,0,-0.818331,-0.619254,0.224018,0.486074,-0.0616447,-0.402642,0.455729,1
0.848484,-0.692328,-1.98925,-0.796752,2.20371,1.56846,-1.68205,0.848484,-0.692328,-1.98925,-0.796752,2.20371,1.56846,-1.68205,0.929401,-0.624278,-2.01072,-0.820168,2.16212,1.63059,-1.70102,-0.863731,-0.786363,-1.02176,0.539601,-0.931067,0.305878,-0.811685,-0.863731,-0.786363,-1.02176,0.539601,-0.931067,0.305878,-0.811685,-0.0320785,-0.476632,0.958146,0.959163,-0.238219,0.15128,-0.0192899,-0.867966,-0.378319,-0.399373,-0.794779,-0.415008,-0.405748,-0.691531,-0.237448,0.777556,0,0,0,0,0.215882,0,-0.809169,-0.680498,0.214721,0.234163,0.415884,-0.621289,0.189674,1
0.838361,-0.701982,-2.00597,-0.775179,2.1598,1.58275,-1.67113,0.838361,-0.701982,-2.00597,-0.775179,2.1598,1.58275,-1.67113,0.919958,-0.631986,-2.0199,-0.815893,2.15487,1.63332,-1.70797,-0.956044,-0.748745,-0.830692,0.425382,-0.616819,0.247528,-0.593937,-0.956044,-0.748745,-0.830692,0.425382,-0.616819,0.247528,-0.593937,-0.0403208,-0.480655,0.95413,0.958728,-0.235999,0.155342,-0.0318537,-0.887859,-0.332902,-0.374255,-0.832188,-0.371713,-0.374542,-0.691531,-0.237448,0.777556,0,0,0,0,0.10961,0,-0.815968,-0.699959,0.13931,0.407142,0.0493799,-0.505632,0.368395,1
0.829699,-0.711137,-2.09777,-0.887094,2.08893,1.68251,-1.73779,0.829699,-0.711137,-2.09777,-0.887094,2.08893,1.68251,-1.73779,0.909924,-0.639252,-2.02434,-0.811485,2.15472,1.63176,-1.70862,-1.02867,-0.752221,-0.314423,0.451411,0.204839,-0.318593,0.125664,-1.02867,-0.752221,-0.314423,0.451411,0.204839,-0.318593,0.125664,-0.0493475,-0.484026,0.951732,0.959322,-0.23214,0.155576,-0.0401057,-0.955136,-0.289715,-0.228523,-0.949182,-0.33913,-0.205408,-0.805769,-0.216883,0.64536,-11.4239,2.05654,-13.2196,-11.4239,0.296413,-13.2196,-0.802247,-0.718855,-0.734303,-0.756096,-0.657901,0.507415,-0.291703,1
0.815994,-0.722914,-2.08658,-0.873944,2.10316,1.65777,-1.74837,0.815994,-0.722914,-2.08658,-0.873944,2.10316,1.65777,-1.74837,0.899138,-0.648345,-2.02305,-0.805918,2.16043,1.62365,-1.70212,-1.0747,-0.958632,0.279346,0.580035,0.615496,-0.974559,0.791899,-1.0747,-0.958632,0.279346,0.580035,0.615496,-0.974559,0.791899,-0.0600295,-0.48781,0.950512,0.961407,-0.225289,0.151635,-0.044149,-1.05063,-0.322308,-0.148137,-1.08547,-0.386782,-0.103659,-0.832379,-0.213275,0.614404,-2.66099,0.360763,-3.09556,-2.66099,0.405892,-3.09556,-0.831437,-0.745683,-0.635276,-0.680257,-0.572709,0.341216,-0.462428,1
0.807956,-0.734205,-2.07544,-0.858297,2.11235,1.59079,-1.70473,0.807956,-0.734205,-2.07544,-0.858297,2.11235,1.59079,-1.70473,0.889384,-0.659202,-2.01656,-0.80009,2.16634,1.61152,-1.69413,-0.950735,-1.11627,0.734341,0.59444,0.599792,-1.24771,0.76611,-0.950735,-1.11627,0.734341,0.59444,0.599792,-1.24771,0.76611,-0.0705087,-0.491969,0.949619,0.964152,-0.217146,0.145457,-0.0458286,-0.993492,-0.346604,-0.140027,-1.05041,-0.412974,-0.0890592,-0.848762,-0.20652,0.587304,-1.63834,0.675571,-2.71,-1.63834,0.577492,-2.71,-0.81428,-0.750027,-0.58884,-0.582061,-0.539915,-0.207312,-0.10596,1
0.796604,-0.745439,-2.08113,-0.866124,2.10695,1.64969,-1.71212,0.796604,-0.745439,-2.08113,-0.866124,2.10695,1.64969,-1.71212,0.879848,-0.671017,-2.00959,-0.794457,2.17192,1.60187,-1.68731,-0.947631,-1.19456,0.6511,0.516628,0.488811,-0.810163,0.622734,-0.947631,-1.19456,0.6511,0.516628,0.488811,-0.810163,0.622734,-0.0812823,-0.49601,0.948035,0.966639,-0.210058,0.138648,-0.0475438,-1.01493,-0.341859,-0.245673,-1.06974,-0.395787,-0.203333,-0.89208,-0.210405,0.552023,-4.33178,-0.388503,-3.52813,-4.33178,0.597006,-3.52813,-0.832444,-0.744227,-0.71543,-0.716671,-0.649703,0.478186,-0.248167,1
0.7888,-0.755545,-2.03124,-0.757535,2.1857,1.55199,-1.64281,0.7888,-0.755545,-2.03124,-0.757535,2.1857,1.55199,-1.64281,0.871007,-0.681637,-2.00626,-0.791036,2.17034,1.60096,-1.68678,-0.867878,-1.00609,0.198454,0.279238,-0.408145,0.140404,-0.173887,-0.867878,-1.00609,0.198454,0.279238,-0.408145,0.140404,-0.173887,-0.0900801,-0.49913,0.944784,0.967484,-0.206822,0.135945,-0.0521336,-0.811119,-0.255724,-0.380059,-0.811119,-0.281508,-0.368716,-0.89208,-0.210405,0.552023,0,0,0,0,0.519935,0,-0.822061,-0.739084,-0.249771,0.335015,0.153565,-0.489719,0.439653,1
0.777888,-0.757408,-2.03985,-0.735914,2.1439,1.61502,-1.63971,0.777888,-0.757408,-2.03985,-0.735914,2.1439,1.61502,-1.63971,0.862196,-0.690702,-2.00965,-0.79218,2.15884,1.6088,-1.69471,-0.893823,-0.866715,-0.528876,-0.275056,-1.37907,0.942226,-0.95747,-0.893823,-0.866715,-0.528876,-0.275056,-1.37907,0.942226,-0.95747,-0.0962528,-0.50214,0.938845,0.966517,-0.206175,0.139962,-0.0612151,-0.620744,-0.292369,-0.660207,-0.551614,-0.316117,-0.673213,-0.89208,-0.210405,0.552023,0,0,0,0,0.34628,0,-0.843082,-0.667051,-0.301955,0.562662,-0.149399,0.0622063,0.550014,1
0.773222,-0.772684,-2.03757,-0.763522,2.17949,1.56614,-1.66311,0.773222,-0.772684,-2.03757,-0.763522,2.17949,1.56614,-1.66311,0.853009,-0.697168,-2.01895,-0.799237,2.14177,1.61648,-1.70366,-0.935036,-0.569801,-1.04797,-0.841154,-1.7506,0.657619,-0.798718,-0.935036,-0.569801,-1.04797,-0.841154,-1.7506,0.657619,-0.798718,-0.0998427,-0.506039,0.931222,0.965,-0.203265,0.149824,-0.0707903,-0.423691,-0.354564,-0.768504,-0.313238,-0.412932,-0.783929,-0.89208,-0.210405,0.552023,0,0,0,0,0.0760402,0,-0.797867,-0.755166,-0.186194,0.357152,0.37714,-0.50346,0.405434,1
0.758421,-0.780021,-2.07279,-0.761161,2.12132,1.63233,-1.66382,0.758421,-0.780021,-2.07279,-0.761161,2.12132,1.63233,-1.66382,0.842212,-0.701709,-2.03266,-0.810562,2.12718,1.62011,-1.70798,-1.13347,-0.4299,-1.45968,-1.19311,-1.27943,0.316963,-0.279226,-1.13347,-0.4299,-1.45968,-1.19311,-1.27943,0.316963,-0.279226,-0.103424,-0.510973,0.922867,0.964004,-0.196047,0.161517,-0.0785813,-0.518999,-0.409309,-0.846317,-0.411062,-0.502092,-0.851165,-0.89208,-0.210405,0.552023,0,0,0,0,0.00300705,0,-0.837912,-0.783121,-0.401242,0.494016,-0.0585721,0.122137,0.441527,1
0.745576,-0.782027,-2.04792,-0.767522,2.13855,1.62888,-1.71389,0.745576,-0.782027,-2.04792,-0.767522,2.13855,1.62888,-1.71389,0.830733,-0.705217,-2.04691,-0.822795,2.12258,1.62073,-1.70456,-1.13423,-0.334484,-1.37314,-1.19578,-0.183863,-0.0543113,0.556475,-1.13423,-0.334484,-1.37314,-1.19578,-0.183863,-0.0543113,0.556475,-0.108612,-0.51584,0.915252,0.964236,-0.186275,0.169627,-0.0823268,-0.618901,-0.373124,-0.735905,-0.561105,-0.474114,-0.721269,-0.89208,-0.210405,0.552023,0,0,0,0,-0.0416253,0,-0.851577,-0.768101,-0.0101135,0.552726,0.159733,0.0814581,-0.0932805,1
0.735028,-0.777091,-2.03239,-0.758254,2.09671,1.66208,-1.71733,0.735028,-0.777091,-2.03239,-0.758254,2.09671,1.66208,-1.71733,0.819696,-0.709868,-2.05795,-0.832836,2.12699,1.61709,-1.69353,-1.07295,-0.540658,-0.975648,-0.910824,0.604269,-0.43209,1.24073,-1.07295,-0.540658,-0.975648,-0.910824,0.604269,-0.43209,1.24073,-0.115786,-0.520692,0.908931,0.965964,-0.174628,0.172347,-0.0819493,-0.77386,-0.380829,-0.644739,-0.770914,-0.482276,-0.610298,-0.89208,-0.210405,0.552023,0,0,0,0,0,0,-0.84668,-0.672224,0.255628,0.74582,-0.302736,0.449875,-0.237958,1
0.723424,-0.784271,-2.07201,-0.765663,2.1207,1.66462,-1.68357,0.723424,-0.784271,-2.07201,-0.765663,2.1207,1.66462,-1.68357,0.810158,-0.716927,-2.06277,-0.83764,2.1355,1.6105,-1.68121,-0.930418,-0.7649,-0.324805,-0.329131,0.883192,-0.692789,1.17796,-0.930418,-0.7649,-0.324805,-0.329131,0.883192,-0.692789,1.17796,-0.12435,-0.525018,0.904349,0.968415,-0.163924,0.169821,-0.080387,-0.853785,-0.322928,-0.459193,-0.892043,-0.405281,-0.417002,-0.89208,-0.210405,0.552023,0,0,0,0,0,0,-0.867334,-0.673441,-0.0923657,0.719771,-0.147996,0.541206,-0.0236673,1
0.71575,-0.803275,-2.08029,-0.762617,2.12488,1.65026,-1.65882,0.71575,-0.803275,-2.08029,-0.762617,2.12488,1.65026,-1.65882,0.80133,-0.727026,-2.06232,-0.836554,2.14095,1.60666,-1.67308,-0.868267,-1.07144,0.125226,0.253736,0.377906,-0.253437,0.642167,-0.868267,-1.07144,0.125226,0.253736,0.377906,-0.253437,0.642167,-0.134013,-0.528236,0.900505,0.970256,-0.157262,0.165259,-0.0810083,-0.942122,-0.238752,-0.408717,-0.98183,-0.284103,-0.379282,-0.89208,-0.210405,0.552023,0,0,0,0,0,0,-0.855803,-0.762488,-0.179699,0.739376,-0.160739,0.436003,0.142616,1
0.710465,-0.820706,-2.08224,-0.769591,2.12665,1.6301,-1.65844,0.710465,-0.820706,-2.08224,-0.769591,2.12665,1.6301,-1.65844,0.793648,-0.738866,-2.06098,-0.829073,2.14047,1.60814,-1.67271,-0.725555,-1.20136,0.117628,0.918769,-0.178061,0.275848,-0.159993,-0.725555,-1.20136,0.117628,0.918769,-0.178061,0.275848,-0.159993,-0.144213,-0.530112,0.897069,0.970623,-0.155709,0.161629,-0.0867314,-1.00667,-0.135831,-0.337055,-1.02627,-0.146403,-0.326405,-0.89208,-0.210405,0.552023,0,0,0,0,0,0,-0.831833,-0.818401,-0.212572,0.594817,-0.138209,0.219557,0.142749,1
0.705911,-0.831495,-2.08175,-0.758159,2.11466,1.62704,-1.6651,0.705911,-0.831495,-2.08175,-0.758159,2.11466,1.62704,-1.6651,0.787951,-0.750978,-2.06053,-0.815791,2.13457,1.61504,-1.67823,-0.514328,-1.22398,0.025551,1.36688,-0.714546,0.808764,-0.617586,-0.514328,-1.22398,0.025551,1.36688,-0.714546,0.808764,-0.617586,-0.154057,-0.530558,0.894248,0.969445,-0.158997,0.159925,-0.0965421,-0.955746,-0.0509911,-0.292156,-0.949949,-0.0313814,-0.300411,-0.89208,-0.210405,0.552023,0,0,0,0,0,0,-0.820405,-0.805167,-0.212242,0.576312,-0.199109,0.119944,0.131241,1
0.702504,-0.844743,-2.07965,-0.743717,2.12697,1.64478,-1.68217,0.702504,-0.844743,-2.07965,-0.743717,2.12697,1.64478,-1.68217,0.783988,-0.762824,-2.06154,-0.801569,2.12709,1.62515,-1.6823,-0.374456,-1.16345,-0.149974,1.44527,-0.698305,1.02431,-0.29434,-0.374456,-1.16345,-0.149974,1.44527,-0.698305,1.02431,-0.29434,-0.162971,-0.530626,0.891164,0.967784,-0.163808,0.159544,-0.105386,-0.900672,-0.0256947,-0.291385,-0.888283,0.00264456,-0.305106,-0.89208,-0.210405,0.552023,0,0,0,0,0,0,-0.814839,-0.819183,-0.181055,0.578526,-0.0012122,0.19624,0.0012624,1
0.700423,-0.856984,-2.05869,-0.730994,2.1136,1.65629,-1.69024,0.700423,-0.856984,-2.05869,-0.730994,2.1136,1.65629,-1.69024,0.780568,-0.77398,-2.06442,-0.790279,2.12235,1.63379,-1.68145,-0.340648,-1.09456,-0.327333,1.01629,-0.405614,0.770329,0.196546,-0.340648,-1.09456,-0.327333,1.01629,-0.405614,0.770329,0.196546,-0.171261,-0.531423,0.887414,0.96678,-0.166295,0.159235,-0.111026,-0.81301,-0.113644,-0.393497,-0.807438,-0.107958,-0.397467,-0.89208,-0.210405,0.552023,0,0,0,0,0,0,-0.801448,-0.83004,0.057338,0.592853,-0.0875725,0.225005,-0.0878734,1
0.693473,-0.865592,-2.07651,-0.718575,2.11176,1.6655,-1.68649,0.693473,-0.865592,-2.07651,-0.718575,2.11176,1.6655,-1.68649,0.775476,-0.783254,-2.06873,-0.78096,2.11985,1.63833,-1.67769,-0.585899,-0.884793,-0.468918,0.898995,-0.219787,0.347491,0.4025,-0.585899,-0.884793,-0.468918,0.898995,-0.219787,0.347491,0.4025,-0.179763,-0.532299,0.884087,0.966204,-0.166093,0.159411,-0.11598,-0.885536,-0.0635375,-0.323821,-0.875534,-0.0803618,-0.322354,-0.89208,-0.210405,0.552023,0,0,0,0,0,0,-0.820021,-0.823384,-0.0778586,0.623856,-0.0808461,0.271695,-0.08793,1
0.685091,-0.873168,-2.07749,-0.709572,2.10741,1.66657,-1.67115,0.685091,-0.873168,-2.07749,-0.709572,2.10741,1.66657,-1.67115,0.767883,-0.791782,-2.07355,-0.773403,2.11803,1.64004,-1.6744,-0.798864,-0.839468,-0.466102,0.732302,-0.141993,0.146283,0.267375,-0.798864,-0.839468,-0.466102,0.732302,-0.141993,0.146283,0.267375,-0.189074,-0.533164,0.880719,0.965746,-0.163904,0.159914,-0.122055,-0.955193,-0.0405383,-0.338493,-0.94604,-0.0715798,-0.332436,-0.89208,-0.210405,0.552023,0,0,0,0,0,0,-0.827924,-0.813859,-0.0393874,0.638308,-0.106126,0.26534,0.0324672,1
0.677747,-0.880134,-2.07998,-0.707681,2.10627,1.64156,-1.65831,0.677747,-0.880134,-2.07998,-0.707681,2.10627,1.64156,-1.65831,0.759637,-0.799916,-2.07677,-0.766231,2.11771,1.6419,-1.674,-0.820364,-0.81623,-0.255917,0.70602,-0.0241608,0.196115,-0.0295418,-0.820364,-0.81623,-0.255917,0.70602,-0.0241608,0.196115,-0.0295418,-0.198548,-0.53338,0.877756,0.965193,-0.162444,0.15913,-0.1292,-0.935666,0.0142584,-0.298022,-0.936838,-0.00695746,-0.291119,-0.89208,-0.210405,0.552023,0,0,0,0,0,0,-0.818902,-0.802178,-0.0320437,0.585502,-0.11447,-0.00336639,0.156884,1
0.667888,-0.890219,-2.07768,-0.707821,2.1144,1.65587,-1.6523,0.667888,-0.890219,-2.07768,-0.707821,2.1144,1.65587,-1.6523,0.750876,-0.809079,-2.07751,-0.759516,2.11649,1.64485,-1.67551,-0.906294,-0.955526,-0.0256828,0.685706,-0.148646,0.339725,-0.175597,-0.906294,-0.955526,-0.0256828,0.685706,-0.148646,0.339725,-0.175597,-0.208154,-0.533319,0.874437,0.964532,-0.161747,0.1576,-0.136665,-0.979495,0.035734,-0.352636,-0.984538,0.0213896,-0.346384,-0.89208,-0.210405,0.552023,0,0,0,0,0,0,-0.829876,-0.811396,-0.00173919,0.516946,-0.0208992,0.110292,0.232139,1
0.658934,-0.899777,-2.07366,-0.700135,2.10758,1.65878,-1.65541,0.658934,-0.899777,-2.07366,-0.700135,2.10758,1.65878,-1.65541,0.741317,-0.818817,-2.07747,-0.751621,2.1144,1.64926,-1.67687,-0.958198,-0.963879,0.00113855,0.838952,-0.224369,0.479417,-0.095229,-0.958198,-0.963879,0.00113855,0.838952,-0.224369,0.479417,-0.095229,-0.218414,-0.532594,0.871083,0.963561,-0.162033,0.156165,-0.144594,-1.03039,0.105902,-0.325937,-1.03061,0.0999581,-0.324087,-0.89208,-0.210405,0.552023,0,0,0,0,0,0,-0.823823,-0.809607,0.0381168,0.51486,-0.068255,0.0951868,0.214515,1
0.649434,-0.909865,-2.07492,-0.687675,2.12422,1.66099,-1.66332,0.649434,-0.909865,-2.07492,-0.687675,2.12422,1.66099,-1.66332,0.7318,-0.828415,-2.07787,-0.741955,2.11192,1.65387,-1.67634,-0.958908,-0.961964,-0.0728265,0.991157,-0.257549,0.407634,0.0982804,-0.958908,-0.961964,-0.0728265,0.991157,-0.257549,0.407634,0.0982804,-0.228952,-0.531346,0.868083,0.962389,-0.162734,0.155263,-0.152378,-1.06988,0.135047,-0.302401,-1.06551,0.126203,-0.30148,-0.89208,-0.210405,0.552023,0,0,0,0,0,0,-0.823658,-0.814492,0.029477,0.542797,0.123039,0.0711441,0.130237,1
0.640771,-0.918037,-2.05398,-0.675208,2.12445,1.63982,-1.65915,0.640771,-0.918037,-2.05398,-0.675208,2.12445,1.63982,-1.65915,0.722671,-0.837937,-2.07904,-0.73197,2.10974,1.65558,-1.6738,-0.876243,-0.935851,-0.101588,0.994656,-0.182309,0.116244,0.312398,-0.876243,-0.935851,-0.101588,0.994656,-0.182309,0.116244,0.312398,-0.239495,-0.530474,0.865183,0.961491,-0.1618,0.154592,-0.159553,-1.03211,0.106768,-0.283729,-1.03226,0.0871408,-0.277963,-0.89208,-0.210405,0.552023,0,0,0,0,0,0,-0.819002,-0.800996,0.2506,0.567622,0.147106,-0.157635,0.146491,1
0.632744,-0.927095,-2.04429,-0.671219,2.13452,1.63491,-1.66994,0.632744,-0.927095,-2.04429,-0.671219,2.13452,1.63491,-1.66994,0.714807,-0.84722,-2.07941,-0.722738,2.10863,1.65666,-1.66938,-0.775829,-0.940488,-0.0245312,0.890527,-0.105229,0.109941,0.469615,-0.775829,-0.940488,-0.0245312,0.890527,-0.105229,0.109941,0.469615,-0.249198,-0.529762,0.862384,0.96102,-0.160611,0.153271,-0.164778,-0.95342,0.0843693,-0.303023,-0.961203,0.0673302,-0.295142,-0.89208,-0.210405,0.552023,0,0,0,0,0,0,-0.820638,-0.798752,0.351215,0.515189,0.258882,-0.217459,-0.00564899,1
0.624629,-0.93593,-2.04378,-0.667209,2.13691,1.62559,-1.66152,0.624629,-0.93593,-2.04378,-0.667209,2.13691,1.62559,-1.66152,0.706837,-0.856946,-2.07937,-0.714562,2.10826,1.65757,-1.6652,-0.806472,-0.964576,0.0158428,0.808701,0.0117155,0.0891965,0.372365,-0.806472,-0.964576,0.0158428,0.808701,0.0117155,0.0891965,0.372365,-0.258969,-0.529183,0.85914,0.960742,-0.159008,0.151321,-0.169686,-0.967779,0.0899958,-0.331863,-0.982947,0.0722453,-0.321084,-0.89208,-0.210405,0.552023,0,0,0,0,0,0,-0.822079,-0.789839,0.355948,0.473527,0.286452,-0.319808,0.0368063,1
0.616607,-0.943597,-2.03347,-0.660302,2.14508,1.61955,-1.66407,0.616607,-0.943597,-2.03347,-0.660302,2.14508,1.61955,-1.66407,0.698625,-0.866352,-2.0783,-0.706547,2.11027,1.65798,-1.66257,-0.826317,-0.938343,0.150998,0.799845,0.25893,0.00123433,0.239188,-0.826317,-0.938343,0.150998,0.799845,0.25893,0.00123433,0.239188,-0.268992,-0.528142,0.856285,0.960513,-0.157748,0.147841,-0.175138,-0.980579,0.128689,-0.290049,-1.00997,0.115869,-0.275495,-0.89208,-0.210405,0.552023,0,0,0,0,0,0,-0.82018,-0.772453,0.448256,0.462449,0.348137,-0.384357,-0.0150262,1
0.608926,-0.950785,-2.03123,-0.652202,2.14228,1.60909,-1.65479,0.608926,-0.950785,-2.03123,-0.652202,2.14228,1.60909,-1.65479,0.689869,-0.875938,-2.0755,-0.698622,2.11382,1.65628,-1.66128,-0.887891,-0.968183,0.331356,0.796981,0.384924,-0.227815,0.0767093,-0.887891,-0.968183,0.331356,0.796981,0.384924,-0.227815,0.0767093,-0.279518,-0.526908,0.853731,0.96043,-0.156017,0.142808,-0.181215,-1.02389,0.148053,-0.269595,-1.06655,0.132435,-0.249839,-0.89208,-0.210405,0.552023,0,0,0,0,0,0,-0.809429,-0.748466,0.442743,0.464205,0.284521,-0.471838,0.0648969,1
0.600833,-0.961278,-2.02711,-0.67437,2.15471,1.59956,-1.66045,0.600833,-0.961278,-2.02711,-0.67437,2.15471,1.59956,-1.66045,0.681148,-0.886048,-2.07025,-0.690839,2.11858,1.65274,-1.66136,-0.86318,-1.0267,0.58411,0.767296,0.504956,-0.40145,-0.00357121,-0.86318,-1.0267,0.58411,0.767296,0.504956,-0.40145,-0.00357121,-0.290267,-0.525629,0.851353,0.96054,-0.154058,0.135976,-0.187458,-1.01744,0.141342,-0.263926,-1.07712,0.128083,-0.239588,-0.89208,-0.210405,0.552023,0,0,0,0,0,0,-0.80315,-0.752298,0.431436,0.164691,0.361333,-0.531871,0.00914673,1
0.592589,-0.965833,-2.02125,-0.691621,2.15646,1.58781,-1.64728,0.592589,-0.965833,-2.02125,-0.691621,2.15646,1.58781,-1.64728,0.67229,-0.896409,-2.06353,-0.683053,2.12427,1.64716,-1.66145,-0.90039,-1.02901,0.692409,0.783115,0.587597,-0.606783,-0.0165378,-0.90039,-1.02901,0.692409,0.783115,0.587597,-0.606783,-0.0165378,-0.301334,-0.524298,0.849148,0.960831,-0.151513,0.127972,-0.193574,-1.04927,0.161928,-0.241058,-1.11807,0.145888,-0.214107,-0.89208,-0.210405,0.552023,0,0,0,0,0,0,-0.797006,-0.694237,0.422725,-0.0856733,0.321852,-0.593435,0.141752,1
0.581805,-0.972248,-2.01337,-0.689258,2.16926,1.58406,-1.62819,0.581805,-0.972248,-2.01337,-0.689258,2.16926,1.58406,-1.62819,0.663113,-0.906802,-2.05587,-0.675552,2.13064,1.64021,-1.66132,-0.920499,-1.03774,0.778513,0.738223,0.638332,-0.723028,0.0301516,-0.920499,-1.03774,0.778513,0.738223,0.638332,-0.723028,0.0301516,-0.312656,-0.522818,0.847006,0.96121,-0.148528,0.119231,-0.199495,-1.05754,0.17071,-0.246309,-1.13368,0.153398,-0.218183,-0.89208,-0.210405,0.552023,0,0,0,0,0,0,-0.813087,-0.654458,0.424968,-0.13705,0.386179,-0.561498,0.331306,1
0.572762,-0.981571,-2.0126,-0.701399,2.17841,1.57482,-1.61758,0.572762,-0.981571,-2.0126,-0.701399,2.17841,1.57482,-1.61758,0.654083,-0.916773,-2.04828,-0.66833,2.1366,1.63191,-1.66083,-0.888957,-0.986004,0.75119,0.70202,0.587942,-0.863815,0.0371263,-0.888957,-0.986004,0.75119,0.70202,0.587942,-0.863815,0.0371263,-0.323728,-0.521374,0.844972,0.961581,-0.144946,0.11073,-0.205161,-1.01941,0.163819,-0.234878,-1.09437,0.141117,-0.207328,-0.89208,-0.210405,0.552023,0,0,0,0,0,0,-0.813207,-0.647984,0.356817,-0.33069,0.418109,-0.570849,0.432487,1
0.565366,-0.991072,-2.00845,-0.717084,2.18546,1.56216,-1.61477,0.565366,-0.991072,-2.00845,-0.717084,2.18546,1.56216,-1.61477,0.645898,-0.926762,-2.04094,-0.664319,2.14277,1.62261,-1.66014,-0.800744,-0.995039,0.729427,0.297957,0.630471,-0.949081,0.101852,-0.800744,-0.995039,0.729427,0.297957,0.630471,-0.949081,0.101852,-0.333801,-0.520975,0.842079,0.962416,-0.13992,0.102055,-0.209194,-0.895574,0.0483334,-0.34621,-0.97899,0.0150201,-0.315552,-0.89208,-0.210405,0.552023,0,0,0,0,0,0,-0.805319,-0.6431,0.324968,-0.527652,0.42687,-0.604464,0.453656,1
0.556895,-0.991325,-1.9991,-0.714288,2.1903,1.55257,-1.61209,0.556895,-0.991325,-1.9991,-0.714288,2.1903,1.55257,-1.61209,0.637376,-0.935622,-2.03403,-0.66402,2.14917,1.61234,-1.65765,-0.884847,-0.847984,0.687795,-0.0434778,0.648802,-1.03749,0.307628,-0.884847,-0.847984,0.687795,-0.0434778,0.648802,-1.03749,0.307628,-0.342917,-0.521067,0.838867,0.963721,-0.133556,0.0938147,-0.211194,-0.817888,0.0421735,-0.350438,-0.90041,0.0001266,-0.320087,-0.89208,-0.210405,0.552023,0,0,0,0,0,0,-0.804808,-0.557038,0.349293,-0.502679,0.411349,-0.597715,0.455613,1
0.545453,-0.997816,-1.98881,-0.670452,2.18873,1.55218,-1.6065,0.545453,-0.997816,-1.98881,-0.670452,2.18873,1.55218,-1.6065,0.627109,-0.94377,-2.02713,-0.666489,2.1564,1.60236,-1.65235,-1.07043,-0.810355,0.680964,-0.318749,0.748431,-0.992607,0.606364,-1.07043,-0.810355,0.680964,-0.318749,0.748431,-0.992607,0.606364,-0.352169,-0.520795,0.835356,0.965339,-0.126688,0.0856467,-0.211508,-0.848424,0.0793584,-0.399747,-0.934845,0.0343144,-0.370051,-0.89208,-0.210405,0.552023,0,0,0,0,0,0,-0.816564,-0.540459,0.383167,-0.0396315,0.323335,-0.501826,0.458434,1
0.535519,-1.01021,-1.98538,-0.642599,2.19805,1.5614,-1.59771,0.535519,-1.01021,-1.98538,-0.642599,2.19805,1.5614,-1.59771,0.616188,-0.951559,-2.0209,-0.671587,2.16449,1.5925,-1.6443,-1.0825,-0.761844,0.602126,-0.571794,0.82511,-0.99251,0.857564,-1.0825,-0.761844,0.602126,-0.571794,0.82511,-0.99251,0.857564,-0.361202,-0.520703,0.831274,0.967357,-0.119055,0.0775195,-0.209849,-0.792248,0.0497829,-0.44797,-0.881406,-0.000580179,-0.419013,-0.89208,-0.210405,0.552023,0,0,0,0,0,0,-0.80669,-0.586554,0.35513,0.289882,0.335541,-0.311075,0.465839,1
0.525941,-1.01771,-1.97064,-0.652613,2.21655,1.5524,-1.59477,0.525941,-1.01771,-1.97064,-0.652613,2.21655,1.5524,-1.59477,0.605616,-0.959227,-2.01528,-0.678951,2.17304,1.58254,-1.63516,-1.05333,-0.774116,0.556429,-0.784495,0.860834,-0.998586,0.918602,-1.05333,-0.774116,0.556429,-0.784495,0.860834,-0.998586,0.918602,-0.369597,-0.521192,0.826574,0.969652,-0.110688,0.0693222,-0.206684,-0.736732,-0.00275241,-0.518219,-0.829988,-0.0588069,-0.490027,-0.89208,-0.210405,0.552023,0,0,0,0,0,0,-0.796748,-0.584828,0.446321,0.263379,0.435054,-0.301399,0.403888,1
0.515653,-1.02086,-1.95943,-0.683798,2.23077,1.52675,-1.5953,0.515653,-1.02086,-1.95943,-0.683798,2.23077,1.52675,-1.5953,0.594707,-0.966577,-2.00982,-0.686954,2.18123,1.57257,-1.62637,-1.11491,-0.719251,0.545356,-0.762827,0.794737,-0.988184,0.862131,-1.11491,-0.719251,0.545356,-0.762827,0.794737,-0.988184,0.862131,-0.37783,-0.521547,0.821809,0.971766,-0.102306,0.0613212,-0.203577,-0.744769,0.0480807,-0.487056,-0.832934,-0.00692225,-0.462618,-0.89208,-0.210405,0.552023,0,0,0,0,0,0,-0.790535,-0.542823,0.503888,0.0315652,0.495366,-0.458249,0.310705,1
0.5038,-1.02577,-1.95353,-0.686028,2.23377,1.5115,-1.59067,0.5038,-1.02577,-1.95353,-0.686028,2.23377,1.5115,-1.59067,0.58323,-0.973771,-2.00399,-0.691799,2.1879,1.56378,-1.6183,-1.13531,-0.734268,0.594432,-0.38239,0.623502,-0.826105,0.792309,-1.13531,-0.734268,0.594432,-0.38239,0.623502,-0.826105,0.792309,-0.386682,-0.5206,0.817804,0.973172,-0.0956687,0.0539624,-0.202167,-0.819801,0.164667,-0.407208,-0.897159,0.125288,-0.389182,-0.89208,-0.210405,0.552023,0,0,0,0,0,0,-0.794299,-0.519951,0.504611,0.0577064,0.458688,-0.522824,0.276277,1
0.49474,-1.03639,-1.94641,-0.676645,2.22998,1.5114,-1.57192,0.49474,-1.03639,-1.94641,-0.676645,2.22998,1.5114,-1.57192,0.573234,-0.98208,-1.99838,-0.691944,2.19338,1.55725,-1.61067,-0.945866,-0.867512,0.542923,0.11148,0.538115,-0.617934,0.752041,-0.945866,-0.867512,0.542923,0.11148,0.538115,-0.617934,0.752041,-0.396002,-0.518948,0.814007,0.973988,-0.0912149,0.0468729,-0.202065,-0.873912,0.19864,-0.393959,-0.945721,0.176249,-0.380926,-0.89208,-0.210405,0.552023,0,0,0,0,0,0,-0.784939,-0.54308,0.519653,0.152985,0.366009,-0.458468,0.387437,1
0.49537,-1.04198,-1.93655,-0.723138,2.23266,1.49804,-1.56111,0.49537,-1.04198,-1.93655,-0.723138,2.23266,1.49804,-1.56111,0.566296,-0.991646,-1.99231,-0.688248,2.19941,1.55151,-1.60378,-0.605949,-0.966276,0.639302,0.424911,0.633531,-0.583323,0.659532,-0.605949,-0.966276,0.639302,0.424911,0.633531,-0.583323,0.659532,-0.405149,-0.517521,0.810308,0.974597,-0.0882772,0.0387706,-0.20215,-0.808052,0.136481,-0.371893,-0.889639,0.128947,-0.361443,-0.89208,-0.210405,0.552023,0,0,0,0,0,0,-0.709261,-0.503328,0.557594,-0.3489,0.332571,-0.534611,0.426713,1
0.494668,-1.04508,-1.929,-0.736793,2.2419,1.48184,-1.56082,0.494668,-1.04508,-1.929,-0.736793,2.2419,1.48184,-1.56082,0.561423,-1.00118,-1.98498,-0.683611,2.2071,1.54466,-1.59815,-0.478794,-0.954088,0.762791,0.445177,0.820163,-0.726921,0.536355,-0.478794,-0.954088,0.762791,0.445177,0.820163,-0.726921,0.536355,-0.413692,-0.516504,0.807024,0.975223,-0.0857915,0.0291938,-0.201813,-0.759741,0.101548,-0.341042,-0.855393,0.0976508,-0.331521,-0.89208,-0.210405,0.552023,0,0,0,0,0,0,-0.667548,-0.439024,0.559733,-0.531821,0.348046,-0.628174,0.373284,1
0.491261,-1.06185,-1.92358,-0.718892,2.22946,1.47866,-1.54165,0.491261,-1.06185,-1.92358,-0.718892,2.22946,1.47866,-1.54165,0.555647,-1.01025,-1.9766,-0.680696,2.21628,1.53605,-1.59321,-0.619576,-0.87505,0.865558,0.24349,0.936308,-0.906473,0.498592,-0.619576,-0.87505,0.865558,0.24349,0.936308,-0.906473,0.498592,-0.4224,-0.515418,0.803785,0.975877,-0.0826222,0.0185246,-0.201233,-0.768306,0.132364,-0.321913,-0.872621,0.123392,-0.313167,-0.89208,-0.210405,0.552023,0,0,0,0,0,0,-0.64386,-0.515996,0.530248,-0.381951,0.131766,-0.573894,0.515621,1
0.482837,-1.07196,-1.91878,-0.702618,2.20807,1.48787,-1.53288,0.482837,-1.07196,-1.91878,-0.702618,2.20807,1.48787,-1.53288,0.54805,-1.01812,-1.96745,-0.679908,2.22483,1.52649,-1.58725,-0.791901,-0.783201,0.933355,-0.00182165,0.820067,-0.965976,0.634245,-0.791901,-0.783201,0.933355,-0.00182165,0.820067,-0.965976,0.634245,-0.430974,-0.513834,0.800906,0.97657,-0.0790261,0.00833433,-0.199989,-0.747101,0.170082,-0.310761,-0.846777,0.15507,-0.303631,-0.89208,-0.210405,0.552023,0,0,0,0,0,0,-0.652127,-0.538433,0.486739,-0.227094,-0.167563,-0.386135,0.543678,1
0.469924,-1.07521,-1.91652,-0.705842,2.19909,1.51472,-1.52677,0.469924,-1.07521,-1.91652,-0.705842,2.19909,1.51472,-1.52677,0.539765,-1.02599,-1.95806,-0.682906,2.23185,1.51623,-1.58001,-0.842847,-0.781559,0.926559,-0.397814,0.667452,-1.05006,0.746204,-0.842847,-0.781559,0.926559,-0.397814,0.667452,-1.05006,0.746204,-0.438755,-0.513042,0.797194,0.977613,-0.0740041,-0.00124862,-0.196964,-0.657157,0.0891806,-0.400445,-0.754904,0.057822,-0.393202,-0.89208,-0.210405,0.552023,0,0,0,0,0,0,-0.698407,-0.492173,0.415347,-0.229357,-0.327564,-0.0151349,0.532385,1
0.453673,-1.0825,-1.90951,-0.687698,2.19867,1.53871,-1.51837,0.453673,-1.0825,-1.90951,-0.687698,2.19867,1.53871,-1.51837,0.530717,-1.03345,-1.94895,-0.689443,2.23746,1.50521,-1.57224,-0.926416,-0.728695,0.920255,-0.741183,0.507338,-1.1153,0.791422,-0.926416,-0.728695,0.920255,-0.741183,0.507338,-1.1153,0.791422,-0.445699,-0.512913,0.792911,0.978865,-0.0675987,-0.0100085,-0.192752,-0.574312,0.0474573,-0.442511,-0.666579,0.00278714,-0.435767,-0.89208,-0.210405,0.552023,0,0,0,0,0,0,-0.77044,-0.490509,0.394465,0.017447,-0.387886,0.335004,0.538698,1
0.442281,-1.0848,-1.90631,-0.660852,2.1944,1.55259,-1.51241,0.442281,-1.0848,-1.90631,-0.660852,2.1944,1.55259,-1.51241,0.520554,-1.04045,-1.93976,-0.697868,2.23944,1.4947,-1.56343,-1.05616,-0.692298,0.901703,-0.834087,0.0765667,-1.00834,0.911363,-1.05616,-0.692298,0.901703,-0.834087,0.0765667,-1.00834,0.911363,-0.451896,-0.51274,0.788526,0.980143,-0.0608667,-0.0168184,-0.187966,-0.54557,0.0903749,-0.4409,-0.615524,0.0411635,-0.435378,-0.89208,-0.210405,0.552023,0,0,0,0,0,0,-0.782727,-0.443539,0.334471,0.370155,-0.450343,0.578831,0.510251,1
0.429954,-1.06651,-1.93822,-0.65034,2.18087,1.54784,-1.50577,0.429954,-1.06651,-1.93822,-0.65034,2.18087,1.54784,-1.50577,0.509038,-1.04744,-1.93184,-0.703949,2.23641,1.48749,-1.55358,-1.15482,-0.706178,0.760442,-0.538391,-0.431556,-0.601379,1.00422,-1.15482,-0.706178,0.760442,-0.538391,-0.431556,-0.601379,1.00422,-0.458406,-0.511155,0.784383,0.980971,-0.0557186,-0.0204793,-0.184856,-0.609292,0.226835,-0.41402,-0.644915,0.190153,-0.410404,-0.89208,-0.210405,0.552023,0,0,0,0,0,0,-0.790842,-0.190741,-0.0637973,0.536089,-0.555381,0.603489,0.478031,1
0.421161,-1.09517,-1.95616,-0.648992,2.16705,1.55254,-1.49269,0.421161,-1.09517,-1.95616,-0.648992,2.16705,1.55254,-1.49269,0.499397,-1.05441,-1.9247,-0.707591,2.22894,1.48597,-1.5434,-0.90063,-0.695273,0.689676,-0.29157,-0.843402,0.0121997,1.01407,-0.90063,-0.695273,0.689676,-0.29157,-0.843402,0.0121997,1.01407,-0.463513,-0.50914,0.780581,0.981586,-0.0534605,-0.0212565,-0.182152,-0.46585,0.226246,-0.37079,-0.470464,0.213455,-0.369442,-0.89208,-0.210405,0.552023,0,0,0,0,0,0,-0.78236,-0.407632,-0.31459,0.585993,-0.618946,0.665647,0.50714,1
