Afshin1997/kuka_rl_ros2/src/catch_and_throw/output_files/tm/nn_ema7.00_jvws1_realball_D24H10M11S41/recorded_data.csv
pure_target_joint_0,pure_target_joint_1,pure_target_joint_2,pure_target_joint_3,pure_target_joint_4,pure_target_joint_5,pure_target_joint_6,target_joint_0,target_joint_1,target_joint_2,target_joint_3,target_joint_4,target_joint_5,target_joint_6,pos_joint_0,pos_joint_1,pos_joint_2,pos_joint_3,pos_joint_4,pos_joint_5,pos_joint_6,vel_joint_0,vel_joint_1,vel_joint_2,vel_joint_3,vel_joint_4,vel_joint_5,vel_joint_6,vel_smooth_joint_0,vel_smooth_joint_1,vel_smooth_joint_2,vel_smooth_joint_3,vel_smooth_joint_4,vel_smooth_joint_5,vel_smooth_joint_6,ee_pos_x,ee_pos_y,ee_pos_z,ee_or_w,ee_or_x,ee_or_y,ee_or_z,ee_vel_x,ee_vel_y,ee_vel_z,ball_pos_x,ball_pos_y,ball_pos_z,ball_raw_vx,ball_raw_vy,ball_raw_vz,ball_ema_vx,ball_ema_vy,ball_ema_vz,action_0,action_1,action_2,action_3,action_4,action_5,action_6,command_published
1.82367,-1.01256,-1.87331,-1.07916,1.96601,1.18674,-0.949569,1.82367,-1.01256,-1.87331,-1.07916,1.96601,1.18674,-0.949569,1.78025,-1.06467,-1.81515,-1.11699,1.93723,1.11686,-0.916287,0,0,0,0,0,0,0,0,0,0,0,0,0,0,0.531055,-0.454446,0.694281,0.574546,0.175185,0.152606,0.784805,0,0,0,2.98489,-0.495951,0.261872,-3.56388,-0.0162959,5.68584,-3.73722,-0.0901192,5.27688,0.434191,0.521071,-0.581591,0.37838,0.287714,0.698799,-0.332824,1
1.7299,-0.995792,-1.87392,-1.07878,2.00038,1.17037,-0.923638,1.7299,-0.995792,-1.87392,-1.07878,2.00038,1.17037,-0.923638,1.78025,-1.06467,-1.81515,-1.11699,1.93723,1.11686,-0.916287,-3.05808e-07,1.10405e-06,-5.28787e-07,6.05722e-07,1.14308e-07,-7.69304e-08,-3.01903e-07,-3.05808e-07,1.10405e-06,-5.28787e-07,6.05722e-07,1.14308e-07,-7.69304e-08,-3.01903e-07,0.531055,-0.454446,0.694281,0.574546,0.175185,0.152606,0.784805,-2.77889e-07,-1.47456e-07,5.66139e-07,2.94822,-0.496171,0.31842,-3.66766,-0.0220478,5.6548,-3.68138,-0.0686399,5.37258,-0.503501,0.68876,-0.587725,0.382155,0.631429,0.535093,-0.0735121,1
1.72737,-0.97471,-1.8677,-1.07139,1.9954,1.18357,-0.948903,1.72737,-0.97471,-1.8677,-1.07139,1.9954,1.18357,-0.948903,1.7889,-1.05428,-1.82674,-1.10945,1.94297,1.13079,-0.922919,0.817182,0.980701,-1.0946,0.712143,0.541502,1.3152,-0.626404,0.817182,0.980701,-1.0946,0.712143,0.541502,1.3152,-0.626404,0.531546,-0.451212,0.698791,0.579237,0.166962,0.154677,0.782741,0.082373,0.265246,0.411907,2.91211,-0.496788,0.37317,-3.61099,-0.061664,5.47498,-3.63524,-0.0539188,5.39054,-0.615366,0.795747,-0.409658,0.380624,0.524287,0.52785,-0.25984,1
1.69895,-0.964407,-1.87724,-1.08612,2.01141,1.15995,-0.947561,1.69895,-0.964407,-1.87724,-1.08612,2.01141,1.15995,-0.947561,1.77715,-1.04263,-1.83614,-1.10334,1.95441,1.13868,-0.923062,-1.11047,1.10089,-0.888034,0.577345,1.0805,0.745019,-0.0135375,-1.11047,1.10089,-0.888034,0.577345,1.0805,0.745019,-0.0135375,0.523269,-0.458474,0.704289,0.588108,0.163488,0.152733,0.777222,-0.761754,-0.661459,0.508414,2.87658,-0.497134,0.427125,-3.55277,-0.0346422,5.39552,-3.60891,-0.0413984,5.35231,-0.781955,0.782219,-0.410954,0.172188,0.57008,0.212782,-0.244987,1
1.69178,-0.950751,-1.88626,-1.08788,2.00914,1.18984,-0.962684,1.69178,-0.950751,-1.88626,-1.08788,2.00914,1.18984,-0.962684,1.76723,-1.0291,-1.84243,-1.09697,1.96257,1.14762,-0.928211,-0.936894,1.2783,-0.594059,0.601321,0.771449,0.845005,-0.486344,-0.936894,1.2783,-0.594059,0.601321,0.771449,0.845005,-0.486344,0.515275,-0.462803,0.712043,0.598179,0.156656,0.152448,0.770974,-0.719066,-0.40823,0.715292,2.84056,-0.497539,0.480774,-3.60222,-0.0404835,5.36491,-3.60025,-0.036447,5.29201,-0.754496,0.78345,-0.438249,0.0909409,0.465682,0.422121,-0.344723,1
1.67652,-0.938007,-1.8965,-1.05782,2.02742,1.19354,-0.957378,1.67652,-0.938007,-1.8965,-1.05782,2.02742,1.19354,-0.957378,1.75362,-1.01621,-1.84937,-1.09481,1.97231,1.15008,-0.932067,-1.28502,1.21749,-0.655076,0.204252,0.919219,0.232094,-0.364176,-1.28502,1.21749,-0.655076,0.204252,0.919219,0.232094,-0.364176,0.50723,-0.468387,0.717769,0.607349,0.154673,0.152559,0.764153,-0.755071,-0.508699,0.536972,2.80364,-0.498228,0.532733,-3.69213,-0.0688642,5.19584,-3.61072,-0.0409271,5.2131,-0.771059,0.78199,-0.471385,0.369884,0.551161,0.434627,-0.253107,1
1.66543,-0.925601,-1.90616,-1.05621,2.02647,1.20944,-0.96921,1.66543,-0.925601,-1.90616,-1.05621,2.02647,1.20944,-0.96921,1.7413,-1.00316,-1.85672,-1.09343,1.97965,1.158,-0.938168,-1.16397,1.23192,-0.69429,0.130459,0.693289,0.748219,-0.576231,-1.16397,1.23192,-0.69429,0.130459,0.693289,0.748219,-0.576231,0.499241,-0.472184,0.723498,0.616827,0.149684,0.15366,0.757303,-0.734774,-0.361747,0.531375,2.76719,-0.498975,0.582666,-3.64442,-0.0747383,4.99333,-3.62078,-0.0497771,5.10218,-0.758679,0.775625,-0.494387,0.372204,0.468189,0.514376,-0.310419,1
1.65147,-0.91172,-1.91283,-1.05271,2.03925,1.20412,-0.97203,1.65147,-0.91172,-1.91283,-1.05271,2.03925,1.20412,-0.97203,1.72839,-0.99018,-1.86464,-1.08634,1.98917,1.16508,-0.941996,-1.21926,1.2263,-0.748839,0.670156,0.899184,0.668915,-0.361547,-1.21926,1.2263,-0.748839,0.670156,0.899184,0.668915,-0.361547,0.489726,-0.4784,0.730601,0.627587,0.14456,0.152895,0.749573,-0.874107,-0.572388,0.659429,2.73152,-0.499604,0.631777,-3.5671,-0.0628799,4.91114,-3.61736,-0.0563077,4.98097,-0.769185,0.784599,-0.481889,0.336223,0.500807,0.390348,-0.300349,1
1.63927,-0.899078,-1.92296,-1.04672,2.03898,1.21582,-0.982603,1.63927,-0.899078,-1.92296,-1.04672,2.03898,1.21582,-0.982603,1.71585,-0.977311,-1.87292,-1.08033,1.9966,1.17392,-0.947418,-1.18495,1.21544,-0.781262,0.566984,0.701998,0.834807,-0.512192,-1.18495,1.21544,-0.781262,0.566984,0.701998,0.834807,-0.512192,0.480395,-0.483496,0.737303,0.638461,0.138433,0.153306,0.741419,-0.855105,-0.480359,0.621817,2.69538,-0.500492,0.680695,-3.61457,-0.0888139,4.89182,-3.62028,-0.0624576,4.87062,-0.765753,0.782337,-0.500405,0.336123,0.423801,0.419,-0.351847,1
1.62672,-0.885967,-1.93141,-1.03424,2.04773,1.22645,-0.987829,1.62672,-0.885967,-1.93141,-1.03424,2.04773,1.22645,-0.987829,1.70302,-0.964242,-1.88087,-1.07483,2.0051,1.17994,-0.952323,-1.21156,1.23449,-0.75128,0.51982,0.802682,0.568322,-0.463221,-1.21156,1.23449,-0.75128,0.51982,0.802682,0.568322,-0.463221,0.471226,-0.488518,0.744001,0.648821,0.133696,0.153584,0.733191,-0.847528,-0.467039,0.624866,2.65926,-0.500964,0.728727,-3.61111,-0.0472128,4.80312,-3.62296,-0.0670425,4.76319,-0.763007,0.782749,-0.505438,0.405907,0.426341,0.465113,-0.355067,1
1.6136,-0.873442,-1.9414,-1.02635,2.05374,1.23506,-0.99303,1.6136,-0.873442,-1.9414,-1.02635,2.05374,1.23506,-0.99303,1.69032,-0.951257,-1.88926,-1.06923,2.01185,1.18709,-0.958356,-1.19974,1.22638,-0.792064,0.529005,0.637654,0.675314,-0.569876,-1.19974,1.22638,-0.792064,0.529005,0.637654,0.675314,-0.569876,0.461984,-0.493037,0.750577,0.659598,0.128147,0.154738,0.724269,-0.854264,-0.428415,0.613974,2.62303,-0.501219,0.775239,-3.62344,-0.0254512,4.65123,-3.61837,-0.0643888,4.65504,-0.767176,0.778152,-0.52147,0.428818,0.418898,0.479693,-0.346736,1
1.60054,-0.86038,-1.94974,-1.01882,2.0612,1.24045,-0.999517,1.60054,-0.86038,-1.94974,-1.01882,2.0612,1.24045,-0.999517,1.67764,-0.938247,-1.89766,-1.06226,2.019,1.19493,-0.964229,-1.19691,1.22876,-0.793406,0.658506,0.675308,0.740776,-0.554679,-1.19691,1.22876,-0.793406,0.658506,0.675308,0.740776,-0.554679,0.452213,-0.497623,0.75765,0.670604,0.121908,0.155463,0.715025,-0.899121,-0.434554,0.659396,2.58692,-0.501838,0.820277,-3.6109,-0.0619292,4.50381,-3.60974,-0.059565,4.5526,-0.770986,0.778667,-0.520835,0.4344,0.422005,0.455129,-0.352877,1
1.58734,-0.847602,-1.95932,-1.00929,2.0659,1.24733,-1.00718,1.58734,-0.847602,-1.95932,-1.00929,2.0659,1.24733,-1.00718,1.66488,-0.925334,-1.90637,-1.0551,2.02592,1.20293,-0.969968,-1.20532,1.21963,-0.82331,0.67582,0.653799,0.755171,-0.54203,-1.20532,1.21963,-0.82331,0.67582,0.653799,0.755171,-0.54203,0.442268,-0.50205,0.764667,0.681531,0.115568,0.156337,0.705491,-0.916424,-0.421272,0.654906,2.55077,-0.50234,0.864617,-3.61531,-0.0501633,4.43403,-3.61007,-0.0546,4.45499,-0.775413,0.777317,-0.529483,0.458075,0.399806,0.44399,-0.372084,1
1.57459,-0.834939,-1.96851,-0.999717,2.07045,1.25713,-1.01479,1.57459,-0.834939,-1.96851,-0.999717,2.07045,1.25713,-1.01479,1.65206,-0.912391,-1.91502,-1.04787,2.03295,1.2104,-0.975856,-1.21082,1.22242,-0.816155,0.682872,0.663934,0.706074,-0.556107,-1.21082,1.22242,-0.816155,0.682872,0.663934,0.706074,-0.556107,0.432239,-0.506228,0.771769,0.692359,0.109326,0.157243,0.695674,-0.925561,-0.397869,0.663818,2.51515,-0.503526,0.907695,-3.56138,-0.118667,4.30777,-3.6095,-0.0583432,4.34695,-0.77475,0.774523,-0.534916,0.481538,0.375013,0.467221,-0.389387,1
1.56163,-0.822348,-1.97778,-0.990363,2.07652,1.26555,-1.02182,1.56163,-0.822348,-1.97778,-0.990363,2.07652,1.26555,-1.02182,1.63916,-0.899481,-1.92384,-1.04018,2.03952,1.21776,-0.982097,-1.21805,1.21932,-0.833855,0.726025,0.620135,0.694893,-0.589451,-1.21805,1.21932,-0.833855,0.726025,0.620135,0.694893,-0.589451,0.422027,-0.510227,0.778951,0.703331,0.102914,0.15841,0.685304,-0.944179,-0.382908,0.672574,2.47955,-0.503906,0.949758,-3.56002,-0.0379443,4.20634,-3.59981,-0.0588796,4.23037,-0.775384,0.771326,-0.539376,0.498212,0.370068,0.477881,-0.397207,1
1.54864,-0.809834,-1.98728,-0.980765,2.08261,1.27378,-1.02861,1.54864,-0.809834,-1.98728,-0.980765,2.08261,1.27378,-1.02861,1.6263,-0.88662,-1.93274,-1.03212,2.04568,1.22561,-0.988613,-1.21537,1.21468,-0.840552,0.761581,0.582204,0.740842,-0.615367,-1.21537,1.21468,-0.840552,0.761581,0.582204,0.740842,-0.615367,0.411623,-0.513893,0.786246,0.714313,0.0960349,0.159733,0.674551,-0.961195,-0.354889,0.683461,2.44397,-0.504114,0.991145,-3.55873,-0.0208437,4.13867,-3.5879,-0.0589728,4.1204,-0.77655,0.767859,-0.545384,0.513552,0.369325,0.481785,-0.39997,1
1.53566,-0.797307,-1.99673,-0.970959,2.08876,1.28211,-1.03551,1.53566,-0.797307,-1.99673,-0.970959,2.08876,1.28211,-1.03551,1.61341,-0.873813,-1.94172,-1.0238,2.05183,1.23356,-0.995229,-1.21709,1.20959,-0.847614,0.785878,0.580455,0.751746,-0.624922,-1.21709,1.20959,-0.847614,0.785878,0.580455,0.751746,-0.624922,0.401059,-0.51729,0.793612,0.725197,0.0889576,0.161077,0.663498,-0.976195,-0.33104,0.69066,2.40829,-0.504643,1.03181,-3.56812,-0.0528932,4.06674,-3.57628,-0.0585416,4.02356,-0.777525,0.765063,-0.550159,0.528404,0.369308,0.485417,-0.402817,1
1.5226,-0.784837,-2.00621,-0.961049,2.09491,1.29011,-1.0424,1.5226,-0.784837,-2.00621,-0.961049,2.09491,1.29011,-1.0424,1.6005,-0.861064,-1.9508,-1.01522,2.05796,1.24158,-1.00188,-1.21894,1.20408,-0.857513,0.809904,0.579404,0.756922,-0.628218,-1.21894,1.20408,-0.857513,0.809904,0.579404,0.756922,-0.628218,0.390347,-0.520422,0.801034,0.735952,0.0817262,0.16245,0.652155,-0.990288,-0.307314,0.696602,2.37258,-0.50523,1.07104,-3.57041,-0.0587225,3.92325,-3.56847,-0.0549006,3.92909,-0.779003,0.762277,-0.554166,0.541753,0.369462,0.485282,-0.405223,1
1.5096,-0.772399,-2.01583,-0.95093,2.10083,1.29833,-1.04944,1.5096,-0.772399,-2.01583,-0.95093,2.10083,1.29833,-1.04944,1.58758,-0.84836,-1.95995,-1.0064,2.0641,1.24965,-1.00858,-1.22041,1.19992,-0.864526,0.833071,0.579581,0.762729,-0.632919,-1.22041,1.19992,-0.864526,0.833071,0.579581,0.762729,-0.632919,0.379497,-0.523259,0.808525,0.746561,0.0743224,0.163847,0.640529,-1.00351,-0.280877,0.703785,2.33728,-0.505958,1.10953,-3.52967,-0.0727534,3.8483,-3.56023,-0.0535714,3.83388,-0.779866,0.759605,-0.558819,0.554735,0.367285,0.486777,-0.408548,1
1.49659,-0.760042,-2.02559,-0.940666,2.10638,1.3068,-1.05653,1.49659,-0.760042,-2.02559,-0.940666,2.10638,1.3068,-1.05653,1.57463,-0.835702,-1.96917,-0.997366,2.07024,1.25772,-1.01532,-1.2229,1.1955,-0.870667,0.853575,0.57984,0.761314,-0.636508,-1.2229,1.1955,-0.870667,0.853575,0.57984,0.761314,-0.636508,0.368526,-0.525793,0.816074,0.757004,0.0667891,0.165276,0.628624,-1.01528,-0.253694,0.709968,2.30145,-0.506656,1.14769,-3.58372,-0.0698328,3.81658,-3.56087,-0.0521783,3.74798,-0.780414,0.756597,-0.564199,0.567001,0.3614,0.490844,-0.412098,1
1.48367,-0.74787,-2.03535,-0.929942,2.11055,1.31635,-1.06399,1.48367,-0.74787,-2.03535,-0.929942,2.11055,1.31635,-1.06399,1.56168,-0.823088,-1.97847,-0.988114,2.07633,1.26581,-1.02212,-1.22403,1.19135,-0.878205,0.873923,0.57569,0.764411,-0.642052,-1.22403,1.19135,-0.878205,0.873923,0.57569,0.764411,-0.642052,0.35745,-0.528001,0.823673,0.767271,0.0590978,0.166763,0.616435,-1.02568,-0.224391,0.715672,2.26514,-0.50756,1.18373,-3.63071,-0.0903904,3.60321,-3.56886,-0.0620071,3.65256,-0.780082,0.752184,-0.568859,0.58171,0.34215,0.505427,-0.418727,1
1.47062,-0.73603,-2.04529,-0.918906,2.11446,1.32624,-1.07123,1.47062,-0.73603,-2.04529,-0.918906,2.11446,1.32624,-1.07123,1.54871,-0.810526,-1.98786,-0.978659,2.08232,1.27398,-1.02898,-1.22483,1.18652,-0.886825,0.892953,0.565439,0.771449,-0.647629,-1.22483,1.18652,-0.886825,0.892953,0.565439,0.771449,-0.647629,0.346286,-0.529862,0.831308,0.777348,0.0512317,0.168343,0.603958,-1.03464,-0.19349,0.719975,2.22938,-0.508571,1.21852,-3.57635,-0.101084,3.47902,-3.5757,-0.0736799,3.54496,-0.780872,0.744954,-0.574327,0.59753,0.321384,0.522612,-0.422553,1
1.45749,-0.724387,-2.05522,-0.907772,2.11865,1.33593,-1.07802,1.45749,-0.724387,-2.05522,-0.907772,2.11865,1.33593,-1.07802,1.53575,-0.798041,-1.99732,-0.968952,2.08794,1.28242,-1.03595,-1.22405,1.17918,-0.89388,0.916844,0.531255,0.79749,-0.658996,-1.22405,1.17918,-0.89388,0.916844,0.531255,0.79749,-0.658996,0.335044,-0.531322,0.838973,0.78724,0.0430565,0.170109,0.591154,-1.0427,-0.158917,0.72393,2.1937,-0.509401,1.2528,-3.5676,-0.0830054,3.42823,-3.57967,-0.0805612,3.43606,-0.782566,0.736542,-0.57899,0.611793,0.307043,0.535075,-0.420658,1
1.44434,-0.712714,-2.06504,-0.896794,2.12231,1.34542,-1.085,1.44434,-0.712714,-2.06504,-0.896794,2.12231,1.34542,-1.085,1.52277,-0.785684,-2.00688,-0.958979,2.09323,1.29115,-1.04298,-1.22575,1.16709,-0.902808,0.941901,0.499007,0.82468,-0.66396,-1.22575,1.16709,-0.902808,0.941901,0.499007,0.82468,-0.66396,0.323715,-0.532415,0.846635,0.796918,0.0346,0.172044,0.578036,-1.05169,-0.127015,0.724952,2.15784,-0.510026,1.28618,-3.5857,-0.0624537,3.33854,-3.58375,-0.0828092,3.33135,-0.784291,0.729704,-0.581576,0.621857,0.290818,0.542651,-0.420131,1
1.43116,-0.70097,-2.07486,-0.886078,2.12644,1.3544,-1.09201,1.43116,-0.70097,-2.07486,-0.886078,2.12644,1.3544,-1.09201,1.50976,-0.77347,-2.01651,-0.948776,2.09829,1.30007,-1.04996,-1.22861,1.15368,-0.909814,0.96376,0.478446,0.84273,-0.659412,-1.22861,1.15368,-0.909814,0.96376,0.478446,0.84273,-0.659412,0.312313,-0.533157,0.854281,0.806332,0.0259408,0.174094,0.564665,-1.05961,-0.0961633,0.724731,2.12219,-0.510241,1.31838,-3.56581,-0.0214994,3.21963,-3.58552,-0.0765273,3.2236,-0.786023,0.724997,-0.583513,0.626974,0.281452,0.543256,-0.420448,1
1.41802,-0.689247,-2.08465,-0.875429,2.13087,1.3635,-1.099,1.41802,-0.689247,-2.08465,-0.875429,2.13087,1.3635,-1.099,1.49673,-0.761364,-2.02618,-0.938418,2.10308,1.30911,-1.05694,-1.23129,1.14348,-0.913284,0.978345,0.452006,0.853391,-0.659328,-1.23129,1.14348,-0.913284,0.978345,0.452006,0.853391,-0.659328,0.300892,-0.533512,0.861903,0.81546,0.0171125,0.176308,0.551042,-1.06287,-0.0618174,0.72394,2.08599,-0.510829,1.34951,-3.61919,-0.0588596,3.11317,-3.58501,-0.0690511,3.11582,-0.787091,0.721163,-0.584706,0.629883,0.277965,0.543941,-0.420573,1
1.40484,-0.677566,-2.09452,-0.864653,2.13499,1.3728,-1.106,1.40484,-0.677566,-2.09452,-0.864653,2.13499,1.3728,-1.106,1.48366,-0.749329,-2.03588,-0.927988,2.10773,1.31813,-1.06393,-1.23401,1.13665,-0.916238,0.98507,0.439653,0.852405,-0.659939,-1.23401,1.13665,-0.916238,0.98507,0.439653,0.852405,-0.659939,0.289488,-0.53348,0.869494,0.824279,0.00819994,0.178644,0.5372,-1.06293,-0.0268947,0.722576,2.05032,-0.511855,1.37913,-3.56717,-0.102597,2.96166,-3.5812,-0.0651462,3.0135,-0.788212,0.717638,-0.586395,0.633356,0.272604,0.546631,-0.420725,1
1.39168,-0.666038,-2.10435,-0.853702,2.13905,1.38247,-1.1131,1.39168,-0.666038,-2.10435,-0.853702,2.13905,1.38247,-1.1131,1.47058,-0.737357,-2.0456,-0.917515,2.11234,1.32717,-1.07092,-1.23548,1.1308,-0.917899,0.989207,0.43555,0.853889,-0.660053,-1.23548,1.1308,-0.917899,0.989207,0.43555,0.853889,-0.660053,0.278118,-0.533052,0.877055,0.832766,-0.000800669,0.181063,0.523179,-1.06117,0.00914576,0.721097,2.01532,-0.512864,1.40804,-3.49977,-0.100869,2.89079,-3.57416,-0.0663936,2.9091,-0.78896,0.713188,-0.587545,0.638139,0.267081,0.552909,-0.421822,1
1.37855,-0.654667,-2.11416,-0.842701,2.14299,1.39235,-1.12022,1.37855,-0.654667,-2.11416,-0.842701,2.14299,1.39235,-1.12022,1.45748,-0.725443,-2.05535,-0.906982,2.11686,1.33627,-1.07791,-1.2373,1.12533,-0.920741,0.994918,0.426273,0.85866,-0.660317,-1.2373,1.12533,-0.920741,0.994918,0.426273,0.85866,-0.660317,0.266792,-0.53222,0.884582,0.84092,-0.00990892,0.183595,0.508968,-1.05863,0.0456681,0.719389,1.97973,-0.513537,1.43589,-3.55964,-0.0673473,2.78544,-3.56722,-0.070356,2.79904,-0.789292,0.707759,-0.588102,0.642811,0.261314,0.560844,-0.4231,1
1.36541,-0.643371,-2.124,-0.831739,2.14759,1.40205,-1.12722,1.36541,-0.643371,-2.124,-0.831739,2.14759,1.40205,-1.12722,1.44437,-0.713606,-2.06511,-0.896365,2.12128,1.34547,-1.08492,-1.23834,1.11804,-0.922339,1.00278,0.417728,0.869523,-0.662328,-1.23834,1.11804,-0.922339,1.00278,0.417728,0.869523,-0.662328,0.255515,-0.530982,0.892069,0.848733,-0.019158,0.186224,0.494576,-1.05552,0.0823093,0.717227,1.9444,-0.513666,1.4628,-3.53308,-0.0128627,2.69096,-3.55687,-0.0698188,2.6907,-0.789623,0.702349,-0.588859,0.646258,0.263115,0.565748,-0.422949,1
1.35228,-0.632289,-2.13403,-0.820657,2.15242,1.4119,-1.13442,1.35228,-0.632289,-2.13403,-0.820657,2.15242,1.4119,-1.13442,1.43125,-0.701862,-2.07489,-0.885672,2.12561,1.35481,-1.09196,-1.23876,1.10928,-0.923071,1.01001,0.40858,0.882292,-0.664333,-1.23876,1.10928,-0.923071,1.01001,0.40858,0.882292,-0.664333,0.244304,-0.52934,0.899501,0.856193,-0.0285488,0.18895,0.480017,-1.05071,0.118802,0.713711,1.90911,-0.514299,1.48888,-3.5283,-0.0632763,2.60749,-3.54643,-0.0697506,2.58866,-0.789713,0.695729,-0.591474,0.650147,0.268101,0.57088,-0.424663,1
1.33914,-0.621176,-2.14402,-0.809647,2.15754,1.42167,-1.14159,1.33914,-0.621176,-2.14402,-0.809647,2.15754,1.42167,-1.14159,1.41813,-0.690207,-2.08467,-0.874925,2.12999,1.36422,-1.09898,-1.2393,1.10084,-0.924348,1.01506,0.413791,0.888978,-0.66365,-1.2393,1.10084,-0.924348,1.01506,0.413791,0.888978,-0.66365,0.233166,-0.527317,0.906876,0.863288,-0.0380299,0.19171,0.465333,-1.04517,0.153816,0.709755,1.87339,-0.514942,1.51404,-3.57256,-0.0643551,2.51633,-3.53985,-0.0643875,2.49228,-0.789893,0.69031,-0.593441,0.65278,0.275493,0.574447,-0.426055,1
1.32601,-0.610274,-2.154,-0.79856,2.16258,1.43171,-1.14864,1.32601,-0.610274,-2.154,-0.79856,2.16258,1.43171,-1.14864,1.40501,-0.678666,-2.09451,-0.864112,2.13446,1.37372,-1.10605,-1.23936,1.09007,-0.929015,1.02137,0.422137,0.897305,-0.667012,-1.23936,1.09007,-0.929015,1.02137,0.422137,0.897305,-0.667012,0.222102,-0.524935,0.914175,0.870029,-0.0475968,0.194489,0.450509,-1.03951,0.186877,0.704107,1.8379,-0.515602,1.53809,-3.5488,-0.0659585,2.40535,-3.54196,-0.0577088,2.39957,-0.790023,0.683917,-0.594886,0.655518,0.281283,0.579895,-0.425944,1
1.31289,-0.599533,-2.16396,-0.78745,2.1678,1.44195,-1.15565,1.31289,-0.599533,-2.16396,-0.78745,2.1678,1.44195,-1.15565,1.39189,-0.66721,-2.10437,-0.853259,2.13905,1.38328,-1.11313,-1.23969,1.08201,-0.931787,1.02507,0.434385,0.902359,-0.668961,-1.23969,1.08201,-0.931787,1.02507,0.434385,0.902359,-0.668961,0.211132,-0.522184,0.921405,0.876403,-0.0572352,0.197276,0.435573,-1.03194,0.221042,0.699131,1.80248,-0.516212,1.56159,-3.54166,-0.0610411,2.35022,-3.54709,-0.0551803,2.30827,-0.789992,0.676769,-0.595893,0.658083,0.287408,0.586738,-0.425209,1
1.29985,-0.589173,-2.17389,-0.776185,2.17268,1.45271,-1.16258,1.29985,-0.589173,-2.17389,-0.776185,2.17268,1.45271,-1.16258,1.37876,-0.655865,-2.11426,-0.842359,2.14374,1.39293,-1.1202,-1.23987,1.07159,-0.933957,1.02948,0.442845,0.911607,-0.668365,-1.23987,1.07159,-0.933957,1.02948,0.442845,0.911607,-0.668365,0.200267,-0.51907,0.92855,0.882397,-0.066958,0.200084,0.420545,-1.02342,0.254536,0.692652,1.76684,-0.517328,1.58406,-3.56427,-0.111586,2.24621,-3.54893,-0.0634577,2.21893,-0.789107,0.66692,-0.596295,0.661743,0.289381,0.597837,-0.423767,1
1.28682,-0.579138,-2.18377,-0.764883,2.17766,1.46367,-1.16949,1.28682,-0.579138,-2.18377,-0.764883,2.17766,1.46367,-1.16949,1.36563,-0.64464,-2.12417,-0.831418,2.14854,1.4027,-1.12727,-1.23971,1.06016,-0.935376,1.03338,0.452663,0.922598,-0.667067,-1.23971,1.06016,-0.935376,1.03338,0.452663,0.922598,-0.667067,0.189518,-0.515598,0.935599,0.888004,-0.0767678,0.202903,0.405446,-1.0138,0.287535,0.685271,1.73134,-0.518302,1.60487,-3.55005,-0.0974059,2.0812,-3.55221,-0.0758473,2.12186,-0.788106,0.655025,-0.596067,0.665348,0.291289,0.609745,-0.422226,1
1.27382,-0.569574,-2.19366,-0.75353,2.18289,1.47472,-1.17616,1.27382,-0.569574,-2.19366,-0.75353,2.18289,1.47472,-1.17616,1.35253,-0.633588,-2.13407,-0.820412,2.15335,1.41266,-1.1343,-1.23807,1.04389,-0.935839,1.03948,0.454413,0.941287,-0.664608,-1.23807,1.04389,-0.935839,1.03948,0.454413,0.941287,-0.664608,0.178898,-0.511781,0.942526,0.893207,-0.0866928,0.205758,0.390294,-1.00293,0.319188,0.675361,1.69609,-0.519584,1.62458,-3.52522,-0.128174,1.97141,-3.55083,-0.0867925,2.01695,-0.787076,0.640135,-0.595857,0.668824,0.29544,0.6206,-0.418618,1
1.26084,-0.5605,-2.20356,-0.741925,2.18876,1.48587,-1.18246,1.26084,-0.5605,-2.20356,-0.741925,2.18876,1.48587,-1.18246,1.33943,-0.622738,-2.14398,-0.809347,2.15819,1.42283,-1.14131,-1.23651,1.02475,-0.935317,1.04505,0.457657,0.959975,-0.662197,-1.23651,1.02475,-0.935317,1.04505,0.457657,0.959975,-0.662197,0.168415,-0.507641,0.94931,0.898005,-0.0967178,0.208635,0.375105,-0.991391,0.348783,0.663684,1.66023,-0.520197,1.64379,-3.5858,-0.0613391,1.92083,-3.55086,-0.0922114,1.91254,-0.785894,0.622375,-0.595796,0.674226,0.305654,0.630388,-0.411464,1
1.24791,-0.551932,-2.21345,-0.730259,2.19486,1.49711,-1.18859,1.24791,-0.551932,-2.21345,-0.730259,2.19486,1.49711,-1.18859,1.32636,-0.612144,-2.15388,-0.798225,2.16311,1.43317,-1.14826,-1.23488,1.00054,-0.935025,1.05048,0.464824,0.976679,-0.655885,-1.23488,1.00054,-0.935025,1.05048,0.464824,0.976679,-0.655885,0.158067,-0.503224,0.955924,0.902396,-0.106802,0.211505,0.359917,-0.979979,0.374487,0.649401,1.62479,-0.520881,1.66176,-3.54382,-0.0683665,1.79733,-3.55209,-0.0930824,1.80691,-0.784514,0.602124,-0.595764,0.679658,0.317435,0.639443,-0.403319,1
1.23501,-0.543816,-2.22348,-0.718734,2.20134,1.50814,-1.19447,1.23501,-0.543816,-2.22348,-0.718734,2.20134,1.50814,-1.19447,1.3133,-0.601853,-2.16378,-0.787006,2.16822,1.44367,-1.15507,-1.23298,0.971936,-0.93497,1.05957,0.482618,0.991771,-0.64368,-1.23298,0.971936,-0.93497,1.05957,0.482618,0.991771,-0.64368,0.147829,-0.498569,0.962365,0.906383,-0.116924,0.214308,0.344776,-0.970517,0.396883,0.634458,1.58922,-0.5212,1.67888,-3.55718,-0.0318885,1.71171,-3.55356,-0.0855846,1.70071,-0.782972,0.580372,-0.597064,0.68272,0.331123,0.644732,-0.393979,1
1.22224,-0.536193,-2.23351,-0.707212,2.20666,1.51922,-1.20003,1.22224,-0.536193,-2.23351,-0.707212,2.20666,1.51922,-1.20003,1.30027,-0.591906,-2.17367,-0.775699,2.17353,1.45432,-1.16175,-1.23076,0.939524,-0.934918,1.06798,0.501242,1.0058,-0.630785,-1.23076,0.939524,-0.934918,1.06798,0.501242,1.0058,-0.630785,0.137705,-0.493709,0.968611,0.909972,-0.127059,0.217034,0.329702,-0.960827,0.416344,0.617404,1.55336,-0.522448,1.69462,-3.58623,-0.1248,1.57418,-3.5571,-0.080184,1.5961,-0.780386,0.557133,-0.598382,0.684866,0.33128,0.649033,-0.382804,1
1.20956,-0.529214,-2.24363,-0.695646,2.21094,1.53044,-1.20574,1.20956,-0.529214,-2.24363,-0.695646,2.21094,1.53044,-1.20574,1.28727,-0.582323,-2.1836,-0.764348,2.17907,1.46504,-1.16827,-1.2283,0.905045,-0.937379,1.07207,0.523294,1.01296,-0.615775,-1.2283,0.905045,-0.937379,1.07207,0.523294,1.01296,-0.615775,0.127704,-0.488689,0.974637,0.913173,-0.137134,0.219677,0.314724,-0.950243,0.432112,0.598039,1.51849,-0.523751,1.70937,-3.48676,-0.130266,1.47452,-3.55365,-0.0824128,1.49526,-0.777098,0.53109,-0.600301,0.687018,0.318664,0.653966,-0.374701,1
1.197,-0.523566,-2.25393,-0.684108,2.21546,1.54157,-1.21134,1.197,-0.523566,-2.25393,-0.684108,2.21546,1.54157,-1.21134,1.27431,-0.573131,-2.19355,-0.752963,2.18457,1.47584,-1.1746,-1.22393,0.868181,-0.939368,1.07529,0.519194,1.01963,-0.597734,-1.22393,0.868181,-0.939368,1.07529,0.519194,1.01963,-0.597734,0.11788,-0.483525,0.980414,0.915972,-0.147127,0.222364,0.299837,-0.935665,0.446184,0.576096,1.48339,-0.524558,1.72315,-3.51,-0.0807643,1.37831,-3.54646,-0.0842712,1.39186,-0.773104,0.495657,-0.603816,0.688547,0.308945,0.657327,-0.367408,1
1.18455,-0.518969,-2.26414,-0.672413,2.21913,1.55289,-1.21668,1.18455,-0.518969,-2.26414,-0.672413,2.21913,1.55289,-1.21668,1.26141,-0.56438,-2.20353,-0.741542,2.18982,1.48672,-1.18081,-1.21861,0.826514,-0.942581,1.0787,0.496267,1.02759,-0.586078,-1.21861,0.826514,-0.942581,1.0787,0.496267,1.02759,-0.586078,0.108256,-0.478256,0.985903,0.918378,-0.157018,0.22518,0.284994,-0.919498,0.456543,0.550967,1.44809,-0.525214,1.73639,-3.52975,-0.0656009,1.32339,-3.53552,-0.0891273,1.28945,-0.768592,0.454114,-0.606123,0.691292,0.293083,0.66175,-0.358695,1
1.17196,-0.515851,-2.27454,-0.660641,2.22297,1.56391,-1.22208,1.17196,-0.515851,-2.27454,-0.660641,2.22297,1.56391,-1.22208,1.24857,-0.556247,-2.21357,-0.730097,2.19493,1.49765,-1.18689,-1.21215,0.768131,-0.948559,1.0809,0.482547,1.03233,-0.574679,-1.21215,0.768131,-0.948559,1.0809,0.482547,1.03233,-0.574679,0.0987905,-0.473023,0.991035,0.920426,-0.166706,0.228039,0.270228,-0.907187,0.454702,0.518623,1.41304,-0.525562,1.74836,-3.50512,-0.0347674,1.19743,-3.52669,-0.0863629,1.19044,-0.766094,0.403969,-0.609667,0.694566,0.280365,0.662572,-0.351921,1
1.15948,-0.514998,-2.28501,-0.648687,2.22738,1.57496,-1.22746,1.15948,-0.514998,-2.28501,-0.648687,2.22738,1.57496,-1.22746,1.23582,-0.548819,-2.22365,-0.718603,2.19975,1.50866,-1.19283,-1.20495,0.701581,-0.951708,1.08562,0.455427,1.03971,-0.560549,-1.20495,0.701581,-0.951708,1.08562,0.455427,1.03971,-0.560549,0.0894767,-0.467877,0.99578,0.92212,-0.176171,0.230983,0.25555,-0.895678,0.447968,0.483439,1.37798,-0.526449,1.75943,-3.50623,-0.0886798,1.10749,-3.51698,-0.0837071,1.09339,-0.763388,0.338211,-0.613655,0.699164,0.276276,0.663042,-0.346309,1
1.14732,-0.515395,-2.29532,-0.636765,2.23266,1.58616,-1.23313,1.14732,-0.515395,-2.29532,-0.636765,2.23266,1.58616,-1.23313,1.22309,-0.54225,-2.23379,-0.707053,2.20438,1.51967,-1.19866,-1.20168,0.620469,-0.957752,1.09085,0.436891,1.03978,-0.550618,-1.20168,0.620469,-0.957752,1.09085,0.436891,1.03978,-0.550618,0.0802372,-0.462953,1.00009,0.923518,-0.185309,0.233935,0.240936,-0.891335,0.429745,0.443114,1.34313,-0.526954,1.76958,-3.48492,-0.0505745,1.01415,-3.50734,-0.0711407,1.00071,-0.757705,0.268551,-0.615379,0.702881,0.282778,0.664948,-0.344754,1
1.13549,-0.519906,-2.30551,-0.624744,2.23675,1.59761,-1.23867,1.13549,-0.519906,-2.30551,-0.624744,2.23675,1.59761,-1.23867,1.21042,-0.53682,-2.24399,-0.695423,2.20896,1.53069,-1.20439,-1.19724,0.512875,-0.964054,1.09846,0.43289,1.04065,-0.542034,-1.19724,0.512875,-0.964054,1.09846,0.43289,1.04065,-0.542034,0.0709679,-0.458433,1.00387,0.924681,-0.194026,0.23675,0.226427,-0.896032,0.395325,0.393535,1.30811,-0.52758,1.77886,-3.50235,-0.0625491,0.928867,-3.50638,-0.0625529,0.908527,-0.749248,0.169132,-0.615204,0.706794,0.277883,0.669224,-0.342723,1
1.12438,-0.53249,-2.31549,-0.612556,2.23902,1.60944,-1.24461,1.12438,-0.53249,-2.31549,-0.612556,2.23902,1.60944,-1.24461,1.19784,-0.53255,-2.25422,-0.683735,2.21368,1.54174,-1.21012,-1.18749,0.403234,-0.966087,1.10399,0.44595,1.04412,-0.540844,-1.18749,0.403234,-0.966087,1.10399,0.44595,1.04412,-0.540844,0.0616479,-0.454328,1.00714,0.925638,-0.202353,0.239322,0.212067,-0.901671,0.359582,0.344413,1.27303,-0.528503,1.78737,-3.50782,-0.0923395,0.850964,-3.50346,-0.064141,0.817299,-0.73464,0.000605581,-0.612714,0.711786,0.25331,0.677043,-0.344872,1
1.11503,-0.546314,-2.32456,-0.599641,2.23946,1.62193,-1.25269,1.11503,-0.546314,-2.32456,-0.599641,2.23946,1.62193,-1.25269,1.18542,-0.530031,-2.26444,-0.67198,2.21828,1.55287,-1.21581,-1.17353,0.237972,-0.965362,1.11026,0.43414,1.05148,-0.537265,-1.17353,0.237972,-0.965362,1.11026,0.43414,1.05148,-0.537265,0.0521663,-0.450999,1.00966,0.926459,-0.210073,0.241614,0.197904,-0.918181,0.291229,0.271461,1.23761,-0.529832,1.79476,-3.5423,-0.132841,0.739026,-3.50486,-0.0745237,0.723564,-0.703862,-0.162835,-0.601233,0.723388,0.211785,0.690622,-0.368797,1
1.10706,-0.559554,-2.33405,-0.586381,2.21934,1.63478,-1.26445,1.10706,-0.559554,-2.33405,-0.586381,2.21934,1.63478,-1.26445,1.17326,-0.530521,-2.27461,-0.660139,2.22241,1.56414,-1.22155,-1.14882,-0.0462793,-0.960819,1.11841,0.390243,1.06473,-0.542021,-1.14882,-0.0462793,-0.960819,1.11841,0.390243,1.06473,-0.542021,0.0422602,-0.449212,1.01092,0.927315,-0.216736,0.243429,0.183997,-0.959571,0.153795,0.147653,1.20274,-0.530732,1.80091,-3.48641,-0.0900626,0.614107,-3.50625,-0.0850941,0.628916,-0.661942,-0.290328,-0.594307,0.73758,-0.0307638,0.706344,-0.428983,1
1.09705,-0.570504,-2.34375,-0.57409,2.21533,1.64646,-1.27083,1.09705,-0.570504,-2.34375,-0.57409,2.21533,1.64646,-1.27083,1.16165,-0.533668,-2.28457,-0.648084,2.22581,1.57566,-1.22775,-1.09581,-0.297248,-0.940112,1.13862,0.320837,1.08765,-0.586103,-1.09581,-0.297248,-0.940112,1.13862,0.320837,1.08765,-0.586103,0.0321204,-0.448675,1.01107,0.928155,-0.222675,0.24487,0.170243,-0.982447,0.041458,0.0405712,1.16698,-0.532066,1.80616,-3.57636,-0.133395,0.525761,-3.5153,-0.0952159,0.531233,-0.646078,-0.368359,-0.591867,0.739942,-0.104746,0.708045,-0.43081,1
1.08741,-0.574463,-2.35139,-0.561311,2.23947,1.65753,-1.27516,1.08741,-0.574463,-2.35139,-0.561311,2.23947,1.65753,-1.27516,1.15078,-0.538826,-2.29443,-0.635789,2.22452,1.58744,-1.23506,-1.02748,-0.487192,-0.931209,1.1613,-0.12183,1.11267,-0.690594,-1.02748,-0.487192,-0.931209,1.1613,-0.12183,1.11267,-0.690594,0.0225496,-0.449082,1.01012,0.928625,-0.227898,0.247899,0.15577,-0.944663,-0.0434076,-0.0605558,1.13169,-0.532411,1.81003,-3.5285,-0.0344813,0.387001,-3.52449,-0.0984703,0.426785,-0.633695,-0.356369,-0.569621,0.744777,0.149508,0.700936,-0.400916,1
1.0785,-0.586278,-2.3596,-0.549295,2.24695,1.66936,-1.28155,1.0785,-0.586278,-2.3596,-0.549295,2.24695,1.66936,-1.28155,1.14007,-0.545138,-2.30426,-0.623495,2.22269,1.5992,-1.24219,-1.01123,-0.596203,-0.928388,1.16123,-0.172868,1.11089,-0.673211,-1.01123,-0.596203,-0.928388,1.16123,-0.172868,1.11089,-0.673211,0.0129129,-0.449991,1.00861,0.928911,-0.232564,0.251024,0.141511,-0.953157,-0.086312,-0.114065,1.09703,-0.532491,1.81317,-3.46648,-0.00798106,0.313234,-3.52334,-0.0885108,0.320067,-0.615751,-0.411397,-0.553471,0.741996,0.242634,0.701599,-0.393615,1
1.06781,-0.594492,-2.37122,-0.537004,2.23764,1.68124,-1.29092,1.06781,-0.594492,-2.37122,-0.537004,2.23764,1.68124,-1.29092,1.12958,-0.550982,-2.31365,-0.611104,2.22603,1.61082,-1.24876,-0.991166,-0.551917,-0.887081,1.17034,0.315831,1.09786,-0.620412,-0.991166,-0.551917,-0.887081,1.17034,0.315831,1.09786,-0.620412,0.00280334,-0.450204,1.00766,0.929233,-0.23786,0.251908,0.128416,-0.978227,-0.0240377,-0.0685176,1.06134,-0.533509,1.81511,-3.56874,-0.101793,0.194788,-3.52595,-0.0786207,0.211241,-0.617668,-0.435103,-0.575722,0.740997,0.116036,0.704104,-0.421558,1
1.05873,-0.603223,-2.38024,-0.524837,2.23516,1.69308,-1.29791,1.05873,-0.603223,-2.38024,-0.524837,2.23516,1.69308,-1.29791,1.1194,-0.558015,-2.3228,-0.598788,2.2302,1.62249,-1.25529,-0.961392,-0.664308,-0.864913,1.16329,0.393725,1.10171,-0.617191,-0.961392,-0.664308,-0.864913,1.16329,0.393725,1.10171,-0.617191,-0.00751118,-0.450859,1.00621,0.929539,-0.242836,0.252155,0.115781,-0.993576,-0.0635832,-0.118969,1.0257,-0.534844,1.81593,-3.56441,-0.133485,0.0813723,-3.53028,-0.0750491,0.103238,-0.606689,-0.452085,-0.574315,0.739502,0.0496142,0.705925,-0.426141,1
1.04962,-0.611611,-2.38841,-0.512375,2.24094,1.70481,-1.30326,1.04962,-0.611611,-2.38841,-0.512375,2.24094,1.70481,-1.30326,1.10912,-0.565283,-2.33245,-0.586477,2.23168,1.63419,-1.26239,-0.970936,-0.686528,-0.911214,1.16282,0.139936,1.10566,-0.670426,-0.970936,-0.686528,-0.911214,1.16282,0.139936,1.10566,-0.670426,-0.01747,-0.45158,1.00437,0.929448,-0.247401,0.253845,0.102379,-0.973038,-0.0658516,-0.150709,0.991158,-0.536343,1.81594,-3.4539,-0.149947,0.000846386,-3.52738,-0.0838757,-0.00107908,-0.594999,-0.463272,-0.559588,0.741013,0.0925471,0.70615,-0.408642,1
1.04046,-0.621391,-2.3974,-0.500061,2.245,1.71628,-1.30932,1.04046,-0.621391,-2.3974,-0.500061,2.245,1.71628,-1.30932,1.09908,-0.572843,-2.34197,-0.574194,2.23238,1.64593,-1.26947,-0.948371,-0.714063,-0.899337,1.1601,0.0654967,1.1083,-0.668442,-0.948371,-0.714063,-0.899337,1.1601,0.0654967,1.1083,-0.668442,-0.0271854,-0.452281,1.0023,0.929067,-0.251796,0.255916,0.0891091,-0.953188,-0.0628905,-0.171199,0.956652,-0.536791,1.81508,-3.4506,-0.0447929,-0.0850797,-3.51207,-0.0871122,-0.102388,-0.586144,-0.485476,-0.554253,0.741334,0.12628,0.703519,-0.398488,1
1.03133,-0.630756,-2.40726,-0.487836,2.24353,1.72789,-1.31635,1.03133,-0.630756,-2.40726,-0.487836,2.24353,1.72789,-1.31635,1.08922,-0.580568,-2.35123,-0.561876,2.23408,1.65766,-1.2762,-0.930862,-0.729632,-0.873987,1.16348,0.161131,1.10819,-0.635904,-0.930862,-0.729632,-0.873987,1.16348,0.161131,1.10819,-0.635904,-0.0369216,-0.4528,1.00019,0.928531,-0.256254,0.25756,0.0763355,-0.951232,-0.0461762,-0.175542,0.92121,-0.537494,1.81352,-3.54418,-0.0702918,-0.156128,-3.50852,-0.0952968,-0.195957,-0.578943,-0.50188,-0.560298,0.740399,0.0944762,0.702287,-0.401505,1
1.02263,-0.639887,-2.4166,-0.475578,2.24131,1.73947,-1.32287,1.02263,-0.639887,-2.4166,-0.475578,2.24131,1.73947,-1.32287,1.07951,-0.588703,-2.36043,-0.549559,2.23626,1.66934,-1.2828,-0.917686,-0.768318,-0.868998,1.16342,0.205563,1.10326,-0.623276,-0.917686,-0.768318,-0.868998,1.16342,0.205563,1.10326,-0.623276,-0.0466965,-0.453344,0.997892,0.927874,-0.26056,0.259008,0.063825,-0.953525,-0.0473273,-0.19534,0.886221,-0.538499,1.81052,-3.49882,-0.100458,-0.300086,-3.50616,-0.0997884,-0.292682,-0.568768,-0.511843,-0.561691,0.739808,0.0504605,0.701301,-0.400664,1
1.01389,-0.64933,-2.42551,-0.463301,2.24416,1.75079,-1.32848,1.01389,-0.64933,-2.42551,-0.463301,2.24416,1.75079,-1.32848,1.06991,-0.597082,-2.36976,-0.53726,2.23771,1.68101,-1.28949,-0.906718,-0.791446,-0.881327,1.16161,0.136846,1.10187,-0.631442,-0.906718,-0.791446,-0.881327,1.16161,0.136846,1.10187,-0.631442,-0.0562971,-0.453897,0.995363,0.926969,-0.264635,0.260899,0.0512771,-0.940878,-0.0458702,-0.215676,0.851704,-0.539488,1.80673,-3.45174,-0.0988901,-0.379264,-3.49217,-0.0942741,-0.38704,-0.560118,-0.522475,-0.557497,0.739589,0.0645304,0.697821,-0.389887,1
1.00529,-0.659608,-2.43434,-0.451132,2.24862,1.76191,-1.33378,1.00529,-0.659608,-2.43434,-0.451132,2.24862,1.76191,-1.33378,1.06049,-0.605612,-2.37909,-0.524969,2.23842,1.69266,-1.29614,-0.889743,-0.805582,-0.881482,1.16085,0.0677003,1.10028,-0.628225,-0.889743,-0.805582,-0.881482,1.16085,0.0677003,1.10028,-0.628225,-0.0656591,-0.454398,0.992662,0.925797,-0.268532,0.263219,0.0388205,-0.921654,-0.0394762,-0.23046,0.817531,-0.539914,1.80171,-3.4173,-0.0425994,-0.502336,-3.47798,-0.0828769,-0.484408,-0.551907,-0.539961,-0.55253,0.738365,0.101905,0.692547,-0.376427,1
0.997504,-0.667474,-2.44265,-0.444829,2.24657,1.76758,-1.33745,0.997504,-0.667474,-2.44265,-0.444829,2.24657,1.76758,-1.33745,1.05559,-0.610209,-2.38397,-0.518484,2.23903,1.69877,-1.29954,-0.979939,-0.919508,-0.976267,1.29704,0.120648,1.22268,-0.680137,-0.979939,-0.919508,-0.976267,1.29704,0.120648,1.22268,-0.680137,-0.0749821,-0.454812,0.98986,0.924483,-0.272348,0.265417,0.0266683,-0.916699,-0.0303963,-0.240534,0.782545,-0.540676,1.79632,-3.49858,-0.0762701,-0.538754,-3.47708,-0.0758473,-0.579993,-0.580825,-0.572644,-0.586747,0.736545,0.0754167,0.68809,-0.379072,1
0.989185,-0.679242,-2.4527,-0.426698,2.24267,1.78492,-1.34722,0.989185,-0.679242,-2.4527,-0.426698,2.24267,1.78492,-1.34722,1.04205,-0.623347,-2.39751,-0.500416,2.24137,1.71573,-1.3088,-0.863964,-0.852256,-0.865791,1.15834,0.170271,1.08536,-0.587166,-0.863964,-0.852256,-0.865791,1.15834,0.170271,1.08536,-0.587166,-0.0843389,-0.455207,0.986911,0.923093,-0.276044,0.267352,0.0148602,-0.917596,-0.0278735,-0.25581,0.747236,-0.541655,1.78986,-3.53097,-0.0978649,-0.645959,-3.47953,-0.0798949,-0.674651,-0.528694,-0.558954,-0.551911,0.73718,0.0130155,0.691857,-0.384252,1
0.983589,-0.687616,-2.45819,-0.415799,2.2537,1.79427,-1.3508,0.983589,-0.687616,-2.45819,-0.415799,2.2537,1.79427,-1.3508,1.03318,-0.63214,-2.4065,-0.48934,2.24241,1.72606,-1.31451,-0.83844,-0.830466,-0.849532,1.04615,0.097848,0.975758,-0.539143,-0.83844,-0.830466,-0.849532,1.04615,0.097848,0.975758,-0.539143,-0.0931416,-0.455839,0.983818,0.921721,-0.278748,0.26966,0.00371301,-0.868,-0.0445841,-0.271748,0.712422,-0.542834,1.78241,-3.4814,-0.117874,-0.74538,-3.47677,-0.0840004,-0.768182,-0.495881,-0.554767,-0.516921,0.735405,0.112961,0.682014,-0.362896,1
0.972913,-0.701463,-2.46907,-0.403966,2.26845,1.80457,-1.35638,0.972913,-0.701463,-2.46907,-0.403966,2.26845,1.80457,-1.35638,1.02441,-0.641525,-2.41571,-0.476858,2.24246,1.73779,-1.32103,-0.82793,-0.886468,-0.869411,1.17891,0.00499668,1.10764,-0.615729,-0.82793,-0.886468,-0.869411,1.17891,0.00499668,1.10764,-0.615729,-0.10203,-0.456152,0.980509,0.919775,-0.282255,0.272543,-0.00810743,-0.880382,-0.01721,-0.285822,0.677265,-0.543954,1.77416,-3.51569,-0.112051,-0.824273,-3.48475,-0.0885712,-0.855624,-0.514978,-0.599378,-0.533657,0.728922,0.259884,0.667785,-0.353494,1
0.969751,-0.710555,-2.47712,-0.392513,2.27658,1.81603,-1.36241,0.969751,-0.710555,-2.47712,-0.392513,2.27658,1.81603,-1.36241,1.01628,-0.650709,-2.42417,-0.464691,2.2447,1.74905,-1.32696,-0.768272,-0.867428,-0.799601,1.14912,0.211593,1.06284,-0.560278,-0.768272,-0.867428,-0.799601,1.14912,0.211593,1.06284,-0.560278,-0.11072,-0.456196,0.977402,0.917955,-0.285968,0.274273,-0.0188491,-0.851238,0.00379485,-0.270696,0.642283,-0.544122,1.76471,-3.49818,-0.0168264,-0.944829,-3.49614,-0.0862249,-0.946594,-0.465256,-0.598458,-0.529425,0.721782,0.318803,0.669832,-0.354501,1
0.962878,-0.719786,-2.48736,-0.381181,2.28424,1.82686,-1.366,0.962878,-0.719786,-2.48736,-0.381181,2.28424,1.82686,-1.366,1.00764,-0.660823,-2.43312,-0.452591,2.24943,1.76011,-1.33282,-0.816099,-0.95518,-0.845009,1.14285,0.446935,1.04499,-0.553632,-0.816099,-0.95518,-0.845009,1.14285,0.446935,1.04499,-0.553632,-0.120218,-0.456462,0.973925,0.916398,-0.289338,0.274998,-0.0295841,-0.920965,-0.013688,-0.311892,0.607373,-0.544604,1.754,-3.49093,-0.0481665,-1.07098,-3.50346,-0.0830825,-1.04289,-0.447581,-0.589636,-0.542367,0.714102,0.348076,0.667479,-0.331844,1
0.959884,-0.729969,-2.49649,-0.369978,2.29384,1.83793,-1.37051,0.959884,-0.729969,-2.49649,-0.369978,2.29384,1.83793,-1.37051,1.00009,-0.670733,-2.44189,-0.440619,2.25484,1.77125,-1.33872,-0.712993,-0.935963,-0.827995,1.13066,0.51093,1.05239,-0.556851,-0.712993,-0.935963,-0.827995,1.13066,0.51093,1.05239,-0.556851,-0.12912,-0.456544,0.97049,0.91472,-0.293066,0.27537,-0.0396352,-0.860537,-0.0014688,-0.307474,0.572091,-0.545327,1.74226,-3.52828,-0.0723422,-1.17403,-3.50438,-0.0755038,-1.14844,-0.402027,-0.592366,-0.545993,0.706417,0.390012,0.66673,-0.317905,1
0.956191,-0.740431,-2.506,-0.359198,2.30332,1.84807,-1.37383,0.956191,-0.740431,-2.506,-0.359198,2.30332,1.84807,-1.37383,0.992672,-0.680507,-2.45095,-0.428776,2.2607,1.78233,-1.34415,-0.700272,-0.923188,-0.855743,1.11864,0.553271,1.04649,-0.513569,-0.700272,-0.923188,-0.855743,1.11864,0.553271,1.04649,-0.513569,-0.133749,-0.456522,0.968672,0.913794,-0.294992,0.275601,-0.0447756,-0.950137,0.00770053,-0.342962,0.536738,-0.546467,1.72968,-3.53525,-0.113952,-1.2583,-3.5073,-0.0716929,-1.25348,-0.36481,-0.59924,-0.550484,0.695779,0.426204,0.657398,-0.296797,1
0.953305,-0.751583,-2.51602,-0.348553,2.31182,1.85919,-1.37896,0.953305,-0.751583,-2.51602,-0.348553,2.31182,1.85919,-1.37896,0.986139,-0.690363,-2.46002,-0.417059,2.2673,1.79341,-1.34941,-0.617074,-0.930872,-0.857038,1.10657,0.623753,1.04626,-0.49596,-0.617074,-0.930872,-0.857038,1.10657,0.623753,1.04626,-0.49596,-0.146216,-0.456397,0.963486,0.911116,-0.300485,0.275972,-0.0584446,-0.80494,0.00988371,-0.318078,0.501971,-0.548463,1.71573,-3.47674,-0.199592,-1.39508,-3.50928,-0.0825665,-1.36228,-0.328338,-0.612196,-0.560032,0.68506,0.445112,0.657824,-0.295511,1
0.946303,-0.762818,-2.52617,-0.337947,2.31895,1.86973,-1.3838,0.946303,-0.762818,-2.52617,-0.337947,2.31895,1.86973,-1.3838,0.980171,-0.70034,-2.46918,-0.40553,2.27448,1.8043,-1.35427,-0.56361,-0.942279,-0.865232,1.08895,0.677822,1.02874,-0.459744,-0.56361,-0.942279,-0.865232,1.08895,0.677822,1.02874,-0.459744,-0.154306,-0.456388,0.959828,0.909328,-0.304153,0.275912,-0.0669751,-0.777926,0.0031439,-0.329831,0.467781,-0.549368,1.70118,-3.41901,-0.0904799,-1.455,-3.49897,-0.0956608,-1.4687,-0.338683,-0.62478,-0.569919,0.675822,0.444677,0.654294,-0.295264,1
0.939371,-0.77449,-2.5358,-0.32641,2.32073,1.88098,-1.39108,0.939371,-0.77449,-2.5358,-0.32641,2.32073,1.88098,-1.39108,0.974818,-0.710551,-2.47852,-0.394176,2.28192,1.81524,-1.35919,-0.505624,-0.964389,-0.88157,1.07229,0.702635,1.03303,-0.464542,-0.505624,-0.964389,-0.88157,1.07229,0.702635,1.03303,-0.464542,-0.162106,-0.45652,0.955957,0.907514,-0.307777,0.275762,-0.0751478,-0.749336,-0.0109157,-0.350308,0.433745,-0.549808,1.68574,-3.40358,-0.0440359,-1.54414,-3.48186,-0.106143,-1.56825,-0.354473,-0.639396,-0.572847,0.677662,0.388092,0.657423,-0.318856,1
0.92902,-0.786036,-2.54464,-0.31481,2.32151,1.89181,-1.39816,0.92902,-0.786036,-2.54464,-0.31481,2.32151,1.89181,-1.39816,0.969136,-0.720965,-2.48801,-0.382972,2.2893,1.8261,-1.36409,-0.536674,-0.983712,-0.896962,1.05828,0.696906,1.02558,-0.463143,-0.536674,-0.983712,-0.896962,1.05828,0.696906,1.02558,-0.463143,-0.169997,-0.456659,0.951893,0.905631,-0.311136,0.275811,-0.0833986,-0.854217,-0.0160763,-0.409684,0.398763,-0.5507,1.66977,-3.49818,-0.0891685,-1.59733,-3.46957,-0.107675,-1.6581,-0.401159,-0.650702,-0.566223,0.68162,0.322093,0.657154,-0.340617,1
0.92371,-0.798915,-2.55357,-0.303501,2.31867,1.90238,-1.4066,0.92371,-0.798915,-2.55357,-0.303501,2.31867,1.90238,-1.4066,0.963205,-0.731631,-2.49754,-0.371701,2.29556,1.83703,-1.36947,-0.560209,-1.00738,-0.899412,1.06454,0.591559,1.03296,-0.507827,-0.560209,-1.00738,-0.899412,1.06454,0.591559,1.03296,-0.507827,-0.177827,-0.456826,0.9476,0.903518,-0.314295,0.276427,-0.0919842,-0.758918,-0.00810293,-0.388624,0.364632,-0.552054,1.65188,-3.41315,-0.135452,-1.78868,-3.45198,-0.10711,-1.75349,-0.394945,-0.672839,-0.560394,0.682009,0.231126,0.653421,-0.371302,1
0.912928,-0.812781,-2.56334,-0.29345,2.32169,1.91205,-1.4141,0.912928,-0.812781,-2.56334,-0.29345,2.32169,1.91205,-1.4141,0.956393,-0.742472,-2.50692,-0.360365,2.30073,1.84795,-1.37519,-0.643385,-1.02394,-0.886459,1.07074,0.48833,1.03099,-0.53988,-0.643385,-1.02394,-0.886459,1.07074,0.48833,1.03099,-0.53988,-0.185867,-0.456859,0.94314,0.90116,-0.317169,0.277662,-0.101088,-0.784336,0.00966548,-0.402783,0.329601,-0.553277,1.63335,-3.50308,-0.122321,-1.85282,-3.44681,-0.10338,-1.85039,-0.434651,-0.703094,-0.564188,0.669154,0.209558,0.640975,-0.389091,1
0.902284,-0.825798,-2.57245,-0.283292,2.32802,1.92216,-1.42165,0.902284,-0.825798,-2.57245,-0.283292,2.32802,1.92216,-1.42165,0.949881,-0.753719,-2.51622,-0.349034,2.30431,1.85879,-1.38145,-0.615117,-1.06231,-0.87807,1.07024,0.337693,1.02436,-0.591245,-0.615117,-1.06231,-0.87807,1.07024,0.337693,1.02436,-0.591245,-0.193594,-0.457159,0.938366,0.898623,-0.319702,0.279479,-0.110267,-0.759132,-0.0118594,-0.431486,0.295544,-0.553202,1.61393,-3.4057,0.00752807,-1.94207,-3.44555,-0.0867273,-1.94615,-0.47597,-0.720788,-0.562317,0.657417,0.237113,0.63367,-0.402006,1
0.887111,-0.838514,-2.58112,-0.272331,2.32476,1.93289,-1.42955,0.887111,-0.838514,-2.58112,-0.272331,2.32476,1.93289,-1.42955,0.942517,-0.765488,-2.52561,-0.337958,2.30777,1.86941,-1.38795,-0.695481,-1.1116,-0.886883,1.04615,0.327118,1.00225,-0.614491,-0.695481,-1.1116,-0.886883,1.04615,0.327118,1.00225,-0.614491,-0.201766,-0.457542,0.933244,0.896081,-0.32169,0.281432,-0.119792,-0.802923,-0.013555,-0.466495,0.261754,-0.554142,1.59381,-3.379,-0.0940144,-2.01156,-3.44159,-0.0846071,-2.04333,-0.55407,-0.730266,-0.555148,0.656276,0.169887,0.634849,-0.415954,1
0.871916,-0.850987,-2.58894,-0.260362,2.31128,1.94276,-1.43841,0.871916,-0.850987,-2.58894,-0.260362,2.31128,1.94276,-1.43841,0.9345,-0.777505,-2.53494,-0.327065,2.3118,1.87992,-1.39467,-0.757233,-1.13508,-0.881609,1.02886,0.381085,0.992909,-0.634165,-0.757233,-1.13508,-0.881609,1.02886,0.381085,0.992909,-0.634165,-0.210288,-0.457781,0.927949,0.893513,-0.323505,0.283204,-0.129512,-0.835246,0.0025925,-0.48448,0.226776,-0.555993,1.57289,-3.49776,-0.185072,-2.09284,-3.4429,-0.0949562,-2.13718,-0.625846,-0.734817,-0.539992,0.667032,-0.00524125,0.628468,-0.437403,1
0.858973,-0.864894,-2.60136,-0.250571,2.3102,1.95228,-1.44646,0.858973,-0.864894,-2.60136,-0.250571,2.3102,1.95228,-1.44646,0.925057,-0.789662,-2.54414,-0.316159,2.31439,1.89047,-1.40162,-0.891917,-1.14824,-0.869165,1.03015,0.243808,0.99699,-0.656496,-0.891917,-1.14824,-0.869165,1.03015,0.243808,0.99699,-0.656496,-0.219228,-0.457736,0.922467,0.8906,-0.324873,0.28587,-0.139885,-0.881946,0.0376074,-0.500264,0.192251,-0.556981,1.55087,-3.45249,-0.0988126,-2.20213,-3.43962,-0.0985243,-2.22938,-0.660846,-0.752323,-0.572142,0.655882,-0.041905,0.618046,-0.448379,1
0.84631,-0.879523,-2.61423,-0.242258,2.31509,1.96107,-1.45403,0.84631,-0.879523,-2.61423,-0.242258,2.31509,1.96107,-1.45403,0.914468,-0.801882,-2.55307,-0.305041,2.31377,1.90089,-1.40895,-1.00017,-1.15419,-0.843118,1.05014,-0.0584462,0.98417,-0.692413,-1.00017,-1.15419,-0.843118,1.05014,-0.0584462,0.98417,-0.692413,-0.228237,-0.457515,0.916825,0.887166,-0.325573,0.290103,-0.15093,-0.90013,0.0649583,-0.511233,0.157973,-0.557294,1.52765,-3.42779,-0.0312865,-2.32118,-3.44086,-0.0925635,-2.31676,-0.681585,-0.776415,-0.611622,0.627824,0.0132512,0.601721,-0.450797,1
0.834185,-0.892318,-2.62351,-0.232135,2.3102,1.97165,-1.46371,0.834185,-0.892318,-2.62351,-0.232135,2.3102,1.97165,-1.46371,0.90341,-0.814438,-2.56269,-0.294187,2.31306,1.91113,-1.41642,-1.04447,-1.18595,-0.908821,1.02517,-0.0672215,0.967105,-0.705917,-1.04447,-1.18595,-0.908821,1.02517,-0.0672215,0.967105,-0.705917,-0.237472,-0.457336,0.910872,0.883634,-0.325677,0.294688,-0.162126,-0.923177,0.0678909,-0.541891,0.123258,-0.557873,1.50369,-3.4715,-0.0579417,-2.39633,-3.44168,-0.0886087,-2.40888,-0.692247,-0.778803,-0.608175,0.620514,-0.0285333,0.605142,-0.472911,1
0.821669,-0.905307,-2.63325,-0.221353,2.30466,1.98167,-1.47232,0.821669,-0.905307,-2.63325,-0.221353,2.30466,1.98167,-1.47232,0.892032,-0.827407,-2.57296,-0.283839,2.31346,1.92108,-1.42392,-1.07468,-1.22496,-0.970033,0.977339,0.0383367,0.939781,-0.707776,-1.07468,-1.22496,-0.970033,0.977339,0.0383367,0.939781,-0.707776,-0.247036,-0.457209,0.904589,0.880219,-0.325271,0.298995,-0.173247,-0.951135,0.0673461,-0.576781,0.0881834,-0.558898,1.47824,-3.5075,-0.102407,-2.54488,-3.4567,-0.0923191,-2.50911,-0.703633,-0.779004,-0.602854,0.624868,-0.0880241,0.605894,-0.484069,1
0.808804,-0.919614,-2.64545,-0.213646,2.30683,1.9909,-1.47945,0.808804,-0.919614,-2.64545,-0.213646,2.30683,1.9909,-1.47945,0.880505,-0.840341,-2.58303,-0.273537,2.31281,1.93116,-1.43185,-1.08872,-1.22168,-0.951345,0.973113,-0.0613402,0.951666,-0.749025,-1.08872,-1.22168,-0.951345,0.973113,-0.0613402,0.951666,-0.749025,-0.256441,-0.456916,0.898205,0.876498,-0.324761,0.303769,-0.184406,-0.938499,0.0859892,-0.584239,0.0536593,-0.559822,1.45196,-3.45241,-0.092417,-2.62839,-3.46594,-0.0847842,-2.61442,-0.717015,-0.792725,-0.624175,0.598904,-0.0598422,0.597461,-0.476072,1
0.796139,-0.933455,-2.65661,-0.206347,2.30692,2.00189,-1.48679,0.796139,-0.933455,-2.65661,-0.206347,2.30692,2.00189,-1.48679,0.868781,-0.853287,-2.59304,-0.263138,2.31119,1.94122,-1.43991,-1.10736,-1.22271,-0.945054,0.982149,-0.153446,0.950714,-0.761807,-1.10736,-1.22271,-0.945054,0.982149,-0.153446,0.950714,-0.761807,-0.265746,-0.456448,0.891739,0.872493,-0.32404,0.309059,-0.195542,-0.931231,0.106184,-0.590133,0.0189728,-0.561588,1.42454,-3.46866,-0.176644,-2.74218,-3.46566,-0.0859631,-2.72243,-0.726423,-0.801687,-0.635761,0.567916,-0.0426993,0.60662,-0.468835,1
0.783271,-0.946853,-2.66718,-0.197517,2.30392,2.01279,-1.49474,0.783271,-0.946853,-2.66718,-0.197517,2.30392,2.01062,-1.49474,0.85683,-0.866503,-2.60348,-0.253276,2.31032,1.95112,-1.44779,-1.12877,-1.24828,-0.986391,0.931439,-0.0820499,0.934987,-0.744172,-1.12877,-1.24828,-0.986391,0.931439,-0.0820499,0.934987,-0.744172,-0.275248,-0.455973,0.884987,0.868577,-0.322876,0.314197,-0.20641,-0.946941,0.1103,-0.619752,-0.0147744,-0.562618,1.39577,-3.37472,-0.102997,-2.87629,-3.45956,-0.0980254,-2.83302,-0.735596,-0.803496,-0.636945,0.557595,-0.0639632,0.616698,-0.469511,1
0.770169,-0.960824,-2.67861,-0.191242,2.30582,2.02349,-1.50199,0.770169,-0.960824,-2.67861,-0.191242,2.30582,2.01062,-1.50199,0.844737,-0.879844,-2.61407,-0.243925,2.30964,1.96124,-1.45556,-1.1422,-1.26004,-0.999945,0.883214,-0.0640088,0.955347,-0.734062,-1.1422,-1.26004,-0.999945,0.883214,-0.0640088,0.955347,-0.734062,-0.284785,-0.455419,0.877976,0.864629,-0.321489,0.319375,-0.216938,-0.948638,0.119668,-0.644865,-0.0486555,-0.563317,1.36672,-3.38811,-0.0698805,-2.90571,-3.44701,-0.108031,-2.93698,-0.745672,-0.8098,-0.645385,0.526836,-0.038218,0.622508,-0.464321,1
0.757421,-0.974586,-2.69007,-0.184994,2.30766,2.03344,-1.50887,0.757421,-0.974586,-2.69007,-0.184994,2.30766,2.01062,-1.50887,0.832489,-0.893196,-2.62465,-0.234678,2.3085,1.97108,-1.46337,-1.15679,-1.2611,-0.999478,0.873399,-0.107625,0.929445,-0.737346,-1.15679,-1.2611,-0.999478,0.873399,-0.107625,0.929445,-0.737346,-0.294277,-0.454724,0.87089,0.860561,-0.319785,0.324788,-0.227345,-0.944221,0.136428,-0.651768,-0.0826583,-0.564321,1.33779,-3.40028,-0.100452,-2.89246,-3.42808,-0.11064,-3.02477,-0.750676,-0.813899,-0.654182,0.496841,-0.00844489,0.623583,-0.454967,1
0.745648,-0.987466,-2.70203,-0.176167,2.29672,2.04099,-1.51531,0.745648,-0.987466,-2.70203,-0.176167,2.29672,2.01062,-1.51531,0.820071,-0.906672,-2.6354,-0.226022,2.30797,1.97896,-1.47107,-1.17285,-1.27275,-1.01545,0.817466,-0.0504804,0.744242,-0.726922,-1.17285,-1.27275,-1.01545,0.817466,-0.0504804,0.744242,-0.726922,-0.303963,-0.454137,0.863818,0.85691,-0.317006,0.329696,-0.237727,-0.95739,0.132895,-0.658406,-0.116774,-0.566304,1.30679,-3.41154,-0.198239,-3.10013,-3.4112,-0.117667,-3.10896,-0.744228,-0.807936,-0.666306,0.498551,-0.11251,0.620319,-0.442473,1
0.734913,-1.00051,-2.71385,-0.167161,2.29798,2.04528,-1.52269,0.734913,-1.00051,-2.71385,-0.167161,2.29798,2.01062,-1.52269,0.807587,-0.920205,-2.6463,-0.217847,2.3079,1.98527,-1.4786,-1.17906,-1.27814,-1.02883,0.772162,-0.00583552,0.595942,-0.711397,-1.17906,-1.27814,-1.02883,0.772162,-0.00583552,0.595942,-0.711397,-0.313747,-0.453591,0.856764,0.853574,-0.313376,0.334211,-0.248011,-0.962129,0.134027,-0.662758,-0.150117,-0.567467,1.27413,-3.3343,-0.116289,-3.26631,-3.39538,-0.121678,-3.20346,-0.726739,-0.803046,-0.675522,0.506859,-0.0992474,0.600162,-0.440895,1
0.723659,-1.01371,-2.72601,-0.162302,2.30637,2.04811,-1.52887,0.723659,-1.01371,-2.72601,-0.162302,2.30637,2.01062,-1.52887,0.795245,-0.933607,-2.6574,-0.209542,2.30568,1.99032,-1.48591,-1.16569,-1.26585,-1.04898,0.784408,-0.210578,0.477193,-0.690978,-1.16569,-1.26585,-1.04898,0.784408,-0.210578,0.477193,-0.690978,-0.32319,-0.453178,0.849777,0.850096,-0.308745,0.339653,-0.258164,-0.932845,0.130351,-0.655839,-0.183538,-0.567772,1.24091,-3.34208,-0.0304818,-3.32139,-3.37976,-0.111551,-3.30031,-0.715864,-0.801016,-0.686097,0.472399,0.00698697,0.577877,-0.42952,1
0.712199,-1.02615,-2.73761,-0.15511,2.30431,2.0527,-1.53519,0.712199,-1.02615,-2.73761,-0.15511,2.30431,2.01062,-1.53519,0.783223,-0.946939,-2.66865,-0.201097,2.30414,1.99437,-1.49324,-1.13544,-1.25909,-1.06231,0.797603,-0.144823,0.382106,-0.692078,-1.13544,-1.25909,-1.06231,0.797603,-0.144823,0.382106,-0.692078,-0.332501,-0.452646,0.842957,0.846697,-0.303906,0.344688,-0.268208,-0.91577,0.14169,-0.642438,-0.218039,-0.568995,1.20729,-3.45014,-0.122327,-3.36194,-3.3822,-0.111373,-3.39539,-0.710242,-0.792127,-0.689545,0.459867,0.00164528,0.583358,-0.419518,1
0.701275,-1.03823,-2.74917,-0.145962,2.31058,2.05583,-1.54165,0.701275,-1.03823,-2.74917,-0.145962,2.31058,2.01062,-1.54165,0.771354,-0.960243,-2.68008,-0.193366,2.30459,1.99761,-1.50034,-1.121,-1.25662,-1.07955,0.73012,0.0420096,0.305967,-0.670449,-1.121,-1.25662,-1.07955,0.73012,0.0420096,0.305967,-0.670449,-0.341906,-0.452025,0.836132,0.843693,-0.29885,0.348741,-0.277942,-0.916535,0.148201,-0.648794,-0.252617,-0.570131,1.17284,-3.45781,-0.113577,-3.44505,-3.39075,-0.111625,-3.49461,-0.70079,-0.779834,-0.690942,0.474045,0.0599092,0.582277,-0.413128,1
0.690289,-1.05102,-2.76113,-0.14238,2.31535,2.0579,-1.54703,0.690289,-1.05102,-2.76113,-0.14238,2.31535,2.01062,-1.54703,0.759567,-0.973376,-2.69154,-0.185743,2.30453,2.0002,-1.50728,-1.1133,-1.24038,-1.08261,0.719982,-0.0052728,0.244999,-0.655937,-1.1133,-1.24038,-1.08261,0.719982,-0.0052728,0.244999,-0.655937,-0.351133,-0.451329,0.829373,0.840644,-0.293402,0.352964,-0.287486,-0.89839,0.157945,-0.642762,-0.286363,-0.571393,1.13731,-3.37463,-0.126243,-3.55365,-3.39544,-0.108558,-3.5935,-0.692773,-0.776451,-0.695851,0.43363,0.108226,0.576955,-0.397448,1
0.678838,-1.06312,-2.77285,-0.136736,2.319,2.06105,-1.55363,0.678838,-1.06312,-2.77285,-0.136736,2.319,2.01062,-1.55363,0.747951,-0.986299,-2.70303,-0.177816,2.30574,2.00228,-1.51413,-1.09704,-1.22048,-1.08462,0.748685,0.1138,0.19618,-0.646801,-1.09704,-1.22048,-1.08462,0.748685,0.1138,0.19618,-0.646801,-0.360254,-0.450272,0.822887,0.837587,-0.288206,0.356652,-0.296958,-0.883575,0.188734,-0.617779,-0.320052,-0.572157,1.10071,-3.36888,-0.0763535,-3.65936,-3.39788,-0.0991774,-3.67836,-0.691131,-0.768164,-0.698244,0.410807,0.132598,0.587692,-0.394982,1
0.667707,-1.07542,-2.78466,-0.13391,2.32469,2.06398,-1.55997,0.667707,-1.07542,-2.78466,-0.13391,2.32469,2.01062,-1.55997,0.736462,-0.999196,-2.7146,-0.170755,2.30765,2.00394,-1.52069,-1.08519,-1.21808,-1.09346,0.666905,0.181004,0.157089,-0.619113,-1.08519,-1.21808,-1.09346,0.666905,0.181004,0.157089,-0.619113,-0.369356,-0.449252,0.816251,0.834817,-0.28265,0.359916,-0.306022,-0.877137,0.185038,-0.635682,-0.355469,-0.572828,1.06349,-3.54172,-0.0671744,-3.72248,-3.41933,-0.0973318,-3.75823,-0.68755,-0.762238,-0.700572,0.368457,0.170326,0.600371,-0.392813,1
0.657022,-1.08787,-2.79674,-0.135561,2.32882,2.06661,-1.56543,0.657022,-1.08787,-2.79674,-0.135561,2.32882,2.01062,-1.56543,0.724979,-1.01193,-2.72621,-0.163977,2.30991,2.00527,-1.52725,-1.08447,-1.20296,-1.09621,0.640248,0.213485,0.125787,-0.619988,-1.08447,-1.20296,-1.09621,0.640248,0.213485,0.125787,-0.619988,-0.378384,-0.448067,0.80965,0.832056,-0.276991,0.362983,-0.314965,-0.867209,0.200541,-0.633289,-0.38946,-0.573726,1.02464,-3.39903,-0.0897884,-3.88509,-3.42879,-0.0984175,-3.85203,-0.679574,-0.75942,-0.705251,0.284159,0.189084,0.6134,-0.381743,1
0.646353,-1.10039,-2.8087,-0.145036,2.33749,2.0693,-1.57217,0.646353,-1.10039,-2.8087,-0.145036,2.33749,2.01062,-1.57217,0.713567,-1.02458,-2.73786,-0.157985,2.31286,2.00634,-1.53377,-1.07787,-1.19482,-1.10004,0.565858,0.278015,0.100722,-0.615733,-1.07787,-1.19482,-1.10004,0.565858,0.278015,0.100722,-0.615733,-0.387393,-0.44684,0.802932,0.829492,-0.271135,0.365624,-0.323648,-0.861215,0.203702,-0.647093,-0.422744,-0.57507,0.985124,-3.32845,-0.134379,-3.95129,-3.41752,-0.0958996,-3.95263,-0.672144,-0.758087,-0.708372,0.129495,0.246355,0.629597,-0.383947,1
0.635457,-1.11273,-2.82042,-0.169287,2.35138,2.0725,-1.58069,0.635457,-1.11273,-2.82042,-0.169287,2.35138,2.01062,-1.58069,0.7023,-1.03719,-2.74959,-0.153517,2.31604,2.00719,-1.54008,-1.06423,-1.1912,-1.10814,0.422051,0.300472,0.0806558,-0.595775,-1.06423,-1.1912,-1.10814,0.422051,0.300472,0.0806558,-0.595775,-0.396388,-0.445832,0.795852,0.827318,-0.264702,0.367935,-0.331815,-0.855593,0.183995,-0.68557,-0.45636,-0.576741,0.945459,-3.36157,-0.167066,-3.96645,-3.40499,-0.102691,-4.04496,-0.668432,-0.755403,-0.708311,-0.157696,0.353451,0.653065,-0.406067,1
0.622721,-1.12564,-2.83243,-0.190371,2.36557,2.07259,-1.58664,0.622721,-1.12564,-2.83243,-0.190371,2.36557,2.01062,-1.58664,0.691152,-1.04979,-2.76137,-0.151827,2.32031,2.00788,-1.54647,-1.05297,-1.18942,-1.11241,0.159622,0.403791,0.0645841,-0.603904,-1.05297,-1.18942,-1.11241,0.159622,0.403791,0.0645841,-0.603904,-0.405562,-0.445204,0.788127,0.825895,-0.257531,0.36928,-0.339422,-0.864808,0.148292,-0.755246,-0.489941,-0.576962,0.901699,-3.35811,-0.0221848,-4.37599,-3.39508,-0.100422,-4.16318,-0.684304,-0.758519,-0.710646,-0.385437,0.452559,0.647139,-0.401675,1
0.610713,-1.13808,-2.8416,-0.201961,2.3958,2.06322,-1.58857,0.610713,-1.13808,-2.8416,-0.201961,2.3958,2.01062,-1.58857,0.680054,-1.06233,-2.77313,-0.155306,2.3265,2.00842,-1.55329,-1.04823,-1.18473,-1.11144,-0.328604,0.584762,0.0517149,-0.643916,-1.04823,-1.18473,-1.11144,-0.328604,0.584762,0.0517149,-0.643916,-0.415211,-0.445307,0.779209,0.825835,-0.24908,0.368839,-0.346285,-0.896376,0.0801717,-0.884905,-0.489941,-0.576962,0.901699,0,0,0,-3.01968,-0.0917877,-3.82069,-0.693405,-0.757509,-0.684668,-0.466552,0.692981,0.54796,-0.352808,1
0.613659,-1.14501,-2.84321,-0.193855,2.41161,2.04862,-1.57248,0.613659,-1.14501,-2.84321,-0.193855,2.41161,2.01062,-1.57248,0.668629,-1.07495,-2.78495,-0.162293,2.33429,2.00886,-1.55994,-1.07905,-1.19153,-1.11603,-0.659947,0.735231,0.0414101,-0.627676,-1.07905,-1.19153,-1.11603,-0.659947,0.735231,0.0414101,-0.627676,-0.425409,-0.445615,0.769361,0.826704,-0.239594,0.367099,-0.352693,-0.937538,0.0631861,-0.984767,-0.489941,-0.576962,0.901699,0,0,0,-2.39848,-0.0741703,-3.15951,-0.549704,-0.700653,-0.582547,-0.315616,0.7732,0.397564,-0.125402,1
0.619267,-1.15327,-2.82663,-0.185535,2.42591,2.03536,-1.55414,0.619267,-1.15327,-2.82663,-0.185535,2.42591,2.01062,-1.55414,0.657089,-1.08753,-2.79624,-0.170197,2.34655,2.00921,-1.56564,-1.09003,-1.18827,-1.06622,-0.746588,1.15775,0.0331586,-0.538942,-1.09003,-1.18827,-1.06622,-0.746588,1.15775,0.0331586,-0.538942,-0.436044,-0.44518,0.759514,0.828272,-0.23077,0.363108,-0.358976,-0.965541,0.120877,-0.994196,-0.489941,-0.576962,0.901699,0,0,0,-1.6765,-0.0489848,-2.31936,-0.378216,-0.657487,-0.303949,-0.153374,0.793659,0.261468,0.114977,1
0.615008,-1.16597,-2.80751,-0.21468,2.43929,2.0259,-1.56186,0.615008,-1.16597,-2.80751,-0.21468,2.43929,2.01062,-1.56186,0.648435,-1.09898,-2.8056,-0.174911,2.35951,2.00949,-1.567,-0.817388,-1.08191,-0.883946,-0.445249,1.22454,0.0265513,-0.128626,-0.817388,-1.08191,-0.883946,-0.445249,1.22454,0.0265513,-0.128626,-0.444814,-0.444531,0.751288,0.83023,-0.223911,0.358912,-0.362994,-0.789975,0.113773,-0.831546,-0.489941,-0.576962,0.901699,0,0,0,-0.959831,-0.0218613,-1.4564,-0.33427,-0.669845,-0.0191472,-0.397686,0.797839,0.164054,0.0514324,1
0.671798,-1.17846,-2.76204,-0.240851,2.453,2.03043,-1.57205,0.671798,-1.17846,-2.76204,-0.240851,2.453,2.01062,-1.57205,0.642623,-1.1098,-2.80979,-0.177028,2.37274,2.00972,-1.56444,-0.54896,-1.02186,-0.395923,-0.199941,1.24973,0.0212606,0.242026,-0.54896,-1.02186,-0.395923,-0.199941,1.24973,0.0212606,0.242026,-0.451976,-0.443804,0.744487,0.833088,-0.219521,0.353179,-0.364745,-0.633102,0.0870275,-0.695122,-0.489941,-0.576962,0.901699,0,0,0,-0.359798,-0.00237737,-0.718857,0.291753,-0.686585,0.477504,-0.638229,0.802539,0.207115,-0.0761068,1
0.686416,-1.18934,-2.74854,-0.242658,2.46682,2.04142,-1.57449,0.686416,-1.18934,-2.74854,-0.242658,2.46682,2.01062,-1.57449,0.63712,-1.12099,-2.80934,-0.184531,2.386,2.0099,-1.56393,-0.519737,-1.05709,0.0428553,-0.708639,1.25257,0.0170242,0.0485741,-0.519737,-1.05709,0.0428553,-0.708639,1.25257,0.0170242,0.0485741,-0.459628,-0.443864,0.736283,0.83738,-0.214783,0.34413,-0.366386,-0.657794,0.00320997,-0.848396,-0.489941,-0.576962,0.901699,0,0,0,-4.25747e-07,0,-0.25,0.492954,-0.683484,0.607935,-0.581269,0.808183,0.315204,-0.105625,1
0.697267,-1.19804,-2.73304,-0.238809,2.47747,2.03949,-1.57112,0.697267,-1.19804,-2.73304,-0.238809,2.47747,2.01062,-1.57112,0.64403,-1.13244,-2.79991,-0.195753,2.39935,2.01004,-1.56555,0.652669,-1.08157,0.890167,-1.06,1.26086,0.0136319,-0.152919,0.652669,-1.08157,0.890167,-1.06,1.26086,0.0136319,-0.152919,-0.462232,-0.449593,0.727468,0.845155,-0.213528,0.328993,-0.363156,-0.14287,-0.600542,-0.926756,-0.489941,-0.576962,0.901699,0,0,0,-4.25747e-07,0,-0.25,0.532364,-0.655947,0.668672,-0.430556,0.781165,0.294445,-0.0557153,1
0.707727,-1.20741,-2.72245,-0.239541,2.49006,2.03669,-1.55869,0.707727,-1.20741,-2.72245,-0.239541,2.49006,2.01062,-1.55869,0.652476,-1.14378,-2.78967,-0.2051,2.4128,2.01016,-1.56733,0.797728,-1.07086,0.966813,-0.882779,1.26983,0.0109156,-0.168325,0.797728,-1.07086,0.966813,-0.882779,1.26983,0.0109156,-0.168325,-0.463832,-0.455581,0.719168,0.852529,-0.21328,0.313591,-0.359676,-0.0463932,-0.632012,-0.871644,-0.489941,-0.576962,0.901699,0,0,0,-4.25747e-07,0,-0.25,0.552511,-0.636306,0.672276,-0.344408,0.772608,0.26534,0.086377,1
0.717885,-1.21629,-2.71174,-0.244627,2.50298,2.0346,-1.55626,0.717885,-1.21629,-2.71174,-0.244627,2.50298,2.01062,-1.55626,0.661401,-1.15459,-2.77839,-0.211817,2.42568,2.01025,-1.56808,0.842997,-1.02117,1.06585,-0.634439,1.21719,0.00874051,-0.071319,0.842997,-1.02117,1.06585,-0.634439,1.21719,0.00874051,-0.071319,-0.464718,-0.461152,0.711852,0.859263,-0.214027,0.298592,-0.355954,0.0172408,-0.597201,-0.768543,-0.489941,-0.576962,0.901699,0,0,0,-4.25747e-07,0,-0.25,0.564841,-0.617009,0.666464,-0.328103,0.773016,0.243498,0.118204,1
0.728116,-1.22542,-2.70062,-0.254273,2.51619,2.03134,-1.55732,0.728116,-1.22542,-2.70062,-0.254273,2.51619,2.01062,-1.55732,0.670632,-1.16512,-2.76724,-0.217341,2.43851,2.01033,-1.56621,0.871895,-0.994102,1.0529,-0.521785,1.21157,0.00699886,0.176778,0.871895,-0.994102,1.0529,-0.521785,1.21157,0.00699886,0.176778,-0.465188,-0.466606,0.704926,0.865937,-0.214721,0.284133,-0.351164,0.0557129,-0.585598,-0.725265,-0.489941,-0.576962,0.901699,0,0,0,-4.25747e-07,0,-0.25,0.574839,-0.60301,0.666206,-0.369322,0.776778,0.210121,0.0888888,1
0.736896,-1.23472,-2.68968,-0.260028,2.52863,2.02738,-1.55248,0.736896,-1.23472,-2.68968,-0.260028,2.52863,2.01062,-1.55248,0.680048,-1.17531,-2.75618,-0.222778,2.45136,2.01039,-1.56423,0.889301,-0.963129,1.04449,-0.513521,1.2134,0.00560398,0.187235,0.889301,-0.963129,1.04449,-0.513521,1.2134,0.00560398,0.187235,-0.46537,-0.472084,0.698126,0.872341,-0.215388,0.26971,-0.346246,0.0851631,-0.586273,-0.709738,-0.489941,-0.576962,0.901699,0,0,0,-4.25747e-07,0,-0.25,0.568475,-0.594041,0.665078,-0.372499,0.772701,0.16994,0.117483,1
0.74433,-1.24408,-2.67918,-0.261818,2.5406,2.02289,-1.54378,0.74433,-1.24408,-2.67918,-0.261818,2.5406,2.01062,-1.54378,0.689626,-1.1853,-2.74511,-0.229054,2.46428,2.01043,-1.56285,0.904639,-0.942946,1.04567,-0.592737,1.22011,0.00448731,0.129979,0.904639,-0.942946,1.04567,-0.592737,1.22011,0.00448731,0.129979,-0.465349,-0.477777,0.69113,0.878578,-0.215771,0.254986,-0.341359,0.109739,-0.603745,-0.727053,-0.489941,-0.576962,0.901699,0,0,0,-4.25747e-07,0,-0.25,0.547035,-0.587865,0.65929,-0.327642,0.763213,0.124574,0.190696,1
0.750794,-1.25315,-2.66907,-0.263579,2.55282,2.0199,-1.53848,0.750794,-1.25315,-2.66907,-0.263579,2.55282,2.01062,-1.53848,0.699045,-1.19514,-2.73407,-0.235226,2.4771,2.01047,-1.56079,0.889605,-0.930089,1.04331,-0.582931,1.2111,0.00359316,0.195202,0.889605,-0.930089,1.04331,-0.582931,1.2111,0.00359316,0.195202,-0.465237,-0.483381,0.684141,0.884611,-0.215926,0.240393,-0.336229,0.120331,-0.592065,-0.722987,-0.489941,-0.576962,0.901699,0,0,0,-4.25747e-07,0,-0.25,0.517486,-0.580028,0.649921,-0.283526,0.757176,0.0942768,0.223018,1
0.75559,-1.26213,-2.65905,-0.265953,2.56527,2.01828,-1.53675,0.75559,-1.26213,-2.65905,-0.265953,2.56527,2.01062,-1.53675,0.708069,-1.2049,-2.72313,-0.240525,2.48975,2.0105,-1.5574,0.852252,-0.921027,1.03289,-0.500463,1.19504,0.00287718,0.319992,0.852252,-0.921027,1.03289,-0.500463,1.19504,0.00287718,0.319992,-0.465134,-0.488646,0.677344,0.890347,-0.21601,0.226239,-0.330815,0.118161,-0.557105,-0.699841,-0.489941,-0.576962,0.901699,0,0,0,-4.25747e-07,0,-0.25,0.475208,-0.572316,0.640798,-0.254285,0.755156,0.0778143,0.206457,1
0.758406,-1.27036,-2.64912,-0.266962,2.57755,2.01409,-1.53269,0.758406,-1.27036,-2.64912,-0.266962,2.57755,2.01062,-1.53269,0.716582,-1.21451,-2.71236,-0.245118,2.50232,2.01053,-1.55363,0.804084,-0.908084,1.01734,-0.433871,1.18688,0.00230386,0.355956,0.804084,-0.908084,1.01734,-0.433871,1.18688,0.00230386,0.355956,-0.465118,-0.493536,0.670723,0.895649,-0.21611,0.212404,-0.325566,0.108589,-0.518602,-0.678538,-0.489941,-0.576962,0.901699,0,0,0,-4.25747e-07,0,-0.25,0.418241,-0.558448,0.632396,-0.218435,0.752333,0.035629,0.209402,1
0.762487,-1.27862,-2.63887,-0.267777,2.5896,2.00663,-1.52672,0.762487,-1.27862,-2.63887,-0.267777,2.5896,2.00663,-1.52672,0.724355,-1.224,-2.70174,-0.24927,2.51486,2.01055,-1.55027,0.734115,-0.89615,1.00326,-0.392109,1.1847,0.00184479,0.317621,0.734115,-0.89615,1.00326,-0.392109,1.1847,0.00184479,0.317621,-0.465337,-0.49799,0.664205,0.900427,-0.216223,0.198746,-0.320904,0.0854409,-0.473875,-0.664995,-0.489941,-0.576962,0.901699,0,0,0,-4.25747e-07,0,-0.25,0.381318,-0.546209,0.628638,-0.185066,0.747414,-0.039151,0.235457,1
0.764595,-1.28731,-2.62945,-0.271716,2.60205,2.00103,-1.52612,0.764595,-1.28731,-2.62945,-0.271716,2.60205,2.00103,-1.52612,0.73114,-1.23324,-2.69125,-0.252795,2.52735,2.01056,-1.54676,0.640846,-0.872428,0.990252,-0.332961,1.17982,0.00147719,0.330803,0.640846,-0.872428,0.990252,-0.332961,1.17982,0.00147719,0.330803,-0.465898,-0.501827,0.657929,0.90469,-0.216403,0.185429,-0.316735,0.0504245,-0.412566,-0.637626,-0.489941,-0.576962,0.901699,0,0,0,-4.25747e-07,0,-0.25,0.334551,-0.54071,0.618044,-0.189202,0.746932,-0.0953055,0.206466,1
0.76609,-1.29507,-2.61882,-0.2757,2.61392,1.99526,-1.5287,0.76609,-1.29507,-2.61882,-0.2757,2.61392,1.99526,-1.5287,0.737386,-1.24228,-2.68081,-0.255781,2.53976,2.00978,-1.54277,0.589942,-0.85412,0.985775,-0.281948,1.17154,-0.0739748,0.377213,0.589942,-0.85412,0.985775,-0.281948,1.17154,-0.0739748,0.377213,-0.466682,-0.505375,0.651908,0.908698,-0.216288,0.17226,-0.312752,0.0295139,-0.381062,-0.611191,-0.489941,-0.576962,0.901699,0,0,0,-4.25747e-07,0,-0.25,0.287038,-0.527915,0.619931,-0.19919,0.741592,-0.1452,0.140686,1
0.759584,-1.30279,-2.60974,-0.275938,2.62536,1.98815,-1.52334,0.759584,-1.30279,-2.60974,-0.275938,2.62536,1.98815,-1.52334,0.742808,-1.25125,-2.67058,-0.258956,2.55217,2.00803,-1.53945,0.51207,-0.847419,0.966724,-0.299896,1.17228,-0.164626,0.313403,0.51207,-0.847419,0.966724,-0.299896,1.17228,-0.164626,0.313403,-0.467891,-0.508697,0.645859,0.912403,-0.215552,0.158976,-0.30949,-0.00845452,-0.352922,-0.61364,-0.489941,-0.576962,0.901699,0,0,0,-4.25747e-07,0,-0.25,0.167763,-0.515329,0.608437,-0.169823,0.731923,-0.198834,0.161151,1
0.742458,-1.30996,-2.60053,-0.279335,2.63604,1.98433,-1.51907,0.742458,-1.30996,-2.60053,-0.279335,2.63604,1.98433,-1.51907,0.747447,-1.25998,-2.66027,-0.262292,2.56447,2.00549,-1.53731,0.438169,-0.824674,0.974074,-0.315117,1.16208,-0.240464,0.202321,0.438169,-0.824674,0.974074,-0.315117,1.16208,-0.240464,0.202321,-0.469456,-0.511743,0.639903,0.915706,-0.214434,0.145524,-0.307121,-0.0404097,-0.321985,-0.603627,-0.489941,-0.576962,0.901699,0,0,0,-4.25747e-07,0,-0.25,-0.0498964,-0.499763,0.597392,-0.170422,0.715652,-0.211601,0.182366,1
0.718003,-1.31747,-2.59286,-0.293949,2.64785,1.98343,-1.54367,0.718003,-1.31747,-2.59286,-0.293949,2.64785,1.98343,-1.54367,0.749866,-1.26851,-2.6502,-0.265011,2.57661,2.00203,-1.53453,0.228418,-0.80552,0.950978,-0.256815,1.14592,-0.326291,0.262971,0.228418,-0.80552,0.950978,-0.256815,1.14592,-0.326291,0.262971,-0.472136,-0.51372,0.634225,0.918542,-0.212851,0.132549,-0.305623,-0.149478,-0.213606,-0.574945,-0.489941,-0.576962,0.901699,0,0,0,-4.25747e-07,0,-0.25,-0.318625,-0.489595,0.573363,-0.289373,0.712453,-0.18602,-0.0914601,1
0.690837,-1.32261,-2.59451,-0.303287,2.65783,1.98578,-1.55933,0.690837,-1.32261,-2.59451,-0.303287,2.65783,1.98578,-1.55933,0.74839,-1.27677,-2.6403,-0.267865,2.58845,1.99851,-1.53145,-0.13942,-0.780043,0.934791,-0.26956,1.11851,-0.333214,0.290812,-0.13942,-0.780043,0.934791,-0.26956,1.11851,-0.333214,0.290812,-0.476698,-0.513864,0.628595,0.920657,-0.210902,0.120222,-0.305708,-0.333092,-0.0320535,-0.567448,-0.489941,-0.576962,0.901699,0,0,0,-4.25747e-07,0,-0.25,-0.575528,-0.458405,0.457906,-0.354211,0.693854,-0.127289,-0.278871,1
0.680106,-1.33543,-2.59036,-0.323164,2.66302,1.99879,-1.53848,0.680106,-1.33543,-2.59036,-0.323164,2.66302,1.99879,-1.53848,0.742335,-1.28488,-2.63085,-0.273063,2.60028,1.9955,-1.53388,-0.571869,-0.765982,0.892798,-0.490884,1.11796,-0.28369,-0.230074,-0.571869,-0.765982,0.892798,-0.490884,1.11796,-0.28369,-0.230074,-0.483427,-0.512204,0.622247,0.921386,-0.208316,0.107632,-0.309949,-0.538422,0.150612,-0.635107,-0.489941,-0.576962,0.901699,0,0,0,-4.25747e-07,0,-0.25,-0.622289,-0.505439,0.404899,-0.501012,0.627319,0.0328604,-0.0460039,1
0.677431,-1.34447,-2.5826,-0.339187,2.67151,2.02173,-1.53717,0.677431,-1.34447,-2.5826,-0.339187,2.67151,2.01062,-1.53717,0.732073,-1.2924,-2.62361,-0.279085,2.61175,1.99356,-1.53895,-0.969234,-0.710118,0.68391,-0.568836,1.08311,-0.183038,-0.479011,-0.969234,-0.710118,0.68391,-0.568836,1.08311,-0.183038,-0.479011,-0.491873,-0.508514,0.615806,0.920815,-0.205473,0.0964728,-0.317134,-0.713217,0.354125,-0.639336,-0.489941,-0.576962,0.901699,0,0,0,-4.25747e-07,0,-0.25,-0.546424,-0.520721,0.410045,-0.601018,0.597582,0.281685,0.0178288,1
0.666469,-1.35206,-2.57397,-0.347367,2.6899,2.02396,-1.5502,0.666469,-1.35206,-2.57397,-0.347367,2.6899,2.01062,-1.5502,0.721718,-1.30097,-2.61698,-0.287869,2.62197,1.99461,-1.53886,-0.978069,-0.80978,0.625778,-0.8296,0.964845,0.098319,0.00886506,-0.978069,-0.80978,0.625778,-0.8296,0.964845,0.098319,0.00886506,-0.499951,-0.505223,0.607503,0.921165,-0.201909,0.0863773,-0.32129,-0.678222,0.320558,-0.813436,-0.489941,-0.576962,0.901699,0,0,0,-4.25747e-07,0,-0.25,-0.552495,-0.510834,0.430124,-0.594987,0.679309,0.293575,-0.113376,1
0.664306,-1.36133,-2.56526,-0.357392,2.70125,2.02414,-1.53932,0.664306,-1.36133,-2.56526,-0.357392,2.70125,2.01062,-1.53932,0.712893,-1.30964,-2.61013,-0.298094,2.63184,1.9978,-1.53852,-0.833525,-0.818681,0.647045,-0.965858,0.932441,0.301481,0.0317896,-0.833525,-0.818681,0.647045,-0.965858,0.932441,0.301481,0.0317896,-0.506863,-0.502643,0.598514,0.921675,-0.198853,0.0762253,-0.324288,-0.566255,0.246826,-0.874261,-0.489941,-0.576962,0.901699,0,0,0,-4.25747e-07,0,-0.25,-0.485872,-0.516847,0.448719,-0.592972,0.694096,0.263399,-0.00801332,1
0.656621,-1.36799,-2.56458,-0.362399,2.71245,2.04025,-1.52413,0.656621,-1.36799,-2.56458,-0.362399,2.71245,2.01062,-1.52413,0.703642,-1.31809,-2.60292,-0.307913,2.64341,2.00035,-1.54085,-0.873752,-0.798301,0.680596,-0.927356,1.09272,0.241407,-0.219719,-0.873752,-0.798301,0.680596,-0.927356,1.09272,0.241407,-0.219719,-0.514104,-0.499479,0.589799,0.921415,-0.196274,0.0649034,-0.329027,-0.591914,0.296735,-0.846525,-0.489941,-0.576962,0.901699,0,0,0,-4.25747e-07,0,-0.25,-0.470211,-0.49898,0.38343,-0.544868,0.690385,0.398961,0.167162,1
0.649217,-1.36978,-2.5595,-0.364709,2.72109,2.03648,-1.53295,0.649217,-1.36978,-2.5595,-0.364709,2.72109,2.01062,-1.53295,0.699506,-1.32264,-2.59896,-0.313116,2.64949,2.00143,-1.54069,-0.827313,-0.909259,0.792184,-1.04062,1.21648,0.21601,0.0320703,-0.827313,-0.909259,0.792184,-1.04062,1.21648,0.21601,0.0320703,-0.517546,-0.498186,0.585133,0.921586,-0.194776,0.0588451,-0.330572,-0.583827,0.251654,-0.957699,-0.489941,-0.576962,0.901699,0,0,0,-4.25747e-07,0,-0.25,-0.502885,-0.471434,0.39464,-0.515929,0.715966,0.350495,0.0774372,1
0.645048,-1.37191,-2.56034,-0.38158,2.73661,2.03007,-1.54919,0.645048,-1.37191,-2.56034,-0.38158,2.73661,2.01062,-1.54919,0.687997,-1.33493,-2.58927,-0.326665,2.66639,2.00404,-1.53728,-0.737453,-0.776987,0.580386,-0.839928,1.08244,0.154786,0.308896,-0.737453,-0.776987,0.580386,-0.839928,1.08244,0.154786,0.308896,-0.526913,-0.494306,0.572546,0.922171,-0.190604,0.0430144,-0.333796,-0.507187,0.252391,-0.812018,-0.489941,-0.576962,0.901699,0,0,0,-4.25747e-07,0,-0.25,-0.429487,-0.369739,0.28939,-0.549155,0.702208,0.260334,-0.119184,1
0.640049,-1.37511,-2.55307,-0.391856,2.74332,2.03047,-1.53921,0.640049,-1.37511,-2.55307,-0.391856,2.74332,2.01062,-1.53921,0.680966,-1.34171,-2.58382,-0.334028,2.67648,2.00535,-1.53558,-0.746235,-0.659849,0.571628,-0.721133,1.04849,0.123943,0.062001,-0.746235,-0.659849,0.571628,-0.721133,1.04849,0.123943,0.062001,-0.532412,-0.491614,0.565589,0.922136,-0.188507,0.0339034,-0.336127,-0.494255,0.294703,-0.691096,-0.489941,-0.576962,0.901699,0,0,0,-4.25747e-07,0,-0.25,-0.409168,-0.334037,0.307537,-0.578281,0.668453,0.251194,-0.0362713,1
0.633227,-1.38128,-2.5634,-0.401941,2.75387,2.01501,-1.5227,0.633227,-1.38128,-2.5634,-0.401941,2.75387,2.01062,-1.5227,0.673809,-1.34773,-2.57914,-0.343503,2.68846,2.0064,-1.5383,-0.67601,-0.568361,0.441991,-0.894969,1.1318,0.0992454,-0.256161,-0.67601,-0.568361,0.441991,-0.894969,1.1318,0.0992454,-0.256161,-0.537877,-0.488977,0.558482,0.921404,-0.186047,0.023541,-0.340363,-0.432301,0.244255,-0.685166,-0.489941,-0.576962,0.901699,0,0,0,-4.25747e-07,0,-0.25,-0.405814,-0.335565,0.157449,-0.584381,0.65409,0.0861038,0.155989,1
0.624603,-1.38006,-2.56341,-0.410406,2.75834,2.00896,-1.54406,0.624603,-1.38006,-2.56341,-0.410406,2.75834,2.00896,-1.54406,0.667082,-1.35318,-2.57394,-0.353138,2.69939,2.00724,-1.53848,-0.635385,-0.515432,0.490735,-0.910039,1.03256,0.0794695,-0.0172236,-0.635385,-0.515432,0.490735,-0.910039,1.03256,0.0794695,-0.0172236,-0.542853,-0.486565,0.551741,0.921091,-0.183602,0.0136785,-0.343067,-0.387856,0.222141,-0.648223,-0.489941,-0.576962,0.901699,0,0,0,-4.25747e-07,0,-0.25,-0.424791,-0.268758,0.105354,-0.572678,0.589454,0.0171837,-0.0558246,1
0.619206,-1.38134,-2.58461,-0.424125,2.76544,1.97452,-1.5372,0.619206,-1.38134,-2.58461,-0.424125,2.76544,1.97452,-1.5372,0.660336,-1.35878,-2.57184,-0.362863,2.71025,2.00792,-1.53533,-0.637169,-0.528856,0.198549,-0.918517,1.0253,0.0636342,0.297017,-0.637169,-0.528856,0.198549,-0.918517,1.0253,0.0636342,0.297017,-0.547712,-0.484276,0.544701,0.921354,-0.180213,0.00537259,-0.344385,-0.384293,0.221451,-0.677756,-0.489941,-0.576962,0.901699,0,0,0,-4.25747e-07,0,-0.25,-0.411303,-0.225582,-0.127666,-0.612625,0.551906,-0.333942,-0.0186301,1
0.611591,-1.38146,-2.59875,-0.436556,2.7187,1.96442,-1.52729,0.611591,-1.38146,-2.59875,-0.436556,2.7187,1.96442,-1.52729,0.653216,-1.36302,-2.57016,-0.372336,2.71983,2.00812,-1.53707,-0.672529,-0.400446,0.158721,-0.894802,0.905099,0.0196603,-0.164251,-0.672529,-0.400446,0.158721,-0.894802,0.905099,0.0196603,-0.164251,-0.552374,-0.481691,0.538719,0.920639,-0.176992,-0.00229613,-0.347982,-0.374875,0.250751,-0.575606,-0.489941,-0.576962,0.901699,0,0,0,-4.25747e-07,0,-0.25,-0.416252,-0.184396,-0.28592,-0.642194,-0.0112884,-0.437094,0.0977899,1
0.62065,-1.36598,-2.62097,-0.446311,2.68033,1.9448,-1.51631,0.62065,-1.36598,-2.62097,-0.446311,2.68033,1.9448,-1.51631,0.646439,-1.36667,-2.57304,-0.382656,2.72892,2.00143,-1.5371,-0.640098,-0.344771,-0.271907,-0.974713,0.858381,-0.632423,-0.00233423,-0.640098,-0.344771,-0.271907,-0.974713,0.858381,-0.632423,-0.00233423,-0.557321,-0.480341,0.533046,0.921063,-0.169327,-0.00904869,-0.350557,-0.395745,0.169406,-0.559644,-0.489941,-0.576962,0.901699,0,0,0,-4.25747e-07,0,-0.25,-0.25789,0.00688472,-0.479289,-0.636545,-0.485921,-0.566307,0.207919,1
0.616834,-1.37802,-2.62023,-0.457072,2.66205,1.93438,-1.51162,0.616834,-1.37802,-2.62023,-0.457072,2.66205,1.93438,-1.51162,0.639495,-1.36962,-2.57816,-0.393396,2.72688,1.99405,-1.53514,-0.655841,-0.278337,-0.483918,-1.01439,-0.192282,-0.696595,0.184504,-0.655841,-0.278337,-0.483918,-1.01439,-0.192282,-0.696595,0.184504,-0.560981,-0.480126,0.52787,0.922731,-0.159008,-0.00978953,-0.350982,-0.309533,0.0980379,-0.51962,-0.489941,-0.576962,0.901699,0,0,0,-4.25747e-07,0,-0.25,-0.226606,-0.084011,-0.420677,-0.636758,-0.648311,-0.596776,0.235267,1
0.614744,-1.35539,-2.63171,-0.461259,2.6522,1.93629,-1.50296,0.614744,-1.35539,-2.63171,-0.461259,2.6522,1.93629,-1.50296,0.637513,-1.36924,-2.58267,-0.398961,2.72199,1.98887,-1.53316,-0.396362,0.0764623,-0.900307,-1.11293,-0.979201,-1.03597,0.396221,-0.396362,0.0764623,-0.900307,-1.11293,-0.979201,-1.03597,0.396221,-0.560981,-0.480126,0.52787,0.922731,-0.159008,-0.00978953,-0.350982,-0.309533,0.0980379,-0.51962,-0.489941,-0.576962,0.901699,0,0,0,-4.25747e-07,0,-0.25,-0.227686,0.138513,-0.490485,-0.622982,-0.697911,-0.525827,0.302017,1
0.602411,-1.34375,-2.63871,-0.478456,2.63892,1.92181,-1.49403,0.602411,-1.34375,-2.63871,-0.478456,2.63892,1.92181,-1.49403,0.632332,-1.36958,-2.59345,-0.413515,2.70826,1.97528,-1.52789,-0.364239,-0.198364,-0.629558,-1.02374,-1.08594,-0.961469,0.382493,-0.364239,-0.198364,-0.629558,-1.02374,-1.08594,-0.961469,0.382493,-0.563011,-0.484556,0.522245,0.928557,-0.135547,-0.00204547,-0.345549,-0.104349,-0.144475,-0.46536,-0.489941,-0.576962,0.901699,0,0,0,-4.25747e-07,0,-0.25,-0.299203,0.258291,-0.45268,-0.649412,-0.693323,-0.534778,0.338638,1
0.606958,-1.32752,-2.65221,-0.488821,2.62791,1.92469,-1.51714,0.606958,-1.32752,-2.65221,-0.488821,2.62791,1.92469,-1.51714,0.628827,-1.36675,-2.60107,-0.423028,2.69709,1.96751,-1.52292,-0.33099,0.267148,-0.720202,-0.898545,-1.05505,-0.73384,0.469185,-0.33099,0.267148,-0.720202,-0.898545,-1.05505,-0.73384,0.469185,-0.563226,-0.486367,0.521479,0.931306,-0.125499,0.00381461,-0.341914,-0.033539,-0.0785227,-0.0977842,-0.489941,-0.576962,0.901699,0,0,0,-4.25747e-07,0,-0.25,-0.218689,0.392323,-0.511344,-0.657925,-0.691757,-0.428233,0.0578703,1
0.603434,-1.3192,-2.66536,-0.499795,2.61548,1.95648,-1.51834,0.603434,-1.3192,-2.66536,-0.499795,2.61548,1.95648,-1.51834,0.623563,-1.36217,-2.60857,-0.434073,2.6855,1.95841,-1.51717,-0.497144,0.432868,-0.708431,-1.04314,-1.0946,-0.860222,0.543823,-0.497144,0.432868,-0.708431,-1.04314,-1.0946,-0.860222,0.543823,-0.564057,-0.48745,0.521502,0.933949,-0.114842,0.0097645,-0.338311,-0.0916314,-0.00438745,-0.022722,-0.489941,-0.576962,0.901699,0,0,0,-4.25747e-07,0,-0.25,-0.201293,0.429642,-0.567917,-0.657221,-0.700188,-0.0192608,-0.0117799,1
0.641127,-1.29025,-2.66538,-0.510408,2.59809,1.99126,-1.51389,0.641127,-1.29025,-2.66538,-0.510408,2.59809,1.99126,-1.51389,0.620255,-1.35526,-2.61727,-0.444982,2.67402,1.95169,-1.51716,-0.312509,0.652097,-0.821184,-1.03035,-1.08377,-0.634523,0.000547486,-0.312509,0.652097,-0.821184,-1.03035,-1.08377,-0.634523,0.000547486,-0.563356,-0.489061,0.523009,0.935541,-0.105933,0.0168032,-0.336541,0.0373026,-0.0629179,0.123372,-0.489941,-0.576962,0.901699,0,0,0,-4.25747e-07,0,-0.25,0.208723,0.650131,-0.481164,-0.65426,-0.759298,0.395682,0.0326629,1
0.620281,-1.28184,-2.6849,-0.500022,2.58747,2.01228,-1.54055,0.620281,-1.28184,-2.6849,-0.500022,2.58747,2.01062,-1.54055,0.616903,-1.34808,-2.62685,-0.455904,2.66236,1.95264,-1.5174,-0.31656,0.678646,-0.905187,-1.03158,-1.10179,0.0901888,-0.0222794,-0.31656,0.678646,-0.905187,-1.03158,-1.10179,0.0901888,-0.0222794,-0.561767,-0.489675,0.524284,0.936537,-0.100311,0.0258166,-0.334918,0.0956557,0.0124636,0.110177,-0.489941,-0.576962,0.901699,0,0,0,-4.25747e-07,0,-0.25,0.0337852,0.662377,-0.58044,-0.441173,-0.748844,0.596333,-0.231529,1
0.644684,-1.25839,-2.68403,-0.521393,2.57966,1.99779,-1.55609,0.644684,-1.25839,-2.68403,-0.521393,2.57966,1.99779,-1.55609,0.62173,-1.33656,-2.63453,-0.466765,2.64955,1.96034,-1.5167,0.455895,1.08831,-0.725181,-1.02576,-1.20945,0.7267,0.0659126,0.455895,1.08831,-0.725181,-1.02576,-1.20945,0.7267,0.0659126,-0.554634,-0.493554,0.528596,0.938467,-0.0999793,0.0367148,-0.328536,0.595616,-0.33027,0.407743,-0.489941,-0.576962,0.901699,0,0,0,-4.25747e-07,0,-0.25,0.229545,0.781674,-0.494997,-0.546282,-0.6989,0.374492,-0.393903,1
0.651048,-1.24928,-2.70065,-0.520131,2.56851,2.0231,-1.56533,0.651048,-1.24928,-2.70065,-0.520131,2.56851,2.01062,-1.56533,0.621441,-1.32565,-2.64457,-0.473392,2.63718,1.97036,-1.52145,-0.0272598,1.02973,-0.947884,-0.62589,-1.16832,0.946397,-0.448871,-0.0272598,1.02973,-0.947884,-0.62589,-1.16832,0.946397,-0.448871,-0.550208,-0.493539,0.533392,0.937865,-0.101517,0.0495594,-0.328095,0.314155,0.0282048,0.459872,-0.489941,-0.576962,0.901699,0,0,0,-4.25747e-07,0,-0.25,0.296065,0.763737,-0.560808,-0.467392,-0.686747,0.527455,-0.438797,1
0.655839,-1.23467,-2.70056,-0.532678,2.5547,2.02616,-1.57351,0.655839,-1.23467,-2.70056,-0.532678,2.5547,2.01062,-1.57351,0.626073,-1.31225,-2.65243,-0.482957,2.62572,1.97582,-1.52835,0.437434,1.26592,-0.742705,-0.903384,-1.08252,0.516212,-0.651881,0.437434,1.26592,-0.742705,-0.903384,-1.08252,0.516212,-0.651881,-0.543356,-0.496756,0.539325,0.938039,-0.101877,0.0599246,-0.325751,0.568933,-0.273267,0.56597,-0.489941,-0.576962,0.901699,0,0,0,-4.25747e-07,0,-0.25,0.297659,0.77582,-0.481345,-0.497213,-0.710224,0.503419,-0.451576,1
0.654808,-1.22154,-2.71291,-0.539304,2.54496,2.02652,-1.5806,0.654808,-1.22154,-2.71291,-0.539304,2.54496,2.01062,-1.5806,0.631049,-1.2997,-2.66204,-0.490364,2.61432,1.98276,-1.53572,0.470029,1.1851,-0.907444,-0.69962,-1.07675,0.654954,-0.695918,0.470029,1.1851,-0.907444,-0.69962,-1.07675,0.654954,-0.695918,-0.536458,-0.499598,0.544995,0.937717,-0.10303,0.0714142,-0.323992,0.561523,-0.240948,0.545471,-0.489941,-0.576962,0.901699,0,0,0,-4.25747e-07,0,-0.25,0.237589,0.781645,-0.508699,-0.489396,-0.693559,0.437656,-0.448824,1
0.663298,-1.20847,-2.71714,-0.553554,2.5328,2.02951,-1.58747,0.663298,-1.20847,-2.71714,-0.553554,2.5328,2.01062,-1.58747,0.635989,-1.28674,-2.66971,-0.498796,2.60244,1.98831,-1.54325,0.466534,1.22394,-0.725072,-0.796345,-1.12208,0.524446,-0.711193,0.466534,1.22394,-0.725072,-0.796345,-1.12208,0.524446,-0.711193,-0.529491,-0.502584,0.55074,0.937464,-0.10389,0.0819344,-0.321956,0.577103,-0.25533,0.55323,-0.489941,-0.576962,0.901699,0,0,0,-4.25747e-07,0,-0.25,0.27309,0.782739,-0.474221,-0.547584,-0.696398,0.41199,-0.442209,1
0.664701,-1.19566,-2.72551,-0.560582,2.52114,2.03833,-1.59406,0.664701,-1.19566,-2.72551,-0.560582,2.52114,2.01062,-1.59406,0.639739,-1.27375,-2.67832,-0.506867,2.59099,1.99276,-1.55069,0.354178,1.22716,-0.81289,-0.76236,-1.08169,0.419944,-0.70297,0.354178,1.22716,-0.81289,-0.76236,-1.08169,0.419944,-0.70297,-0.523305,-0.504855,0.556486,0.93687,-0.104243,0.0925805,-0.320683,0.502869,-0.183739,0.554471,-0.489941,-0.576962,0.901699,0,0,0,-4.25747e-07,0,-0.25,0.249617,0.780941,-0.471867,-0.537142,-0.698495,0.455764,-0.433642,1
0.670307,-1.18225,-2.73084,-0.57398,2.51036,2.03782,-1.60052,0.670307,-1.18225,-2.73084,-0.57398,2.51036,2.01062,-1.60052,0.644433,-1.26074,-2.68605,-0.51617,2.57939,1.99632,-1.55802,0.4434,1.22864,-0.730542,-0.878683,-1.09513,0.336281,-0.692192,0.4434,1.22864,-0.730542,-0.878683,-1.09513,0.336281,-0.692192,-0.516612,-0.507793,0.561861,0.936556,-0.104064,0.102459,-0.318648,0.558939,-0.24524,0.519258,-0.489941,-0.576962,0.901699,0,0,0,-4.25747e-07,0,-0.25,0.258735,0.784891,-0.447861,-0.578098,-0.690286,0.415022,-0.424981,1
0.673952,-1.16925,-2.73839,-0.583606,2.49909,2.04146,-1.60658,0.673952,-1.16925,-2.73839,-0.583606,2.49909,2.01062,-1.60658,0.648472,-1.24777,-2.69392,-0.52502,2.56778,1.99917,-1.5652,0.381447,1.22498,-0.742523,-0.835859,-1.09641,0.269272,-0.678224,0.381447,1.22498,-0.742523,-0.835859,-1.09641,0.269272,-0.678224,-0.510341,-0.510289,0.567268,0.93601,-0.103716,0.112396,-0.31701,0.51875,-0.20232,0.523748,-0.489941,-0.576962,0.901699,0,0,0,-4.25747e-07,0,-0.25,0.254801,0.785193,-0.444758,-0.585857,-0.686966,0.422944,-0.413821,1
0.676138,-1.15586,-2.74375,-0.595086,2.48839,2.04102,-1.61274,0.676138,-1.15586,-2.74375,-0.595086,2.48839,2.01062,-1.61274,0.652823,-1.23472,-2.70127,-0.534776,2.55634,2.00145,-1.57224,0.410953,1.23314,-0.694955,-0.921475,-1.0807,0.215616,-0.664706,0.410953,1.23314,-0.694955,-0.921475,-1.0807,0.215616,-0.664706,-0.503895,-0.512993,0.572425,0.935579,-0.103047,0.121776,-0.31503,0.540768,-0.221391,0.500242,-0.489941,-0.576962,0.901699,0,0,0,-4.25747e-07,0,-0.25,0.233152,0.788608,-0.424765,-0.603097,-0.679563,0.395682,-0.40501,1
0.676828,-1.14261,-2.75015,-0.605913,2.47781,2.03994,-1.61815,0.676828,-1.14261,-2.75015,-0.605913,2.47781,2.01062,-1.61815,0.657033,-1.22167,-2.70867,-0.544506,2.54493,2.00328,-1.57908,0.39767,1.23208,-0.698592,-0.919017,-1.07758,0.172652,-0.646395,0.39767,1.23208,-0.698592,-0.919017,-1.07758,0.172652,-0.646395,-0.497561,-0.51555,0.577502,0.935057,-0.102217,0.131101,-0.313103,0.530963,-0.206759,0.49376,-0.489941,-0.576962,0.901699,0,0,0,-4.25747e-07,0,-0.25,0.197951,0.790651,-0.414833,-0.614069,-0.671253,0.366654,-0.39063,1
0.674926,-1.12925,-2.75553,-0.616982,2.46759,2.03744,-1.62303,0.674926,-1.12925,-2.75553,-0.616982,2.46759,2.01062,-1.62303,0.66084,-1.20856,-2.71566,-0.554584,2.53366,2.00474,-1.58579,0.359571,1.23872,-0.660239,-0.951955,-1.06427,0.138249,-0.633462,0.359571,1.23872,-0.660239,-0.951955,-1.06427,0.138249,-0.633462,-0.491429,-0.517854,0.582482,0.934458,-0.10128,0.140114,-0.311284,0.514524,-0.183148,0.485225,-0.489941,-0.576962,0.901699,0,0,0,-4.25747e-07,0,-0.25,0.140861,0.793092,-0.39868,-0.623978,-0.660773,0.326935,-0.37235,1
0.669882,-1.11599,-2.76117,-0.628336,2.45762,2.03415,-1.62629,0.669882,-1.11599,-2.76117,-0.628336,2.45762,2.01062,-1.62629,0.664026,-1.19542,-2.72253,-0.564812,2.52253,2.00591,-1.59224,0.300911,1.24124,-0.649188,-0.96604,-1.05129,0.110701,-0.608974,0.300911,1.24124,-0.649188,-0.96604,-1.05129,0.110701,-0.608974,-0.485638,-0.519778,0.587369,0.933733,-0.100211,0.148993,-0.30968,0.483631,-0.14676,0.477255,-0.489941,-0.576962,0.901699,0,0,0,-4.25747e-07,0,-0.25,0.0585579,0.794245,-0.38641,-0.635242,-0.649138,0.282403,-0.34051,1
0.658798,-1.10296,-2.76691,-0.639662,2.44763,2.03149,-1.62763,0.658798,-1.10296,-2.76691,-0.639662,2.44763,2.01062,-1.62763,0.666198,-1.18223,-2.72911,-0.575208,2.51159,2.00685,-1.59837,0.205153,1.24533,-0.620994,-0.981885,-1.03415,0.0886426,-0.579448,0.205153,1.24533,-0.620994,-0.981885,-1.03415,0.0886426,-0.579448,-0.480382,-0.521131,0.592188,0.932843,-0.0990475,0.157679,-0.308433,0.434711,-0.0928823,0.471583,-0.489941,-0.576962,0.901699,0,0,0,-4.25747e-07,0,-0.25,-0.0740021,0.792775,-0.378015,-0.644542,-0.639588,0.246347,-0.29254,1
0.6462,-1.09011,-2.77146,-0.651238,2.43808,2.02784,-1.62335,0.6462,-1.09011,-2.77146,-0.651238,2.43808,2.01062,-1.62335,0.666932,-1.16903,-2.7355,-0.585794,2.50083,2.0076,-1.60393,0.0693323,1.24669,-0.603515,-0.999925,-1.01566,0.0709794,-0.525405,0.0693323,1.24669,-0.603515,-0.999925,-1.01566,0.0709794,-0.525405,-0.475894,-0.521731,0.596901,0.931767,-0.0976847,0.166237,-0.307625,0.363615,-0.0205515,0.462238,-0.489941,-0.576962,0.901699,0,0,0,-4.25747e-07,0,-0.25,-0.207319,0.789256,-0.35962,-0.654434,-0.627522,0.202397,-0.19412,1
0.638672,-1.0766,-2.76959,-0.661166,2.42719,2.02507,-1.62207,0.638672,-1.0766,-2.76959,-0.661166,2.42719,2.01062,-1.62207,0.665311,-1.15587,-2.74176,-0.596528,2.49023,2.00821,-1.60866,-0.153094,1.24365,-0.591198,-1.01383,-1.00137,0.0568359,-0.445891,-0.153094,1.24365,-0.591198,-1.01383,-1.00137,0.0568359,-0.445891,-0.472659,-0.521165,0.601483,0.930404,-0.0959852,0.174763,-0.307559,0.246282,0.0924822,0.450545,-0.489941,-0.576962,0.901699,0,0,0,-4.25747e-07,0,-0.25,-0.266388,0.792667,-0.27838,-0.646377,-0.630364,0.168691,-0.134151,1
0.628176,-1.06402,-2.7691,-0.671153,2.41548,2.0274,-1.61985,0.628176,-1.06402,-2.7691,-0.671153,2.41548,2.01062,-1.61985,0.661503,-1.14276,-2.74768,-0.60743,2.47984,2.00869,-1.61158,-0.359687,1.23763,-0.559029,-1.02968,-0.981514,0.0455106,-0.276498,-0.359687,1.23763,-0.559029,-1.02968,-0.981514,0.0455106,-0.276498,-0.470583,-0.519535,0.605932,0.928954,-0.0938996,0.183171,-0.307694,0.139229,0.195405,0.438414,-0.489941,-0.576962,0.901699,0,0,0,-4.25747e-07,0,-0.25,-0.333263,0.787466,-0.214289,-0.63723,-0.643629,0.187153,-0.0826501,1
0.602726,-1.06151,-2.77845,-0.68485,2.40588,2.0174,-1.60035,0.602726,-1.06151,-2.77845,-0.68485,2.40588,2.01062,-1.60035,0.656953,-1.12958,-2.75204,-0.618137,2.46935,2.00907,-1.61367,-0.454931,1.31839,-0.436771,-1.07076,-1.04902,0.0385825,-0.20898,-0.454931,1.31839,-0.436771,-1.07076,-1.04902,0.0385825,-0.20898,-0.468764,-0.517497,0.610588,0.927528,-0.0921184,0.191127,-0.307695,0,0,0,-0.489941,-0.576962,0.901699,0,0,0,-4.25747e-07,0,-0.25,-0.542277,0.680735,-0.264029,-0.667127,-0.634665,0.0832708,0.133265,1
0.616998,-1.04228,-2.7609,-0.691711,2.39196,2.03717,-1.62273,0.616998,-1.04228,-2.7609,-0.691711,2.39196,2.01062,-1.62273,0.652207,-1.1177,-2.75549,-0.627761,2.45972,2.00938,-1.61511,-0.564822,1.26178,-0.320022,-1.01989,-1.03985,0.0291805,-0.111307,-0.564822,1.26178,-0.320022,-1.01989,-1.03985,0.0291805,-0.111307,-0.467386,-0.515342,0.614771,0.926183,-0.090472,0.198226,-0.307743,0.0679089,0.292649,0.469264,-0.489941,-0.576962,0.901699,0,0,0,-4.25747e-07,0,-0.25,-0.352091,0.754204,-0.0541207,-0.639496,-0.677596,0.2779,-0.0762148,1
0.612688,-1.03483,-2.75969,-0.686764,2.38736,2.0457,-1.63882,0.612688,-1.03483,-2.75969,-0.686764,2.38736,2.01062,-1.63882,0.64968,-1.11205,-2.75692,-0.632325,2.45506,2.00951,-1.61561,-0.505401,1.12903,-0.286354,-0.91259,-0.930454,0.0261106,-0.0995968,-0.505401,1.12903,-0.286354,-0.91259,-0.930454,0.0261106,-0.0995968,-0.46684,-0.51419,0.616759,0.925526,-0.0896729,0.201571,-0.307782,0.062274,0.263328,0.417405,-0.489941,-0.576962,0.901699,0,0,0,-4.25747e-07,0,-0.25,-0.36992,0.772216,-0.0277252,-0.544393,-0.677075,0.361833,-0.232123,1
0.615923,-1.01939,-2.74918,-0.712502,2.37283,2.05202,-1.64369,0.615923,-1.01939,-2.74918,-0.712502,2.37283,2.01062,-1.64369,0.640014,-1.09591,-2.76039,-0.646782,2.44047,2.00983,-1.61528,-0.54095,1.26062,-0.0119923,-1.05598,-1.14012,0.0187091,-0.175192,-0.54095,1.26062,-0.0119923,-1.05598,-1.14012,0.0187091,-0.175192,-0.466246,-0.510034,0.621917,0.923698,-0.0862886,0.211349,-0.30768,-0.197699,0.446109,0.241993,-0.489941,-0.576962,0.901699,0,0,0,-4.25747e-07,0,-0.25,-0.240907,0.765284,0.112126,-0.657197,-0.676325,0.421942,-0.284086,1
0.599738,-1.00575,-2.75954,-0.719995,2.36707,2.04339,-1.63918,0.599738,-1.00575,-2.75954,-0.719995,2.36707,2.01062,-1.63918,0.634974,-1.08444,-2.76037,-0.655214,2.43032,2.00999,-1.61846,-0.523805,1.16604,0.0157999,-0.741515,-1.00969,0.0149811,-0.478658,-0.523805,1.16604,0.0157999,-0.741515,-1.00969,0.0149811,-0.478658,-0.464729,-0.507693,0.626409,0.922071,-0.0858349,0.217401,-0.308471,0.0976581,0.280649,0.517768,-0.489941,-0.576962,0.901699,0,0,0,-4.25747e-07,0,-0.25,-0.352365,0.786902,0.00826589,-0.64781,-0.632447,0.333991,-0.20718,1
0.591003,-0.992172,-2.75033,-0.733197,2.35827,2.00295,-1.6288,0.591003,-0.992172,-2.75033,-0.733197,2.35827,2.00295,-1.6288,0.631178,-1.07148,-2.75814,-0.66663,2.41886,2.01011,-1.62348,-0.358544,1.22438,0.210543,-1.07814,-1.08182,0.0119959,-0.474853,-0.358544,1.22438,0.210543,-1.07814,-1.08182,0.0119959,-0.474853,-0.461737,-0.506186,0.63108,0.920764,-0.0855927,0.222903,-0.308516,0.246938,0.160269,0.458246,-0.489941,-0.576962,0.901699,0,0,0,-4.25747e-07,0,-0.25,-0.401756,0.793084,0.0780662,-0.665673,-0.605914,-0.0716116,-0.0531963,1
0.608841,-0.978876,-2.74722,-0.743277,2.34636,1.98197,-1.63404,0.608841,-0.978876,-2.74722,-0.743277,2.34636,1.98197,-1.63404,0.624913,-1.05838,-2.75842,-0.677263,2.40854,2.01022,-1.62661,-0.591705,1.23697,-0.0263986,-1.00434,-0.974693,0.00960556,-0.295291,-0.591705,1.23697,-0.0263986,-1.00434,-0.974693,0.00960556,-0.295291,-0.460284,-0.503265,0.635793,0.918982,-0.0846268,0.229231,-0.309457,0.0973657,0.303379,0.464491,-0.489941,-0.576962,0.901699,0,0,0,-4.25747e-07,0,-0.25,-0.160722,0.795075,0.11194,-0.660138,-0.621792,-0.282471,-0.074261,1
0.585044,-0.965059,-2.77319,-0.751735,2.34475,1.97165,-1.62801,0.585044,-0.965059,-2.77319,-0.751735,2.34475,1.97165,-1.62801,0.618156,-1.04519,-2.7568,-0.688409,2.39853,2.00877,-1.62705,-0.638198,1.2461,0.152177,-1.05266,-0.946108,-0.136688,-0.0412737,-0.638198,1.2461,0.152177,-1.05266,-0.946108,-0.136688,-0.0412737,-0.458947,-0.500375,0.640659,0.91783,-0.0830041,0.234613,-0.309283,0.0958386,0.299968,0.475262,-0.489941,-0.576962,0.901699,0,0,0,-4.25747e-07,0,-0.25,-0.331121,0.801315,-0.163836,-0.633258,-0.537742,-0.371227,-0.00961682,1
0.583228,-0.952885,-2.78155,-0.762807,2.35987,1.95652,-1.61622,0.583228,-0.952885,-2.78155,-0.762807,2.35987,1.95652,-1.61622,0.6163,-1.03198,-2.7549,-0.699342,2.38813,2.00343,-1.62844,-0.17531,1.24803,0.180347,-1.03262,-0.981688,-0.504372,-0.131535,-0.17531,1.24803,0.180347,-1.03262,-0.981688,-0.504372,-0.131535,-0.455333,-0.500272,0.645737,0.917359,-0.0803473,0.239395,-0.307712,0.317209,0.040701,0.491846,-0.489941,-0.576962,0.901699,0,0,0,-4.25747e-07,0,-0.25,-0.330722,0.790912,-0.266555,-0.634645,-0.282562,-0.469062,0.122233,1
0.637011,-0.945769,-2.74427,-0.772816,2.34835,1.96427,-1.61322,0.637011,-0.945769,-2.74427,-0.772816,2.34835,1.96427,-1.61322,0.613013,-1.02494,-2.75682,-0.704852,2.38357,2.00009,-1.6284,-0.657395,1.40746,-0.384753,-1.10195,-0.912399,-0.668467,0.0090651,-0.657395,1.40746,-0.384753,-1.10195,-0.912399,-0.668467,0.0090651,-0.455002,-0.499049,0.64823,0.916539,-0.0777006,0.242692,-0.308252,0.0313357,0.309132,0.517187,-0.489941,-0.576962,0.901699,0,0,0,-4.25747e-07,0,-0.25,0.239978,0.791701,0.125444,-0.679647,-0.352166,-0.358151,0.151716,1
0.646764,-0.925802,-2.77391,-0.786523,2.3972,1.94416,-1.61262,0.646764,-0.925802,-2.77391,-0.786523,2.3972,1.94416,-1.61262,0.604723,-1.00554,-2.76313,-0.720348,2.37558,1.98901,-1.62594,-0.505204,1.23754,-0.433053,-0.997921,-0.369101,-0.763587,0.228423,-0.505204,1.23754,-0.433053,-0.997921,-0.369101,-0.763587,0.228423,-0.454427,-0.495871,0.655149,0.914859,-0.0696088,0.249827,-0.309474,0.0113395,0.253987,0.452038,-0.489941,-0.576962,0.901699,0,0,0,-4.25747e-07,0,-0.25,0.42041,0.797377,-0.107843,-0.66175,0.216183,-0.448526,0.133166,1
0.664946,-0.913675,-2.72183,-0.795774,2.42293,1.92019,-1.58679,0.664946,-0.913675,-2.72183,-0.795774,2.42293,1.92019,-1.58679,0.606096,-0.994299,-2.76288,-0.729861,2.37124,1.98335,-1.62369,0.726612,1.14061,0.437215,-1.0096,-0.537886,-0.448459,0.245872,0.726612,1.14061,0.437215,-1.0096,-0.537886,-0.448459,0.245872,-0.4505,-0.496828,0.659396,0.915444,-0.0669628,0.252277,-0.306324,0.753388,-0.375682,0.460301,-0.489941,-0.576962,0.901699,0,0,0,-4.25747e-07,0,-0.25,0.588506,0.806234,0.410444,-0.659131,0.516932,-0.631634,0.368997,1
0.677784,-0.89955,-2.71589,-0.807538,2.43922,1.90567,-1.60388,0.677784,-0.89955,-2.71589,-0.807538,2.43922,1.90567,-1.60388,0.614199,-0.98065,-2.76508,-0.741151,2.37641,1.97554,-1.62148,0.765374,1.28912,-0.207638,-1.06637,0.488552,-0.737624,0.208247,0.765374,1.28912,-0.207638,-1.06637,0.488552,-0.737624,0.208247,-0.44402,-0.499949,0.665013,0.917284,-0.0652531,0.251236,-0.302013,0.625175,-0.288645,0.521832,-0.489941,-0.576962,0.901699,0,0,0,-4.25747e-07,0,-0.25,0.63585,0.811004,0.49183,-0.663862,0.628045,-0.698671,0.175991,1
0.685876,-0.887517,-2.70209,-0.815344,2.45723,1.89964,-1.60417,0.685876,-0.887517,-2.70209,-0.815344,2.45723,1.89964,-1.60417,0.624311,-0.967304,-2.75646,-0.752036,2.38568,1.96451,-1.61457,0.955056,1.26046,0.813828,-1.02799,0.875513,-1.04175,0.652954,0.955056,1.26046,0.813828,-1.02799,0.875513,-1.04175,0.652954,-0.43593,-0.504236,0.672293,0.921702,-0.0657089,0.24441,-0.293959,0.817121,-0.437012,0.657551,-0.489941,-0.576962,0.901699,0,0,0,-4.25747e-07,0,-0.25,0.615646,0.797877,0.543687,-0.633084,0.715522,-0.648761,0.103955,1
0.703144,-0.873338,-2.68643,-0.830407,2.46945,1.88696,-1.61973,0.703144,-0.873338,-2.68643,-0.830407,2.46945,1.88696,-1.61973,0.634966,-0.953803,-2.74838,-0.763095,2.39635,1.95279,-1.61244,1.00636,1.27514,0.763457,-1.04455,1.00752,-1.10731,0.201105,1.00636,1.27514,0.763457,-1.04455,1.00752,-1.10731,0.201105,-0.427664,-0.50858,0.679603,0.925482,-0.0664369,0.236934,-0.287978,0.838499,-0.440264,0.658479,-0.489941,-0.576962,0.901699,0,0,0,-4.25747e-07,0,-0.25,0.681777,0.804658,0.619454,-0.673115,0.730971,-0.658316,-0.072917,1
0.713249,-0.859977,-2.67709,-0.841168,2.48141,1.8761,-1.61977,0.713249,-0.859977,-2.67709,-0.841168,2.48141,1.8761,-1.61977,0.645111,-0.940595,-2.73915,-0.773506,2.40848,1.9422,-1.61079,0.958158,1.24757,0.871129,-0.98337,1.1459,-1.00037,0.155577,0.958158,1.24757,0.871129,-0.98337,1.1459,-1.00037,0.155577,-0.419563,-0.512282,0.687056,0.929203,-0.0682624,0.228633,-0.282221,0.826848,-0.389024,0.671045,-0.489941,-0.576962,0.901699,0,0,0,-4.25747e-07,0,-0.25,0.681387,0.806183,0.620579,-0.676615,0.729279,-0.660939,-0.0897931,1
0.727341,-0.846181,-2.66403,-0.853713,2.49408,1.86387,-1.61706,0.727341,-0.846181,-2.66403,-0.853713,2.49408,1.86387,-1.61706,0.656675,-0.927193,-2.72865,-0.784845,2.42063,1.93119,-1.61257,1.09224,1.26584,0.992281,-1.07091,1.14741,-1.03967,-0.168237,1.09224,1.26584,0.992281,-1.07091,1.14741,-1.03967,-0.168237,-0.410377,-0.516599,0.69443,0.932861,-0.0703613,0.219594,-0.276763,0.936237,-0.448241,0.6622,-0.489941,-0.576962,0.901699,0,0,0,-4.25747e-07,0,-0.25,0.706665,0.810121,0.646137,-0.688686,0.734557,-0.673141,-0.0448347,1
0.738546,-0.832861,-2.65399,-0.865397,2.50575,1.85277,-1.62078,0.738546,-0.832861,-2.65399,-0.865397,2.50575,1.85277,-1.62078,0.667948,-0.913799,-2.71837,-0.796068,2.43274,1.92021,-1.61401,1.06479,1.26507,0.970259,-1.06005,1.14393,-1.03678,-0.135476,1.06479,1.26507,0.970259,-1.06005,1.14393,-1.03678,-0.135476,-0.401228,-0.520614,0.701722,0.936431,-0.0721605,0.210738,-0.271072,0.932727,-0.416726,0.656096,-0.489941,-0.576962,0.901699,0,0,0,-4.25747e-07,0,-0.25,0.705984,0.809388,0.643868,-0.693289,0.730127,-0.674387,-0.067705,1
0.750194,-0.819258,-2.6431,-0.876407,2.51793,1.84153,-1.61912,0.750194,-0.819258,-2.6431,-0.876407,2.51793,1.84153,-1.61912,0.679783,-0.900326,-2.70755,-0.807554,2.44496,1.90899,-1.61461,1.11783,1.27263,1.02275,-1.08494,1.15456,-1.06032,-0.0573869,1.11783,1.27263,1.02275,-1.08494,1.15456,-1.06032,-0.0573869,-0.39156,-0.524744,0.70898,0.940228,-0.0737049,0.201656,-0.264336,0.985325,-0.426444,0.653071,-0.489941,-0.576962,0.901699,0,0,0,-4.25747e-07,0,-0.25,0.704115,0.810674,0.644501,-0.688525,0.729702,-0.674602,-0.0450635,1
0.76183,-0.805723,-2.63262,-0.888543,2.52977,1.83001,-1.62068,0.76183,-0.805723,-2.63262,-0.888543,2.52977,1.83001,-1.62068,0.691492,-0.886882,-2.69687,-0.81908,2.45708,1.89779,-1.61584,1.10598,1.26975,1.00802,-1.08864,1.1441,-1.05797,-0.115991,1.10598,1.26975,1.00802,-1.08864,1.1441,-1.05797,-0.115991,-0.381823,-0.528664,0.716093,0.943841,-0.0750054,0.192712,-0.257684,0.992187,-0.403342,0.640749,-0.489941,-0.576962,0.901699,0,0,0,-4.25747e-07,0,-0.25,0.703375,0.811594,0.642528,-0.694627,0.726966,-0.677771,-0.0483416,1
