Afshin1997/kuka_rl_ros2/src/catch_and_throw/output_files/tm/nn_ema5.00_jvws1_realball_D22H09M54S22/recorded_data.csv
pure_target_joint_0,pure_target_joint_1,pure_target_joint_2,pure_target_joint_3,pure_target_joint_4,pure_target_joint_5,pure_target_joint_6,target_joint_0,target_joint_1,target_joint_2,target_joint_3,target_joint_4,target_joint_5,target_joint_6,pos_joint_0,pos_joint_1,pos_joint_2,pos_joint_3,pos_joint_4,pos_joint_5,pos_joint_6,vel_joint_0,vel_joint_1,vel_joint_2,vel_joint_3,vel_joint_4,vel_joint_5,vel_joint_6,vel_smooth_joint_0,vel_smooth_joint_1,vel_smooth_joint_2,vel_smooth_joint_3,vel_smooth_joint_4,vel_smooth_joint_5,vel_smooth_joint_6,ee_pos_x,ee_pos_y,ee_pos_z,ee_or_w,ee_or_x,ee_or_y,ee_or_z,ee_vel_x,ee_vel_y,ee_vel_z,ball_pos_x,ball_pos_y,ball_pos_z,ball_raw_vx,ball_raw_vy,ball_raw_vz,ball_ema_vx,ball_ema_vy,ball_ema_vz,action_0,action_1,action_2,action_3,action_4,action_5,action_6,command_published
1.83122,-1.08421,-1.79192,-1.06505,1.98219,1.17687,-0.854248,1.78425,-1.07662,-1.81959,-1.11852,1.94014,1.12043,-0.912431,1.78113,-1.07611,-1.82143,-1.12208,1.93733,1.11665,-0.91631,2.39771e-05,1.19776e-05,0,2.39552e-05,1.91991e-05,0,-2.39771e-05,2.39771e-05,1.19776e-05,0,2.39552e-05,1.91991e-05,0,-2.39771e-05,0.533715,-0.457244,0.684289,0.571934,0.18228,0.151529,0.785305,-1.19459e-05,-8.45886e-06,1.99989e-06,2.99773,-0.492429,0.518069,-2.53805,-0.011895,5.12315,-2.5023,-0.0389707,5.00737,0.500932,-0.0810705,0.295062,0.570353,0.448627,0.60221,0.620618,1
1.8305,-1.08378,-1.78913,-1.06372,1.98566,1.17385,-0.854774,1.79673,-1.07862,-1.81204,-1.10418,1.95157,1.13529,-0.896949,1.78113,-1.07611,-1.82143,-1.12208,1.93733,1.11665,-0.91631,-1.19776e-05,0,0,0,0,2.39771e-05,2.39771e-05,-1.19776e-05,0,0,0,0,2.39771e-05,2.39771e-05,0.533715,-0.457244,0.684289,0.571934,0.18228,0.151529,0.785305,6.12588e-06,8.19292e-06,-3.9604e-07,2.97431,-0.491469,0.568452,-2.30531,0.0944603,4.96091,-2.45988,0.0040251,4.91809,0.493711,-0.0767271,0.322995,0.583624,0.483252,0.572001,0.615354,1
1.82947,-1.07944,-1.78586,-1.06312,1.98974,1.17027,-0.854853,1.81527,-1.08127,-1.80007,-1.08242,1.96951,1.15689,-0.873812,1.78113,-1.07612,-1.82149,-1.12208,1.93736,1.11667,-0.916277,0.000575253,-0.00311597,-0.0110857,-8.3887e-05,0.00544577,0.00496159,0.00657951,0.000575253,-0.00311597,-0.0110857,-8.3887e-05,0.00544577,0.00496159,0.00657951,0.533715,-0.457244,0.684289,0.571934,0.18228,0.151528,0.785305,9.70021e-06,-4.14945e-06,-1.15857e-05,2.94965,-0.491216,0.617877,-2.4692,0.0253725,4.94865,-2.44798,0.0283802,4.83127,0.483349,-0.0331629,0.356282,0.589639,0.523858,0.535984,0.614237,1
1.82905,-1.07101,-1.78369,-1.06435,1.99247,1.16801,-0.854118,1.82724,-1.08153,-1.79069,-1.06759,1.98322,1.16977,-0.858467,1.7814,-1.07626,-1.82163,-1.12199,1.93767,1.11687,-0.915991,0.0400762,-0.0179288,-0.00421854,0.0196666,0.0455795,0.0323942,0.0438154,0.0400762,-0.0179288,-0.00421854,0.0196666,0.0455795,0.0323942,0.0438154,0.533802,-0.457263,0.684174,0.571734,0.18234,0.151326,0.785476,0.0117276,0.00394512,-0.00413918,2.92519,-0.490882,0.666283,-2.56725,0.0350915,5.08084,-2.43896,0.0406897,4.73692,0.476571,0.0525112,0.379443,0.576356,0.547998,0.511445,0.618722,1
1.81491,-1.04894,-1.78313,-1.06536,1.98569,1.17529,-0.849768,1.82882,-1.07681,-1.78634,-1.06384,1.98868,1.17133,-0.854294,1.78197,-1.07674,-1.82134,-1.12079,1.93936,1.11834,-0.914083,0.0634101,-0.0712839,0.0156158,0.135425,0.197965,0.177671,0.223763,0.0634101,-0.0712839,0.0156158,0.135425,0.197965,0.177671,0.223763,0.533582,-0.457663,0.684465,0.571054,0.181887,0.149796,0.786368,-0.0134989,-0.0477371,0.0114971,2.90037,-0.491179,0.713026,-2.53091,-0.0303362,4.76569,-2.43834,0.0308675,4.62746,0.329437,0.278001,0.382073,0.55428,0.463302,0.569551,0.643147,1
1.7884,-1.01678,-1.77648,-1.06887,1.96926,1.18528,-0.843101,1.82317,-1.06501,-1.78398,-1.06454,1.98822,1.17184,-0.852567,1.78355,-1.07785,-1.82016,-1.11838,1.94268,1.12172,-0.909966,0.18606,-0.103606,0.196786,0.309177,0.412785,0.429933,0.517084,0.18606,-0.103606,0.196786,0.309177,0.412785,0.429933,0.517084,0.533241,-0.45814,0.685209,0.569322,0.180616,0.146507,0.788534,-0.0247218,-0.0351766,0.116298,2.8755,-0.491354,0.758509,-2.51194,-0.0176224,4.59418,-2.46906,0.00268161,4.50263,0.0485451,0.610655,0.436849,0.495127,0.265828,0.635657,0.668653,1
1.81902,-1.0079,-1.76016,-1.08803,1.98798,1.19408,-0.839187,1.81299,-1.04576,-1.78034,-1.06726,1.98367,1.17683,-0.848845,1.78543,-1.07948,-1.81702,-1.11358,1.94947,1.1281,-0.901794,0.193023,-0.21384,0.312401,0.505471,0.737748,0.657543,0.868099,0.193023,-0.21384,0.312401,0.505471,0.737748,0.657543,0.868099,0.531898,-0.459489,0.687268,0.566286,0.177857,0.139768,0.792561,-0.087268,-0.139699,0.157734,2.85103,-0.491447,0.803186,-2.47229,-0.00939011,4.51334,-2.46941,-0.00933349,4.37845,0.335953,0.715784,0.568515,0.255487,0.385071,0.659852,0.626075,1
1.84345,-1.01211,-1.75484,-1.13416,1.97237,1.20516,-0.828484,1.80867,-1.0257,-1.77316,-1.07658,1.97969,1.18515,-0.843564,1.78861,-1.08253,-1.81367,-1.1072,1.95678,1.13476,-0.893385,0.364803,-0.29755,0.374606,0.70649,0.740531,0.699024,0.850393,0.364803,-0.29755,0.374606,0.70649,0.740531,0.699024,0.850393,0.530879,-0.461244,0.688975,0.563008,0.175081,0.132084,0.79682,-0.0442113,-0.137764,0.177671,2.82651,-0.491543,0.846527,-2.51411,-0.00990552,4.44335,-2.46719,-0.0159055,4.25649,0.548427,0.704211,0.588325,-0.269575,0.155919,0.703972,0.649017,1
1.84722,-1.01917,-1.74703,-1.11322,2.00172,1.21066,-0.81807,1.81898,-1.01444,-1.76353,-1.09493,1.98011,1.19451,-0.836831,1.79289,-1.08474,-1.80891,-1.09906,1.9652,1.1432,-0.883515,0.434466,-0.207119,0.481647,0.830344,0.873697,0.871701,1.02487,0.434466,-0.207119,0.481647,0.830344,0.873697,0.871701,1.02487,0.53024,-0.461924,0.69051,0.561168,0.172887,0.127756,0.799299,-0.0588205,-0.108995,0.272407,2.80232,-0.491629,0.889295,-2.15843,-0.00765131,3.81647,-2.451,-0.010891,4.15556,0.54338,0.655651,0.618767,-0.141626,0.36525,0.674592,0.654444,1
1.83764,-1.02112,-1.74462,-1.0895,2.00749,1.21729,-0.806859,1.83448,-1.01368,-1.75493,-1.11052,1.98561,1.20328,-0.828118,1.7973,-1.08661,-1.80406,-1.09117,1.9734,1.15192,-0.873129,0.445036,-0.175421,0.496243,0.77535,0.781066,0.861406,1.02386,0.445036,-0.175421,0.496243,0.77535,0.781066,0.861406,1.02386,0.528821,-0.463224,0.693822,0.557085,0.168116,0.118756,0.804544,-0.0671358,-0.0958915,0.292226,2.77831,-0.491698,0.931371,-2.43992,-0.00700544,4.27612,-2.43094,-0.00870824,4.06834,0.403453,0.654865,0.594368,0.0167395,0.340824,0.653609,0.662693,1
1.83595,-1.01984,-1.74019,-1.06156,2.01752,1.22598,-0.79973,1.84142,-1.01723,-1.74877,-1.10772,1.99595,1.21086,-0.818044,1.80159,-1.08785,-1.79854,-1.08432,1.9794,1.1604,-0.863693,0.414621,-0.10758,0.561113,0.655019,0.541214,0.840375,0.914915,0.414621,-0.10758,0.561113,0.655019,0.541214,0.840375,0.914915,0.527551,-0.46382,0.697255,0.552875,0.162952,0.110665,0.809647,-0.0518564,-0.0137622,0.319427,2.75396,-0.49166,0.971978,-2.47948,0.00386342,4.13512,-2.42331,-0.00581384,3.97427,0.343578,0.68012,0.583499,0.227559,0.381179,0.655801,0.639635,1
1.84133,-1.01918,-1.73665,-1.05128,2.01727,1.2357,-0.790668,1.84021,-1.01963,-1.74425,-1.08885,2.00697,1.2182,-0.808219,1.80484,-1.08841,-1.79291,-1.07959,1.98339,1.16863,-0.855231,0.295249,-0.0352328,0.567776,0.386219,0.355856,0.809768,0.82301,0.295249,-0.0352328,0.567776,0.386219,0.355856,0.809768,0.82301,0.526267,-0.463634,0.700765,0.548908,0.157369,0.104038,0.814316,-0.0664135,0.0391202,0.317439,2.7297,-0.491582,1.01169,-2.4216,0.00779495,3.96411,-2.4196,-0.00108302,3.88002,0.364921,0.69223,0.562618,0.283073,0.338706,0.670684,0.645635,1
1.85554,-1.0201,-1.73205,-1.05075,2.02064,1.24419,-0.782508,1.83965,-1.01997,-1.74033,-1.06853,2.01415,1.22642,-0.799317,1.80741,-1.08799,-1.78679,-1.07844,1.98603,1.17664,-0.847524,0.249182,0.0662593,0.634059,0.023932,0.243667,0.796873,0.758752,0.249182,0.0662593,0.634059,0.023932,0.243667,0.796873,0.758752,0.52509,-0.462323,0.704002,0.544638,0.151879,0.0989674,0.818845,-0.0507789,0.168847,0.296779,2.70503,-0.49176,1.05035,-2.4472,-0.0176132,3.83445,-2.43183,-0.00144958,3.77423,0.481287,0.678925,0.54736,0.27684,0.346051,0.675511,0.650151,1
1.86199,-1.02091,-1.7258,-1.05579,2.02317,1.2514,-0.774142,1.8446,-1.01981,-1.73621,-1.05639,2.01793,1.23522,-0.790873,1.80956,-1.08674,-1.7802,-1.07993,1.98868,1.18469,-0.840002,0.198694,0.144826,0.657547,-0.200551,0.279121,0.806208,0.753515,0.198694,0.144826,0.657547,-0.200551,0.279121,0.806208,0.753515,0.523786,-0.457784,0.7088,0.536553,0.143639,0.0930061,0.826334,-0.0321852,0.329239,0.298605,2.6804,-0.491614,1.08835,-2.48091,0.0146552,3.82891,-2.44743,0.000683069,3.67336,0.524345,0.658292,0.543965,0.241393,0.344916,0.667168,0.658598,1
1.8555,-1.01666,-1.71861,-1.05455,2.02715,1.25745,-0.76578,1.85237,-1.01984,-1.73131,-1.05306,2.02064,1.24356,-0.782488,1.81112,-1.08466,-1.77394,-1.08198,1.99234,1.1926,-0.832314,0.149092,0.227575,0.618252,-0.186135,0.396487,0.787477,0.775757,0.149092,0.227575,0.618252,-0.186135,0.396487,0.787477,0.775757,0.523273,-0.456131,0.710444,0.533702,0.140969,0.0910865,0.82885,-0.0484729,0.322059,0.308761,2.65511,-0.49186,1.12552,-2.48345,-0.024097,3.64906,-2.47,-0.00431001,3.58749,0.443821,0.680076,0.553221,0.274282,0.34815,0.648465,0.665345,1
1.85237,-1.01173,-1.71199,-1.05369,2.03515,1.26368,-0.758271,1.85686,-1.01896,-1.72538,-1.05381,2.02391,1.2509,-0.774184,1.81328,-1.08203,-1.76808,-1.08318,1.9971,1.20042,-0.824197,0.244473,0.27635,0.569717,-0.0820541,0.500373,0.775458,0.824028,0.244473,0.27635,0.569717,-0.0820541,0.500373,0.775458,0.824028,0.522097,-0.452989,0.714044,0.528039,0.135581,0.0870133,0.833799,-0.0578301,0.311644,0.346605,2.63025,-0.491669,1.16188,-2.47558,0.0189584,3.62049,-2.48831,-0.00274301,3.50559,0.39094,0.702953,0.560917,0.294871,0.380567,0.632645,0.659261,1
1.8533,-1.00651,-1.70704,-1.05052,2.04071,1.27171,-0.75079,1.85621,-1.01607,-1.71887,-1.05416,2.0286,1.25756,-0.766102,1.8164,-1.07867,-1.76301,-1.08224,2.00251,1.20825,-0.815675,0.335371,0.35548,0.486393,0.156355,0.548328,0.782864,0.857919,0.335371,0.35548,0.486393,0.156355,0.548328,0.782864,0.857919,0.521046,-0.449915,0.718049,0.52234,0.130032,0.0827148,0.838696,-0.0482285,0.2951,0.395989,2.60555,-0.491395,1.19612,-2.47901,0.0275157,3.43643,-2.49114,0.00674069,3.40061,0.369002,0.721663,0.559764,0.317177,0.382048,0.634594,0.648854,1
1.85874,-1.00185,-1.70294,-1.04165,2.04877,1.27995,-0.742977,1.85439,-1.01161,-1.71271,-1.05249,2.03465,1.26438,-0.758314,1.82078,-1.07454,-1.75847,-1.07932,2.00799,1.21606,-0.806916,0.472815,0.430895,0.445024,0.327725,0.544091,0.778945,0.881372,0.472815,0.430895,0.445024,0.327725,0.544091,0.778945,0.881372,0.519539,-0.445452,0.72529,0.514447,0.120754,0.0764235,0.845531,-0.0240308,0.307795,0.492232,2.58272,-0.490323,1.23,-2.44938,0.115006,3.6359,-2.44926,0.0304663,3.28899,0.379625,0.726901,0.555307,0.376726,0.407895,0.638931,0.639386,1
1.864,-0.996852,-1.69922,-1.03453,2.05397,1.28808,-0.73458,1.85523,-1.00668,-1.70749,-1.04835,2.04132,1.2719,-0.750631,1.82602,-1.0698,-1.75407,-1.07539,2.01319,1.22403,-0.797981,0.529619,0.492924,0.443166,0.406675,0.511322,0.811409,0.894878,0.529619,0.492924,0.443166,0.406675,0.511322,0.811409,0.894878,0.519136,-0.443796,0.727954,0.5118,0.117421,0.0744565,0.847779,-0.0159724,0.322364,0.512803,2.55878,-0.49007,1.26265,-2.37048,0.0250849,3.23174,-2.40194,0.0492573,3.17382,0.379796,0.729456,0.548576,0.408619,0.407884,0.6405,0.634016,1
1.86982,-0.991086,-1.69392,-1.02642,2.06503,1.29494,-0.726532,1.85899,-1.00171,-1.70304,-1.04189,2.04822,1.27984,-0.742759,1.83131,-1.06424,-1.74911,-1.07107,2.01812,1.23233,-0.789088,0.531488,0.57366,0.519313,0.436264,0.488159,0.833831,0.886489,0.531488,0.57366,0.519313,0.436264,0.488159,0.833831,0.886489,0.518125,-0.440251,0.733748,0.506567,0.110175,0.070696,0.852205,-0.04087,0.349583,0.577926,2.53472,-0.489879,1.29455,-2.28913,0.018186,3.03558,-2.37837,0.0490648,3.06881,0.385129,0.73154,0.551909,0.446533,0.469128,0.626038,0.625559,1
1.87135,-0.984439,-1.68831,-1.01987,2.07368,1.3013,-0.718773,1.86393,-0.996489,-1.69863,-1.03436,2.05584,1.28757,-0.734692,1.83643,-1.05801,-1.74338,-1.06693,2.02288,1.24065,-0.780332,0.500042,0.634485,0.588476,0.415384,0.476255,0.830707,0.871335,0.500042,0.634485,0.588476,0.415384,0.476255,0.830707,0.871335,0.516846,-0.436251,0.74021,0.501229,0.102258,0.0670801,0.856629,-0.059879,0.398253,0.638943,2.51024,-0.489511,1.32555,-2.4626,0.0369229,3.11794,-2.38635,0.0421154,2.98418,0.349202,0.7357,0.550743,0.470549,0.50799,0.606558,0.615588,1
1.87238,-0.978023,-1.68159,-1.01297,2.08391,1.30686,-0.71176,1.86821,-0.990722,-1.69364,-1.02692,2.06459,1.29462,-0.726709,1.84093,-1.05157,-1.73708,-1.0626,2.02778,1.24897,-0.771836,0.431982,0.640249,0.639494,0.435266,0.49614,0.827519,0.842296,0.431982,0.640249,0.639494,0.435266,0.49614,0.827519,0.842296,0.515175,-0.432147,0.747098,0.495946,0.0939383,0.0634653,0.860921,-0.10384,0.390255,0.678652,2.4862,-0.488902,1.35562,-2.35848,0.0597725,2.95003,-2.41588,0.0339973,2.89127,0.314484,0.735424,0.554895,0.496312,0.561272,0.578827,0.60076,1
1.87335,-0.971841,-1.67494,-1.00926,2.09061,1.31327,-0.703637,1.87089,-0.984485,-1.68788,-1.02004,2.0739,1.30102,-0.719001,1.8449,-1.04555,-1.73055,-1.05816,2.033,1.25712,-0.763548,0.389329,0.58856,0.656033,0.45033,0.530291,0.813773,0.824943,0.389329,0.58856,0.656033,0.45033,0.530291,0.813773,0.824943,0.513093,-0.428444,0.753994,0.490901,0.0855971,0.0595778,0.864951,-0.136972,0.346742,0.664125,2.46076,-0.489874,1.38402,-2.65088,-0.101232,2.95961,-2.44559,0.0136805,2.78808,0.284477,0.737098,0.556148,0.488962,0.576119,0.56146,0.599113,1
1.8759,-0.96604,-1.66873,-1.00438,2.09748,1.31952,-0.695452,1.87242,-0.978149,-1.68157,-1.01407,2.0827,1.30712,-0.711387,1.84874,-1.03983,-1.72411,-1.05329,2.03858,1.26514,-0.755391,0.386968,0.570559,0.638835,0.498904,0.570559,0.799703,0.813102,0.386968,0.570559,0.638835,0.498904,0.570559,0.799703,0.813102,0.509608,-0.423713,0.763933,0.483593,0.0733784,0.0531391,0.870592,-0.158789,0.295372,0.641314,2.43575,-0.490219,1.41155,-2.4635,-0.0339609,2.71207,-2.47409,-0.0104225,2.67461,0.271683,0.737938,0.553839,0.489109,0.58906,0.54379,0.599387,1
1.88206,-0.959989,-1.66193,-1.00056,2.10442,1.32636,-0.687436,1.87417,-0.971983,-1.67507,-1.00909,2.09046,1.3133,-0.703555,1.85301,-1.03414,-1.71786,-1.048,2.04477,1.27296,-0.747252,0.4432,0.566065,0.615909,0.532532,0.636177,0.770916,0.814648,0.4432,0.566065,0.615909,0.532532,0.636177,0.770916,0.814648,0.508434,-0.422218,0.767229,0.48115,0.0693365,0.0508654,0.87241,-0.155419,0.295554,0.643538,2.41282,-0.489009,1.43892,-2.32589,0.122657,2.77633,-2.4528,-0.00311613,2.57678,0.290485,0.741534,0.559289,0.474335,0.596524,0.53406,0.59816,1
1.89012,-0.954608,-1.65569,-0.996435,2.11154,1.33262,-0.678783,1.87747,-0.966012,-1.66857,-1.00469,2.09753,1.3197,-0.695472,1.85783,-1.02875,-1.71189,-1.04253,2.0517,1.28051,-0.739179,0.49061,0.533922,0.593234,0.554871,0.711631,0.749428,0.802591,0.49061,0.533922,0.593234,0.554871,0.711631,0.749428,0.802591,0.506285,-0.419221,0.773617,0.476026,0.0615308,0.0461285,0.876062,-0.131004,0.298302,0.615827,2.38821,-0.488983,1.46411,-2.23076,0.00234443,2.28232,-2.43923,0.00702441,2.46879,0.322903,0.741386,0.562035,0.460956,0.598415,0.521109,0.603962,1
1.89522,-0.94943,-1.64988,-0.99106,2.11991,1.33661,-0.669706,1.88281,-0.960237,-1.66213,-1.00043,2.10457,1.32604,-0.687181,1.86265,-1.02354,-1.70624,-1.03709,2.05907,1.28773,-0.731551,0.474156,0.52062,0.556717,0.547201,0.746032,0.714733,0.74926,0.474156,0.52062,0.556717,0.547201,0.746032,0.714733,0.74926,0.504275,-0.416359,0.779732,0.4708,0.0540466,0.0411081,0.879623,-0.121445,0.287715,0.58955,2.36419,-0.489007,1.48919,-2.53054,-0.00245536,2.64291,-2.40687,0.0296956,2.37897,0.32571,0.741054,0.563534,0.460267,0.608416,0.488783,0.61845,1
1.88794,-0.942815,-1.64407,-0.986312,2.12987,1.33667,-0.661602,1.88835,-0.954636,-1.65589,-0.995987,2.11212,1.33149,-0.678645,1.86678,-1.01792,-1.70043,-1.0316,2.06685,1.29473,-0.724088,0.393104,0.577151,0.591017,0.553433,0.79163,0.701035,0.748409,0.393104,0.577151,0.591017,0.553433,0.79163,0.701035,0.748409,0.500834,-0.412518,0.788883,0.463422,0.0430653,0.0334718,0.884458,-0.179391,0.252977,0.619104,2.34041,-0.488978,1.51255,-2.53255,0.00306609,2.48744,-2.39322,0.0248384,2.27264,0.211537,0.751091,0.563615,0.452898,0.630205,0.419344,0.624861,1
1.88719,-0.936346,-1.63693,-0.982758,2.14052,1.33719,-0.65457,1.8908,-0.948913,-1.64982,-0.991292,2.12063,1.33502,-0.670111,1.87033,-1.01198,-1.69429,-1.02624,2.07489,1.30158,-0.716769,0.345682,0.595343,0.621338,0.539843,0.804919,0.684424,0.725735,0.345682,0.595343,0.621338,0.539843,0.804919,0.684424,0.725735,0.498065,-0.410103,0.795247,0.458648,0.0356034,0.0283053,0.887453,-0.205998,0.246065,0.629147,2.31814,-0.488016,1.53611,-2.36451,0.102139,2.50197,-2.37161,0.0199199,2.17817,0.168602,0.756367,0.573604,0.43479,0.656312,0.356125,0.621994,1
1.89492,-0.930207,-1.63031,-0.977664,2.14907,1.34264,-0.648231,1.89014,-0.9428,-1.6436,-0.986703,2.1301,1.3369,-0.662108,1.87366,-1.00598,-1.68784,-1.0207,2.08303,1.30838,-0.709354,0.331636,0.597944,0.648542,0.546878,0.818783,0.674513,0.750567,0.331636,0.597944,0.648542,0.546878,0.818783,0.674513,0.750567,0.495066,-0.407781,0.801701,0.453814,0.0280054,0.0230158,0.890359,-0.220306,0.240704,0.640546,2.29406,-0.488019,1.55753,-2.40151,-0.000291261,2.1359,-2.34344,0.0291973,2.08764,0.212611,0.757692,0.575316,0.430382,0.660325,0.342623,0.611236,1
1.89949,-0.924295,-1.62476,-0.971966,2.15718,1.346,-0.63983,1.89058,-0.936493,-1.63711,-0.982217,2.13975,1.33894,-0.654768,1.87704,-1.00005,-1.68146,-1.0153,2.09129,1.31504,-0.701578,0.339893,0.593653,0.638643,0.535804,0.826127,0.665896,0.78652,0.339893,0.593653,0.638643,0.535804,0.826127,0.665896,0.78652,0.492099,-0.40545,0.807983,0.448658,0.0205473,0.0177175,0.893291,-0.218632,0.247609,0.620081,2.26976,-0.488197,1.57835,-2.33795,-0.0171389,2.00336,-2.35206,0.0257838,1.98298,0.224473,0.757597,0.567096,0.433307,0.658909,0.309593,0.617482,1
1.89277,-0.917837,-1.61869,-0.966573,2.1662,1.3466,-0.631332,1.89356,-0.930279,-1.63071,-0.97736,2.14883,1.34199,-0.647495,1.88051,-0.994071,-1.67495,-1.00975,2.09961,1.32162,-0.693478,0.348126,0.595439,0.658034,0.553397,0.82954,0.653324,0.81732,0.348126,0.595439,0.658034,0.553397,0.82954,0.653324,0.81732,0.489064,-0.403075,0.814289,0.44324,0.0130159,0.012386,0.896223,-0.22513,0.250532,0.62383,2.24548,-0.488002,1.59829,-2.41844,0.0194099,1.98678,-2.38233,0.0177038,1.88733,0.122608,0.762341,0.56257,0.431764,0.66593,0.249748,0.621463,1
1.89592,-0.911297,-1.61131,-0.963857,2.17559,1.34548,-0.622958,1.89568,-0.924099,-1.62455,-0.97221,2.15752,1.34472,-0.639672,1.88396,-0.988364,-1.66828,-1.00405,2.10805,1.32767,-0.685147,0.338762,0.565103,0.666919,0.575733,0.850458,0.58224,0.838205,0.338762,0.565103,0.666919,0.575733,0.850458,0.58224,0.838205,0.486037,-0.400893,0.820443,0.437631,0.00575654,0.00690977,0.899109,-0.227296,0.224412,0.608315,2.22102,-0.488154,1.61616,-2.44046,-0.0151274,1.78261,-2.42818,-0.00258982,1.7587,0.119612,0.770664,0.569702,0.401979,0.675338,0.178151,0.62189,1
1.91663,-0.905785,-1.60447,-0.96189,2.18465,1.3421,-0.614362,1.89686,-0.917837,-1.6182,-0.967643,2.16637,1.34564,-0.631359,1.88705,-0.982827,-1.66168,-0.99841,2.11675,1.33278,-0.676755,0.30051,0.555852,0.65835,0.561352,0.876305,0.488921,0.836624,0.30051,0.555852,0.65835,0.561352,0.876305,0.488921,0.836624,0.483006,-0.399027,0.826399,0.432038,-0.000955085,0.00141325,0.901854,-0.231601,0.201301,0.592014,2.19673,-0.488033,1.63348,-2.43055,0.0121243,1.73228,-2.43403,0.00015676,1.64709,0.295844,0.770416,0.572119,0.365193,0.679,0.0931565,0.623921,1
1.92934,-0.900293,-1.59847,-0.962124,2.19489,1.32159,-0.605872,1.90262,-0.911679,-1.61148,-0.964443,2.17556,1.34345,-0.622889,1.88985,-0.977008,-1.65501,-0.993069,2.12571,1.33701,-0.668477,0.275871,0.590317,0.670502,0.531944,0.902746,0.404842,0.823309,0.275871,0.590317,0.670502,0.531944,0.902746,0.404842,0.823309,0.479967,-0.39712,0.832392,0.426371,-0.00727429,-0.00394968,0.90451,-0.237127,0.211956,0.601935,2.17368,-0.487704,1.65011,-2.31291,0.0330037,1.66959,-2.40919,0.00956059,1.53711,0.394949,0.767143,0.565412,0.309452,0.691795,-0.154143,0.626046,1
1.92274,-0.894162,-1.59244,-0.958524,2.20529,1.31009,-0.59821,1.91352,-0.905817,-1.60482,-0.962523,2.18508,1.3361,-0.61444,1.89254,-0.971035,-1.64817,-0.988028,2.13486,1.34064,-0.660357,0.267374,0.5974,0.685266,0.497837,0.920578,0.349859,0.806604,0.267374,0.5974,0.685266,0.497837,0.920578,0.349859,0.806604,0.476944,-0.395108,0.838384,0.420555,-0.0133411,-0.00925548,0.907122,-0.235032,0.222743,0.597225,2.14935,-0.487643,1.66558,-2.36044,0.00593506,1.50115,-2.39594,0.0116932,1.43528,0.302019,0.768727,0.557288,0.29504,0.70425,-0.305479,0.621472,1
1.91116,-0.887203,-1.58769,-0.95338,2.21544,1.30626,-0.590966,1.92129,-0.900003,-1.59859,-0.960727,2.19501,1.32438,-0.606215,1.89505,-0.964994,-1.64145,-0.983095,2.14407,1.34362,-0.652374,0.24494,0.605717,0.667302,0.485326,0.920636,0.282498,0.796358,0.24494,0.605717,0.667302,0.485326,0.920636,0.282498,0.796358,0.473948,-0.393151,0.844293,0.414775,-0.0190611,-0.0144072,0.90961,-0.236192,0.217301,0.589009,2.12694,-0.48665,1.68233,-2.21416,0.098054,1.65472,-2.35522,0.0339752,1.39443,0.161073,0.777904,0.537648,0.297149,0.713754,-0.373563,0.614075,1
1.93322,-0.880195,-1.57951,-0.960827,2.22491,1.3079,-0.583029,1.92177,-0.893809,-1.5927,-0.958492,2.20516,1.31387,-0.598375,1.89747,-0.958658,-1.63486,-0.978442,2.15324,1.3456,-0.644389,0.244281,0.64536,0.662233,0.455354,0.918067,0.168458,0.799485,0.244281,0.64536,0.662233,0.455354,0.918067,0.168458,0.799485,0.47249,-0.392141,0.847234,0.411868,-0.0217465,-0.0168554,0.910828,-0.232519,0.223491,0.590047,2.10424,-0.48615,1.69635,-2.26451,0.0498419,1.39792,-2.31703,0.0481814,1.32955,0.357553,0.784623,0.553487,0.17615,0.716671,-0.377077,0.613601,1
1.94793,-0.874708,-1.57361,-0.958488,2.23414,1.30865,-0.576393,1.92301,-0.887228,-1.58662,-0.957394,2.21516,1.30874,-0.590814,1.90012,-0.952044,-1.62807,-0.974182,2.16241,1.34608,-0.63636,0.270849,0.660172,0.68281,0.416598,0.917242,0.00940742,0.804063,0.270849,0.660172,0.68281,0.416598,0.917242,0.00940742,0.804063,0.469754,-0.389812,0.853221,0.405762,-0.0267068,-0.021493,0.913336,-0.212179,0.265673,0.604249,2.07957,-0.486029,1.7079,-2.42668,0.0118911,1.13636,-2.33321,0.0484055,1.21328,0.478155,0.773365,0.54458,0.156938,0.717262,-0.374287,0.599668,1
1.93003,-0.868796,-1.57445,-0.944013,2.24553,1.29916,-0.571092,1.93053,-0.880736,-1.58057,-0.957186,2.22491,1.30727,-0.583557,1.90279,-0.945575,-1.62136,-0.970203,2.17167,1.34497,-0.628267,0.262868,0.640267,0.666332,0.397951,0.92984,-0.14968,0.811505,0.262868,0.640267,0.666332,0.397951,0.92984,-0.14968,0.811505,0.467379,-0.387272,0.859137,0.399276,-0.0308522,-0.0259004,0.915945,-0.183861,0.277997,0.589176,2.05569,-0.485926,1.71953,-2.51357,0.0109091,1.22435,-2.34699,0.0405389,1.08462,0.272493,0.767784,0.469042,0.2619,0.738552,-0.458048,0.571745,1
1.89687,-0.861743,-1.57291,-0.940966,2.2555,1.293,-0.561982,1.93429,-0.874572,-1.57613,-0.95404,2.23485,1.30496,-0.576737,1.9053,-0.939115,-1.61475,-0.966264,2.18116,1.34197,-0.62013,0.250836,0.650513,0.664031,0.396153,0.955725,-0.353323,0.812332,0.250836,0.650513,0.664031,0.396153,0.955725,-0.353323,0.812332,0.465274,-0.384912,0.86487,0.392699,-0.0340443,-0.0301642,0.918542,-0.167779,0.25931,0.574018,2.03247,-0.48549,1.73155,-2.38144,0.04468,1.23258,-2.37496,0.0254422,0.966192,-0.0843279,0.773722,0.418338,0.252981,0.743337,-0.489694,0.581475,1
1.93304,-0.854517,-1.56247,-0.963067,2.26405,1.29286,-0.551358,1.92661,-0.868331,-1.57343,-0.949112,2.24504,1.30014,-0.569653,1.90787,-0.932582,-1.60798,-0.962627,2.19092,1.33719,-0.612064,0.257176,0.648655,0.675607,0.354114,0.981342,-0.513872,0.804794,0.257176,0.648655,0.675607,0.354114,0.981342,-0.513872,0.804794,0.463426,-0.382542,0.870654,0.385952,-0.0362927,-0.0342691,0.921168,-0.148739,0.272535,0.581996,2.00835,-0.485157,1.74168,-2.27144,0.0313975,0.954166,-2.38893,0.0252652,0.893246,0.251701,0.780648,0.455094,-0.00439941,0.731265,-0.443288,0.607066,1
1.95527,-0.853105,-1.55665,-0.951799,2.27549,1.29376,-0.549659,1.92105,-0.86197,-1.56972,-0.949025,2.25506,1.29553,-0.561734,1.91039,-0.926209,-1.60134,-0.959441,2.20091,1.33139,-0.604053,0.252286,0.634227,0.660915,0.309605,1.0046,-0.591959,0.798718,0.252286,0.634227,0.660915,0.309605,1.0046,-0.591959,0.798718,0.46122,-0.378908,0.879011,0.375336,-0.0381753,-0.0402493,0.925227,-0.117781,0.275527,0.548724,1.98415,-0.485197,1.75005,-2.48122,-0.00411286,0.857638,-2.38197,0.0243443,0.814517,0.448768,0.731036,0.446843,0.0764125,0.745742,-0.3763,0.543944,1
1.93938,-0.846671,-1.55382,-0.949042,2.28719,1.27934,-0.541013,1.92976,-0.856373,-1.56384,-0.952657,2.26506,1.29267,-0.554176,1.91299,-0.919699,-1.59494,-0.956619,2.211,1.32528,-0.596226,0.267398,0.658638,0.635653,0.274768,1.01334,-0.607634,0.77686,0.267398,0.658638,0.635653,0.274768,1.01334,-0.607634,0.77686,0.46058,-0.377643,0.881719,0.371728,-0.0385785,-0.0421541,0.926581,-0.111341,0.285305,0.543904,1.96012,-0.485015,1.75676,-2.36154,0.0178658,0.659773,-2.39456,0.0211477,0.679546,0.263822,0.730282,0.41117,0.0757696,0.761853,-0.459444,0.552133,1
1.90899,-0.838557,-1.55293,-0.934318,2.29666,1.27259,-0.530707,1.9392,-0.85148,-1.55818,-0.952157,2.27563,1.28856,-0.547508,1.91582,-0.913018,-1.58882,-0.954057,2.22115,1.31934,-0.588607,0.283384,0.666571,0.599713,0.252238,1.01912,-0.583319,0.756763,0.283384,0.666571,0.599713,0.252238,1.01912,-0.583319,0.756763,0.459389,-0.374841,0.887129,0.364359,-0.0393817,-0.0458346,0.929296,-0.1004,0.320165,0.542344,1.93725,-0.484141,1.76418,-2.27755,0.0869929,0.738548,-2.3867,0.0283945,0.553332,-0.0682318,0.744609,0.358921,0.197388,0.75506,-0.467467,0.579002,1
1.94501,-0.830163,-1.54495,-0.957926,2.30558,1.27147,-0.522176,1.93571,-0.84571,-1.55429,-0.947482,2.28633,1.28161,-0.540067,1.91852,-0.906395,-1.58318,-0.951703,2.23133,1.31368,-0.581068,0.26487,0.662229,0.5542,0.228233,1.01861,-0.559102,0.753503,0.26487,0.662229,0.5542,0.228233,1.01861,-0.559102,0.753503,0.458269,-0.371971,0.892354,0.356987,-0.0401393,-0.0493889,0.931939,-0.0969681,0.316064,0.519012,1.91357,-0.484653,1.76985,-2.37502,-0.0512882,0.56939,-2.36458,0.0206381,0.454734,0.264891,0.762313,0.382297,-0.0622337,0.742485,-0.422099,0.588919,1
1.96961,-0.828414,-1.54157,-0.941296,2.31588,1.27689,-0.521183,1.93227,-0.838762,-1.55068,-0.94543,2.2964,1.27559,-0.53174,1.92099,-0.899442,-1.578,-0.949999,2.24147,1.30821,-0.573529,0.243921,0.709184,0.511823,0.15182,1.01546,-0.541772,0.753611,0.243921,0.709184,0.511823,0.15182,1.01546,-0.541772,0.753611,0.456635,-0.367435,0.899897,0.345891,-0.0411215,-0.0541869,0.935806,-0.0962003,0.350681,0.504235,1.88975,-0.484815,1.77458,-2.31784,-0.0158033,0.459523,-2.3535,0.0112617,0.371529,0.486152,0.710282,0.364281,0.0870313,0.744044,-0.313181,0.523456,1
1.94973,-0.819957,-1.53879,-0.939055,2.32733,1.26226,-0.509303,1.9421,-0.832218,-1.54627,-0.946132,2.30613,1.27302,-0.524433,1.92344,-0.892243,-1.57294,-0.948924,2.25164,1.30305,-0.56599,0.249578,0.715236,0.500414,0.0865163,1.01794,-0.510708,0.753335,0.249578,0.715236,0.500414,0.0865163,1.01794,-0.510708,0.753335,0.456086,-0.365734,0.902411,0.342093,-0.0414778,-0.055623,0.937101,-0.0988353,0.36652,0.505104,1.8661,-0.484791,1.77893,-2.42791,0.00241748,0.447313,-2.35537,-0.00226498,0.297466,0.262843,0.722858,0.341481,0.0986923,0.756975,-0.407879,0.566878,1
1.91669,-0.814978,-1.54263,-0.930031,2.33186,1.25766,-0.503792,1.95139,-0.826531,-1.5425,-0.943753,2.31596,1.27041,-0.517969,1.92472,-0.888797,-1.57051,-0.948568,2.2567,1.30052,-0.56225,0.255941,0.689113,0.485614,0.0712086,1.0135,-0.506514,0.74811,0.255941,0.689113,0.485614,0.0712086,1.0135,-0.506514,0.74811,0.455189,-0.362222,0.90716,0.334281,-0.0419914,-0.0584359,0.939722,-0.0752026,0.375514,0.466618,1.84244,-0.484303,1.7825,-2.34574,0.0484187,0.353489,-2.37068,-0.00462532,0.207199,-0.0803105,0.738194,0.278887,0.185367,0.751566,-0.428532,0.584581,1
1.95736,-0.804291,-1.53197,-0.948265,2.34673,1.25444,-0.493392,1.94662,-0.820485,-1.5404,-0.939114,2.32545,1.26486,-0.510705,1.9285,-0.878779,-1.56357,-0.947341,2.27196,1.29266,-0.551208,0.245359,0.673998,0.457929,0.0945698,1.01842,-0.537913,0.734028,0.245359,0.673998,0.457929,0.0945698,1.01842,-0.537913,0.734028,0.454431,-0.358892,0.911619,0.326523,-0.0422462,-0.0612752,0.942254,-0.0702955,0.356505,0.447395,1.81892,-0.4842,1.78464,-2.37596,0.010381,0.216881,-2.3659,0.0141639,0.125028,0.288545,0.744882,0.31598,-0.00923887,0.747694,-0.382182,0.578157,1
1.98177,-0.803488,-1.52863,-0.943614,2.35645,1.2645,-0.491173,1.94249,-0.813672,-1.53806,-0.938398,2.33498,1.25964,-0.502868,1.93109,-0.872094,-1.55902,-0.946702,2.28213,1.2873,-0.543836,0.265889,0.663871,0.453854,0.0490526,1.017,-0.52938,0.737012,0.265889,0.663871,0.453854,0.0490526,1.017,-0.52938,0.737012,0.453323,-0.353813,0.918256,0.314781,-0.0424481,-0.0653655,0.945959,-0.0706786,0.364881,0.447361,1.7955,-0.483885,1.78576,-2.41996,0.0325968,0.114946,-2.35684,0.0245166,0.0307522,0.506753,0.686063,0.303874,0.0308817,0.743218,-0.227947,0.526626,1
1.9539,-0.796294,-1.53011,-0.934191,2.36856,1.24618,-0.479795,1.9526,-0.807241,-1.53411,-0.941088,2.34559,1.25774,-0.495582,1.93379,-0.865594,-1.55471,-0.946156,2.29222,1.28225,-0.536511,0.270491,0.646936,0.420297,0.0580291,1.00967,-0.494997,0.730612,0.270491,0.646936,0.420297,0.0580291,1.00967,-0.494997,0.730612,0.453016,-0.35208,0.920368,0.310793,-0.0424827,-0.0666997,0.947182,-0.0578714,0.373572,0.424826,1.77197,-0.48369,1.78554,-2.41331,0.0199775,-0.0221905,-2.35223,0.0262135,-0.0852289,0.201079,0.693,0.246063,0.11965,0.763327,-0.360698,0.567159,1
1.93065,-0.78836,-1.53365,-0.928164,2.37812,1.24297,-0.471315,1.96144,-0.801663,-1.53102,-0.940606,2.35686,1.25563,-0.488431,1.9366,-0.859024,-1.55069,-0.945254,2.30224,1.27743,-0.529187,0.285423,0.662349,0.398797,0.0970147,0.998359,-0.474947,0.732806,0.285423,0.662349,0.398797,0.0970147,0.998359,-0.474947,0.732806,0.452374,-0.348689,0.924522,0.302925,-0.0426313,-0.0693418,0.949532,-0.0621246,0.364066,0.41907,1.74885,-0.483266,1.78479,-2.1312,0.0390761,-0.0691682,-2.34151,0.0258434,-0.195176,-0.0595574,0.706636,0.170426,0.170898,0.758789,-0.344653,0.578719,1
1.97701,-0.781306,-1.52573,-0.938503,2.38746,1.24495,-0.466881,1.95671,-0.795672,-1.53046,-0.936189,2.36774,1.2504,-0.480563,1.93941,-0.852451,-1.5469,-0.944192,2.31216,1.2728,-0.521833,0.274709,0.654786,0.372287,0.107669,0.989902,-0.458432,0.735694,0.274709,0.654786,0.372287,0.107669,0.989902,-0.458432,0.735694,0.45167,-0.345255,0.92871,0.295107,-0.0429361,-0.0718801,0.951789,-0.0658974,0.367256,0.419343,1.72554,-0.482974,1.7823,-2.35811,0.0294977,-0.251948,-2.33423,0.0307029,-0.306553,0.375944,0.71145,0.211734,0.056889,0.753086,-0.278518,0.549522,1
1.99213,-0.7811,-1.52489,-0.954096,2.39603,1.27214,-0.460643,1.95509,-0.789072,-1.52992,-0.934842,2.37783,1.24743,-0.472901,1.94203,-0.845908,-1.54331,-0.943224,2.32199,1.26838,-0.514488,0.258686,0.655865,0.354119,0.0915617,0.983996,-0.43179,0.734843,0.258686,0.655865,0.354119,0.0915617,0.983996,-0.43179,0.734843,0.450919,-0.341935,0.932785,0.28741,-0.0432507,-0.0743357,0.953939,-0.0717588,0.355507,0.407407,1.70205,-0.483168,1.77916,-2.41114,-0.0198866,-0.321967,-2.33327,0.0214839,-0.414287,0.500922,0.648074,0.184228,-0.108712,0.740367,0.0376371,0.538449,1
1.92912,-0.772725,-1.5581,-0.931792,2.40673,1.27138,-0.45027,1.96476,-0.783419,-1.52979,-0.939127,2.38729,1.25298,-0.466199,1.94456,-0.839205,-1.53982,-0.942357,2.33188,1.26429,-0.507137,0.253317,0.674848,0.346473,0.0827771,0.991321,-0.398773,0.735202,0.253317,0.674848,0.346473,0.0827771,0.991321,-0.398773,0.735202,0.450098,-0.338584,0.9368,0.27973,-0.0436497,-0.0766974,0.956014,-0.0807606,0.360125,0.405224,1.67822,-0.483465,1.77459,-2.37226,-0.0295457,-0.45556,-2.34299,0.00547707,-0.52535,-0.154362,0.664802,-0.182785,0.105647,0.748465,0.0709252,0.568666,1
1.96621,-0.771246,-1.55727,-0.934119,2.41509,1.3038,-0.449021,1.96713,-0.778896,-1.53597,-0.941752,2.39663,1.26531,-0.45955,1.94724,-0.832673,-1.53656,-0.941465,2.34198,1.26055,-0.499789,0.270263,0.644863,0.313971,0.0871035,1.01404,-0.370166,0.734735,0.270263,0.644863,0.313971,0.0871035,1.01404,-0.370166,0.734735,0.449225,-0.33516,0.94078,0.271972,-0.0441969,-0.0790656,0.958033,-0.0808196,0.363395,0.396775,1.65493,-0.483902,1.76955,-2.23727,-0.0420017,-0.483542,-2.35155,-0.0176287,-0.631861,0.189642,0.614267,-0.207094,0.0734612,0.731129,0.43252,0.507679,1
1.98267,-0.776598,-1.57147,-0.930525,2.41935,1.32039,-0.451081,1.96048,-0.775228,-1.5484,-0.93829,2.40573,1.28109,-0.45364,1.94994,-0.826396,-1.53388,-0.940383,2.35229,1.25703,-0.492422,0.268704,0.62579,0.254096,0.110983,1.03493,-0.348026,0.737912,0.268704,0.62579,0.254096,0.110983,1.03493,-0.348026,0.737912,0.448095,-0.330456,0.946277,0.260477,-0.0448408,-0.0828417,0.960874,-0.0693309,0.326437,0.36004,1.63154,-0.484201,1.76367,-2.38171,-0.0303973,-0.59912,-2.35108,-0.0318646,-0.718678,0.327373,0.497984,-0.375855,0.0985718,0.670682,0.633683,0.413411,1
1.96706,-0.778664,-1.57735,-0.909575,2.42875,1.32217,-0.440566,1.96273,-0.774033,-1.56026,-0.932353,2.41373,1.29901,-0.450046,1.9528,-0.819823,-1.53188,-0.939624,2.3627,1.25424,-0.485053,0.292277,0.666955,0.181988,0.0685961,1.04147,-0.245851,0.734964,0.292277,0.666955,0.181988,0.0685961,1.04147,-0.245851,0.734964,0.447758,-0.328838,0.948035,0.256661,-0.0450642,-0.084026,0.961787,-0.063654,0.347263,0.354847,1.60801,-0.483933,1.75651,-2.41997,0.0275347,-0.736666,-2.34758,-0.0226498,-0.81231,0.14262,0.41159,-0.4547,0.300492,0.660487,0.679369,0.444874,1
1.94428,-0.759545,-1.57359,-0.904023,2.43189,1.32328,-0.430822,1.96891,-0.774469,-1.56869,-0.924609,2.42063,1.31381,-0.44662,1.95579,-0.813256,-1.53121,-0.939382,2.37311,1.25347,-0.477799,0.302691,0.65249,0.0319252,0.0165738,1.03923,-0.0118042,0.721254,0.302691,0.65249,0.0319252,0.0165738,1.03923,-0.0118042,0.721254,0.447108,-0.325416,0.951359,0.249133,-0.0458269,-0.0862167,0.963535,-0.0542936,0.36365,0.320484,1.58473,-0.483651,1.74854,-2.31395,0.0280481,-0.791734,-2.33895,-0.00402153,-0.901369,-0.115063,0.537108,-0.4238,0.35359,0.587793,0.698145,0.469774,1
1.9429,-0.746538,-1.57196,-0.923271,2.43587,1.32414,-0.420894,1.96371,-0.770896,-1.57335,-0.915815,2.42678,1.32098,-0.440057,1.95854,-0.806816,-1.53215,-0.939131,2.38333,1.25526,-0.470617,0.261849,0.64331,-0.143304,0.0226856,1.01444,0.24041,0.716976,0.261849,0.64331,-0.143304,0.0226856,1.01444,0.24041,0.716976,0.446423,-0.322145,0.954163,0.242143,-0.0472634,-0.0882964,0.965058,-0.0618822,0.333872,0.273638,1.56163,-0.483252,1.73956,-2.30818,0.039877,-0.897016,-2.33418,0.0185108,-1.00109,-0.156444,0.602778,-0.398082,0.1586,0.525388,0.688794,0.497225,1
1.99816,-0.751222,-1.56604,-0.97238,2.44731,1.33007,-0.42339,1.9554,-0.761619,-1.57352,-0.916152,2.43228,1.32346,-0.431578,1.96082,-0.799986,-1.535,-0.938502,2.39321,1.25999,-0.463732,0.218983,0.701708,-0.329523,0.0755588,0.974247,0.555216,0.673666,0.218983,0.701708,-0.329523,0.0755588,0.974247,0.555216,0.673666,0.445437,-0.319299,0.956555,0.236242,-0.0495873,-0.0901153,0.966235,-0.0905837,0.287274,0.238991,1.53863,-0.483182,1.72952,-2.29995,0.00693423,-1.0049,-2.32194,0.0271815,-1.10249,0.373373,0.487643,-0.310402,-0.338774,0.540953,0.700775,0.403415,1
2.01116,-0.801758,-1.5797,-0.95186,2.45066,1.33894,-0.437332,1.96284,-0.75642,-1.57171,-0.931667,2.43821,1.32621,-0.426257,1.9631,-0.792854,-1.53959,-0.937303,2.40251,1.2681,-0.457554,0.23461,0.707161,-0.504476,0.127234,0.910071,0.892469,0.597807,0.23461,0.707161,-0.504476,0.127234,0.910071,0.892469,0.597807,0.44385,-0.31662,0.958866,0.231728,-0.0534134,-0.0915675,0.966987,-0.137349,0.26931,0.233712,1.51574,-0.482772,1.71878,-2.418,0.0433456,-1.13425,-2.30621,0.0279039,-1.19477,0.480593,-0.0890452,-0.401103,-0.14557,0.481499,0.70839,0.202217,1
1.92753,-0.779824,-1.61012,-0.886617,2.40424,1.34787,-0.46689,1.97981,-0.764993,-1.57416,-0.94534,2.44163,1.33149,-0.429435,1.96554,-0.785977,-1.54589,-0.935352,2.41103,1.27873,-0.451951,0.243011,0.683145,-0.662988,0.221332,0.828292,1.11222,0.550039,0.243011,0.683145,-0.662988,0.221332,0.828292,1.11222,0.550039,0.440974,-0.313221,0.961646,0.227394,-0.0613514,-0.0933348,0.967376,-0.157805,0.200453,0.179815,1.49265,-0.482975,1.70684,-2.1654,-0.0190187,-1.11942,-2.3004,0.0183165,-1.29183,-0.380132,0.061535,-0.642315,0.487346,-0.0678548,0.691356,-0.149395,1
1.92876,-0.716542,-1.6121,-0.876038,2.39121,1.35484,-0.422522,1.97758,-0.774863,-1.58543,-0.934153,2.43358,1.33902,-0.439283,1.96795,-0.779002,-1.55281,-0.932669,2.41839,1.29051,-0.446814,0.242855,0.701409,-0.687795,0.278303,0.706037,1.18328,0.504836,0.242855,0.701409,-0.687795,0.278303,0.706037,1.18328,0.504836,0.439852,-0.312222,0.962529,0.22653,-0.0644461,-0.0937291,0.96734,-0.17282,0.195467,0.184652,1.47008,-0.48284,1.6939,-2.33462,0.0138881,-1.33838,-2.29078,0.0102985,-1.38998,-0.391963,0.624605,-0.592864,0.566316,-0.271731,0.643374,0.24292,1
1.99512,-0.718322,-1.6149,-0.87777,2.42041,1.3614,-0.416969,1.95738,-0.763856,-1.60055,-0.90509,2.41629,1.34711,-0.44257,1.97036,-0.7722,-1.55917,-0.931107,2.42486,1.30179,-0.441637,0.234646,0.670933,-0.616143,0.113332,0.634766,1.10327,0.524825,0.234646,0.670933,-0.616143,0.113332,0.634766,1.10327,0.524825,0.436637,-0.308621,0.965111,0.223716,-0.0735781,-0.0941712,0.9673,-0.145867,0.256819,0.16362,1.44732,-0.482672,1.67987,-2.19837,0.0162591,-1.35539,-2.28303,0.00951886,-1.49179,0.24759,0.538773,-0.557364,0.533375,-0.0445381,0.596056,0.246675,1
2.02846,-0.803469,-1.62783,-0.957923,2.4389,1.37664,-0.428241,1.95642,-0.743566,-1.61126,-0.888972,2.40847,1.35511,-0.433509,1.97208,-0.766096,-1.56446,-0.930971,2.4308,1.31187,-0.436644,0.152112,0.589634,-0.504189,-0.0234047,0.575958,0.960993,0.476973,0.152112,0.589634,-0.504189,-0.0234047,0.575958,0.960993,0.476973,0.434916,-0.306073,0.966401,0.221333,-0.0786102,-0.094183,0.967451,-0.123248,0.244464,0.124347,1.4243,-0.482624,1.66509,-2.34726,0.00488716,-1.50725,-2.28226,0.00598252,-1.5936,0.563778,-0.373727,-0.633746,-0.269518,0.0809419,0.647742,0.0840286,1
2.03533,-0.737737,-1.63453,-0.971625,2.39198,1.39545,-0.43736,1.98515,-0.744221,-1.61836,-0.903794,2.41495,1.36485,-0.42557,1.97328,-0.761054,-1.5692,-0.931965,2.43536,1.32079,-0.433821,0.107748,0.47641,-0.46904,-0.106489,0.400437,0.874289,0.218503,0.107748,0.47641,-0.46904,-0.106489,0.400437,0.874289,0.218503,0.434258,-0.30484,0.96683,0.220434,-0.0806799,-0.0940789,0.967496,-0.0986044,0.237906,0.0908777,1.40141,-0.48213,1.64958,-2.21766,0.0478445,-1.50229,-2.28263,0.0190508,-1.68334,0.620492,0.23317,-0.653285,-0.396602,-0.433749,0.746578,-0.0353835,1
1.92476,-0.728318,-1.64306,-0.950066,2.40421,1.39581,-0.413288,2.00913,-0.755619,-1.62624,-0.935701,2.4174,1.37737,-0.426411,1.97402,-0.75695,-1.57387,-0.932294,2.43713,1.329,-0.433127,0.0641022,0.388723,-0.471473,0.0120798,0.0839068,0.807419,0.0271796,0.0641022,0.388723,-0.471473,0.0120798,0.0839068,0.807419,0.0271796,0.433083,-0.302688,0.967413,0.219972,-0.0844489,-0.0934123,0.967344,-0.0874517,0.188684,0.0573467,1.3782,-0.48182,1.63346,-2.32092,0.0310833,-1.61253,-2.29663,0.0258356,-1.76176,-0.492557,0.286326,-0.691899,-0.177716,-0.329249,0.66812,0.198395,1
1.942,-0.790705,-1.64976,-0.969502,2.44219,1.40884,-0.444647,1.99762,-0.753912,-1.63471,-0.956811,2.41168,1.38955,-0.428243,1.97472,-0.753743,-1.57925,-0.930377,2.43482,1.3369,-0.432981,0.0789742,0.300941,-0.564097,0.255666,-0.334592,0.786579,0.019426,0.0789742,0.300941,-0.564097,0.255666,-0.334592,0.786579,0.019426,0.431734,-0.301168,0.96797,0.221628,-0.0884322,-0.0916773,0.966776,-0.107993,0.106293,0.0584297,1.35508,-0.481864,1.61585,-2.4169,-0.00465381,-1.84067,-2.30579,0.0242084,-1.84676,-0.327214,-0.369623,-0.705139,-0.391251,0.0736761,0.719406,-0.116662,1
1.99733,-0.705223,-1.65357,-0.887919,2.40966,1.40981,-0.459156,1.96773,-0.749523,-1.64231,-0.956921,2.41316,1.39865,-0.430947,1.97594,-0.750915,-1.58581,-0.926306,2.42988,1.34494,-0.43218,0.13805,0.284513,-0.688523,0.443056,-0.518422,0.815858,0.0996753,0.13805,0.284513,-0.688523,0.443056,-0.518422,0.815858,0.0996753,0.430217,-0.300235,0.968585,0.224842,-0.0930335,-0.0886571,0.965883,-0.119926,0.0422008,0.0669394,1.33225,-0.481354,1.5973,-2.18025,0.0486752,-1.77147,-2.30435,0.0280589,-1.94316,0.213883,0.456924,-0.677596,0.383872,-0.202259,0.648706,-0.269754,1
1.92169,-0.737746,-1.66614,-0.887844,2.42083,1.39865,-0.462941,1.95609,-0.747117,-1.64911,-0.939276,2.42009,1.40435,-0.441122,1.97822,-0.74769,-1.59368,-0.922901,2.42492,1.35348,-0.430964,0.262317,0.336226,-0.821443,0.274889,-0.477233,0.870963,0.123896,0.262317,0.336226,-0.821443,0.274889,-0.477233,0.870963,0.123896,0.428395,-0.298324,0.969357,0.229709,-0.100252,-0.0829251,0.964524,-0.0455533,0.142222,0.0300587,1.30982,-0.481347,1.57787,-2.39383,0.000795153,-2.07397,-2.29135,0.0203186,-2.04592,-0.565285,0.0994386,-0.72455,0.350564,-0.0409031,0.45163,-0.319771,1
1.95605,-0.789665,-1.67342,-0.924673,2.44787,1.41818,-0.475664,1.95747,-0.741445,-1.65634,-0.914477,2.42263,1.40643,-0.45464,1.9813,-0.744097,-1.60258,-0.922441,2.42062,1.36288,-0.430012,0.310279,0.361969,-0.90748,-0.0308841,-0.415067,0.967463,0.0808476,0.310279,0.361969,-0.90748,-0.0308841,-0.415067,0.967463,0.0808476,0.428258,-0.297056,0.969326,0.230824,-0.102304,-0.0807417,0.964228,-0.000850392,0.206196,-0.00529114,1.28697,-0.481472,1.5575,-2.24492,-0.012318,-2.00097,-2.27717,0.012114,-2.14895,-0.252521,-0.45568,-0.708317,-0.0223238,0.272468,0.552936,-0.456522,1
2.00777,-0.717538,-1.67889,-0.89873,2.42072,1.42036,-0.473701,1.95584,-0.744642,-1.66459,-0.902854,2.42612,1.40831,-0.464705,1.98398,-0.740646,-1.61157,-0.924998,2.41737,1.37341,-0.429945,0.240817,0.336585,-0.892559,-0.321832,-0.289623,1.081,-0.0201939,0.240817,0.336585,-0.892559,-0.321832,-0.289623,1.081,-0.0201939,0.42849,-0.293946,0.96867,0.232591,-0.105923,-0.0762342,0.963779,0.0575902,0.278339,-0.0859253,1.26363,-0.48087,1.53611,-2.30385,0.0594439,-2.11188,-2.28169,0.0186974,-2.2428,0.237944,0.231084,-0.673131,0.262681,0.0334565,0.469517,-0.437562,1
1.94386,-0.727491,-1.69315,-0.953665,2.41439,1.42304,-0.475322,1.96221,-0.74949,-1.67296,-0.908495,2.42984,1.41362,-0.470939,1.9849,-0.737659,-1.6203,-0.928772,2.41597,1.38463,-0.430949,0.0383625,0.285519,-0.860285,-0.365216,-0.0977937,1.13206,-0.125778,0.0383625,0.285519,-0.860285,-0.365216,-0.0977937,1.13206,-0.125778,0.428904,-0.29098,0.967299,0.234298,-0.109058,-0.0722662,0.963322,0.0537255,0.230416,-0.150654,1.24055,-0.480677,1.51379,-2.29626,0.0192031,-2.22006,-2.29579,0.0183123,-2.33771,-0.410397,0.101681,-0.728543,-0.248928,-0.0157361,0.384077,-0.443727,1
1.93272,-0.773457,-1.69949,-0.981788,2.42612,1.44735,-0.467574,1.96879,-0.742816,-1.68158,-0.92346,2.42627,1.42081,-0.473541,1.98435,-0.735087,-1.6284,-0.930858,2.41604,1.39534,-0.433437,-0.0710802,0.244676,-0.801309,-0.155751,0.0314857,1.04877,-0.300536,-0.0710802,0.244676,-0.801309,-0.155751,0.0314857,1.04877,-0.300536,0.428629,-0.289485,0.965844,0.237154,-0.11227,-0.0694726,0.962459,-0.0276734,0.0770292,-0.131344,1.21757,-0.480844,1.49027,-2.27841,-0.0165186,-2.33212,-2.30905,0.0180155,-2.43891,-0.516363,-0.383692,-0.710865,-0.509292,0.100857,0.520044,-0.341372,1
1.93236,-0.763007,-1.70884,-0.978343,2.4111,1.45915,-0.473256,1.9571,-0.7426,-1.69092,-0.946692,2.42079,1.4304,-0.472872,1.98374,-0.733327,-1.63679,-0.930593,2.41697,1.40459,-0.438053,-0.0469074,0.150849,-0.853502,0.0909745,0.113728,0.882504,-0.512266,-0.0469074,0.150849,-0.853502,0.0909745,0.113728,0.882504,-0.512266,0.427828,-0.289426,0.964675,0.24171,-0.115454,-0.0677916,0.961067,-0.0584515,-0.0553447,-0.110306,1.19466,-0.480989,1.46572,-2.33616,-0.0147959,-2.50386,-2.30668,0.00993371,-2.54396,-0.513793,-0.296797,-0.72042,-0.477494,-0.0586961,0.545555,-0.35203,1
1.92571,-0.68408,-1.71827,-0.984779,2.40788,1.45763,-0.459915,1.93967,-0.750272,-1.70013,-0.968892,2.41796,1.44318,-0.470836,1.98437,-0.732515,-1.64561,-0.928286,2.41879,1.41173,-0.444385,0.106782,0.0582328,-0.891001,0.259992,0.20203,0.659065,-0.669947,0.106782,0.0582328,-0.891001,0.259992,0.20203,0.659065,-0.669947,0.427167,-0.290606,0.963584,0.247774,-0.118003,-0.0671236,0.959259,-0.0348576,-0.15492,-0.102572,1.17203,-0.480768,1.44013,-2.22072,0.0216819,-2.50989,-2.291,-0.0010711,-2.65023,-0.586592,0.484355,-0.726531,-0.564924,-0.109036,0.45899,-0.155301,1
1.98603,-0.709128,-1.72433,-0.987891,2.42393,1.47441,-0.430551,1.93486,-0.7403,-1.70884,-0.979867,2.41506,1.45451,-0.46596,1.98678,-0.732299,-1.65485,-0.926538,2.42076,1.4172,-0.4517,0.279946,0.0192951,-0.930718,0.123896,0.18529,0.526756,-0.741974,0.279946,0.0192951,-0.930718,0.123896,0.18529,0.526756,-0.741974,0.427346,-0.292033,0.962335,0.254091,-0.119339,-0.067133,0.957439,0.0586994,-0.139439,-0.134279,1.1496,-0.480367,1.41352,-2.253,0.040318,-2.67362,-2.27456,0.00697255,-2.75691,-0.00751431,0.231715,-0.694804,-0.613524,0.0316818,0.572052,0.211484,1
2.02415,-0.784676,-1.73337,-0.990172,2.4573,1.48202,-0.442009,1.94904,-0.721947,-1.7172,-0.984098,2.41693,1.46308,-0.455269,1.98978,-0.731584,-1.66384,-0.926881,2.42183,1.42215,-0.458719,0.290601,0.0930838,-0.883499,-0.0948215,0.0820508,0.491749,-0.679474,0.290601,0.0930838,-0.883499,-0.0948215,0.0820508,0.491749,-0.679474,0.428572,-0.292369,0.960718,0.259512,-0.119557,-0.0666341,0.955991,0.137011,-0.0116222,-0.163553,1.1271,-0.480067,1.38611,-2.25184,0.0299331,-2.74274,-2.26013,0.0217497,-2.85516,0.343723,-0.530926,-0.695262,-0.632902,0.354701,0.598699,0.167101,1
2.00687,-0.767149,-1.74491,-0.989476,2.46627,1.49043,-0.487864,1.97843,-0.728747,-1.72539,-0.987185,2.4301,1.47216,-0.447008,1.99158,-0.730513,-1.6723,-0.930224,2.4219,1.42758,-0.46449,0.128522,0.101557,-0.841829,-0.412399,-0.0152251,0.561259,-0.539951,0.128522,0.101557,-0.841829,-0.412399,-0.0152251,0.561259,-0.539951,0.430093,-0.291501,0.958974,0.263802,-0.119412,-0.0650457,0.954944,0.151195,0.0892434,-0.187926,1.10447,-0.479512,1.35801,-2.25623,0.055412,-2.80216,-2.25305,0.036546,-2.94425,0.152952,-0.366359,-0.726054,-0.592525,0.443684,0.628493,-0.233741,1
1.95172,-0.760699,-1.75416,-0.995141,2.41076,1.49814,-0.493494,1.99962,-0.753622,-1.73435,-0.989401,2.4452,1.4817,-0.454945,1.99092,-0.72988,-1.68064,-0.936222,2.42132,1.43401,-0.4682,-0.131123,0.0530675,-0.82686,-0.658022,-0.0751669,0.66435,-0.311478,-0.131123,0.0530675,-0.82686,-0.658022,-0.0751669,0.66435,-0.311478,0.431681,-0.290542,0.956512,0.267358,-0.11887,-0.0625754,0.954188,0.144445,0.0551619,-0.272644,1.08202,-0.479189,1.3288,-2.25314,0.0323916,-2.93146,-2.25136,0.0401258,-3.03167,-0.391946,-0.308194,-0.735205,-0.589182,-0.105608,0.641305,-0.252937,1
1.93551,-0.752647,-1.76181,-1.01009,2.42023,1.50017,-0.504281,1.99164,-0.765386,-1.74411,-0.992256,2.44463,1.48986,-0.475252,1.98769,-0.729381,-1.68854,-0.944427,2.42043,1.44164,-0.468969,-0.386818,0.0497334,-0.7794,-0.871557,-0.084367,0.789287,-0.0032117,-0.386818,0.0497334,-0.7794,-0.871557,-0.084367,0.789287,-0.0032117,0.433462,-0.290102,0.951586,0.271228,-0.117933,-0.057793,0.953513,0.106301,0.00192685,-0.33485,1.05956,-0.478928,1.29842,-2.2778,0.0264491,-3.08046,-2.25161,0.0375527,-3.12504,-0.521713,-0.232658,-0.732655,-0.656678,-0.00196992,0.585273,-0.353113,1
1.9235,-0.790266,-1.77014,-1.02466,2.44756,1.49959,-0.517019,1.96422,-0.763645,-1.75346,-0.998998,2.43221,1.4958,-0.493036,1.9822,-0.728771,-1.69628,-0.954256,2.42069,1.45024,-0.467413,-0.59287,0.0656721,-0.772294,-1.00571,0.0678196,0.876997,0.200851,-0.59287,0.0656721,-0.772294,-1.00571,0.0678196,0.876997,0.200851,0.433809,-0.290257,0.949718,0.272068,-0.11764,-0.0561576,0.953408,0.0566334,-0.0599796,-0.379182,1.03704,-0.47946,1.26728,-2.25209,-0.0532078,-3.11473,-2.2504,0.0179803,-3.22267,-0.586945,-0.614942,-0.738691,-0.704085,0.268717,0.493538,-0.496063,1
1.91897,-0.785228,-1.77651,-1.03587,2.46404,1.50153,-0.517458,1.93999,-0.767007,-1.76184,-1.01032,2.43031,1.49899,-0.504566,1.9758,-0.727915,-1.70425,-0.964508,2.42304,1.45946,-0.465283,-0.640794,0.0882258,-0.813758,-1.03354,0.292715,0.935599,0.197903,-0.640794,0.0882258,-0.813758,-1.03354,0.292715,0.935599,0.197903,0.434259,-0.291668,0.943885,0.274159,-0.116752,-0.0522863,0.953138,0.0115787,-0.120025,-0.389631,1.01436,-0.479306,1.23519,-2.26352,0.015375,-3.20343,-2.25204,0.00139952,-3.32179,-0.568265,-0.573136,-0.722613,-0.713583,0.409986,0.420644,-0.521756,1
1.91463,-0.784416,-1.78464,-1.04431,2.45412,1.51415,-0.516856,1.92658,-0.777388,-1.76956,-1.02321,2.44296,1.50104,-0.512464,1.96992,-0.727338,-1.71335,-0.974888,2.42743,1.46881,-0.464989,-0.562838,0.0433699,-0.941831,-1.02674,0.476885,0.928876,-0.0333993,-0.562838,0.0433699,-0.941831,-1.02674,0.476885,0.928876,-0.0333993,0.434476,-0.292386,0.941765,0.275102,-0.116229,-0.0514794,0.952974,0.0298775,-0.158289,-0.428544,0.99189,-0.478763,1.20173,-2.28542,0.0552498,-3.40181,-2.25457,0.00474095,-3.42369,-0.552915,-0.570784,-0.712855,-0.694237,0.266966,0.453388,-0.518679,1
1.90611,-0.784693,-1.79552,-1.05701,2.43264,1.5254,-0.513286,1.91925,-0.784215,-1.77722,-1.03489,2.45274,1.5056,-0.516114,1.96552,-0.727071,-1.72299,-0.984807,2.43131,1.47782,-0.467188,-0.394847,0.0237642,-0.962862,-0.986711,0.332099,0.883001,-0.285937,-0.394847,0.0237642,-0.962862,-0.986711,0.332099,0.883001,-0.285937,0.435244,-0.294011,0.937287,0.277806,-0.114798,-0.0503392,0.952424,0.071439,-0.165262,-0.455159,0.969874,-0.479202,1.168,-2.12613,-0.0424063,-3.25771,-2.24516,0.00149667,-3.51384,-0.594037,-0.576227,-0.725323,-0.72207,0.0133403,0.475773,-0.46098,1
1.90758,-0.78292,-1.80095,-1.06307,2.43736,1.52826,-0.51453,1.9137,-0.784961,-1.78544,-1.04532,2.44977,1.51378,-0.515979,1.96394,-0.727002,-1.72781,-0.989675,2.43245,1.48213,-0.46937,-0.316128,0.0138182,-0.963448,-0.973778,0.227974,0.862538,-0.436404,-0.316128,0.0138182,-0.963448,-0.973778,0.227974,0.862538,-0.436404,0.436541,-0.294872,0.932786,0.281342,-0.113165,-0.0486709,0.951668,0.123062,-0.0832179,-0.456703,0.947426,-0.479414,1.13308,-2.18445,-0.0206743,-3.39819,-2.23714,0.00195682,-3.60577,-0.563514,-0.559184,-0.731362,-0.733897,0.0491398,0.461275,-0.451605,1
1.91322,-0.786651,-1.81073,-1.07246,2.4636,1.53273,-0.518364,1.90986,-0.784337,-1.79392,-1.05499,2.44309,1.52227,-0.515068,1.96131,-0.72705,-1.73741,-0.998513,2.43372,1.48994,-0.475693,-0.253353,-0.0127515,-0.949486,-0.846155,0.101648,0.751645,-0.688559,-0.253353,-0.0127515,-0.949486,-0.846155,0.101648,0.751645,-0.688559,0.438044,-0.295523,0.928434,0.286188,-0.111378,-0.0466474,0.950534,0.127623,-0.0899453,-0.432994,0.925528,-0.4789,1.09702,-2.27051,0.0533147,-3.73937,-2.22134,0.00160217,-3.69994,-0.480907,-0.596016,-0.733174,-0.739511,0.29883,0.427895,-0.426708,1
1.91149,-0.788806,-1.82398,-1.08428,2.475,1.54387,-0.524276,1.90931,-0.784757,-1.80246,-1.06406,2.44614,1.52876,-0.515932,1.95801,-0.728359,-1.75091,-1.0107,2.43626,1.49992,-0.488303,-0.209983,-0.140979,-0.887963,-0.799162,0.24012,0.628199,-0.893487,-0.209983,-0.140979,-0.887963,-0.799162,0.24012,0.628199,-0.893487,0.439657,-0.296459,0.924105,0.291746,-0.109231,-0.0451512,0.949165,0.146536,-0.115923,-0.448607,0.903238,-0.47899,1.05987,-2.22074,-0.0089726,-3.70098,-2.2165,-0.00153184,-3.79718,-0.465194,-0.604467,-0.730636,-0.735821,0.387383,0.439478,-0.359725,1
1.90711,-0.795004,-1.83172,-1.09231,2.47863,1.55606,-0.531166,1.91055,-0.786657,-1.81196,-1.07334,2.45889,1.5354,-0.519366,1.95561,-0.730459,-1.7597,-1.01817,2.43969,1.506,-0.497148,-0.253293,-0.22549,-0.874361,-0.74642,0.36088,0.596477,-0.867434,-0.253293,-0.22549,-0.874361,-0.74642,0.36088,0.596477,-0.867434,0.441405,-0.29833,0.919435,0.297663,-0.106494,-0.0448991,0.94765,0.146582,-0.218516,-0.478811,0.881379,-0.478812,1.02155,-2.17875,0.0177397,-3.81931,-2.2118,0.0120336,-3.91117,-0.484923,-0.645447,-0.720227,-0.74141,0.389331,0.500645,-0.340178,1
1.91189,-0.798813,-1.83494,-1.09645,2.48204,1.56411,-0.536817,1.91061,-0.790074,-1.82185,-1.08277,2.47114,1.54442,-0.524695,1.95434,-0.731713,-1.76391,-1.02198,2.44131,1.50907,-0.501159,-0.253557,-0.250788,-0.842416,-0.760418,0.322719,0.613056,-0.802232,-0.253557,-0.250788,-0.842416,-0.760418,0.322719,0.613056,-0.802232,0.443082,-0.300862,0.914529,0.303404,-0.103531,-0.0452351,0.94614,0.143539,-0.248291,-0.501543,0.859185,-0.478409,0.982457,-2.1688,0.0394651,-3.82017,-2.20631,0.0209987,-4.01713,-0.424427,-0.671003,-0.710278,-0.744709,0.407335,0.550399,-0.356585,1
1.90452,-0.806572,-1.84673,-1.10933,2.48897,1.56786,-0.558763,1.90962,-0.794607,-1.83022,-1.09116,2.47828,1.5543,-0.531781,1.9502,-0.736434,-1.77629,-1.03437,2.44476,1.51862,-0.510752,-0.295824,-0.34823,-0.820853,-0.839152,0.208962,0.651412,-0.562203,-0.295824,-0.34823,-0.820853,-0.839152,0.208962,0.651412,-0.562203,0.44489,-0.303388,0.909217,0.308277,-0.100449,-0.0452518,0.944896,0.154801,-0.257134,-0.550062,0.83765,-0.477497,0.942187,-2.16604,0.091639,-4.05045,-2.19809,0.0338745,-4.1207,-0.456815,-0.701384,-0.7044,-0.749577,0.442101,0.492379,-0.480112,1
1.90227,-0.811924,-1.85379,-1.11873,2.4921,1.57132,-0.567594,1.90823,-0.799994,-1.83757,-1.09927,2.48311,1.56222,-0.542031,1.94725,-0.740294,-1.78415,-1.04323,2.44714,1.52518,-0.515337,-0.290311,-0.398466,-0.774031,-0.902068,0.256629,0.651244,-0.426952,-0.290311,-0.398466,-0.774031,-0.902068,0.256629,0.651244,-0.426952,0.446689,-0.306239,0.903531,0.31247,-0.0972626,-0.0453414,0.943847,0.154232,-0.281595,-0.583067,0.815944,-0.476614,0.90151,-2.27203,0.0925138,-4.2577,-2.18317,0.0606841,-4.21078,-0.449837,-0.716303,-0.696353,-0.755064,0.449572,0.461426,-0.522567,1
1.89659,-0.818711,-1.86048,-1.12801,2.49125,1.57728,-0.572588,1.90547,-0.806006,-1.84547,-1.10856,2.48752,1.56764,-0.554624,1.9444,-0.744735,-1.79194,-1.05297,2.45071,1.5318,-0.51905,-0.286548,-0.458949,-0.78538,-0.983727,0.396467,0.663995,-0.358152,-0.286548,-0.458949,-0.78538,-0.983727,0.396467,0.663995,-0.358152,0.448683,-0.309185,0.897433,0.315658,-0.0936511,-0.0459504,0.943121,0.177115,-0.284189,-0.632605,0.794428,-0.476241,0.859914,-2.21747,0.0384338,-4.28705,-2.17143,0.0693834,-4.29218,-0.478151,-0.739762,-0.685423,-0.750435,0.405471,0.454757,-0.53538,1
1.89343,-0.824802,-1.86825,-1.13742,2.49219,1.58458,-0.575635,1.90146,-0.812268,-1.85342,-1.11848,2.49048,1.57232,-0.565214,1.94132,-0.749557,-1.79987,-1.06298,2.45593,1.53869,-0.522593,-0.314282,-0.486679,-0.793807,-1.00967,0.557424,0.696409,-0.357522,-0.314282,-0.486679,-0.793807,-1.00967,0.557424,0.696409,-0.357522,0.450771,-0.312607,0.89085,0.318464,-0.0895534,-0.0474413,0.942502,0.174031,-0.334395,-0.672707,0.771886,-0.475836,0.81737,-2.15396,0.0386293,-4.06523,-2.1782,0.0640094,-4.37447,-0.478903,-0.752456,-0.683765,-0.744441,0.362548,0.458897,-0.530419,1
1.89351,-0.830724,-1.87614,-1.14723,2.49776,1.5913,-0.578273,1.89752,-0.818529,-1.86087,-1.12808,2.49196,1.5779,-0.571593,1.93821,-0.754655,-1.80772,-1.07336,2.46234,1.54588,-0.52669,-0.31107,-0.519889,-0.790104,-1.04225,0.660165,0.721229,-0.432473,-0.31107,-0.519889,-0.790104,-1.04225,0.660165,0.721229,-0.432473,0.452753,-0.316387,0.883995,0.321262,-0.085256,-0.0497851,0.94183,0.16683,-0.364186,-0.714003,0.749952,-0.475518,0.773794,-2.16999,0.0314895,-4.31109,-2.19453,0.0473589,-4.45925,-0.447044,-0.760691,-0.68414,-0.738687,0.354154,0.454189,-0.515836,1
1.89303,-0.836448,-1.88492,-1.15714,2.5052,1.59699,-0.581039,1.89477,-0.824683,-1.86842,-1.13758,2.49415,1.58438,-0.575368,1.93483,-0.760171,-1.816,-1.08371,2.46929,1.55298,-0.531942,-0.345478,-0.566868,-0.838102,-1.04082,0.699148,0.700351,-0.558443,-0.345478,-0.566868,-0.838102,-1.04082,0.699148,0.700351,-0.558443,0.454686,-0.320519,0.876844,0.324545,-0.0806975,-0.0527095,0.940947,0.157629,-0.393274,-0.726846,0.727706,-0.47554,0.729534,-2.22752,-0.00223506,-4.43169,-2.20952,0.0286889,-4.55072,-0.417998,-0.762766,-0.689171,-0.734302,0.359091,0.440078,-0.490973,1
1.89762,-0.842855,-1.89312,-1.1669,2.51271,1.60483,-0.583659,1.89382,-0.830682,-1.87644,-1.14728,2.49875,1.59101,-0.578286,1.93153,-0.766376,-1.82439,-1.09413,2.47606,1.55968,-0.538626,-0.326614,-0.639758,-0.836484,-1.03076,0.664671,0.656476,-0.705025,-0.326614,-0.639758,-0.836484,-1.03076,0.664671,0.656476,-0.705025,0.456669,-0.325089,0.869278,0.328685,-0.0756091,-0.0558936,0.939747,0.168526,-0.422101,-0.772879,0.705868,-0.475587,0.684599,-2.19709,-0.00464457,-4.52091,-2.213,0.0160408,-4.63464,-0.339116,-0.76479,-0.687302,-0.727714,0.366513,0.451562,-0.450324,1
1.90233,-0.849884,-1.9011,-1.17647,2.52323,1.6136,-0.588371,1.8949,-0.83673,-1.88474,-1.15708,2.50553,1.59779,-0.581123,1.92793,-0.773219,-1.83298,-1.10425,2.48212,1.56593,-0.546519,-0.371125,-0.693508,-0.86599,-1.01043,0.580185,0.607412,-0.811112,-0.371125,-0.693508,-0.86599,-1.01043,0.580185,0.607412,-0.811112,0.458714,-0.329991,0.861378,0.333651,-0.0701261,-0.0591837,0.93822,0.164351,-0.464259,-0.804125,0.684045,-0.475285,0.637841,-2.17487,0.0300481,-4.65991,-2.19766,0.0103414,-4.73253,-0.256073,-0.766648,-0.681257,-0.72216,0.4111,0.476711,-0.418523,1
1.89959,-0.856891,-1.9094,-1.1861,2.53264,1.61952,-0.595976,1.89751,-0.843129,-1.89302,-1.16682,2.51377,1.60514,-0.584615,1.92414,-0.780198,-1.84139,-1.11413,2.48722,1.57173,-0.554826,-0.380916,-0.700316,-0.829485,-0.973191,0.488163,0.575904,-0.829149,-0.380916,-0.700316,-0.829485,-0.973191,0.488163,0.575904,-0.829149,0.460671,-0.335146,0.853274,0.339364,-0.0643265,-0.0621284,0.936394,0.152345,-0.47532,-0.814533,0.662579,-0.474574,0.589914,-2.14366,0.0710249,-4.78607,-2.18408,0.0214386,-4.84454,-0.245494,-0.766931,-0.680107,-0.719711,0.454262,0.477882,-0.411493,1
1.88604,-0.864411,-1.91792,-1.19616,2.53762,1.62191,-0.607273,1.89887,-0.849946,-1.90122,-1.17651,2.52273,1.61237,-0.589817,1.92002,-0.787545,-1.84975,-1.12391,2.49152,1.57749,-0.562731,-0.422059,-0.751873,-0.843543,-0.981149,0.414875,0.57165,-0.772127,-0.422059,-0.751873,-0.843543,-0.981149,0.414875,0.57165,-0.772127,0.463262,-0.342983,0.841036,0.348085,-0.0557162,-0.0660457,0.933472,0.126839,-0.503357,-0.839882,0.640802,-0.474443,0.541588,-2.25259,0.0134869,-4.99878,-2.17098,0.0320673,-4.95578,-0.339831,-0.768663,-0.681684,-0.722493,0.461055,0.444169,-0.445424,1
1.87696,-0.871936,-1.92624,-1.20646,2.54034,1.62475,-0.61745,1.89535,-0.857082,-1.90949,-1.18628,2.53077,1.61805,-0.597471,1.91578,-0.795148,-1.85828,-1.13359,2.4955,1.58325,-0.569738,-0.4211,-0.753119,-0.851824,-0.95072,0.401932,0.576084,-0.675136,-0.4211,-0.753119,-0.851824,-0.95072,0.401932,0.576084,-0.675136,0.46483,-0.348411,0.832609,0.353641,-0.0498937,-0.0684945,0.931535,0.109254,-0.506124,-0.839531,0.619077,-0.474196,0.493018,-2.20856,0.0251161,-4.93762,-2.16827,0.03622,-5.04417,-0.388219,-0.767879,-0.679565,-0.728745,0.448358,0.414962,-0.47712,1
1.87325,-0.879602,-1.93406,-1.2162,2.54317,1.62961,-0.624406,1.88737,-0.864454,-1.91783,-1.19625,2.5365,1.62198,-0.606883,1.91164,-0.802544,-1.86684,-1.14313,2.49981,1.58921,-0.575745,-0.410686,-0.740763,-0.864803,-0.964335,0.443504,0.60414,-0.57576,-0.410686,-0.740763,-0.864803,-0.964335,0.443504,0.60414,-0.57576,0.466194,-0.353745,0.824244,0.358717,-0.0442527,-0.071047,0.929686,0.0971214,-0.494924,-0.846703,0.597631,-0.474002,0.443142,-2.17104,0.0196957,-5.04924,-2.16329,0.0294387,-5.11293,-0.383888,-0.770579,-0.672199,-0.730739,0.433585,0.404077,-0.486615,1
1.87315,-0.887355,-1.94198,-1.22585,2.5488,1.63629,-0.6298,1.87948,-0.871995,-1.92605,-1.20626,2.54042,1.62565,-0.616075,1.90791,-0.810169,-1.87554,-1.15277,2.50488,1.59551,-0.580945,-0.354814,-0.765511,-0.865894,-0.952062,0.527779,0.639302,-0.505747,-0.354814,-0.765511,-0.865894,-0.952062,0.527779,0.639302,-0.505747,0.467574,-0.359055,0.815622,0.363226,-0.0385386,-0.0740632,0.927953,0.0996109,-0.485929,-0.862837,0.57632,-0.473735,0.392116,-2.23707,0.0279929,-5.3563,-2.15687,0.0211895,-5.19041,-0.34762,-0.771856,-0.664479,-0.73082,0.439169,0.407819,-0.488552,1
1.87517,-0.894635,-1.95019,-1.23517,2.55592,1.64396,-0.634246,1.87507,-0.879614,-1.93408,-1.21611,2.54432,1.63048,-0.62356,1.90477,-0.817568,-1.88413,-1.16213,2.51085,1.60209,-0.585902,-0.302154,-0.736365,-0.861555,-0.929232,0.62471,0.663679,-0.497945,-0.302154,-0.736365,-0.861555,-0.929232,0.62471,0.663679,-0.497945,0.468864,-0.364128,0.807129,0.367388,-0.0330348,-0.0775429,0.926241,0.0933011,-0.45939,-0.848188,0.554916,-0.473314,0.340172,-2.10774,0.0414316,-5.11497,-2.14529,0.0271928,-5.28733,-0.296071,-0.770664,-0.660594,-0.730447,0.450717,0.418766,-0.483441,1
1.87675,-0.902129,-1.95902,-1.24429,2.5638,1.65113,-0.638499,1.87414,-0.887196,-1.94213,-1.22571,2.54958,1.63674,-0.629335,1.90185,-0.825119,-1.89309,-1.17146,2.51767,1.60865,-0.591158,-0.291583,-0.763857,-0.900481,-0.926344,0.699033,0.65535,-0.537458,-0.291583,-0.763857,-0.900481,-0.926344,0.699033,0.65535,-0.537458,0.470134,-0.369337,0.798399,0.371727,-0.0272524,-0.081431,0.924362,0.089513,-0.4776,-0.877004,0.533336,-0.47295,0.287514,-2.11153,0.0357028,-5.15265,-2.14196,0.031811,-5.38978,-0.250986,-0.770104,-0.659251,-0.728303,0.46124,0.424794,-0.473411,1
1.87951,-0.909553,-1.96796,-1.25298,2.57235,1.65826,-0.642644,1.87521,-0.894681,-1.95045,-1.23505,2.55634,1.64383,-0.634108,1.89879,-0.832748,-1.90191,-1.18049,2.52487,1.61495,-0.597069,-0.312002,-0.755672,-0.878268,-0.898401,0.717331,0.621655,-0.61099,-0.312002,-0.755672,-0.878268,-0.898401,0.717331,0.621655,-0.61099,0.471203,-0.374696,0.789681,0.376481,-0.0213792,-0.0855843,0.922215,0.0672002,-0.482495,-0.865077,0.512463,-0.472334,0.233677,-2.09781,0.0618895,-5.41066,-2.13321,0.0412178,-5.48532,-0.192762,-0.768048,-0.660487,-0.724948,0.474799,0.433072,-0.455759,1
1.88042,-0.916932,-1.97681,-1.26182,2.58077,1.66325,-0.648495,1.87705,-0.902113,-1.95909,-1.24413,2.56409,1.65095,-0.638553,1.89541,-0.840261,-1.91078,-1.18955,2.53183,1.62082,-0.603646,-0.348002,-0.755552,-0.896807,-0.908515,0.686383,0.576236,-0.672108,-0.348002,-0.755552,-0.896807,-0.908515,0.686383,0.576236,-0.672108,0.47167,-0.377353,0.785347,0.379017,-0.0183815,-0.0875865,0.921052,0.0587254,-0.480219,-0.864088,0.490974,-0.472312,0.178672,-2.01416,0.00203632,-5.1555,-2.13146,0.0382704,-5.58382,-0.149975,-0.76671,-0.660274,-0.722656,0.489383,0.424229,-0.448491,1
1.88366,-0.924178,-1.98558,-1.2709,2.5887,1.66853,-0.654821,1.87903,-0.909523,-1.96793,-1.25303,2.57231,1.65747,-0.643307,1.89191,-0.847846,-1.9196,-1.19879,2.53829,1.62619,-0.61061,-0.342981,-0.760262,-0.86608,-0.936558,0.6298,0.524262,-0.701505,-0.342981,-0.760262,-0.86608,-0.936558,0.6298,0.524262,-0.701505,0.472512,-0.382769,0.776535,0.384438,-0.0121171,-0.0913915,0.918536,0.0444777,-0.490312,-0.879907,0.469335,-0.472458,0.123034,-2.15886,-0.0145958,-5.55084,-2.13525,0.0234973,-5.68117,-0.0825238,-0.763325,-0.659774,-0.721079,0.504038,0.423403,-0.442106,1
