Afshin1997/kuka_rl_ros2/src/catch_and_throw/output_files/tm/nn_ema7.00_jvws1_realball_D23H17M38S56/recorded_data.csv
pure_target_joint_0,pure_target_joint_1,pure_target_joint_2,pure_target_joint_3,pure_target_joint_4,pure_target_joint_5,pure_target_joint_6,target_joint_0,target_joint_1,target_joint_2,target_joint_3,target_joint_4,target_joint_5,target_joint_6,pos_joint_0,pos_joint_1,pos_joint_2,pos_joint_3,pos_joint_4,pos_joint_5,pos_joint_6,vel_joint_0,vel_joint_1,vel_joint_2,vel_joint_3,vel_joint_4,vel_joint_5,vel_joint_6,vel_smooth_joint_0,vel_smooth_joint_1,vel_smooth_joint_2,vel_smooth_joint_3,vel_smooth_joint_4,vel_smooth_joint_5,vel_smooth_joint_6,ee_pos_x,ee_pos_y,ee_pos_z,ee_or_w,ee_or_x,ee_or_y,ee_or_z,ee_vel_x,ee_vel_y,ee_vel_z,ball_pos_x,ball_pos_y,ball_pos_z,ball_raw_vx,ball_raw_vy,ball_raw_vz,ball_ema_vx,ball_ema_vy,ball_ema_vz,action_0,action_1,action_2,action_3,action_4,action_5,action_6,command_published
1.73581,-1.0353,-1.8422,-1.05891,1.96458,1.17832,-0.85207,1.76914,-1.05734,-1.82184,-1.10246,1.9441,1.13224,-0.900306,1.78024,-1.06468,-1.81505,-1.11697,1.93727,1.11688,-0.916385,0,0,0,0,0,0,0,0,0,0,0,0,0,0,0.531037,-0.454447,0.694317,0.574578,0.175146,0.152561,0.784799,0,0,0,2.9852,-0.48205,0.240139,-3.49116,0.205973,5.64173,-3.53583,-0.0165275,5.25239,-0.444346,0.293818,-0.271503,0.580626,0.273123,0.614378,0.643151,1
1.73456,-1.02478,-1.84093,-1.0592,1.95197,1.18086,-0.855759,1.74661,-1.04002,-1.8351,-1.0735,1.9546,1.16359,-0.869071,1.78024,-1.06468,-1.81505,-1.11697,1.93727,1.11688,-0.916385,0,0,0,0,0,0,0,0,0,0,0,0,0,0,0.531037,-0.454447,0.694317,0.574578,0.175146,0.152561,0.784799,0,0,0,2.95196,-0.481535,0.294658,-3.32468,0.0515372,5.45196,-3.47576,0.0535765,5.3358,-0.456797,0.398976,-0.258795,0.577717,0.146962,0.639836,0.606265,1
1.72766,-1.01348,-1.79085,-1.05937,1.97631,1.17129,-0.853343,1.73315,-1.02459,-1.82873,-1.05917,1.96121,1.17783,-0.854233,1.77877,-1.0637,-1.81596,-1.11504,1.93818,1.11892,-0.914245,-0.295754,0.195562,-0.180712,0.386461,0.18179,0.40893,0.428079,-0.295754,0.195562,-0.180712,0.386461,0.18179,0.40893,0.428079,0.52969,-0.455782,0.695175,0.57527,0.174203,0.151795,0.78465,-0.250771,-0.262881,0.161857,2.91758,-0.479962,0.348653,-3.43788,0.157258,5.39944,-3.44311,0.0979517,5.35371,-0.511032,0.502214,0.251099,0.556687,0.381267,0.523701,0.609013,1
1.70484,-0.992076,-1.78018,-1.0728,1.98849,1.15794,-0.84441,1.72368,-1.01096,-1.8007,-1.06269,1.97327,1.17035,-0.851714,1.77337,-1.05981,-1.81918,-1.10806,1.94105,1.12641,-0.906623,-0.822087,0.608112,-0.488786,1.06145,0.416237,1.14216,1.15335,-0.822087,0.608112,-0.488786,1.06145,0.416237,1.14216,1.15335,0.524731,-0.46038,0.698488,0.577882,0.170497,0.14936,0.784012,-0.707245,-0.682135,0.487844,2.88338,-0.47853,0.401538,-3.42021,0.143203,5.28856,-3.428,0.122846,5.31805,-0.685382,0.677385,0.390063,0.352582,0.474368,0.315341,0.622129,1
1.70062,-0.981337,-1.77191,-1.06043,1.99612,1.17506,-0.834085,1.70949,-0.994743,-1.78078,-1.06635,1.98735,1.16556,-0.844062,1.76493,-1.05284,-1.82229,-1.09756,1.9453,1.13754,-0.895315,-0.976068,0.867772,-0.197731,1.17913,0.488649,1.23745,1.26179,-0.976068,0.867772,-0.197731,1.17913,0.488649,1.23745,1.26179,0.516795,-0.466556,0.704741,0.581815,0.163891,0.145763,0.783189,-0.85615,-0.644561,0.770229,2.84902,-0.477513,0.453423,-3.43599,0.101706,5.18846,-3.42429,0.132129,5.24051,-0.643117,0.715035,0.503844,0.37137,0.508244,0.375123,0.612302,1
1.6913,-0.970368,-1.78257,-1.04144,2.00507,1.19227,-0.82913,1.69934,-0.98128,-1.77664,-1.05877,1.99645,1.17508,-0.835427,1.75577,-1.044,-1.82016,-1.08849,1.95086,1.14656,-0.88477,-0.985613,1.01504,0.597658,0.792503,0.688321,0.730594,1.01527,-0.985613,1.01504,0.597658,0.792503,0.688321,0.730594,1.01527,0.508356,-0.471,0.713459,0.58499,0.156238,0.141404,0.783187,-0.803777,-0.338301,1.00953,2.81617,-0.476296,0.504708,-3.28476,0.12174,5.12853,-3.40284,0.126861,5.14432,-0.644717,0.736364,0.375876,0.47052,0.542191,0.457074,0.556397,1
1.68046,-0.959341,-1.77441,-1.03622,2.01606,1.19355,-0.824964,1.69092,-0.970353,-1.77786,-1.04488,2.00558,1.18829,-0.829327,1.74591,-1.03363,-1.81267,-1.08257,1.9583,1.15183,-0.875536,-1.11857,1.19445,0.979596,0.498018,0.892226,0.421495,0.966686,-1.11857,1.19445,0.979596,0.498018,0.892226,0.421495,0.966686,0.500013,-0.473364,0.723912,0.586811,0.148779,0.136366,0.784169,-0.824966,-0.1818,1.1498,2.7829,-0.475118,0.554688,-3.32649,0.117809,4.99799,-3.38228,0.120446,5.04471,-0.654491,0.742911,0.38263,0.463427,0.577588,0.417198,0.505719,1
1.67134,-0.947025,-1.76499,-1.03269,2.02124,1.19993,-0.813404,1.68089,-0.959019,-1.7741,-1.03664,2.01461,1.19483,-0.823115,1.73551,-1.02218,-1.80419,-1.07753,1.96673,1.15651,-0.866564,-1.11068,1.25606,0.846277,0.575999,0.912793,0.570283,0.95634,-1.11068,1.25606,0.846277,0.575999,0.912793,0.570283,0.95634,0.491401,-0.474997,0.73499,0.588345,0.141114,0.131305,0.7853,-0.85683,-0.174771,1.15551,2.74968,-0.473937,0.603772,-3.32246,0.118038,4.90834,-3.36925,0.123987,4.95207,-0.641644,0.751507,0.392003,0.448378,0.545138,0.434124,0.531605,1
1.66206,-0.935407,-1.75901,-1.02483,2.02557,1.20892,-0.800975,1.6713,-0.947199,-1.76585,-1.03161,2.02103,1.20058,-0.813187,1.7254,-1.01056,-1.79751,-1.07102,1.97533,1.16289,-0.858014,-1.05895,1.23481,0.603365,0.802718,0.929081,0.780172,0.881084,-1.05895,1.23481,0.603365,0.802718,0.929081,0.780172,0.881084,0.482428,-0.476889,0.745906,0.590638,0.132737,0.126485,0.785831,-0.894352,-0.240638,1.11952,2.71662,-0.472935,0.652083,-3.30575,0.100231,4.83117,-3.3442,0.116654,4.85723,-0.633412,0.751503,0.385038,0.461842,0.502415,0.460339,0.570391,1
1.65182,-0.923838,-1.75525,-1.01674,2.03487,1.21688,-0.79253,1.66182,-0.935419,-1.75956,-1.02477,2.02682,1.20866,-0.801971,1.71549,-0.999057,-1.79213,-1.06343,1.98405,1.17007,-0.850058,-1.06282,1.22972,0.553766,0.822567,0.938528,0.760376,0.8275,-1.06282,1.22972,0.553766,0.822567,0.938528,0.760376,0.8275,0.473229,-0.479006,0.756542,0.593544,0.12406,0.121863,0.785789,-0.903906,-0.232431,1.0972,2.68344,-0.471393,0.699713,-3.31833,0.154197,4.76299,-3.32533,0.117595,4.76753,-0.636714,0.752192,0.368797,0.466852,0.508175,0.468116,0.575273,1
1.64074,-0.912076,-1.74982,-1.00954,2.04534,1.22254,-0.786007,1.65161,-0.92379,-1.75483,-1.01696,2.03516,1.2163,-0.793011,1.70562,-0.987533,-1.78655,-1.0561,1.9925,1.17699,-0.84204,-1.05402,1.2388,0.635673,0.752192,0.876257,0.724647,0.886202,-1.05402,1.2388,0.635673,0.752192,0.876257,0.724647,0.886202,0.464068,-0.480654,0.767075,0.596165,0.115354,0.117547,0.785788,-0.889571,-0.152147,1.10004,2.64981,-0.46983,0.74598,-3.36251,0.15634,4.62664,-3.31912,0.125138,4.67527,-0.648765,0.754566,0.367297,0.465566,0.528399,0.455472,0.560328,1
1.63016,-0.90026,-1.74303,-1.00262,2.05364,1.22697,-0.777593,1.64087,-0.912063,-1.74948,-1.00961,2.0448,1.22223,-0.785535,1.69583,-0.975941,-1.78057,-1.0491,2.00036,1.18393,-0.833376,-1.04449,1.24458,0.645104,0.747234,0.812513,0.759684,0.964577,-1.04449,1.24458,0.645104,0.747234,0.812513,0.759684,0.964577,0.454963,-0.481666,0.777577,0.598217,0.106422,0.113606,0.786069,-0.890737,-0.104121,1.0955,2.61643,-0.467861,0.791132,-3.33817,0.196844,4.51524,-3.32726,0.137229,4.57784,-0.656626,0.756811,0.375371,0.464875,0.532826,0.430419,0.557834,1
1.62022,-0.888346,-1.73696,-0.996198,2.06098,1.23247,-0.767793,1.63032,-0.900236,-1.74321,-1.00274,2.0534,1.22724,-0.777247,1.68602,-0.964322,-1.77472,-1.04202,2.00805,1.19109,-0.824379,-1.05672,1.24491,0.610825,0.769471,0.832845,0.774371,0.963425,-1.05672,1.24491,0.610825,0.769471,0.832845,0.774371,0.963425,0.445767,-0.482391,0.787973,0.600073,0.0973021,0.109905,0.786362,-0.907073,-0.0946908,1.08195,2.583,-0.466004,0.835157,-3.34311,0.185764,4.40249,-3.33219,0.152143,4.47865,-0.657964,0.759758,0.377522,0.458186,0.529356,0.413766,0.565859,1
1.61003,-0.876416,-1.73211,-0.989816,2.06921,1.23837,-0.758304,1.62016,-0.888342,-1.73727,-0.996207,2.0612,1.23257,-0.767871,1.67603,-0.952688,-1.76906,-1.03481,2.01607,1.19815,-0.815588,-1.08015,1.24776,0.601497,0.774035,0.882402,0.739702,0.923047,-1.08015,1.24776,0.601497,0.774035,0.882402,0.739702,0.923047,0.436428,-0.483019,0.798244,0.601989,0.0882071,0.106265,0.786471,-0.922056,-0.0840584,1.07226,2.54953,-0.464503,0.8782,-3.34735,0.150049,4.30433,-3.33824,0.163206,4.37447,-0.660079,0.762719,0.369518,0.449958,0.531417,0.402234,0.572841,1
1.59936,-0.864415,-1.72649,-0.983398,2.07873,1.24234,-0.749492,1.60991,-0.876398,-1.73192,-0.989807,2.06953,1.23789,-0.758473,1.66589,-0.941017,-1.76336,-1.02763,2.02435,1.2048,-0.807016,-1.09247,1.25255,0.618882,0.764512,0.892189,0.689138,0.914317,-1.09247,1.25255,0.618882,0.764512,0.892189,0.689138,0.914317,0.427016,-0.483451,0.808425,0.603876,0.0792209,0.102711,0.786453,-0.925391,-0.054787,1.06676,2.51582,-0.462755,0.920208,-3.3704,0.174817,4.20079,-3.34655,0.171951,4.26616,-0.665351,0.766023,0.368736,0.442364,0.543717,0.375463,0.575231,1
1.58896,-0.852437,-1.71997,-0.977294,2.0877,1.24588,-0.740715,1.59942,-0.864421,-1.72626,-0.983476,2.07859,1.24223,-0.749501,1.6557,-0.929299,-1.75756,-1.02058,2.03261,1.21108,-0.798369,-1.09154,1.25787,0.623287,0.748496,0.878153,0.65984,0.936682,-1.09154,1.25787,0.623287,0.748496,0.878153,0.65984,0.936682,0.417631,-0.483554,0.818507,0.605557,0.0703148,0.0993734,0.786436,-0.919956,-0.017161,1.05581,2.48266,-0.461274,0.961118,-3.31669,0.148097,4.09094,-3.34726,0.170947,4.15621,-0.667419,0.768616,0.375884,0.432839,0.550887,0.347973,0.576544,1
1.57885,-0.840383,-1.71361,-0.971377,2.09606,1.24938,-0.731334,1.58903,-0.852418,-1.72001,-0.977341,2.08755,1.24587,-0.740564,1.6455,-0.91753,-1.7518,-1.01367,2.04083,1.21713,-0.789539,-1.09316,1.26325,0.610804,0.732868,0.881622,0.637473,0.954089,-1.09316,1.26325,0.610804,0.732868,0.881622,0.637473,0.954089,0.408307,-0.48332,0.828443,0.606993,0.0614874,0.0962868,0.786453,-0.915407,0.0139474,1.04037,2.44964,-0.459858,1.00101,-3.30167,0.141594,3.9893,-3.34018,0.165494,4.05041,-0.666511,0.771476,0.381972,0.422922,0.552313,0.322444,0.582046,1
1.56901,-0.828284,-1.70718,-0.966176,2.10488,1.25295,-0.721758,1.57892,-0.840371,-1.71359,-0.971556,2.09617,1.2494,-0.731285,1.63526,-0.905713,-1.74611,-1.0069,2.04917,1.22287,-0.780624,-1.1006,1.26819,0.609526,0.719276,0.90369,0.594779,0.955854,-1.1006,1.26819,0.609526,0.719276,0.90369,0.594779,0.955854,0.399033,-0.482809,0.838233,0.608235,0.0527948,0.0933791,0.786475,-0.912682,0.0408949,1.02839,2.4162,-0.458483,1.03991,-3.34401,0.137487,3.8895,-3.33675,0.155909,3.94623,-0.662517,0.774298,0.389325,0.407204,0.557149,0.300836,0.588654,1
1.55926,-0.816196,-1.70063,-0.961555,2.11402,1.25608,-0.712288,1.56903,-0.828286,-1.70715,-0.966321,2.10496,1.25284,-0.721785,1.62497,-0.893853,-1.74035,-1.00026,2.05767,1.22817,-0.771699,-1.10381,1.27258,0.624546,0.70387,0.917531,0.543767,0.956235,-1.10381,1.27258,0.624546,0.70387,0.917531,0.543767,0.956235,0.38982,-0.482016,0.847911,0.609289,0.0442657,0.0906056,0.78651,-0.906001,0.073224,1.0198,2.38323,-0.457119,1.07739,-3.29654,0.136366,3.74868,-3.32907,0.148533,3.839,-0.657138,0.776573,0.397126,0.38704,0.563505,0.279121,0.594115,1
1.54971,-0.804078,-1.69372,-0.957167,2.12309,1.25907,-0.702868,1.55931,-0.816188,-1.70054,-0.961613,2.114,1.25604,-0.7123,1.61469,-0.881952,-1.73444,-0.993793,2.06624,1.23304,-0.762726,-1.09875,1.27704,0.640213,0.682956,0.919218,0.502494,0.965625,-1.09875,1.27704,0.640213,0.682956,0.919218,0.502494,0.965625,0.380716,-0.480884,0.857483,0.610098,0.0358784,0.0879949,0.786607,-0.893126,0.111579,1.00967,2.34995,-0.455931,1.11424,-3.32832,0.118837,3.6849,-3.32273,0.142063,3.73314,-0.649804,0.778744,0.407178,0.36626,0.568467,0.260339,0.598583,1
1.54037,-0.791907,-1.68642,-0.953455,2.13206,1.26238,-0.693297,1.54976,-0.804065,-1.69362,-0.957336,2.12307,1.25915,-0.70283,1.60448,-0.87001,-1.7284,-0.98757,2.07485,1.23756,-0.753648,-1.08888,1.28141,0.652631,0.652605,0.924693,0.469282,0.978588,-1.08888,1.28141,0.652631,0.652605,0.924693,0.469282,0.978588,0.371774,-0.479372,0.866926,0.610599,0.0276203,0.0855694,0.786819,-0.875072,0.152562,0.996088,2.31657,-0.455224,1.15048,-3.33815,0.0706673,3.62394,-3.31992,0.128627,3.63374,-0.641158,0.781027,0.419808,0.34115,0.572073,0.248233,0.603505,1
1.53094,-0.779703,-1.67898,-0.950694,2.14128,1.26434,-0.683578,1.54035,-0.791899,-1.68638,-0.953693,2.13212,1.26204,-0.69326,1.59438,-0.85803,-1.72224,-0.981662,2.08354,1.24178,-0.744466,-1.07712,1.28505,0.66638,0.615753,0.935657,0.437973,0.987892,-1.07712,1.28505,0.66638,0.615753,0.935657,0.437973,0.987892,0.363033,-0.477467,0.876218,0.610756,0.0195022,0.0833158,0.787182,-0.853697,0.194166,0.980682,2.28375,-0.454014,1.18559,-3.28162,0.12103,3.5112,-3.31821,0.119994,3.53822,-0.634413,0.783268,0.432583,0.309683,0.57743,0.22559,0.608887,1
1.52161,-0.767495,-1.67122,-0.948689,2.1506,1.26531,-0.673937,1.53096,-0.779702,-1.6789,-0.950883,2.14131,1.26409,-0.683597,1.58439,-0.846017,-1.71592,-0.97611,2.09232,1.24574,-0.735212,-1.06358,1.28847,0.684958,0.576598,0.944392,0.411808,0.994512,-1.06358,1.28847,0.684958,0.576598,0.944392,0.411808,0.994512,0.354516,-0.47516,0.885352,0.610555,0.0115172,0.0812219,0.787714,-0.830299,0.237233,0.965493,2.25102,-0.452911,1.21953,-3.27382,0.110266,3.39385,-3.31225,0.113117,3.44295,-0.627806,0.785224,0.447059,0.274215,0.582817,0.195672,0.612746,1
1.51244,-0.755225,-1.66309,-0.948173,2.16001,1.26443,-0.664308,1.52165,-0.76748,-1.67113,-0.949061,2.15062,1.26485,-0.67394,1.57453,-0.833972,-1.70942,-0.970959,2.10116,1.24946,-0.72589,-1.04993,1.29216,0.707447,0.530299,0.950822,0.386534,1.00215,-1.04993,1.29216,0.707447,0.530299,0.950822,0.386534,1.00215,0.346247,-0.472438,0.894325,0.609975,0.00365932,0.079292,0.788435,-0.803756,0.281913,0.949192,2.21855,-0.451609,1.25255,-3.2469,0.130251,3.30219,-3.29856,0.110556,3.34847,-0.620868,0.787464,0.463319,0.22787,0.588439,0.149753,0.615817,1
1.50337,-0.742827,-1.65443,-0.95069,2.1698,1.26041,-0.654642,1.51247,-0.755193,-1.66296,-0.948931,2.1601,1.26365,-0.664299,1.56479,-0.821892,-1.7027,-0.966294,2.11008,1.25286,-0.716495,-1.0388,1.29575,0.730901,0.473318,0.958993,0.345042,1.01035,-1.0388,1.29575,0.730901,0.473318,0.958993,0.345042,1.01035,0.338268,-0.469301,0.903117,0.608991,-0.00400566,0.0775351,0.789368,-0.772513,0.325431,0.930023,2.18577,-0.450174,1.28503,-3.27778,0.143504,3.24802,-3.28844,0.11355,3.25928,-0.614179,0.790648,0.482653,0.156039,0.597227,0.0754777,0.618527,1
1.49433,-0.729069,-1.64497,-0.953679,2.1809,1.25785,-0.64353,1.50338,-0.742487,-1.65423,-0.950808,2.17013,1.26078,-0.654281,1.55407,-0.808369,-1.69485,-0.962011,2.12016,1.25584,-0.705919,-0.995555,1.25581,0.728657,0.397736,0.93567,0.276698,0.98214,-0.995555,1.25581,0.728657,0.397736,0.93567,0.276698,0.98214,0.329893,-0.465281,0.912651,0.607289,-0.0120276,0.0757986,0.790766,-0.712235,0.356231,0.877412,2.15293,-0.448813,1.31638,-3.28388,0.136098,3.13491,-3.27812,0.120932,3.16603,-0.597384,0.793005,0.498852,0.0833276,0.607392,0.0201281,0.623884,1
1.48508,-0.717076,-1.63736,-0.954449,2.19138,1.24851,-0.634462,1.49428,-0.72951,-1.64543,-0.953124,2.18074,1.25616,-0.644041,1.54479,-0.796572,-1.68787,-0.958776,2.12899,1.25792,-0.696688,-0.99264,1.27083,0.765083,0.30235,0.955605,0.175918,0.99474,-0.99264,1.27083,0.765083,0.30235,0.955605,0.175918,0.99474,0.322927,-0.461456,0.920746,0.605474,-0.0186698,0.0744718,0.792153,-0.666275,0.403911,0.857656,2.11986,-0.447159,1.34663,-3.30715,0.165355,3.02492,-3.2751,0.133339,3.06977,-0.597035,0.794958,0.505065,0.0432652,0.623916,-0.0940649,0.62226,1
1.47621,-0.704894,-1.62988,-0.953088,2.2012,1.24375,-0.625379,1.48518,-0.717029,-1.63739,-0.953916,2.19121,1.24966,-0.634458,1.53555,-0.784597,-1.68051,-0.956579,2.13806,1.25896,-0.687305,-0.987949,1.29328,0.807284,0.177238,0.984969,0.0557671,1.01425,-0.987949,1.29328,0.807284,0.177238,0.984969,0.0557671,1.01425,0.316504,-0.457168,0.928635,0.603074,-0.0246407,0.0733433,0.793924,-0.60743,0.459419,0.83501,2.08715,-0.445771,1.37553,-3.27058,0.138861,2.88945,-3.27762,0.139394,2.97082,-0.593319,0.797025,0.506296,0.0349109,0.631419,-0.152113,0.619257,1
1.46635,-0.692445,-1.62296,-0.946671,2.21061,1.23511,-0.61595,1.47597,-0.704827,-1.63002,-0.951824,2.2011,1.24278,-0.625292,1.52634,-0.772404,-1.67281,-0.955453,2.14744,1.2588,-0.677734,-0.984751,1.31743,0.840929,0.0715282,1.02288,-0.0810843,1.03485,-0.984751,1.31743,0.840929,0.0715282,1.02288,-0.0810843,1.03485,0.310672,-0.452437,0.936325,0.60007,-0.0298316,0.0723983,0.796106,-0.551832,0.506077,0.815623,2.05434,-0.444324,1.40371,-3.28088,0.144649,2.81869,-3.28112,0.144473,2.87175,-0.599864,0.799591,0.498533,0.0878187,0.631667,-0.236903,0.617847,1
1.45626,-0.679814,-1.61597,-0.944162,2.221,1.22224,-0.60615,1.46629,-0.6924,-1.62294,-0.947648,2.21085,1.23405,-0.615857,1.51716,-0.760082,-1.66494,-0.95498,2.15711,1.25727,-0.668085,-0.982298,1.32234,0.845956,0.032664,1.04744,-0.233993,1.03281,-0.982298,1.32234,0.845956,0.032664,1.04744,-0.233993,1.03281,0.305337,-0.447463,0.943838,0.596699,-0.0341966,0.0715856,0.798534,-0.512661,0.521633,0.797618,2.02138,-0.442882,1.43068,-3.29597,0.14427,2.69649,-3.28612,0.146156,2.76742,-0.609028,0.802678,0.489699,0.10818,0.638846,-0.350325,0.619348,1
1.44546,-0.667179,-1.61073,-0.944009,2.23134,1.20882,-0.596259,1.45608,-0.679813,-1.6164,-0.944751,2.22098,1.2221,-0.606127,1.50799,-0.747758,-1.65711,-0.954437,2.1669,1.25447,-0.658508,-0.983433,1.31857,0.831972,0.0802524,1.05024,-0.358956,1.02017,-0.983433,1.31857,0.831972,0.0802524,1.05024,-0.358956,1.02017,0.300273,-0.442489,0.95125,0.593324,-0.037884,0.0708556,0.800944,-0.502749,0.514619,0.793055,1.98846,-0.44147,1.45656,-3.29288,0.141197,2.58771,-3.28767,0.145752,2.65799,-0.625272,0.805793,0.463827,0.104281,0.644374,-0.45646,0.622492,1
1.43296,-0.654812,-1.60733,-0.936259,2.24218,1.19717,-0.586697,1.44503,-0.667246,-1.61119,-0.94211,2.23146,1.20926,-0.596341,1.49874,-0.735434,-1.64944,-0.953232,2.1767,1.2504,-0.648997,-0.996543,1.32176,0.813728,0.171493,1.04898,-0.502131,1.01785,-0.996543,1.32176,0.813728,0.171493,1.04898,-0.502131,1.01785,0.295256,-0.437651,0.958689,0.590191,-0.0410566,0.0701815,0.803159,-0.50972,0.498798,0.802193,1.95586,-0.440493,1.48157,-3.25963,0.0976682,2.50137,-3.28496,0.140103,2.55199,-0.657779,0.806226,0.421048,0.169725,0.654825,-0.53225,0.623002,1
1.42105,-0.642779,-1.60449,-0.925583,2.25281,1.18801,-0.577463,1.43311,-0.654896,-1.60747,-0.935528,2.24213,1.19779,-0.586779,1.48932,-0.723064,-1.64198,-0.951458,2.18654,1.24475,-0.639466,-1.0208,1.32839,0.785552,0.20601,1.05805,-0.69546,1.02395,-1.0208,1.32839,0.785552,0.20601,1.05805,-0.69546,1.02395,0.290323,-0.432984,0.966146,0.587309,-0.0435102,0.0695863,0.805191,-0.498187,0.485084,0.797453,1.92287,-0.439675,1.50537,-3.29851,0.0818044,2.38047,-3.28367,0.128085,2.44697,-0.682705,0.802845,0.374936,0.258751,0.662746,-0.567333,0.620029,1
1.40957,-0.630807,-1.60046,-0.916945,2.26289,1.17944,-0.568364,1.42116,-0.642794,-1.60419,-0.926093,2.25267,1.18816,-0.577497,1.47959,-0.710642,-1.63493,-0.94944,2.19649,1.23741,-0.629878,-1.06124,1.33286,0.72921,0.225136,1.07412,-0.864448,1.03003,-1.06124,1.33286,0.72921,0.225136,1.07412,-0.864448,1.03003,0.285554,-0.42853,0.973512,0.584671,-0.0450373,0.0691038,0.807066,-0.489866,0.462255,0.78229,1.89007,-0.438274,1.52846,-3.28006,0.140083,2.30856,-3.28465,0.122063,2.34647,-0.700215,0.798347,0.344747,0.324943,0.663979,-0.579709,0.615141,1
1.39878,-0.618599,-1.59573,-0.912688,2.27274,1.1714,-0.558536,1.40974,-0.630748,-1.60028,-0.91804,2.26283,1.17957,-0.568182,1.46941,-0.698213,-1.62853,-0.946742,2.2066,1.22889,-0.62027,-1.11505,1.33044,0.647003,0.344433,1.09111,-0.95497,1.02864,-1.11505,1.33044,0.647003,0.344433,1.09111,-0.95497,1.02864,0.280684,-0.424443,0.980825,0.582523,-0.0459374,0.0686606,0.808605,-0.527505,0.415173,0.78437,1.85778,-0.437473,1.55036,-3.22955,0.0800669,2.19017,-3.27822,0.112723,2.24401,-0.706282,0.796141,0.328064,0.340542,0.661384,-0.574882,0.617345,1
1.38787,-0.606162,-1.59151,-0.908095,2.28275,1.16316,-0.548794,1.39875,-0.618542,-1.59585,-0.912604,2.27278,1.17135,-0.558557,1.4588,-0.685837,-1.62286,-0.942699,2.21684,1.21988,-0.610711,-1.15616,1.32199,0.573508,0.510035,1.1007,-0.974192,1.02014,-1.15616,1.32199,0.573508,0.510035,1.1007,-0.974192,1.02014,0.275379,-0.420791,0.988217,0.581076,-0.0467543,0.0681378,0.809643,-0.583838,0.371049,0.797879,1.82517,-0.436494,1.5713,-3.26045,0.0979602,2.09423,-3.27061,0.10491,2.1442,-0.709307,0.796751,0.313557,0.346042,0.659125,-0.567168,0.619172,1
1.37674,-0.593767,-1.58787,-0.902403,2.29278,1.15453,-0.539191,1.38781,-0.606172,-1.59165,-0.90782,2.28275,1.16306,-0.548829,1.44792,-0.673536,-1.6177,-0.9375,2.22709,1.21085,-0.601217,-1.17275,1.31418,0.535046,0.597674,1.09766,-0.960719,1.01463,-1.17275,1.31418,0.535046,0.597674,1.09766,-0.960719,1.01463,0.269692,-0.41738,0.995672,0.580138,-0.0477486,0.0675458,0.810307,-0.608788,0.360427,0.799089,1.79237,-0.43555,1.59174,-3.28047,0.0943899,2.04318,-3.26689,0.0998535,2.04998,-0.711865,0.797686,0.298343,0.350965,0.65688,-0.563184,0.620251,1
1.36563,-0.58151,-1.58412,-0.896427,2.3029,1.146,-0.529646,1.37674,-0.593802,-1.58784,-0.902332,2.2928,1.15456,-0.539206,1.43697,-0.661277,-1.61278,-0.93194,2.2373,1.20198,-0.591725,-1.17391,1.31257,0.51994,0.593888,1.08972,-0.940886,1.01872,-1.17391,1.31257,0.51994,0.593888,1.08972,-0.940886,1.01872,0.263951,-0.413915,1.00306,0.579311,-0.0488497,0.0670048,0.810878,-0.597068,0.378282,0.784057,1.7599,-0.434772,1.61066,-3.24737,0.077799,1.8929,-3.26358,0.097119,1.95304,-0.713397,0.797669,0.286667,0.355133,0.656044,-0.559789,0.62079,1
1.3547,-0.569295,-1.58,-0.890895,2.31313,1.13761,-0.520043,1.36568,-0.581521,-1.58402,-0.896538,2.30293,1.14604,-0.529632,1.42602,-0.64901,-1.60802,-0.926498,2.24745,1.19327,-0.582187,-1.17334,1.3157,0.502605,0.573663,1.08447,-0.927666,1.02457,-1.17334,1.3157,0.502605,0.573663,1.08447,-0.927666,1.02457,0.258366,-0.410257,1.01029,0.578389,-0.0499345,0.0665971,0.811503,-0.577346,0.399749,0.76629,1.72824,-0.434067,1.62861,-3.16595,0.0705183,1.79453,-3.24886,0.0919717,1.85532,-0.713122,0.79715,0.280191,0.356027,0.656873,-0.556556,0.621444,1
1.34386,-0.557032,-1.57625,-0.885517,2.32339,1.1293,-0.510405,1.35472,-0.569283,-1.58009,-0.890934,2.31314,1.13763,-0.520034,1.41505,-0.636717,-1.60344,-0.921125,2.25756,1.18463,-0.572616,-1.1765,1.31809,0.479212,0.577212,1.08252,-0.923579,1.02615,-1.1765,1.31809,0.479212,0.577212,1.08252,-0.923579,1.02615,0.252932,-0.406431,1.01737,0.577409,-0.0509708,0.0663151,0.812159,-0.566037,0.413539,0.753369,1.69553,-0.432805,1.64633,-3.27041,0.126153,1.77206,-3.24282,0.0890791,1.76239,-0.711908,0.796846,0.271894,0.35608,0.658333,-0.553302,0.622113,1
1.33295,-0.544755,-1.57308,-0.880063,2.33365,1.12098,-0.500835,1.34384,-0.557029,-1.5764,-0.885498,2.32339,1.1293,-0.510422,1.40406,-0.624417,-1.59906,-0.915683,2.26767,1.17602,-0.563038,-1.17872,1.31743,0.461674,0.588001,1.08307,-0.920838,1.02599,-1.17872,1.31743,0.461674,0.588001,1.08307,-0.920838,1.02599,0.247598,-0.40248,1.02435,0.576424,-0.0519792,0.066115,0.812811,-0.557169,0.425707,0.742433,1.66303,-0.431844,1.66303,-3.25028,0.0961065,1.67007,-3.24166,0.0919572,1.67477,-0.711028,0.796617,0.259782,0.356203,0.659813,-0.550409,0.622036,1
1.32196,-0.532498,-1.57038,-0.874527,2.34389,1.1127,-0.491294,1.33293,-0.54476,-1.5732,-0.880042,2.33364,1.12099,-0.500842,1.39306,-0.612127,-1.5948,-0.910179,2.27779,1.16745,-0.553458,-1.17736,1.31583,0.451661,0.591081,1.08572,-0.915818,1.02653,-1.17736,1.31583,0.451661,0.591081,1.08572,-0.915818,1.02653,0.242368,-0.398398,1.03121,0.575404,-0.0529748,0.0659697,0.813481,-0.544506,0.440688,0.73053,1.63056,-0.430447,1.67852,-3.24737,0.139669,1.54858,-3.23892,0.0982761,1.58534,-0.710988,0.79629,0.244132,0.356528,0.661023,-0.547545,0.621648,1
1.31095,-0.520258,-1.56792,-0.869097,2.35412,1.1046,-0.481729,1.32196,-0.532502,-1.57044,-0.874553,2.34389,1.11274,-0.491288,1.38208,-0.599848,-1.59065,-0.904673,2.28794,1.15893,-0.543872,-1.17446,1.31508,0.437807,0.588894,1.0888,-0.910107,1.02734,-1.17446,1.31508,0.437807,0.588894,1.0888,-0.910107,1.02734,0.237276,-0.394174,1.03796,0.574317,-0.0539469,0.0658808,0.814193,-0.528851,0.455657,0.716881,1.59815,-0.429326,1.69274,-3.24051,0.112092,1.42201,-3.23765,0.105507,1.48975,-0.711309,0.795905,0.227291,0.355757,0.661776,-0.543303,0.621434,1
1.29991,-0.508017,-1.56565,-0.863947,2.36435,1.09658,-0.472104,1.31095,-0.520258,-1.56797,-0.869167,2.35412,1.10462,-0.481714,1.37113,-0.587573,-1.58668,-0.899181,2.29811,1.15046,-0.534284,-1.1731,1.31489,0.414117,0.587791,1.09119,-0.905126,1.02707,-1.1731,1.31489,0.414117,0.587791,1.09119,-0.905126,1.02707,0.232335,-0.389824,1.04457,0.573182,-0.0548705,0.0658632,0.814932,-0.513405,0.467348,0.702065,1.5662,-0.428193,1.70619,-3.19481,0.113335,1.34507,-3.23653,0.112765,1.39647,-0.712144,0.795563,0.210364,0.352344,0.662402,-0.538755,0.621793,1
1.28889,-0.495785,-1.56388,-0.85885,2.37459,1.08877,-0.462451,1.29992,-0.508019,-1.56577,-0.86396,2.36436,1.09663,-0.472097,1.36017,-0.575301,-1.58296,-0.893694,2.30831,1.14204,-0.524701,-1.17374,1.31446,0.384587,0.587856,1.09269,-0.899711,1.02619,-1.17374,1.31446,0.384587,0.587856,1.09269,-0.899711,1.02619,0.227542,-0.385375,1.05104,0.57204,-0.0557277,0.0659278,0.81567,-0.498788,0.476348,0.686626,1.53362,-0.426979,1.71856,-3.25818,0.121391,1.23729,-3.24066,0.117872,1.2974,-0.712875,0.795168,0.190858,0.348441,0.66287,-0.532689,0.622501,1
1.27795,-0.483588,-1.562,-0.854105,2.38485,1.08115,-0.452801,1.28891,-0.495794,-1.56385,-0.858938,2.3746,1.08882,-0.462452,1.34921,-0.563035,-1.57952,-0.88822,2.31851,1.13368,-0.515122,-1.17521,1.31379,0.354872,0.585169,1.09359,-0.892375,1.02605,-1.17521,1.31379,0.354872,0.585169,1.09359,-0.892375,1.02605,0.222899,-0.380843,1.05736,0.570906,-0.0565123,0.0660799,0.816398,-0.483451,0.484862,0.670537,1.50136,-0.425548,1.72982,-3.22634,0.143072,1.12647,-3.23463,0.12055,1.19005,-0.712583,0.79447,0.175196,0.341154,0.663331,-0.525278,0.623213,1
1.26704,-0.471397,-1.56045,-0.84955,2.39506,1.07368,-0.443086,1.27796,-0.483589,-1.56208,-0.854152,2.38484,1.08119,-0.452785,1.33823,-0.550774,-1.57636,-0.882792,2.32872,1.12539,-0.505539,-1.17677,1.31312,0.325124,0.578363,1.09431,-0.88321,1.02709,-1.17677,1.31312,0.325124,0.578363,1.09431,-0.88321,1.02709,0.218417,-0.376228,1.06353,0.569774,-0.0572198,0.066324,0.817119,-0.466562,0.493248,0.653566,1.46945,-0.424867,1.74014,-3.19082,0.0681579,1.03128,-3.22739,0.11813,1.08486,-0.711973,0.793771,0.159039,0.332416,0.663334,-0.517152,0.624532,1
1.25602,-0.459205,-1.55966,-0.844613,2.40523,1.0664,-0.433406,1.26701,-0.471397,-1.56064,-0.849454,2.39505,1.07373,-0.443095,1.32724,-0.538521,-1.57347,-0.877443,2.33894,1.1172,-0.495944,-1.17736,1.31227,0.295478,0.568341,1.09504,-0.871825,1.02863,-1.17736,1.31227,0.295478,0.568341,1.09504,-0.871825,1.02863,0.214111,-0.371534,1.06954,0.568634,-0.0578458,0.0666634,0.817842,-0.44813,0.501489,0.635904,1.43668,-0.423688,1.74946,-3.27708,0.11794,0.931978,-3.22815,0.113727,0.983081,-0.712258,0.793166,0.138145,0.328302,0.66291,-0.508,0.625377,1
1.24484,-0.447046,-1.55967,-0.839115,2.41539,1.05926,-0.423746,1.25598,-0.459213,-1.55986,-0.844473,2.40523,1.06644,-0.433411,1.31626,-0.526278,-1.57085,-0.872207,2.34917,1.10913,-0.486334,-1.17638,1.31106,0.269075,0.554501,1.09548,-0.85835,1.03036,-1.17638,1.31106,0.269075,0.554501,1.09548,-0.85835,1.03036,0.209996,-0.366756,1.07537,0.56747,-0.0583909,0.0670984,0.818576,-0.427746,0.510378,0.617804,1.40477,-0.422978,1.75785,-3.19123,0.0709504,0.839555,-3.22633,0.107746,0.883813,-0.71423,0.792321,0.111728,0.33092,0.662242,-0.498759,0.625878,1
1.23361,-0.434952,-1.56069,-0.83322,2.42547,1.05261,-0.414078,1.24482,-0.447062,-1.55992,-0.839016,2.41537,1.05938,-0.423744,1.30528,-0.514046,-1.56848,-0.867095,2.35939,1.10119,-0.476706,-1.17545,1.30985,0.2406,0.541772,1.09513,-0.843619,1.03227,-1.17545,1.30985,0.2406,0.541772,1.09513,-0.843619,1.03227,0.206081,-0.361898,1.08104,0.566279,-0.0588576,0.0676301,0.819323,-0.407671,0.518,0.599841,1.37293,-0.422407,1.76515,-3.18325,0.0571221,0.729275,-3.22212,0.0972233,0.782475,-0.71678,0.790939,0.077884,0.338741,0.660834,-0.485805,0.626284,1
1.22232,-0.422857,-1.56272,-0.826762,2.4354,1.04648,-0.404359,1.23359,-0.434952,-1.56094,-0.83308,2.42544,1.05274,-0.414065,1.2943,-0.501825,-1.56643,-0.862047,2.36961,1.0934,-0.467064,-1.17706,1.30869,0.201619,0.539761,1.09401,-0.828067,1.03355,-1.17706,1.30869,0.201619,0.539761,1.09401,-0.828067,1.03355,0.202337,-0.356987,1.08655,0.565108,-0.059256,0.0682589,0.82005,-0.392495,0.521277,0.58338,1.34106,-0.421888,1.77143,-3.18698,0.0518978,0.628495,-3.21143,0.0837386,0.682033,-0.719798,0.789671,0.0370546,0.35285,0.657922,-0.469165,0.62705,1
1.21101,-0.410665,-1.56752,-0.820462,2.44469,1.04152,-0.39451,1.22232,-0.422833,-1.56341,-0.826802,2.43524,1.04677,-0.404326,1.28329,-0.489617,-1.5648,-0.856953,2.37981,1.08576,-0.457413,-1.18147,1.30696,0.149856,0.550901,1.09218,-0.81003,1.03407,-1.18147,1.30696,0.149856,0.550901,1.09218,-0.81003,1.03407,0.198713,-0.352067,1.09191,0.564036,-0.0596099,0.0689823,0.820702,-0.383746,0.519556,0.568698,1.30916,-0.421067,1.77699,-3.19018,0.0820786,0.555491,-3.20393,0.073868,0.584843,-0.722833,0.789518,-0.0271476,0.364911,0.648751,-0.442353,0.629036,1
1.19967,-0.398566,-1.57436,-0.814226,2.45366,1.03941,-0.384634,1.211,-0.410688,-1.56803,-0.820478,2.44461,1.04223,-0.394503,1.27224,-0.477429,-1.56373,-0.851705,2.38999,1.07832,-0.447757,-1.18688,1.30458,0.085474,0.572034,1.08865,-0.785544,1.03477,-1.18688,1.30458,0.085474,0.572034,1.08865,-0.785544,1.03477,0.195151,-0.347174,1.09714,0.56314,-0.0599549,0.0698015,0.821223,-0.380128,0.514155,0.555113,1.27662,-0.419973,1.78173,-3.25427,0.109428,0.474751,-3.20437,0.0750491,0.490789,-0.725635,0.788632,-0.106372,0.374795,0.636761,-0.389111,0.631236,1
1.18792,-0.386458,-1.58263,-0.806367,2.46169,1.04008,-0.374862,1.19957,-0.398564,-1.57472,-0.81382,2.45343,1.0401,-0.38466,1.26113,-0.465259,-1.56336,-0.846241,2.4001,1.07117,-0.438088,-1.19222,1.30307,-0.00150102,0.597036,1.07919,-0.749216,1.03694,-1.19222,1.30307,-0.00150102,0.597036,1.07919,-0.749216,1.03694,0.191618,-0.342341,1.10224,0.562498,-0.0603217,0.0707457,0.821555,-0.379015,0.504898,0.54021,1.24478,-0.419123,1.78541,-3.18344,0.0850111,0.367498,-3.19909,0.0751606,0.398042,-0.732156,0.788011,-0.192705,0.39874,0.615848,-0.310934,0.632255,1
1.17609,-0.374368,-1.59183,-0.799786,2.46924,1.0418,-0.36549,1.1879,-0.386463,-1.58287,-0.806686,2.46157,1.04034,-0.374962,1.24998,-0.453099,-1.56399,-0.840568,2.41008,1.0645,-0.428389,-1.19708,1.30258,-0.124081,0.61703,1.06044,-0.683924,1.04078,-1.19708,1.30258,-0.124081,0.61703,1.06044,-0.683924,1.04078,0.188102,-0.337603,1.10716,0.562209,-0.0607407,0.071889,0.821623,-0.37857,0.490536,0.520119,1.21343,-0.418187,1.78803,-3.13588,0.0935197,0.262308,-3.19558,0.0816256,0.30486,-0.738933,0.787303,-0.278434,0.407815,0.591573,-0.227025,0.628992,1
1.16394,-0.36193,-1.60226,-0.7938,2.47545,1.04327,-0.356643,1.17601,-0.374281,-1.59214,-0.799935,2.4689,1.04174,-0.365621,1.23877,-0.440945,-1.56588,-0.834689,2.41984,1.05868,-0.418658,-1.20405,1.30168,-0.271354,0.640954,1.03164,-0.570672,1.0442,-1.20405,1.30168,-0.271354,0.640954,1.03164,-0.570672,1.0442,0.184561,-0.332979,1.11188,0.562382,-0.0613275,0.073325,0.821333,-0.38542,0.474431,0.498184,1.18151,-0.417345,1.79,-3.19161,0.0841945,0.196731,-3.19258,0.0876035,0.214937,-0.748287,0.790144,-0.363737,0.408889,0.556156,-0.154121,0.620144,1
1.1505,-0.348135,-1.61445,-0.78797,2.47856,1.04933,-0.346165,1.16362,-0.361591,-1.6027,-0.793839,2.47468,1.04442,-0.356235,1.22613,-0.427405,-1.5701,-0.82773,2.43021,1.05412,-0.407798,-1.17418,1.25748,-0.391944,0.646315,0.963231,-0.423408,1.00852,-1.17418,1.25748,-0.391944,0.646315,0.963231,-0.423408,1.00852,0.180393,-0.327993,1.11687,0.563434,-0.0625512,0.0754928,0.820323,-0.382488,0.450967,0.463304,1.14911,-0.416302,1.79084,-3.23955,0.104353,0.0841498,-3.19409,0.0928061,0.123398,-0.756318,0.792696,-0.443424,0.397597,0.483514,-0.0479397,0.61633,1
1.13755,-0.335265,-1.62606,-0.782774,2.47915,1.06151,-0.33577,1.15062,-0.348366,-1.6143,-0.788128,2.47793,1.05086,-0.346186,1.21367,-0.414202,-1.57558,-0.820822,2.43983,1.05105,-0.397316,-1.15681,1.22613,-0.508579,0.641523,0.893142,-0.28594,0.973469,-1.15681,1.22613,-0.508579,0.641523,0.893142,-0.28594,0.973469,0.176288,-0.323138,1.12149,0.56506,-0.0641132,0.0781025,0.818839,-0.377626,0.434167,0.431451,1.11787,-0.415033,1.79051,-3.12486,0.126868,-0.0325203,-3.18633,0.0972143,0.0263972,-0.761261,0.789368,-0.504797,0.380479,0.393251,0.104621,0.615458,1
1.12551,-0.322986,-1.6361,-0.776175,2.48517,1.07287,-0.326437,1.13778,-0.335413,-1.62567,-0.782423,2.48051,1.0613,-0.336036,1.20123,-0.401127,-1.58232,-0.814116,2.44849,1.0494,-0.387107,-1.15531,1.21431,-0.62591,0.622786,0.804378,-0.15297,0.948175,-1.15531,1.21431,-0.62591,0.622786,0.804378,-0.15297,0.948175,0.172324,-0.318286,1.12577,0.567302,-0.0659249,0.0813646,0.816824,-0.366935,0.428309,0.401893,1.08554,-0.414125,1.78989,-3.2326,0.0908226,-0.0629425,-3.18353,0.0985976,-0.0661467,-0.757188,0.781408,-0.537843,0.379412,0.366862,0.234702,0.6067,1
1.11347,-0.311278,-1.64508,-0.770897,2.49361,1.08354,-0.3166,1.12551,-0.323129,-1.63584,-0.776505,2.48578,1.0727,-0.326311,1.18865,-0.388015,-1.59027,-0.807657,2.4558,1.04976,-0.376937,-1.16816,1.21775,-0.738187,0.599813,0.679592,0.0337339,0.94448,-1.16816,1.21775,-0.738187,0.599813,0.679592,0.0337339,0.94448,0.16849,-0.313226,1.12974,0.570148,-0.0682221,0.0856027,0.814217,-0.356897,0.43903,0.374556,1.05367,-0.413282,1.78793,-3.18723,0.0843555,-0.195789,-3.18846,0.0998582,-0.157917,-0.751888,0.767369,-0.548091,0.367602,0.378032,0.337779,0.603369,1
1.10159,-0.300865,-1.6506,-0.771473,2.50638,1.08612,-0.306036,1.11351,-0.311602,-1.64421,-0.772361,2.49469,1.08152,-0.316418,1.17749,-0.376437,-1.59775,-0.802045,2.46165,1.05143,-0.367943,-1.21984,1.26,-0.857323,0.602648,0.579331,0.303411,0.980007,-1.21984,1.26,-0.857323,0.602648,0.579331,0.303411,0.980007,0.165169,-0.308534,1.13308,0.572847,-0.0706835,0.0898708,0.811649,-0.368452,0.474242,0.36131,1.02175,-0.41239,1.78486,-3.19128,0.0891119,-0.307083,-3.19383,0.0989152,-0.252215,-0.758977,0.75572,-0.528427,0.305714,0.447294,0.346896,0.619075,1
1.09028,-0.288749,-1.6543,-0.793213,2.51672,1.08321,-0.294881,1.10173,-0.300439,-1.65014,-0.776764,2.50577,1.08474,-0.305888,1.16599,-0.364606,-1.60605,-0.79638,2.46704,1.0554,-0.358719,-1.24326,1.27392,-0.915001,0.610441,0.575599,0.531335,0.995373,-1.24326,1.27392,-0.915001,0.610441,0.575599,0.531335,0.995373,0.161717,-0.303457,1.13628,0.575796,-0.0740337,0.0948913,0.808686,-0.381287,0.501704,0.35076,0.989686,-0.411653,1.78086,-3.20677,0.0736982,-0.399745,-3.19424,0.0951839,-0.349901,-0.757066,0.758576,-0.482504,0.0316698,0.496849,0.278089,0.638376,1
1.08007,-0.276552,-1.6596,-0.821675,2.52597,1.08326,-0.285664,1.09056,-0.288729,-1.6547,-0.794894,2.51645,1.08395,-0.295366,1.15433,-0.352764,-1.61456,-0.790889,2.47288,1.06087,-0.349348,-1.25379,1.26424,-0.910658,0.569083,0.669911,0.634105,1.0114,-1.25379,1.26424,-0.910658,0.569083,0.669911,0.634105,1.0114,0.158225,-0.298184,1.13932,0.578549,-0.077962,0.100084,0.805721,-0.372596,0.508963,0.332294,0.957889,-0.411335,1.77538,-3.17971,0.0317991,-0.547552,-3.1922,0.0835495,-0.45253,-0.742591,0.762116,-0.450318,-0.307854,0.530927,0.223889,0.636838,1
1.0726,-0.265534,-1.66744,-0.830655,2.53768,1.0974,-0.279967,1.08076,-0.276847,-1.66023,-0.816804,2.52659,1.08678,-0.286544,1.14262,-0.341048,-1.62272,-0.786871,2.47977,1.06643,-0.339762,-1.25572,1.24725,-0.842167,0.310405,0.798398,0.56246,1.0404,-1.25572,1.24725,-0.842167,0.310405,0.798398,0.56246,1.0404,0.155315,-0.293032,1.14196,0.580576,-0.0813803,0.104998,0.803296,-0.267118,0.486143,0.267429,0.926371,-0.410544,1.76921,-3.15179,0.0791281,-0.617254,-3.19201,0.0738382,-0.557083,-0.700143,0.755145,-0.447194,-0.437839,0.579101,0.309668,0.597959,1
1.06744,-0.25608,-1.68046,-0.828695,2.54565,1.1211,-0.275586,1.07318,-0.265925,-1.66873,-0.82792,2.53675,1.09979,-0.280296,1.13097,-0.329397,-1.63014,-0.786772,2.48766,1.07088,-0.329943,-1.24121,1.24908,-0.754124,-0.249434,0.884263,0.401445,1.062,-1.24121,1.24908,-0.754124,-0.249434,0.884263,0.401445,1.062,0.154173,-0.288354,1.14368,0.581411,-0.0827042,0.10957,0.801945,-0.0283241,0.435244,0.132246,0.894607,-0.409949,1.76221,-3.17642,0.0595152,-0.699615,-3.18304,0.0680643,-0.663988,-0.635328,0.733173,-0.503182,-0.419225,0.579977,0.50219,0.543569,1
1.059,-0.246288,-1.69439,-0.82689,2.55024,1.13132,-0.27134,1.06662,-0.255995,-1.68069,-0.828734,2.54481,1.11773,-0.27562,1.11962,-0.317708,-1.63698,-0.791708,2.49616,1.0745,-0.320176,-1.19361,1.25495,-0.714075,-0.770779,0.934442,0.377117,1.0329,-1.19361,1.25495,-0.714075,-0.770779,0.934442,0.377117,1.0329,0.155311,-0.284287,1.14417,0.581071,-0.0815224,0.113962,0.8017,0.19062,0.384747,-0.00376619,0.863063,-0.409672,1.75411,-3.1544,0.0276476,-0.810146,-3.1765,0.0600687,-0.765616,-0.606171,0.714201,-0.574035,-0.351828,0.540825,0.568133,0.488358,1
1.04888,-0.233692,-1.70707,-0.838313,2.554,1.13396,-0.265909,1.05858,-0.245587,-1.69407,-0.830197,2.55004,1.12942,-0.271044,1.10895,-0.306099,-1.64389,-0.799424,2.50508,1.07928,-0.310986,-1.09873,1.23385,-0.762983,-0.875157,0.97276,0.629685,0.942551,-1.09873,1.23385,-0.762983,-0.875157,0.97276,0.629685,0.942551,0.157622,-0.28056,1.14382,0.580167,-0.0796423,0.118322,0.801912,0.227995,0.369734,-0.0544625,0.831706,-0.408998,1.74482,-3.13571,0.0674993,-0.929642,-3.16669,0.0554532,-0.867066,-0.600692,0.724076,-0.631751,-0.388888,0.489228,0.546748,0.450765,1
1.03716,-0.222352,-1.71701,-0.854188,2.5622,1.13092,-0.259918,1.04848,-0.234006,-1.70638,-0.839426,2.55511,1.13254,-0.265769,1.09919,-0.294793,-1.65166,-0.806614,2.51402,1.08677,-0.302736,-1.00029,1.19157,-0.89158,-0.679334,0.945601,0.950779,0.832803,-1.00029,1.19157,-0.89158,-0.679334,0.945601,0.950779,0.832803,0.159579,-0.276822,1.14331,0.57954,-0.0791033,0.122835,0.801741,0.141586,0.3706,-0.0381914,0.800553,-0.407466,1.73548,-3.1153,0.153172,-0.934017,-3.15384,0.0646796,-0.958493,-0.620273,0.724408,-0.653506,-0.475737,0.48179,0.441468,0.428177,1
1.02366,-0.211987,-1.7266,-0.866453,2.57436,1.12176,-0.252844,1.03672,-0.222596,-1.71692,-0.853286,2.56319,1.12939,-0.259647,1.09003,-0.283765,-1.66065,-0.812306,2.52237,1.09602,-0.295388,-0.96569,1.17255,-1.02643,-0.549468,0.849737,1.02586,0.747664,-0.96569,1.17255,-1.02643,-0.549468,0.849737,1.02586,0.747664,0.16086,-0.273094,1.14289,0.57975,-0.079765,0.12767,0.800767,0.0918017,0.351485,-0.0275094,0.770363,-0.405232,1.72446,-3.01898,0.223333,-1.10142,-3.13256,0.0907749,-1.04867,-0.663625,0.717781,-0.659509,-0.541469,0.519911,0.257408,0.425436,1
1.01367,-0.200283,-1.73506,-0.874742,2.58484,1.12247,-0.244992,1.02454,-0.211652,-1.72632,-0.865459,2.57394,1.12423,-0.25265,1.08087,-0.272735,-1.6706,-0.817981,2.52992,1.10473,-0.288636,-0.994554,1.18947,-1.099,-0.658622,0.773667,0.853877,0.702284,-0.994554,1.18947,-1.099,-0.658622,0.773667,0.853877,0.702284,0.162238,-0.269696,1.14235,0.580766,-0.0798884,0.132743,0.799192,0.141277,0.303839,-0.0611669,0.739199,-0.404938,1.71294,-3.11641,0.0294328,-1.15259,-3.11612,0.101635,-1.13916,-0.672017,0.724523,-0.644574,-0.567609,0.549225,0.177336,0.436441,1
1.0053,-0.188246,-1.74367,-0.879123,2.59302,1.14173,-0.236834,1.01407,-0.2002,-1.7351,-0.873765,2.58427,1.12711,-0.244915,1.07125,-0.261591,-1.68089,-0.825156,2.53726,1.11123,-0.282138,-1.06063,1.19764,-1.10649,-0.863932,0.796482,0.557805,0.69073,-1.06063,1.19764,-1.10649,-0.863932,0.796482,0.557805,0.69073,0.164315,-0.267012,1.14144,0.582212,-0.0781368,0.137579,0.797494,0.212585,0.224137,-0.112384,0.707585,-0.405603,1.70052,-3.16147,-0.0664979,-1.24123,-3.10764,0.0938271,-1.22778,-0.659491,0.733456,-0.627768,-0.539669,0.557698,0.30506,0.453036,1
0.996575,-0.177817,-1.75339,-0.883746,2.60266,1.15632,-0.231201,1.00521,-0.188648,-1.74395,-0.879183,2.59339,1.14056,-0.237465,1.06105,-0.250443,-1.6911,-0.833767,2.54513,1.11505,-0.275617,-1.12131,1.19135,-1.08167,-0.973331,0.884765,0.281752,0.705379,-1.12131,1.19135,-1.08167,-0.973331,0.884765,0.281752,0.705379,0.166929,-0.26518,1.14021,0.583796,-0.074484,0.141677,0.795966,0.239045,0.152533,-0.137773,0.675748,-0.404827,1.68698,-3.18363,0.0776589,-1.35489,-3.11265,0.0851938,-1.31621,-0.644745,0.726264,-0.622916,-0.499787,0.575284,0.412696,0.444157,1
0.987603,-0.168573,-1.76498,-0.894602,2.61036,1.16663,-0.228882,0.996514,-0.178113,-1.75386,-0.885304,2.60218,1.15525,-0.23203,1.05058,-0.239278,-1.70102,-0.842749,2.55367,1.11772,-0.268879,-1.12124,1.20019,-1.04657,-0.952571,0.939827,0.288441,0.73599,-1.12124,1.20019,-1.04657,-0.952571,0.939827,0.288441,0.73599,0.16961,-0.263727,1.13892,0.585265,-0.0701865,0.145198,0.794642,0.227656,0.153909,-0.133447,0.644149,-0.404252,1.67226,-3.15997,0.0574261,-1.47177,-3.12522,0.0683695,-1.40935,-0.629798,0.707056,-0.639567,-0.518525,0.566933,0.489112,0.399976,1
0.97754,-0.158489,-1.77668,-0.908347,2.61671,1.16908,-0.227727,0.98733,-0.168363,-1.76501,-0.895324,2.61002,1.16466,-0.229173,1.04033,-0.228029,-1.71067,-0.851179,2.56249,1.12184,-0.261932,-1.07854,1.20947,-1.0221,-0.860092,0.949099,0.57501,0.751429,-1.07854,1.20947,-1.0221,-0.860092,0.949099,0.57501,0.751429,0.171984,-0.261962,1.1377,0.586417,-0.066876,0.148783,0.793415,0.190303,0.205007,-0.118212,0.612714,-0.403592,1.65689,-3.14347,0.0659913,-1.5363,-3.14071,0.0489005,-1.50756,-0.627896,0.695392,-0.660161,-0.57168,0.542203,0.472424,0.342048,1
0.966573,-0.150144,-1.78786,-0.920523,2.62424,1.17019,-0.22593,0.977314,-0.158924,-1.77655,-0.907954,2.617,1.16875,-0.227566,1.03044,-0.216839,-1.72026,-0.858953,2.57134,1.12845,-0.255128,-1.04208,1.18937,-1.03193,-0.809295,0.9472,0.823132,0.709401,-1.04208,1.18937,-1.03193,-0.809295,0.9472,0.823132,0.709401,0.173932,-0.259812,1.1365,0.587388,-0.0650233,0.15268,0.792108,0.154719,0.219267,-0.119708,0.581734,-0.402367,1.64074,-3.09796,0.122505,-1.61513,-3.15105,0.045136,-1.59824,-0.638717,0.666952,-0.675989,-0.615697,0.529075,0.417424,0.291983,1
0.954351,-0.141569,-1.79808,-0.929742,2.63279,1.17268,-0.219378,0.966259,-0.150086,-1.78762,-0.919784,2.6245,1.17054,-0.224741,1.02079,-0.205917,-1.73009,-0.866836,2.58004,1.13636,-0.249007,-1.02761,1.15337,-1.07232,-0.874935,0.920661,0.869207,0.609152,-1.02761,1.15337,-1.07232,-0.874935,0.920661,0.869207,0.609152,0.175702,-0.257806,1.13513,0.588597,-0.0636782,0.156648,0.790544,0.154599,0.172191,-0.15281,0.551994,-0.401356,1.62381,-2.974,0.101089,-1.69295,-3.12982,0.0658968,-1.68932,-0.664385,0.643483,-0.679855,-0.629063,0.527445,0.363148,0.296289,1
0.94343,-0.131818,-1.80798,-0.939691,2.64125,1.17844,-0.211793,0.954676,-0.141275,-1.798,-0.929925,2.63277,1.1735,-0.21912,1.01114,-0.195327,-1.74031,-0.875597,2.58842,1.14394,-0.243864,-1.03889,1.11803,-1.11314,-0.993765,0.877745,0.761857,0.500537,-1.03889,1.11803,-1.11314,-0.993765,0.877745,0.761857,0.500537,0.177604,-0.25644,1.1334,0.590381,-0.0616938,0.160395,0.788617,0.172084,0.0950675,-0.196777,0.525633,-0.399245,1.6062,-2.63609,0.211099,-1.76183,-3.05634,0.0996364,-1.77437,-0.677109,0.635093,-0.676779,-0.640938,0.528276,0.345023,0.320707,1
0.935168,-0.124079,-1.81842,-0.948675,2.65037,1.19308,-0.210074,0.944094,-0.132321,-1.80812,-0.93945,2.64141,1.18066,-0.21326,1.00126,-0.185104,-1.75079,-0.885213,2.59652,1.15034,-0.239438,-1.07503,1.07546,-1.13118,-1.06173,0.859067,0.62017,0.451362,-1.07503,1.07546,-1.13118,-1.06173,0.859067,0.62017,0.451362,0.179599,-0.255876,1.13137,0.592763,-0.0586995,0.163712,0.786374,0.163774,0.0187066,-0.22376,0.487017,-0.401089,1.58502,-3.86164,-0.184381,-2.11791,-3.08551,0.0837909,-1.88244,-0.660942,0.610246,-0.676357,-0.634613,0.538436,0.427395,0.293637,1
0.92719,-0.117576,-1.82931,-0.958131,2.65915,1.20528,-0.211565,0.935239,-0.124388,-1.81853,-0.948793,2.65028,1.19247,-0.210877,0.991021,-0.175228,-1.76132,-0.895155,2.60458,1.15576,-0.235037,-1.1163,1.04284,-1.12648,-1.06791,0.865866,0.54491,0.488872,-1.1163,1.04284,-1.12648,-1.06791,0.865866,0.54491,0.488872,0.181436,-0.255949,1.1292,0.595451,-0.0550409,0.166571,0.784004,0.134346,-0.0285282,-0.230839,0.455573,-0.40108,1.56488,-3.1444,0.000920892,-2.01387,-3.11865,0.063017,-1.9873,-0.638314,0.576521,-0.679894,-0.629757,0.545748,0.495201,0.234715,1
0.917908,-0.113543,-1.84067,-0.968813,2.66558,1.21369,-0.216186,0.926864,-0.118193,-1.82943,-0.958437,2.65856,1.20433,-0.212348,0.98058,-0.165598,-1.77178,-0.905064,2.61273,1.16112,-0.230301,-1.1206,1.02206,-1.11592,-1.05612,0.880899,0.60023,0.523402,-1.1206,1.02206,-1.11592,-1.05612,0.880899,0.60023,0.523402,0.18299,-0.256319,1.12699,0.59812,-0.0513483,0.169157,0.781666,0.105997,-0.0423758,-0.233751,0.425406,-0.400212,1.54322,-3.01667,0.0867873,-2.1659,-3.14008,0.0463656,-2.09842,-0.626717,0.520553,-0.688871,-0.63749,0.528467,0.525688,0.141147,1
0.906584,-0.115965,-1.85218,-0.980027,2.66958,1.2178,-0.223384,0.917397,-0.115157,-1.84071,-0.968946,2.66497,1.21261,-0.216831,0.970333,-0.156272,-1.7822,-0.914853,2.62104,1.16755,-0.225749,-1.07789,0.97927,-1.11597,-1.04241,0.89813,0.76549,0.456775,-1.07789,0.97927,-1.11597,-1.04241,0.89813,0.76549,0.456775,0.184205,-0.256771,1.12472,0.600735,-0.0482457,0.17164,0.779313,0.0719981,-0.0504713,-0.241715,0.392757,-0.401115,1.52076,-3.26494,-0.090313,-2.24614,-3.17917,0.0150365,-2.2088,-0.637491,0.403068,-0.699781,-0.651735,0.485348,0.502547,0.0236438,1
0.897543,-0.13346,-1.86348,-0.991804,2.6731,1.22155,-0.241316,0.907155,-0.119733,-1.85213,-0.980168,2.66946,1.21771,-0.226068,0.960497,-0.147523,-1.79268,-0.924572,2.62941,1.17532,-0.222248,-1.03299,0.900832,-1.12868,-1.04013,0.89533,0.89101,0.304088,-1.03299,0.900832,-1.12868,-1.04013,0.89533,0.89101,0.304088,0.185001,-0.257415,1.12234,0.603592,-0.0458933,0.173968,0.776727,0.0284474,-0.0866369,-0.256642,0.332901,-0.399181,1.4735,-2.98541,0.127268,-2.40643,-3.17692,0.00511238,-2.40398,-0.629542,0.140639,-0.708004,-0.672321,0.436909,0.462344,-0.19067,1
0.887499,-0.146488,-1.87354,-0.998652,2.67903,1.22245,-0.239981,0.897292,-0.132343,-1.86317,-0.990572,2.6737,1.22084,-0.236499,0.950878,-0.13983,-1.80331,-0.934387,2.63751,1.18363,-0.220385,-1.02831,0.757812,-1.14848,-1.06143,0.843484,0.890103,0.10916,-1.02831,0.757812,-1.14848,-1.06143,0.843484,0.890103,0.10916,0.185249,-0.258729,1.11977,0.60716,-0.0438194,0.175872,0.773632,-0.038,-0.184806,-0.283806,0.332901,-0.399181,1.4735,-2.98541,0.127268,-2.40643,-3.17692,0.00511238,-2.40398,-0.633785,-0.0665845,-0.702248,-0.642652,0.415235,0.388223,-0.195961,1
0.87523,-0.161779,-1.88431,-1.00452,2.68213,1.22968,-0.24336,0.886943,-0.147054,-1.87372,-0.998407,2.67833,1.22404,-0.241159,0.941194,-0.134307,-1.81413,-0.94447,2.64493,1.19151,-0.220731,-1.04547,0.447629,-1.1671,-1.09642,0.753327,0.804639,-0.163905,-1.04547,0.447629,-1.1671,-1.09642,0.753327,0.804639,-0.163905,0.18452,-0.261609,1.11686,0.611974,-0.0414579,0.176744,0.769761,-0.173734,-0.393161,-0.333153,0.301505,-0.399476,1.44842,-3.13952,-0.0295758,-2.50756,-3.08761,0.0299879,-2.47924,-0.659638,-0.274717,-0.701868,-0.600509,0.372011,0.381635,-0.226284,1
0.86545,-0.182091,-1.89767,-1.02103,2.66007,1.24659,-0.256502,0.875852,-0.163034,-1.88496,-1.00718,2.67584,1.2321,-0.245801,0.931421,-0.132364,-1.82504,-0.954727,2.65159,1.19844,-0.223446,-1.04824,0.000639514,-1.17106,-1.10095,0.67912,0.688004,-0.400908,-1.04824,0.000639514,-1.17106,-1.10095,0.67912,0.688004,-0.400908,0.182158,-0.266917,1.11352,0.618215,-0.0386149,0.175821,0.765118,-0.374797,-0.666205,-0.388881,0.240593,-0.397775,1.39543,-3.04879,0.105572,-2.68091,-3.068,0.0459122,-2.66272,-0.659714,-0.497269,-0.726236,-0.662998,0.0848123,0.4815,-0.330564,1
0.857371,-0.188524,-1.90927,-1.03776,2.63622,1.26301,-0.268226,0.865875,-0.178621,-1.89723,-1.02108,2.65963,1.24647,-0.256148,0.921562,-0.134317,-1.83592,-0.964678,2.6577,1.20443,-0.22731,-1.06328,-0.391193,-1.16089,-1.03596,0.633391,0.602053,-0.425349,-1.06328,-0.391193,-1.16089,-1.03596,0.633391,0.602053,-0.425349,0.177832,-0.274622,1.10985,0.625365,-0.0354704,0.172938,0.7601,-0.577817,-0.877911,-0.420432,0.209937,-0.396906,1.3678,-3.06568,0.0869393,-2.76222,-3.05215,0.065474,-2.75143,-0.641907,-0.54207,-0.733466,-0.730795,-0.214779,0.585805,-0.40916,1
0.847518,-0.203239,-1.92019,-1.04854,2.64824,1.26677,-0.278746,0.856928,-0.190595,-1.9091,-1.03627,2.64519,1.25985,-0.267925,0.911482,-0.13961,-1.84681,-0.974228,2.6625,1.21038,-0.23137,-1.09432,-0.719454,-1.17164,-1.01207,0.409891,0.667153,-0.443218,-1.09432,-0.719454,-1.17164,-1.01207,0.409891,0.667153,-0.443218,0.17174,-0.284124,1.10581,0.633083,-0.0322336,0.16891,0.754742,-0.744507,-1.03665,-0.474132,0.179027,-0.396249,1.33907,-3.09101,0.0657111,-2.87387,-3.06437,0.0673673,-2.84245,-0.63964,-0.636294,-0.733778,-0.74307,-0.142574,0.563869,-0.473756,1
0.830478,-0.219661,-1.9305,-1.05686,2.66281,1.23867,-0.289622,0.845721,-0.203666,-1.92004,-1.04792,2.64888,1.2588,-0.278835,0.901299,-0.147506,-1.85793,-0.984268,2.66366,1.21769,-0.236334,-1.08799,-0.955656,-1.20715,-1.13071,-0.123749,0.883904,-0.608561,-1.08799,-0.955656,-1.20715,-1.13071,-0.123749,0.883904,-0.608561,0.164645,-0.294829,1.10097,0.641674,-0.0287269,0.165248,0.748413,-0.809127,-1.13876,-0.582555,0.148345,-0.396062,1.30936,-3.06814,0.0186741,-2.97101,-3.0706,0.0633389,-2.93422,-0.708209,-0.721551,-0.725729,-0.725885,-0.00841723,0.209762,-0.532878,1
0.820002,-0.231131,-1.94019,-1.06678,2.64445,1.21686,-0.295646,0.832119,-0.218423,-1.93034,-1.05726,2.65458,1.24024,-0.288409,0.891304,-0.156833,-1.86927,-0.995439,2.66073,1.22662,-0.242826,-1.05584,-1.03695,-1.22317,-1.25404,-0.477335,1.02042,-0.770897,-1.05584,-1.03695,-1.22317,-1.25404,-0.477335,1.02042,-0.770897,0.157382,-0.306046,1.09522,0.651089,-0.0247261,0.16269,0.740948,-0.806383,-1.1588,-0.666728,0.11773,-0.395536,1.279,-3.06148,0.0526488,-3.03521,-3.06559,0.0674503,-3.0228,-0.713024,-0.742984,-0.709189,-0.71336,-0.162822,-0.097581,-0.528203,1
0.814634,-0.239044,-1.95114,-1.07889,2.63575,1.26702,-0.293229,0.821279,-0.230242,-1.9405,-1.06732,2.64687,1.23485,-0.293536,0.881269,-0.166964,-1.88063,-1.00714,2.65736,1.23474,-0.250516,-1.09181,-1.12727,-1.21042,-1.25262,-0.260492,0.73904,-0.869781,-1.09181,-1.12727,-1.21042,-1.25262,-0.260492,0.73904,-0.869781,0.149714,-0.317765,1.08901,0.660919,-0.0200767,0.159603,0.733015,-0.892165,-1.22521,-0.685877,0.086362,-0.395015,1.24739,-3.13684,0.0520945,-3.16113,-3.0767,0.0599027,-3.11366,-0.666347,-0.720801,-0.705107,-0.717531,-0.216131,0.322777,-0.42713,1
0.821733,-0.25493,-1.95763,-1.09045,2.70472,1.25643,-0.300879,0.817751,-0.241037,-1.95002,-1.07875,2.65517,1.25183,-0.295746,0.870624,-0.178049,-1.89179,-1.01852,2.65601,1.23825,-0.258828,-1.18257,-1.23997,-1.184,-1.1898,-0.0439982,0.0611456,-0.908484,-1.18257,-1.23997,-1.184,-1.1898,-0.0439982,0.0611456,-0.908484,0.141077,-0.33057,1.0828,0.671175,-0.0139203,0.154135,0.724964,-1.00235,-1.33571,-0.683781,0.0895952,-0.374255,0.91935,0.323313,2.076,-32.8042,-2.71943,0.268064,-6.37542,-0.488905,-0.768805,-0.658357,-0.719331,0.487073,0.181805,-0.420511,1
0.804705,-0.267035,-1.96757,-1.10107,2.70548,1.22375,-0.309895,0.815701,-0.253985,-1.95849,-1.09022,2.68767,1.25091,-0.301221,0.859611,-0.189657,-1.90273,-1.02948,2.65463,1.23803,-0.266862,-1.17728,-1.24647,-1.16026,-1.16217,-0.238441,-0.0974779,-0.819204,-1.17728,-1.24647,-1.16026,-1.16217,-0.238441,-0.0974779,-0.819204,0.13195,-0.343879,1.07652,0.681526,-0.00627392,0.147533,0.71674,-1.00527,-1.30826,-0.70186,0.087059,-0.378298,0.916349,-0.253618,-0.40431,-0.300056,-2.17671,0.360215,-8.25628,-0.549065,-0.773782,-0.648478,-0.715884,0.508548,-0.142757,-0.430333,1
0.797684,-0.279053,-1.97546,-1.11023,2.7036,1.21389,-0.315754,0.807207,-0.267013,-1.96706,-1.10071,2.70482,1.22946,-0.309106,0.849615,-0.20118,-1.91338,-1.04041,2.6538,1.2395,-0.273785,-0.978629,-1.2241,-1.12534,-1.17757,0.0418221,0.378809,-0.674455,-0.978629,-1.2241,-1.12534,-1.17757,0.0418221,0.378809,-0.674455,0.122805,-0.35642,1.07003,0.690633,0.00047534,0.141055,0.709316,-0.987321,-1.19231,-0.724269,0.0838949,-0.382643,0.912399,-0.316411,-0.434494,-0.395024,-1.55751,0.348671,-8.86309,-0.519316,-0.778727,-0.620773,-0.698243,0.497946,-0.256092,-0.419685,1
0.789221,-0.290973,-1.98449,-1.12058,2.70843,1.21208,-0.321851,0.797323,-0.279028,-1.97575,-1.11053,2.70528,1.2159,-0.315813,0.841423,-0.212809,-1.92362,-1.05146,2.65847,1.24244,-0.279972,-0.789982,-1.2646,-1.07113,-1.19013,0.896735,0.260028,-0.652602,-0.789982,-1.2646,-1.07113,-1.19013,0.896735,0.260028,-0.652602,0.113251,-0.368474,1.06345,0.6979,0.00539113,0.132514,0.703809,-1.02963,-1.19683,-0.730517,0.0799362,-0.38699,0.908376,-0.395864,-0.43475,-0.402361,-0.972146,0.248995,-8.29711,-0.522025,-0.781639,-0.608724,-0.691205,0.499567,-0.303594,-0.418788,1
0.794572,-0.301862,-1.9907,-1.13151,2.72346,1.21587,-0.325842,0.792674,-0.290715,-1.98378,-1.12073,2.71098,1.21348,-0.321324,0.8339,-0.224777,-1.93342,-1.06249,2.66801,1.24169,-0.286302,-0.819815,-1.29718,-1.03302,-1.17368,1.13058,-0.375721,-0.700352,-0.819815,-1.29718,-1.03302,-1.17368,1.13058,-0.375721,-0.700352,0.103127,-0.381073,1.05684,0.704506,0.0107546,0.120838,0.699252,-1.07023,-1.26002,-0.741541,0.0753744,-0.392228,0.904149,-0.456184,-0.523806,-0.422609,-0.520071,0.062796,-6.66266,-0.39328,-0.770858,-0.572728,-0.690211,0.554455,-0.258156,-0.395399,1
0.853807,-0.31107,-1.98896,-1.14232,2.73805,1.23283,-0.328467,0.808043,-0.301442,-1.98871,-1.13148,2.72335,1.21916,-0.325501,0.82595,-0.236873,-1.94294,-1.0733,2.67722,1.23684,-0.292863,-0.879207,-1.29469,-1.00755,-1.14355,0.861736,-0.64317,-0.704876,-0.879207,-1.29469,-1.00755,-1.14355,0.861736,-0.64317,-0.704876,0.0928491,-0.394047,1.05007,0.711367,0.0177884,0.108197,0.694215,-1.07106,-1.24741,-0.761796,0.0704513,-0.397952,0.899912,-0.492305,-0.57236,-0.423735,-0.297487,-0.190897,-4.06005,0.278566,-0.741974,-0.460211,-0.690275,0.608328,-0.0401194,-0.356049,1
0.880772,-0.311479,-1.95778,-1.07843,2.75231,1.27151,-0.340041,0.84574,-0.30887,-1.9816,-1.12365,2.73797,1.23826,-0.330705,0.818217,-0.248905,-1.95216,-1.08391,2.68495,1.23132,-0.2993,-0.784474,-1.28408,-0.971149,-1.13086,0.799321,-0.547797,-0.676419,-0.784474,-1.28408,-0.971149,-1.13086,0.799321,-0.547797,-0.676419,0.082775,-0.406641,1.04305,0.717995,0.025245,0.0959764,0.688937,-1.03392,-1.1828,-0.782476,0.0650138,-0.403373,0.895789,-0.543749,-0.542128,-0.412297,-0.412428,-0.486604,-0.59931,0.625551,-0.625741,-0.0561917,0.0547698,0.673576,0.401927,-0.407412,1
0.789355,-0.293568,-2.031,-1.03988,2.66233,1.29481,-0.343848,0.851177,-0.306899,-1.98388,-1.08477,2.72625,1.26767,-0.338099,0.813915,-0.260724,-1.96068,-1.09449,2.69307,1.22764,-0.305329,-0.180343,-1.25055,-0.860979,-1.13614,0.930011,-0.26033,-0.619503,-0.180343,-1.25055,-0.860979,-1.13614,0.930011,-0.26033,-0.619503,0.0741017,-0.418168,1.03586,0.722771,0.0315118,0.0841264,0.685224,-0.767194,-1.05129,-0.791031,-0.156422,-0.394495,0.959549,-22.1436,0.887808,6.37602,-2.77747,-0.360766,0.113984,-0.245606,-0.328439,-0.703214,0.546144,-0.307314,0.671724,-0.385186,1
0.777824,-0.231449,-2.03307,-1.08043,2.64113,1.29646,-0.302792,0.809326,-0.282516,-2.01321,-1.05965,2.67953,1.2894,-0.332632,0.817474,-0.271832,-1.9667,-1.10264,2.70254,1.22808,-0.311035,0.868102,-1.13753,-0.457692,-0.645174,1.08812,0.312805,-0.60409,0.868102,-1.13753,-0.457692,-0.645174,1.08812,0.312805,-0.60409,0.0688646,-0.426927,1.02974,0.72382,0.0338928,0.0735531,0.68522,-0.274271,-0.686574,-0.563993,-0.186786,-0.393868,0.919348,-3.03636,0.0627398,-4.02014,-4.62543,-0.213676,0.210121,-0.396498,0.403835,-0.663703,0.222128,-0.614118,0.683851,0.0824318,1
0.7748,-0.24771,-2.03858,-1.07973,2.6486,1.30118,-0.314066,0.779951,-0.251044,-2.03393,-1.07012,2.6483,1.29723,-0.315874,0.825222,-0.280775,-1.9707,-1.10269,2.70978,1.23452,-0.316908,0.79711,-0.802345,-0.404663,0.550367,0.505768,1.01793,-0.65084,0.79711,-0.802345,-0.404663,0.550367,0.505768,1.01793,-0.65084,0.065511,-0.430932,1.02712,0.72373,0.030027,0.0677937,0.686088,-0.316105,-0.188217,-0.0532491,-0.216128,-0.394015,0.879458,-2.93427,-0.0147164,-3.98898,-5.85496,-0.0746284,-0.188279,-0.504227,0.330645,-0.678779,0.229518,-0.611866,0.666623,0.028422,1
0.754395,-0.259399,-2.04967,-1.08252,2.66168,1.29811,-0.319778,0.770455,-0.246567,-2.03998,-1.0806,2.65,1.29923,-0.312675,0.826101,-0.284021,-1.97788,-1.09489,2.70766,1.24565,-0.321447,-0.5152,0.0462317,-1.08499,1.08219,-0.863926,1.34357,-0.343537,-0.5152,0.0462317,-1.08499,1.08219,-0.863926,1.34357,-0.343537,0.0606548,-0.43015,1.0283,0.728062,0.0232969,0.0710177,0.681425,-0.658689,0.207664,0.282663,-0.246681,-0.392527,0.836813,-3.05527,0.14877,-4.26453,-6.39688,0.0588677,-0.983426,-0.717066,0.246226,-0.717859,0.123683,-0.459712,0.524533,0.0166839,1
0.739352,-0.259599,-2.06263,-1.12163,2.66444,1.24964,-0.332561,0.755735,-0.256527,-2.05014,-1.0916,2.6591,1.28676,-0.321546,0.818022,-0.279457,-1.98942,-1.08752,2.69651,1.25757,-0.321996,-1.16925,0.872648,-1.36693,0.534654,-1.48069,1.21815,0.187999,-1.16925,0.872648,-1.36693,0.534654,-1.48069,1.21815,0.187999,0.0559578,-0.426329,1.03077,0.7359,0.0193763,0.0819342,0.671835,-0.466079,0.420458,0.275922,-0.276958,-0.392367,0.794163,-3.02766,0.015977,-4.26497,-6.16187,0.139021,-2.04033,-0.786701,0.19858,-0.732126,-0.341026,-0.32071,-0.0793104,-0.105657,1
0.734198,-0.310487,-2.07352,-1.1536,2.67051,1.22406,-0.355299,0.741824,-0.272271,-2.06211,-1.11984,2.66527,1.25536,-0.33505,0.807296,-0.2718,-2.00129,-1.08459,2.68475,1.26769,-0.320049,-1.13149,0.774968,-1.1882,0.122558,-1.06731,0.968761,0.226447,-1.13149,0.774968,-1.1882,0.122558,-1.06731,0.968761,0.226447,0.0527067,-0.422435,1.03241,0.743189,0.0186549,0.0934976,0.662254,-0.396668,0.28662,0.123196,-0.306694,-0.39193,0.750401,-2.9736,0.0437081,-4.3762,-5.05746,0.142588,-3.23383,-0.730982,-0.386874,-0.722329,-0.69002,-0.142466,-0.436279,-0.352503,1
0.739503,-0.336968,-2.08011,-1.15987,2.69796,1.25888,-0.367627,0.736813,-0.304385,-2.07245,-1.14717,2.67585,1.23916,-0.352697,0.796181,-0.266855,-2.01226,-1.08507,2.67733,1.27387,-0.319397,-1.24223,0.317218,-1.16355,-0.200681,-0.559819,0.395859,-0.066,-1.24223,0.317218,-1.16355,-0.200681,-0.559819,0.395859,-0.066,0.0484325,-0.421348,1.03231,0.750088,0.020217,0.100387,0.653362,-0.630419,-0.0708804,-0.100933,-0.33583,-0.39231,0.705351,-2.91365,-0.037992,-4.50506,-2.99596,0.0431308,-4.43494,-0.566777,-0.701127,-0.678515,-0.748003,0.206348,-0.149927,-0.482301,1
0.734988,-0.333484,-2.09293,-1.16627,2.72284,1.27675,-0.364615,0.737048,-0.329477,-2.08167,-1.1599,2.69732,1.25464,-0.363792,0.784277,-0.266384,-2.02326,-1.09045,2.67362,1.27289,-0.321729,-1.3039,-0.180817,-1.19323,-0.902765,-0.256534,-0.53849,-0.409146,-1.3039,-0.180817,-1.19323,-0.902765,-0.256534,-0.53849,-0.409146,0.0421265,-0.42497,1.02945,0.757754,0.0262697,0.100823,0.644169,-0.803978,-0.565973,-0.480579,-0.366175,-0.392411,0.660487,-3.03444,-0.0101119,-4.48639,-2.99137,0.0299113,-4.52575,-0.49289,-0.671,-0.69667,-0.758244,0.492255,0.038539,-0.42886,1
0.734025,-0.34062,-2.10314,-1.17653,2.72765,1.27866,-0.368402,0.735876,-0.336139,-2.09228,-1.16724,2.71783,1.27276,-0.366315,0.77306,-0.272122,-2.03429,-1.10139,2.67295,1.26638,-0.327389,-1.11328,-0.990924,-1.17175,-1.40604,0.0890993,-0.836004,-0.777305,-1.11328,-0.990924,-1.17175,-1.40604,0.0890993,-0.836004,-0.777305,0.033519,-0.433821,1.02297,0.765718,0.0364203,0.0944465,0.635161,-1.06413,-1.04756,-0.894913,-0.396012,-0.391867,0.613961,-2.98373,0.0544816,-4.65258,-2.99111,0.0240488,-4.62128,-0.39035,-0.684981,-0.688447,-0.751387,0.546993,0.122855,-0.410139,1
0.718896,-0.357198,-2.1133,-1.18856,2.72447,1.26748,-0.383433,0.730483,-0.342981,-2.10313,-1.17698,2.72565,1.27539,-0.371213,0.764083,-0.283481,-2.045,-1.11446,2.67653,1.26168,-0.335155,-0.830336,-1.41271,-1.12606,-1.39553,0.638484,-0.216052,-0.879543,-0.830336,-1.41271,-1.12606,-1.39553,0.638484,-0.216052,-0.879543,0.0226418,-0.445252,1.01407,0.772845,0.0456565,0.0835908,0.627407,-1.21292,-1.11308,-1.02728,-0.42545,-0.392874,0.566198,-2.94378,-0.100702,-4.77626,-2.9782,-0.001852,-4.70772,-0.451867,-0.737172,-0.683003,-0.740991,0.479407,0.0580107,-0.482774,1
0.707433,-0.370662,-2.12447,-1.20048,2.7255,1.26754,-0.396089,0.719812,-0.35642,-2.11355,-1.18853,2.72552,1.27029,-0.382839,0.757208,-0.295799,-2.05553,-1.12673,2.68443,1.26234,-0.342608,-0.655185,-1.23901,-1.12872,-1.24402,1.0258,0.320029,-0.728127,-0.655185,-1.23901,-1.12872,-1.24402,1.0258,0.320029,-0.728127,0.0111948,-0.455696,1.00505,0.778607,0.0511557,0.0720012,0.621265,-1.14297,-0.908725,-0.936917,-0.455788,-0.392994,0.517634,-3.0338,-0.0120491,-4.85643,-2.97923,-0.0118664,-4.80494,-0.497747,-0.748639,-0.689406,-0.73743,0.410762,0.0520015,-0.534809,1
0.701749,-0.380791,-2.13498,-1.21238,2.73576,1.2683,-0.401687,0.708878,-0.369828,-2.12431,-1.20047,2.72781,1.26771,-0.394324,0.751189,-0.306735,-2.06611,-1.1381,2.69377,1.26528,-0.349152,-0.635937,-1.11325,-1.13712,-1.19414,0.979314,0.3105,-0.677587,-0.635937,-1.11325,-1.13712,-1.19414,0.979314,0.3105,-0.677587,0.000261582,-0.464618,0.99657,0.783644,0.0548816,0.0612037,0.615747,-1.08981,-0.816289,-0.902183,-0.485223,-0.392558,0.468279,-2.94349,0.0436604,-4.93552,-2.98135,-0.0132539,-4.90031,-0.494393,-0.740564,-0.688755,-0.742842,0.419898,0.0302233,-0.525355,1
