Afshin1997/kuka_rl_ros2/src/catch_and_throw/output_files/tm/nn_ema1.00_jvws1_simball_D11H13M11S50/recorded_data.csv
pure_target_joint_0,pure_target_joint_1,pure_target_joint_2,pure_target_joint_3,pure_target_joint_4,pure_target_joint_5,pure_target_joint_6,target_joint_0,target_joint_1,target_joint_2,target_joint_3,target_joint_4,target_joint_5,target_joint_6,pos_joint_0,pos_joint_1,pos_joint_2,pos_joint_3,pos_joint_4,pos_joint_5,pos_joint_6,vel_joint_0,vel_joint_1,vel_joint_2,vel_joint_3,vel_joint_4,vel_joint_5,vel_joint_6,vel_smooth_joint_0,vel_smooth_joint_1,vel_smooth_joint_2,vel_smooth_joint_3,vel_smooth_joint_4,vel_smooth_joint_5,vel_smooth_joint_6,ee_pos_x,ee_pos_y,ee_pos_z,ee_or_w,ee_or_x,ee_or_y,ee_or_z,ee_vel_x,ee_vel_y,ee_vel_z,ball_pos_x,ball_pos_y,ball_pos_z,ball_raw_vx,ball_raw_vy,ball_raw_vz,ball_ema_vx,ball_ema_vy,ball_ema_vz,action_0,action_1,action_2,action_3,action_4,action_5,action_6,command_published
1.82652,-1.01266,-1.83659,-1.04151,1.96639,1.16854,-0.879923,1.82652,-1.01266,-1.83659,-1.04151,1.96639,1.16854,-0.879923,1.78128,-1.07407,-1.82001,-1.12078,1.93739,1.11721,-0.916319,-3.5953e-05,-1.1977e-05,1.19989e-05,0,0,2.39759e-05,0,-3.5953e-05,-1.1977e-05,1.19989e-05,0,0,2.39759e-05,0,0.537789,-0.456348,0.69521,0.572405,0.180597,0.151494,0.785358,-1.87886e-05,-1.87582e-05,-1.09564e-06,0.685072,0.000988474,0.0105873,-1.84996e-05,0.00100373,-0.000265162,-1.84996e-05,0.00100373,-0.000265162,0.4524,0.614133,-0.165847,0.792683,0.290022,0.513331,0.363952,1
1.82652,-1.01266,-1.83659,-1.04151,1.96639,1.16854,-0.879923,1.82652,-1.01266,-1.83659,-1.04151,1.96639,1.16854,-0.879923,1.78128,-1.07407,-1.82001,-1.12078,1.93739,1.11721,-0.916319,-3.5953e-05,-1.1977e-05,1.19989e-05,0,0,2.39759e-05,0,-3.5953e-05,-1.1977e-05,1.19989e-05,0,0,2.39759e-05,0,0.537789,-0.456348,0.69521,0.572405,0.180597,0.151494,0.785358,-1.87886e-05,-1.87582e-05,-1.09564e-06,0.685072,0.000988474,0.0105873,-1.84996e-05,0.00100373,-0.000265162,-1.84996e-05,0.00100373,-0.000265162,0.4524,0.614133,-0.165847,0.792683,0.290022,0.513331,0.363952,1
1.82652,-1.01266,-1.83659,-1.04151,1.96639,1.16854,-0.879922,1.82652,-1.01266,-1.83659,-1.04151,1.96639,1.16854,-0.879922,1.78128,-1.07407,-1.82001,-1.12078,1.93739,1.11721,-0.916319,-1.19776e-05,-2.39771e-05,2.39552e-05,-1.19994e-05,-3.83284e-05,2.39771e-05,-2.39771e-05,-1.19776e-05,-2.39771e-05,2.39552e-05,-1.19994e-05,-3.83284e-05,2.39771e-05,-2.39771e-05,0.537789,-0.456348,0.69521,0.572405,0.180597,0.151494,0.785358,-1.42576e-05,-1.50342e-05,9.90006e-06,0.685074,0.000991137,0.0105888,-0.0163456,0.0246526,0.00648186,-0.0163456,0.0246526,0.00648186,0.452384,0.614135,-0.165849,0.792684,0.290033,0.513322,0.363963,1
1.82286,-1.01081,-1.83315,-1.04115,1.96476,1.16897,-0.881862,1.82286,-1.01081,-1.83315,-1.04115,1.96476,1.16897,-0.881862,1.78128,-1.07407,-1.82001,-1.12078,1.93739,1.11721,-0.916319,-1.19776e-05,0,0,3.59547e-05,-1.91642e-05,2.39771e-05,0,-1.19776e-05,0,0,3.59547e-05,-1.91642e-05,2.39771e-05,0,0.537789,-0.456348,0.69521,0.572405,0.180597,0.151494,0.785358,5.98413e-06,4.64216e-06,6.18819e-06,0.685071,0.000985395,0.0105965,-0.00279211,-0.00116375,0.00758726,-0.00279211,-0.00116375,0.00758726,0.415762,0.63265,-0.131449,0.796338,0.273742,0.517655,0.344563,1
1.81815,-1.00863,-1.8255,-1.04081,1.96423,1.16941,-0.883789,1.81815,-1.00863,-1.8255,-1.04081,1.96423,1.16941,-0.883789,1.78128,-1.07407,-1.82001,-1.12078,1.93739,1.11721,-0.916319,-1.19776e-05,0,2.39771e-05,0,1.91642e-05,2.39771e-05,-2.39771e-05,-1.19776e-05,0,2.39771e-05,0,1.91642e-05,2.39771e-05,-2.39771e-05,0.537789,-0.456348,0.69521,0.572405,0.180597,0.151494,0.785358,-1.393e-05,-1.94901e-05,-1.26859e-06,0.685068,0.000989298,0.0105904,-0.000309038,0.000381764,-0.000594752,-0.000309038,0.000381764,-0.000594752,0.368697,0.654404,-0.0548919,0.799702,0.268358,0.522029,0.325294,1
1.81042,-1.00698,-1.82301,-1.04063,1.96325,1.17018,-0.884676,1.81042,-1.00698,-1.82301,-1.04063,1.96325,1.17018,-0.884676,1.78128,-1.07407,-1.82001,-1.12078,1.93739,1.11721,-0.916319,0,-1.19994e-05,-1.19776e-05,0,0,0.000119842,0,0,-1.19994e-05,-1.19776e-05,0,0,0.000119842,0,0.537789,-0.456348,0.69521,0.572405,0.180597,0.151494,0.785358,-1.13618e-05,-6.72785e-07,-4.59783e-06,0.685068,0.000989715,0.0105891,2.39161e-05,4.18881e-05,-0.000137517,2.39161e-05,4.18881e-05,-0.000137517,0.291321,0.670945,-0.0300638,0.8015,0.258554,0.529706,0.316431,1
1.79911,-1.00566,-1.82245,-1.04045,1.96127,1.17088,-0.885836,1.79911,-1.00566,-1.82245,-1.04045,1.96127,1.17088,-0.885836,1.78128,-1.07407,-1.82001,-1.12078,1.93739,1.11721,-0.916319,2.39552e-05,1.19776e-05,1.19776e-05,1.19776e-05,0,-8.3887e-05,0,2.39552e-05,1.19776e-05,1.19776e-05,1.19776e-05,0,-8.3887e-05,0,0.537789,-0.456348,0.69521,0.572405,0.180597,0.151494,0.785358,1.20797e-05,2.01976e-05,3.81334e-06,0.685064,0.000983735,0.0105986,-0.000356053,-0.00060546,0.000965567,-0.000356053,-0.00060546,0.000965567,0.178236,0.684125,-0.0244247,0.803272,0.238824,0.536746,0.304826,1
1.78034,-1.0047,-1.82355,-1.04026,1.9588,1.17201,-0.888146,1.78034,-1.0047,-1.82355,-1.04026,1.9588,1.17201,-0.888146,1.78128,-1.07407,-1.82001,-1.12078,1.93739,1.11721,-0.916319,0,0,2.39552e-05,1.19994e-05,0,-3.59547e-05,0,0,0,2.39552e-05,1.19994e-05,0,-3.59547e-05,0,0.537789,-0.456348,0.69521,0.572405,0.180597,0.151494,0.785358,-1.05082e-05,-9.40659e-06,-7.75545e-06,0.685077,0.000982059,0.0105902,0.00128749,-0.000168433,-0.000838365,0.00128749,-0.000168433,-0.000838365,-0.00942346,0.693773,-0.0354474,0.805214,0.214078,0.548009,0.281728,1
1.7636,-1.00399,-1.82439,-1.04019,1.95615,1.174,-0.890947,1.7636,-1.00399,-1.82439,-1.04019,1.95615,1.174,-0.890947,1.78128,-1.07407,-1.82001,-1.12078,1.93739,1.11721,-0.916319,-1.19776e-05,0,0,-3.59547e-05,1.91642e-05,0,1.19776e-05,-1.19776e-05,0,0,-3.59547e-05,1.91642e-05,0,1.19776e-05,0.537789,-0.456348,0.69521,0.572405,0.180597,0.151494,0.785358,-3.18573e-06,-1.08228e-05,1.41874e-06,0.68508,0.000982276,0.0105906,0.000237068,2.2142e-05,3.6472e-05,0.000237068,2.2142e-05,3.6472e-05,-0.176885,0.700867,-0.0437928,0.805859,0.187617,0.567904,0.253713,1
1.75054,-1.00325,-1.82422,-1.04011,1.95384,1.17552,-0.893363,1.75054,-1.00325,-1.82422,-1.04011,1.95384,1.17552,-0.893363,1.78128,-1.07407,-1.82001,-1.12078,1.93739,1.11721,-0.916318,0,1.19776e-05,0,-1.19776e-05,0,2.39771e-05,3.59547e-05,0,1.19776e-05,0,-1.19776e-05,0,2.39771e-05,3.59547e-05,0.537789,-0.456348,0.69521,0.572405,0.180597,0.151494,0.785358,8.10654e-06,9.39925e-06,2.61083e-06,0.685069,0.000973471,0.0105928,-0.00111104,-0.000892041,0.000223416,-0.00111104,-0.000892041,0.000223416,-0.307465,0.708195,-0.0421042,0.806693,0.164509,0.583138,0.22955,1
1.73949,-1.00245,-1.8249,-1.04001,1.95208,1.1768,-0.895147,1.73949,-1.00245,-1.8249,-1.04001,1.95208,1.1768,-0.895147,1.78128,-1.07407,-1.82001,-1.12078,1.93739,1.11721,-0.916319,0,3.5953e-05,2.39759e-05,3.5953e-05,3.83266e-05,3.5953e-05,-2.39759e-05,0,3.5953e-05,2.39759e-05,3.5953e-05,3.83266e-05,3.5953e-05,-2.39759e-05,0.537789,-0.456348,0.69521,0.572405,0.180597,0.151494,0.785358,-4.64874e-07,-5.84868e-06,-4.19897e-06,0.685057,0.000982273,0.0105945,-0.00110283,0.000843837,0.000159996,-0.00110283,0.000843837,0.000159996,-0.417945,0.716205,-0.0489521,0.807734,0.146867,0.595936,0.211717,1
1.73055,-1.00175,-1.82557,-1.03987,1.94978,1.17786,-0.897096,1.73055,-1.00175,-1.82557,-1.03987,1.94978,1.17786,-0.897096,1.78128,-1.07407,-1.82001,-1.12078,1.93739,1.11721,-0.916319,4.79323e-05,-2.39771e-05,-2.39771e-05,0,1.91991e-05,-5.99317e-05,0,4.79323e-05,-2.39771e-05,-2.39771e-05,0,1.91991e-05,-5.99317e-05,0,0.537789,-0.456348,0.69521,0.572405,0.180597,0.151494,0.785358,3.03054e-05,8.24547e-06,-2.4645e-05,0.68506,0.000985875,0.0105943,0.000284435,0.00035809,-1.77772e-05,0.000284435,0.00035809,-1.77772e-05,-0.50734,0.723207,-0.0556501,0.809068,0.123879,0.606524,0.19223,1
1.72397,-1.00125,-1.82704,-1.03974,1.9463,1.17896,-0.899041,1.72397,-1.00125,-1.82704,-1.03974,1.9463,1.17896,-0.899041,1.78128,-1.07407,-1.82001,-1.12078,1.93739,1.11721,-0.916319,0,3.59547e-05,0,0,0,-2.39771e-05,-2.39771e-05,0,3.59547e-05,0,0,0,-2.39771e-05,-2.39771e-05,0.537789,-0.456348,0.69521,0.572405,0.180597,0.151494,0.785358,2.28263e-07,9.77152e-06,1.8691e-05,0.685069,0.000981032,0.0105927,0.00085874,-0.000474644,-0.000151886,0.00085874,-0.000474644,-0.000151886,-0.573194,0.728223,-0.0702884,0.810421,0.0891186,0.617571,0.172774,1
1.71911,-1.00087,-1.8284,-1.03964,1.94326,1.17997,-0.90096,1.71911,-1.00087,-1.8284,-1.03964,1.94326,1.17997,-0.90096,1.78128,-1.07407,-1.82001,-1.12078,1.93739,1.11721,-0.916319,-3.59547e-05,-1.19776e-05,-2.39771e-05,1.19994e-05,1.91642e-05,0,0,-3.59547e-05,-1.19776e-05,-2.39771e-05,1.19994e-05,1.91642e-05,0,0,0.537789,-0.456348,0.69521,0.572405,0.180597,0.151494,0.785358,-1.71008e-05,-3.28931e-05,-1.19604e-05,0.685075,0.000979392,0.0105929,0.000619895,-0.00016395,1.19211e-05,0.000619895,-0.00016395,1.19211e-05,-0.6217,0.732022,-0.0839587,0.811435,0.0587178,0.627634,0.153586,1
1.71557,-1.00067,-1.83104,-1.03959,1.94193,1.18083,-0.902482,1.71557,-1.00067,-1.83104,-1.03959,1.94193,1.18083,-0.902482,1.78128,-1.07407,-1.82001,-1.12078,1.93739,1.11721,-0.916319,-3.59547e-05,0,-2.39771e-05,-1.19776e-05,-3.83284e-05,3.59547e-05,-3.59547e-05,-3.59547e-05,0,-2.39771e-05,-1.19776e-05,-3.83284e-05,3.59547e-05,-3.59547e-05,0.537789,-0.456348,0.69521,0.572405,0.180597,0.151494,0.785358,-1.60318e-05,-1.30464e-05,-1.03033e-05,0.685063,0.000979257,0.0105927,-0.00111773,-1.3155e-05,-1.15827e-05,-0.00111773,-1.3155e-05,-1.15827e-05,-0.657116,0.73408,-0.110332,0.811921,0.0453755,0.636227,0.138371,1
1.71278,-1.00045,-1.8297,-1.03956,1.94463,1.1814,-0.902934,1.71278,-1.00045,-1.8297,-1.03956,1.94463,1.1814,-0.902934,1.78128,-1.07407,-1.82001,-1.12078,1.93739,1.11721,-0.916319,1.19776e-05,3.59547e-05,2.39771e-05,0,0,0,-3.59547e-05,1.19776e-05,3.59547e-05,2.39771e-05,0,0,0,-3.59547e-05,0.537789,-0.456348,0.69521,0.572405,0.180597,0.151494,0.785358,2.07248e-06,2.14664e-05,2.85217e-05,0.685071,0.000976455,0.0105886,0.000711188,-0.000271834,-0.000404741,0.000711188,-0.000271834,-0.000404741,-0.685042,0.736289,-0.0969126,0.812155,0.0723952,0.641974,0.133846,1
1.71053,-1.00036,-1.8278,-1.03959,1.94951,1.18201,-0.90328,1.71053,-1.00036,-1.8278,-1.03959,1.94951,1.18201,-0.90328,1.78128,-1.07407,-1.82001,-1.12078,1.93739,1.11721,-0.916319,0,0,2.39771e-05,1.19776e-05,-1.91642e-05,0,0,0,0,2.39771e-05,1.19776e-05,-1.91642e-05,0,0,0.537789,-0.456348,0.69521,0.572405,0.180597,0.151494,0.785358,-2.3382e-06,2.26229e-06,1.10123e-05,0.685065,0.000980924,0.0105989,-0.000629332,0.000449465,0.0010369,-0.000629332,0.000449465,0.0010369,-0.707582,0.737113,-0.0779407,0.811932,0.12123,0.648041,0.130383,1
1.70891,-1.00037,-1.82629,-1.03964,1.95356,1.18272,-0.901958,1.70891,-1.00037,-1.82629,-1.03964,1.95356,1.18272,-0.901958,1.78128,-1.07407,-1.82001,-1.12078,1.93739,1.11721,-0.916319,2.39552e-05,1.19776e-05,2.39771e-05,-2.39771e-05,0,0,0,2.39552e-05,1.19776e-05,2.39771e-05,-2.39771e-05,0,0,0,0.537789,-0.456348,0.69521,0.572405,0.180597,0.151494,0.785358,1.28391e-05,2.89826e-05,9.5102e-06,0.685061,0.000989815,0.0106026,-0.000399503,0.000916768,0.000381064,-0.000399503,0.000916768,0.000381064,-0.723794,0.737076,-0.062833,0.811424,0.161735,0.655132,0.143605,1
1.70762,-1.00041,-1.82436,-1.03968,1.95573,1.18325,-0.900362,1.70762,-1.00041,-1.82436,-1.03968,1.95573,1.18325,-0.900362,1.78128,-1.07407,-1.82001,-1.12078,1.93739,1.11721,-0.916319,-2.39771e-05,-1.19776e-05,0,1.19994e-05,1.91642e-05,-2.39552e-05,0,-2.39771e-05,-1.19776e-05,0,1.19994e-05,1.91642e-05,-2.39552e-05,0,0.537789,-0.456348,0.69521,0.572405,0.180597,0.151494,0.785358,-1.01834e-05,-2.32731e-05,-4.66572e-06,0.685075,0.000995336,0.0105901,0.00143639,0.000552081,-0.00124567,0.00143639,0.000552081,-0.00124567,-0.736618,0.736605,-0.0435001,0.810968,0.183437,0.660422,0.159569,1
1.70672,-1.00054,-1.82198,-1.0397,1.95832,1.18384,-0.898311,1.70672,-1.00054,-1.82198,-1.0397,1.95832,1.18384,-0.898311,1.78128,-1.07407,-1.82001,-1.12078,1.93739,1.11721,-0.916319,1.19776e-05,-2.39771e-05,0,3.59547e-05,-5.75275e-05,0,2.39771e-05,1.19776e-05,-2.39771e-05,0,3.59547e-05,-5.75275e-05,0,2.39771e-05,0.537789,-0.456348,0.69521,0.572405,0.180597,0.151494,0.785358,3.32109e-06,-7.80874e-06,-5.95539e-06,0.685074,0.000986362,0.0105935,-0.000100419,-0.000889334,0.00033079,-0.000100419,-0.000889334,0.00033079,-0.745627,0.735385,-0.019679,0.810781,0.209266,0.666387,0.180078,1
1.70622,-1.00083,-1.82171,-1.03975,1.96032,1.18459,-0.89534,1.70622,-1.00083,-1.82171,-1.03975,1.96032,1.18459,-0.89534,1.78128,-1.07407,-1.82001,-1.12078,1.93739,1.11721,-0.916319,0,-2.39771e-05,0,-3.59547e-05,-1.91642e-05,-5.99317e-05,-3.59547e-05,0,-2.39771e-05,0,-3.59547e-05,-1.91642e-05,-5.99317e-05,-3.59547e-05,0.537789,-0.456348,0.69521,0.572405,0.180597,0.151494,0.785358,1.41269e-05,5.09706e-06,-2.54281e-05,0.685071,0.000982153,0.0105901,-0.00028083,-0.000413178,-0.000333486,-0.00028083,-0.000413178,-0.000333486,-0.750671,0.732452,-0.0170002,0.810319,0.229312,0.67388,0.209786,1
1.70582,-1.00111,-1.82191,-1.0398,1.962,1.18527,-0.892382,1.70582,-1.00111,-1.82191,-1.0398,1.962,1.18527,-0.892382,1.78128,-1.07407,-1.82001,-1.12078,1.93739,1.11721,-0.916318,-1.19776e-05,0,-2.39771e-05,2.39771e-05,1.91642e-05,-3.59547e-05,7.19094e-05,-1.19776e-05,0,-2.39771e-05,2.39771e-05,1.91642e-05,-3.59547e-05,7.19094e-05,0.537789,-0.456348,0.69521,0.572405,0.180597,0.151494,0.785358,-4.9515e-06,-2.28283e-05,-4.36558e-06,0.685073,0.000977494,0.0105982,0.000192546,-0.000470353,0.000824338,0.000192546,-0.000470353,0.000824338,-0.754605,0.729615,-0.0190205,0.80975,0.246105,0.680607,0.239362,1
1.70549,-1.00118,-1.81921,-1.03985,1.96353,1.18573,-0.889363,1.70549,-1.00118,-1.81921,-1.03985,1.96353,1.18573,-0.889363,1.78128,-1.07407,-1.82001,-1.12078,1.93739,1.11721,-0.916319,-1.19776e-05,0,-2.39771e-05,0,1.91642e-05,2.39771e-05,0,-1.19776e-05,0,-2.39771e-05,0,1.91642e-05,2.39771e-05,0,0.537789,-0.456348,0.69521,0.572405,0.180597,0.151494,0.785358,-7.55405e-06,-1.16563e-05,-6.89578e-06,0.685062,0.000981341,0.0106014,-0.00107702,0.00036781,0.000302021,-0.00107702,0.00036781,0.000302021,-0.757994,0.72895,0.00793952,0.809262,0.261365,0.685197,0.269553,1
1.70519,-1.00118,-1.81603,-1.03992,1.96493,1.18612,-0.886751,1.70519,-1.00118,-1.81603,-1.03992,1.96493,1.18612,-0.886751,1.78128,-1.07407,-1.82001,-1.12078,1.93739,1.11721,-0.916319,-2.39541e-05,-1.1977e-05,0,1.19989e-05,-1.91633e-05,2.39759e-05,-3.5953e-05,-2.39541e-05,-1.1977e-05,0,1.19989e-05,-1.91633e-05,2.39759e-05,-3.5953e-05,0.537789,-0.456348,0.69521,0.572405,0.180597,0.151494,0.785358,-1.39778e-05,-1.71126e-05,-2.9252e-06,0.685068,0.000993676,0.0105927,0.00064776,0.00130151,-0.000911895,0.00064776,0.00130151,-0.000911895,-0.760965,0.728935,0.03981,0.80861,0.27535,0.689117,0.295677,1
1.70496,-1.0012,-1.81324,-1.03998,1.96616,1.18651,-0.884388,1.70496,-1.0012,-1.81324,-1.03998,1.96616,1.18651,-0.884388,1.78128,-1.07407,-1.82001,-1.12078,1.93739,1.11721,-0.916319,0,-1.1977e-05,0,1.1977e-05,0,0,-3.5953e-05,0,-1.1977e-05,0,1.1977e-05,0,0,-3.5953e-05,0.537789,-0.456348,0.69521,0.572405,0.180597,0.151494,0.785358,-1.09925e-06,-7.8859e-06,-3.80123e-06,0.685066,0.000996925,0.0105944,-0.000161715,0.000314812,0.000155939,-0.000161715,0.000314812,0.000155939,-0.763266,0.728723,0.0676588,0.808006,0.287735,0.69303,0.319307,1
1.70483,-1.00132,-1.81117,-1.04,1.96741,1.18694,-0.882093,1.70483,-1.00132,-1.81117,-1.04,1.96741,1.18694,-0.882093,1.78128,-1.07407,-1.82001,-1.12078,1.93739,1.11721,-0.916319,-2.39759e-05,1.1977e-05,0,2.39759e-05,-1.91633e-05,9.58818e-05,0,-2.39759e-05,1.1977e-05,0,2.39759e-05,-1.91633e-05,9.58818e-05,0,0.537789,-0.456348,0.69521,0.572405,0.180597,0.151494,0.785358,-2.5006e-05,-1.1094e-05,1.70257e-05,0.685061,0.00099015,0.0105954,-0.000544517,-0.000687736,0.000108903,-0.000544517,-0.000687736,0.000108903,-0.764523,0.727517,0.0883477,0.807792,0.300154,0.697289,0.342252,1
1.70479,-1.0015,-1.80874,-1.04004,1.96848,1.18738,-0.880326,1.70479,-1.0015,-1.80874,-1.04004,1.96848,1.18738,-0.880326,1.78128,-1.07407,-1.82001,-1.12078,1.93739,1.11721,-0.916319,0,0,0,-2.39541e-05,1.91633e-05,5.99289e-05,3.5953e-05,0,0,0,-2.39541e-05,1.91633e-05,5.99289e-05,3.5953e-05,0.537789,-0.456348,0.69521,0.572405,0.180597,0.151494,0.785358,-3.24034e-06,9.12697e-06,-2.12727e-06,0.685061,0.000984835,0.0105941,4.1481e-05,-0.000528431,-0.000130369,4.1481e-05,-0.000528431,-0.000130369,-0.764907,0.725741,0.1127,0.807421,0.310923,0.701768,0.359923,1
1.70477,-1.00169,-1.80559,-1.04009,1.96944,1.18786,-0.878702,1.70477,-1.00169,-1.80559,-1.04009,1.96944,1.18786,-0.878702,1.78128,-1.07407,-1.82001,-1.12078,1.93739,1.11721,-0.916319,-3.5953e-05,-1.1977e-05,0,1.19989e-05,-5.75247e-05,0,-2.39759e-05,-3.5953e-05,-1.1977e-05,0,1.19989e-05,-5.75247e-05,0,-2.39759e-05,0.537789,-0.456348,0.69521,0.572405,0.180597,0.151494,0.785358,-1.56661e-05,-2.02305e-05,-4.99e-06,0.685066,0.000980637,0.0106012,0.000514631,-0.000426332,0.000714428,0.000514631,-0.000426332,0.000714428,-0.765166,0.723877,0.144223,0.806927,0.320546,0.706519,0.376169,1
1.70474,-1.00208,-1.80371,-1.04013,1.97085,1.18837,-0.877246,1.70474,-1.00208,-1.80371,-1.04013,1.97085,1.18837,-0.877246,1.78128,-1.07407,-1.82001,-1.12078,1.93739,1.11721,-0.916319,-1.1977e-05,0,0,0,0,3.5953e-05,0,-1.1977e-05,0,0,0,0,3.5953e-05,0,0.537788,-0.456348,0.69521,0.572405,0.180597,0.151494,0.785358,-9.29136e-06,-4.5906e-06,1.9023e-06,0.685067,0.000984146,0.0106025,5.47728e-05,0.000358258,0.000133889,5.47728e-05,0.000358258,0.000133889,-0.765414,0.71993,0.162975,0.806463,0.334606,0.711642,0.390727,1
1.70467,-1.00254,-1.80176,-1.04019,1.97153,1.18886,-0.876079,1.70467,-1.00254,-1.80176,-1.04019,1.97153,1.18886,-0.876079,1.78128,-1.07407,-1.82001,-1.12078,1.93739,1.11721,-0.916319,3.5953e-05,0,0,1.1977e-05,0,-2.39759e-05,0,3.5953e-05,0,0,1.1977e-05,0,-2.39759e-05,0,0.537789,-0.456348,0.69521,0.572405,0.180597,0.151494,0.785358,1.71369e-05,1.31293e-05,1.57936e-06,0.685064,0.000983771,0.010603,-0.00030473,-3.76477e-05,5.37758e-05,-0.00030473,-3.76477e-05,5.37758e-05,-0.766164,0.715289,0.182518,0.805921,0.341386,0.716566,0.402391,1
1.70465,-1.00297,-1.79957,-1.04026,1.97214,1.18933,-0.875192,1.70465,-1.00297,-1.79957,-1.04026,1.97214,1.18933,-0.875192,1.78128,-1.07407,-1.82001,-1.12078,1.93739,1.11721,-0.916319,-3.5953e-05,0,0,0,-1.91633e-05,-2.39759e-05,-2.39759e-05,-3.5953e-05,0,0,0,-1.91633e-05,-2.39759e-05,-2.39759e-05,0.537789,-0.456348,0.69521,0.572405,0.180597,0.151494,0.785358,-1.32956e-05,-1.74529e-05,-1.66633e-06,0.685065,0.00098805,0.0106006,8.30484e-05,0.000425936,-0.000237281,8.30484e-05,0.000425936,-0.000237281,-0.766384,0.710999,0.204347,0.8052,0.347493,0.721223,0.411267,1
1.70467,-1.00337,-1.79726,-1.04035,1.97268,1.18977,-0.874538,1.70467,-1.00337,-1.79726,-1.04035,1.97268,1.18977,-0.874538,1.78128,-1.07407,-1.82001,-1.12078,1.93739,1.11721,-0.916319,3.5953e-05,0,0,0,1.91633e-05,2.39759e-05,0,3.5953e-05,0,0,0,1.91633e-05,2.39759e-05,0,0.537789,-0.456348,0.69521,0.572405,0.180597,0.151494,0.785358,1.32956e-05,1.74529e-05,1.66633e-06,0.685078,0.000975051,0.0105936,0.00133306,-0.00126404,-0.000678124,0.00133306,-0.00126404,-0.000678124,-0.766108,0.707033,0.227487,0.804311,0.352929,0.725655,0.417803,1
1.70472,-1.00378,-1.79519,-1.04044,1.97315,1.19019,-0.873958,1.70472,-1.00378,-1.79519,-1.04044,1.97315,1.19019,-0.873958,1.78128,-1.07407,-1.82001,-1.12078,1.93739,1.11721,-0.916319,-1.1977e-05,2.39541e-05,0,1.19989e-05,-3.83615e-05,2.39759e-05,0,-1.1977e-05,2.39541e-05,0,1.19989e-05,-3.83615e-05,2.39759e-05,0,0.537789,-0.456348,0.69521,0.572405,0.180597,0.151494,0.785358,-1.01645e-05,1.87824e-06,1.66238e-05,0.685072,0.000982337,0.0105964,-0.000670683,0.000719099,0.00027651,-0.000670683,0.000719099,0.00027651,-0.765684,0.702916,0.248147,0.803373,0.357621,0.729834,0.423604,1
1.70476,-1.00416,-1.79353,-1.04054,1.97375,1.19057,-0.87321,1.70476,-1.00416,-1.79353,-1.04054,1.97375,1.19057,-0.87321,1.78128,-1.07407,-1.82001,-1.12078,1.93739,1.11721,-0.916319,-2.39541e-05,0,0,-4.79518e-05,1.91633e-05,0,0,-2.39541e-05,0,0,-4.79518e-05,1.91633e-05,0,0,0.537789,-0.456348,0.69521,0.572405,0.180597,0.151494,0.785358,-4.12498e-06,2.82416e-06,-1.10044e-05,0.685069,0.000975917,0.0105941,-0.000295999,-0.000664124,-0.000246666,-0.000295999,-0.000664124,-0.000246666,-0.765237,0.699155,0.264732,0.802366,0.363592,0.733644,0.431088,1
1.70482,-1.00454,-1.79212,-1.04065,1.97431,1.19093,-0.872461,1.70482,-1.00454,-1.79212,-1.04065,1.97431,1.19093,-0.872461,1.78128,-1.07407,-1.82001,-1.12078,1.93739,1.11721,-0.916319,0,0,-2.39759e-05,-2.39759e-05,-3.83266e-05,-2.39759e-05,2.39541e-05,0,0,-2.39759e-05,-2.39759e-05,-3.83266e-05,-2.39759e-05,2.39541e-05,0.537789,-0.456348,0.69521,0.572405,0.180597,0.151494,0.785358,8.65107e-06,7.1042e-06,-1.63273e-05,0.68507,0.00098635,0.0105956,0.000118917,0.00104073,0.000148647,0.000118917,0.00104073,0.000148647,-0.764661,0.695374,0.278901,0.801313,0.369163,0.737247,0.438576,1
1.70491,-1.00493,-1.79095,-1.04074,1.97456,1.19127,-0.871662,1.70491,-1.00493,-1.79095,-1.04074,1.97456,1.19127,-0.871662,1.78128,-1.07407,-1.82001,-1.12078,1.93739,1.11721,-0.916319,-5.99289e-05,0,2.39759e-05,0,0,-5.99289e-05,-3.5953e-05,-5.99289e-05,0,2.39759e-05,0,0,-5.99289e-05,-3.5953e-05,0.537789,-0.456348,0.69521,0.572405,0.180597,0.151494,0.785358,-2.22104e-05,-2.88417e-05,5.39123e-06,0.685076,0.000987179,0.0106006,0.000650452,8.29732e-05,0.000507233,0.000650452,8.29732e-05,0.000507233,-0.763728,0.691484,0.290532,0.800361,0.371732,0.740647,0.446564,1
1.70504,-1.00536,-1.79003,-1.04084,1.97459,1.19161,-0.870914,1.70504,-1.00536,-1.79003,-1.04084,1.97459,1.19161,-0.870914,1.78128,-1.07407,-1.82001,-1.12078,1.93739,1.11721,-0.916319,-4.79323e-05,1.19776e-05,0,0,1.91642e-05,2.39771e-05,0,-4.79323e-05,1.19776e-05,0,0,1.91642e-05,2.39771e-05,0,0.537789,-0.456348,0.69521,0.572405,0.180597,0.151494,0.785358,-2.58951e-05,-2.19975e-05,8.3155e-06,0.685076,0.000978322,0.0105898,-5.30402e-05,-0.000875751,-0.0010667,-5.30402e-05,-0.000875751,-0.0010667,-0.76244,0.687158,0.299791,0.799394,0.371986,0.744048,0.454046,1
1.70519,-1.00577,-1.78916,-1.04095,1.97467,1.19193,-0.870286,1.70519,-1.00577,-1.78916,-1.04095,1.97467,1.19193,-0.870286,1.78128,-1.07407,-1.82001,-1.12078,1.93739,1.11721,-0.916319,-1.19776e-05,0,0,-1.19994e-05,-1.91642e-05,0,3.59547e-05,-1.19776e-05,0,0,-1.19994e-05,-1.91642e-05,0,3.59547e-05,0.537789,-0.456348,0.69521,0.572405,0.180597,0.151494,0.785358,-2.97953e-06,1.82968e-07,-3.25088e-06,0.685075,0.000988213,0.0106032,-0.000139723,0.0010081,0.00136078,-0.000139723,0.0010081,0.00136078,-0.760935,0.683084,0.308492,0.798324,0.372822,0.7472,0.46033,1
1.70536,-1.00619,-1.78835,-1.04106,1.97471,1.19223,-0.869724,1.70536,-1.00619,-1.78835,-1.04106,1.97471,1.19223,-0.869724,1.78128,-1.07407,-1.82001,-1.12078,1.93739,1.11721,-0.916319,2.39771e-05,-1.19776e-05,0,-3.59547e-05,3.83284e-05,-2.39771e-05,0,2.39771e-05,-1.19776e-05,0,-3.59547e-05,3.83284e-05,-2.39771e-05,0,0.537789,-0.456348,0.69521,0.572405,0.180597,0.151494,0.785358,1.86294e-05,1.64545e-05,-1.56713e-05,0.685072,0.000989901,0.0105877,-0.000302128,0.000167783,-0.00153434,-0.000302128,0.000167783,-0.00153434,-0.759286,0.678883,0.316543,0.797202,0.373204,0.750231,0.465951,1
1.70554,-1.00662,-1.78765,-1.04118,1.97472,1.19254,-0.869175,1.70554,-1.00662,-1.78765,-1.04118,1.97472,1.19254,-0.869175,1.78128,-1.07407,-1.82001,-1.12078,1.93739,1.11721,-0.916319,2.39771e-05,0,0,-3.59547e-05,0,0,0,2.39771e-05,0,0,-3.59547e-05,0,0,0,0.537789,-0.456348,0.69521,0.572405,0.180597,0.151494,0.785358,1.6591e-05,2.51678e-05,-8.54903e-06,0.68508,0.000988168,0.010597,0.000861224,-0.000172709,0.000926558,0.000861224,-0.000172709,0.000926558,-0.757441,0.674495,0.323564,0.795993,0.373254,0.753388,0.471439,1
1.70574,-1.00708,-1.78701,-1.04131,1.97467,1.19285,-0.86868,1.70574,-1.00708,-1.78701,-1.04131,1.97467,1.19285,-0.86868,1.78128,-1.07407,-1.82001,-1.12078,1.93739,1.11721,-0.916319,0,1.19776e-05,0,-1.19776e-05,0,0,0,0,1.19776e-05,0,-1.19776e-05,0,0,0,0.537789,-0.456348,0.69521,0.572405,0.180597,0.151494,0.785358,1.09925e-06,7.8859e-06,3.80122e-06,0.685079,0.0009739,0.0105917,-0.000132291,-0.00143944,-0.000541192,-0.000132291,-0.00143944,-0.000541192,-0.755439,0.66992,0.33,0.794728,0.37284,0.756457,0.476386,1
1.70594,-1.00756,-1.78644,-1.04144,1.97462,1.19314,-0.868248,1.70594,-1.00756,-1.78644,-1.04144,1.97462,1.19314,-0.868248,1.78128,-1.07407,-1.82001,-1.12078,1.93739,1.11721,-0.916319,3.59547e-05,0,0,-3.59547e-05,-5.75275e-05,2.39771e-05,-3.59547e-05,3.59547e-05,0,0,-3.59547e-05,-5.75275e-05,2.39771e-05,-3.59547e-05,0.537789,-0.456348,0.69521,0.572405,0.180597,0.151494,0.785358,2.14435e-05,3.84681e-05,-8.47442e-06,0.685079,0.000978289,0.0105956,-2.98445e-05,0.000439588,0.000387978,-2.98445e-05,0.000439588,0.000387978,-0.753493,0.665113,0.335723,0.793411,0.372273,0.759336,0.480709,1
1.70625,-1.00809,-1.78645,-1.04155,1.97445,1.19343,-0.867921,1.70625,-1.00809,-1.78645,-1.04155,1.97445,1.19343,-0.867921,1.78128,-1.07407,-1.82001,-1.12078,1.93739,1.11721,-0.916319,-4.79323e-05,-2.39552e-05,0,-1.19776e-05,3.83284e-05,0,0,-4.79323e-05,-2.39552e-05,0,-1.19776e-05,3.83284e-05,0,0,0.537789,-0.456348,0.69521,0.572405,0.180597,0.151494,0.785358,-1.98151e-05,-3.15906e-05,-1.53508e-05,0.685074,0.000977742,0.0105838,-0.000499986,-5.46511e-05,-0.00117259,-0.000499986,-5.46511e-05,-0.00117259,-0.750382,0.659827,0.335576,0.79233,0.370606,0.762227,0.483978,1
1.7066,-1.00862,-1.78677,-1.04165,1.97423,1.1937,-0.867649,1.7066,-1.00862,-1.78677,-1.04165,1.97423,1.1937,-0.867649,1.78128,-1.07407,-1.82001,-1.12078,1.93739,1.11721,-0.916319,0,0,0,-1.19776e-05,0,-2.39552e-05,-3.59547e-05,0,0,0,-1.19776e-05,0,-2.39552e-05,-3.59547e-05,0.537789,-0.456348,0.69521,0.572405,0.180597,0.151494,0.785358,4.40403e-06,3.24797e-06,-4.11538e-06,0.685077,0.000976627,0.0105861,0.000330388,-0.000110367,0.000230092,0.000330388,-0.000110367,0.000230092,-0.746884,0.654513,0.332353,0.791333,0.368439,0.764958,0.486696,1
1.707,-1.00927,-1.78747,-1.04174,1.974,1.19395,-0.86752,1.707,-1.00927,-1.78747,-1.04174,1.974,1.19395,-0.86752,1.78128,-1.07407,-1.82001,-1.12078,1.93739,1.11721,-0.916319,0,2.39552e-05,0,-2.39552e-05,-1.91642e-05,4.79323e-05,0,0,2.39552e-05,0,-2.39552e-05,-1.91642e-05,4.79323e-05,0,0.537789,-0.456348,0.69521,0.572405,0.180597,0.151494,0.785358,-2.24027e-06,1.98839e-05,9.74071e-06,0.685077,0.000984086,0.0105907,1.78108e-05,0.000742953,0.000457145,1.78108e-05,0.000742953,0.000457145,-0.742805,0.64804,0.325413,0.790438,0.366091,0.767482,0.487985,1
1.70749,-1.01012,-1.78896,-1.04183,1.97403,1.19417,-0.867432,1.70749,-1.01012,-1.78896,-1.04183,1.97403,1.19417,-0.867432,1.78128,-1.07407,-1.82001,-1.12078,1.93739,1.11721,-0.916319,2.39552e-05,1.19776e-05,-2.39771e-05,2.39552e-05,0,-4.79323e-05,3.59547e-05,2.39552e-05,1.19776e-05,-2.39771e-05,2.39552e-05,0,-4.79323e-05,3.59547e-05,0.537789,-0.456348,0.69521,0.572405,0.180597,0.151494,0.785358,1.26424e-05,7.40179e-07,1.24695e-06,0.685073,0.000989033,0.0105937,-0.000455255,0.000497198,0.00029951,-0.000455255,0.000497198,0.00029951,-0.737987,0.639503,0.310434,0.789453,0.366361,0.76964,0.488869,1
1.70801,-1.01104,-1.79044,-1.04194,1.97425,1.19438,-0.867374,1.70801,-1.01104,-1.79044,-1.04194,1.97425,1.19438,-0.867374,1.78128,-1.07407,-1.82001,-1.12078,1.93739,1.11721,-0.916319,-2.39552e-05,0,0,3.59547e-05,3.83284e-05,2.39552e-05,0,-2.39552e-05,0,0,3.59547e-05,3.83284e-05,2.39552e-05,0,0.537789,-0.456348,0.69521,0.572405,0.180597,0.151494,0.785358,-2.03852e-05,-2.81941e-05,1.0612e-05,0.685073,0.000983152,0.0105924,5.37249e-05,-0.000589015,-0.000131327,5.37249e-05,-0.000589015,-0.000131327,-0.732771,0.630351,0.295663,0.788365,0.368636,0.77173,0.489451,1
1.70857,-1.01203,-1.79205,-1.04206,1.97443,1.19458,-0.867353,1.70857,-1.01203,-1.79205,-1.04206,1.97443,1.19458,-0.867353,1.78128,-1.07407,-1.82001,-1.12078,1.93739,1.11721,-0.916319,-1.19776e-05,0,0,0,0,-2.39771e-05,-3.59547e-05,-1.19776e-05,0,0,0,0,-2.39771e-05,-3.59547e-05,0.537789,-0.456348,0.69521,0.572405,0.180597,0.151494,0.785358,-2.94819e-06,-7.18491e-06,-1.26858e-06,0.685078,0.000976396,0.0105945,0.00047933,-0.000679137,0.000215699,0.00047933,-0.000679137,0.000215699,-0.727186,0.620448,0.27959,0.787216,0.370431,0.773746,0.489663,1
1.70913,-1.01316,-1.79298,-1.04219,1.97485,1.19475,-0.867804,1.70913,-1.01316,-1.79298,-1.04219,1.97485,1.19475,-0.867804,1.78128,-1.07407,-1.82001,-1.12078,1.93739,1.11721,-0.916319,-2.39759e-05,0,0,0,0,-3.5953e-05,0,-2.39759e-05,0,0,0,0,-3.5953e-05,0,0.537789,-0.456348,0.69521,0.572405,0.180597,0.151494,0.785358,-7.17639e-06,-1.38616e-05,-1.9023e-06,0.685075,0.000974611,0.0105954,-0.000284253,-0.00017376,8.70161e-05,-0.000284253,-0.00017376,8.70161e-05,-0.721538,0.609179,0.270245,0.785939,0.374547,0.775464,0.485153,1
1.70975,-1.01455,-1.79418,-1.04234,1.97583,1.1949,-0.868799,1.70975,-1.01455,-1.79418,-1.04234,1.97583,1.1949,-0.868799,1.78128,-1.07407,-1.82001,-1.12078,1.93739,1.11721,-0.916319,-1.1977e-05,0,0,3.5953e-05,0,0,2.39759e-05,-1.1977e-05,0,0,3.5953e-05,0,0,2.39759e-05,0.537789,-0.456348,0.69521,0.572405,0.180597,0.151494,0.785358,-1.10951e-05,-1.90096e-05,8.54904e-06,0.68507,0.00098868,0.010593,-0.000499219,0.00140283,-0.000237723,-0.000499219,0.00140283,-0.000237723,-0.715327,0.59519,0.258248,0.784439,0.38436,0.776957,0.4752,1
1.71039,-1.01688,-1.79395,-1.04253,1.97568,1.19498,-0.869677,1.71039,-1.01688,-1.79395,-1.04253,1.97568,1.19498,-0.869677,1.78128,-1.07407,-1.82001,-1.12078,1.93739,1.11721,-0.916319,0,0,0,1.1977e-05,-1.91633e-05,0,0,0,0,0,1.1977e-05,-1.91633e-05,0,0,0.537788,-0.456348,0.69521,0.572405,0.180597,0.151494,0.785358,-1.23423e-06,-2.24772e-06,2.4502e-06,0.685074,0.000995492,0.0105935,0.000361383,0.000625746,3.83284e-05,0.000361383,0.000625746,3.83284e-05,-0.708932,0.571893,0.260619,0.782517,0.38294,0.777717,0.46642,1
1.71103,-1.01958,-1.79376,-1.04274,1.97545,1.19504,-0.870631,1.71103,-1.01958,-1.79376,-1.04274,1.97545,1.19504,-0.870631,1.78128,-1.07407,-1.82001,-1.12078,1.93739,1.11721,-0.916319,2.39759e-05,1.1977e-05,2.39759e-05,2.39541e-05,1.91633e-05,-2.39759e-05,-3.5953e-05,2.39759e-05,1.1977e-05,2.39759e-05,2.39541e-05,1.91633e-05,-2.39759e-05,-3.5953e-05,0.537789,-0.456348,0.69521,0.572405,0.180597,0.151494,0.785358,7.27464e-06,8.77114e-06,2.00363e-05,0.685074,0.000980267,0.0105885,2.59799e-05,-0.00165899,-0.000539083,2.59799e-05,-0.00165899,-0.000539083,-0.702493,0.544904,0.262523,0.780436,0.380638,0.778296,0.456875,1
1.71166,-1.02265,-1.79358,-1.04295,1.97523,1.19508,-0.871654,1.71166,-1.02265,-1.79358,-1.04295,1.97523,1.19508,-0.871654,1.78128,-1.07407,-1.82001,-1.12078,1.93739,1.11721,-0.916319,0,1.19776e-05,0,2.39771e-05,0,2.39771e-05,0,0,1.19776e-05,0,2.39771e-05,0,2.39771e-05,0,0.537789,-0.456348,0.69521,0.572405,0.180597,0.151494,0.785358,1.06616e-05,5.79306e-06,-1.07657e-05,0.685079,0.000990461,0.0105836,0.000349826,0.000766996,-0.000367766,0.000349826,0.000766996,-0.000367766,-0.696272,0.514256,0.264269,0.778267,0.37842,0.778751,0.44665,1
1.71229,-1.02629,-1.7934,-1.04317,1.97515,1.19512,-0.872723,1.71229,-1.02629,-1.7934,-1.04317,1.97515,1.19512,-0.872723,1.78128,-1.07407,-1.82001,-1.12078,1.93739,1.11721,-0.916319,-3.59547e-05,1.19776e-05,0,-1.19994e-05,3.83284e-05,0,0,-3.59547e-05,1.19776e-05,0,-1.19994e-05,3.83284e-05,0,0,0.537789,-0.456348,0.69521,0.572405,0.180597,0.151494,0.785358,4.24862e-05,4.71654e-05,-1.68645e-05,0.685077,0.000980413,0.0105863,-0.000273453,-0.00170724,0.000445627,-0.000273453,-0.00170724,0.000445627,-0.689977,0.477813,0.266093,0.776065,0.37756,0.779152,0.435959,1
1.71298,-1.03077,-1.79348,-1.04336,1.97529,1.19519,-0.873736,1.71298,-1.03077,-1.79348,-1.04336,1.97529,1.19519,-0.873736,1.78128,-1.07407,-1.82001,-1.12078,1.93739,1.11721,-0.916319,0,0,0,0,0,0,0,0,0,0,0,0,0,0,0.537789,-0.456348,0.69521,0.572405,0.180597,0.151494,0.785358,9.07847e-06,1.53803e-05,8.70837e-07,0.685078,0.000973671,0.0105951,6.47361e-05,-0.000665729,0.00087688,6.47361e-05,-0.000665729,0.00087688,-0.682998,0.433085,0.265322,0.774196,0.379037,0.779848,0.425829,1
1.71377,-1.03632,-1.79385,-1.04356,1.97541,1.19527,-0.874852,1.71377,-1.03632,-1.79385,-1.04356,1.97541,1.19527,-0.874852,1.78128,-1.07407,-1.82001,-1.12078,1.93739,1.11721,-0.916319,2.39771e-05,-1.19776e-05,0,2.39552e-05,0,2.39771e-05,3.59547e-05,2.39771e-05,-1.19776e-05,0,2.39552e-05,0,2.39771e-05,3.59547e-05,0.537789,-0.456348,0.69521,0.572405,0.180597,0.151494,0.785358,-9.54675e-06,-2.12368e-05,-5.06462e-06,0.685074,0.000983427,0.0105932,-0.000380718,0.00103866,-0.000209395,-0.000380718,0.00103866,-0.000209395,-0.675177,0.37755,0.26163,0.772238,0.380236,0.780627,0.414669,1
1.71464,-1.0433,-1.79435,-1.04375,1.97541,1.19534,-0.87592,1.71464,-1.0433,-1.79435,-1.04375,1.97541,1.19534,-0.87592,1.78128,-1.07407,-1.82001,-1.12078,1.93739,1.11721,-0.916319,-2.39759e-05,2.39541e-05,0,-3.5953e-05,0,0,0,-2.39759e-05,2.39541e-05,0,-3.5953e-05,0,0,0,0.537789,-0.456348,0.69521,0.572405,0.180597,0.151494,0.785358,-6.91131e-06,7.75935e-06,4.74931e-06,0.685071,0.000969713,0.0105888,-0.0002828,-0.00122767,-0.000394852,-0.0002828,-0.00122767,-0.000394852,-0.666424,0.307756,0.256595,0.770264,0.380147,0.781359,0.403991,1
1.7156,-1.05215,-1.79485,-1.04397,1.97543,1.19541,-0.877056,1.7156,-1.05215,-1.79485,-1.04397,1.97543,1.19541,-0.877056,1.78128,-1.07407,-1.82001,-1.12078,1.93739,1.11721,-0.916319,-2.39759e-05,0,0,2.39759e-05,3.83266e-05,-2.39759e-05,3.5953e-05,-2.39759e-05,0,0,2.39759e-05,3.83266e-05,-2.39759e-05,3.5953e-05,0.537789,-0.456348,0.69521,0.572405,0.180597,0.151494,0.785358,-1.34535e-05,-2.59952e-05,5.228e-06,0.685068,0.000984287,0.010585,-0.000272424,0.00141718,-0.000365164,-0.000272424,0.00141718,-0.000365164,-0.656802,0.219279,0.251625,0.768123,0.380372,0.782055,0.392628,1
1.7166,-1.06344,-1.79535,-1.0442,1.97527,1.1955,-0.878236,1.7166,-1.06344,-1.79535,-1.0442,1.97527,1.1955,-0.878236,1.78128,-1.07407,-1.82001,-1.12078,1.93739,1.11721,-0.916319,0,1.19776e-05,0,-3.59547e-05,7.66917e-05,0,0,0,1.19776e-05,0,-3.59547e-05,7.66917e-05,0,0,0.537789,-0.456348,0.69521,0.572405,0.180597,0.151494,0.785358,-1.16153e-05,-5.15191e-06,7.4615e-08,0.685068,0.000984393,0.0105846,-6.53756e-06,1.16323e-05,-4.57629e-05,-6.53756e-06,1.16323e-05,-4.57629e-05,-0.646794,0.10635,0.246623,0.765764,0.378804,0.782945,0.380828,1
1.71763,-1.07755,-1.79612,-1.04444,1.9748,1.19559,-0.879429,1.71763,-1.07755,-1.79612,-1.04444,1.9748,1.19559,-0.879429,1.78128,-1.07407,-1.82001,-1.12078,1.93739,1.11721,-0.916319,-1.19776e-05,2.39771e-05,0,3.59547e-05,-3.83633e-05,-5.99317e-05,0,-1.19776e-05,2.39771e-05,0,3.59547e-05,-3.83633e-05,-5.99317e-05,0,0.537789,-0.456348,0.69521,0.572405,0.180597,0.151494,0.785358,-3.67162e-06,-4.08549e-06,-4.3484e-06,0.685077,0.000973732,0.0105916,0.000846256,-0.00108116,0.000707228,0.000846256,-0.00108116,0.000707228,-0.63651,-0.0347228,0.238881,0.763348,0.374065,0.783877,0.368896,1
1.71869,-1.08865,-1.79741,-1.04468,1.97476,1.19566,-0.880766,1.71869,-1.08865,-1.79741,-1.04468,1.97476,1.19566,-0.880766,1.78128,-1.07407,-1.82001,-1.12078,1.93739,1.11721,-0.916319,0,-2.39759e-05,0,1.19989e-05,5.75247e-05,-3.5953e-05,0,0,-2.39759e-05,0,1.19989e-05,5.75247e-05,-3.5953e-05,0,0.537789,-0.456348,0.69521,0.572405,0.180597,0.151494,0.785358,1.68687e-05,4.36254e-05,7.70458e-08,0.685068,0.000975318,0.0105922,-0.000823569,0.000161179,6.66122e-05,-0.000823569,0.000161179,6.66122e-05,-0.625935,-0.145783,0.225943,0.761026,0.373669,0.784535,0.35553,1
1.71983,-1.09722,-1.79895,-1.04491,1.97487,1.19571,-0.882263,1.71983,-1.09722,-1.79895,-1.04491,1.97487,1.19571,-0.882263,1.78128,-1.07407,-1.82001,-1.12078,1.93739,1.11721,-0.916319,-2.39759e-05,0,0,0,0,-2.39759e-05,0,-2.39759e-05,0,0,0,0,-2.39759e-05,0,0.537789,-0.456348,0.69521,0.572405,0.180597,0.151494,0.785358,-5.27733e-06,-1.3614e-06,1.90064e-05,0.685068,0.000979144,0.0105942,-3.03966e-05,0.00039021,0.000206697,-3.03966e-05,0.00039021,0.000206697,-0.61457,-0.231442,0.210551,0.758671,0.374842,0.785079,0.340556,1
1.72097,-1.10458,-1.80127,-1.04515,1.97466,1.19576,-0.88364,1.72097,-1.10458,-1.80127,-1.04515,1.97466,1.19576,-0.88364,1.78128,-1.07407,-1.82001,-1.12078,1.93739,1.11721,-0.916319,2.39771e-05,0,0,-5.99099e-05,0,0,-5.99317e-05,2.39771e-05,0,0,-5.99099e-05,0,0,-5.99317e-05,0.537789,-0.456348,0.69521,0.572405,0.180597,0.151494,0.785358,2.03283e-05,3.37377e-05,-1.42449e-05,0.685071,0.000980495,0.0105966,0.000306958,0.000136457,0.000240751,0.000306958,0.000136457,0.000240751,-0.60315,-0.305101,0.187408,0.756328,0.372685,0.785549,0.326784,1
1.7219,-1.11038,-1.80363,-1.04537,1.97396,1.19578,-0.885028,1.7219,-1.11038,-1.80363,-1.04537,1.97396,1.19578,-0.885028,1.78128,-1.07407,-1.82001,-1.12078,1.93739,1.11721,-0.916319,2.39759e-05,-1.1977e-05,0,1.1977e-05,3.83615e-05,0,0,2.39759e-05,-1.1977e-05,0,1.1977e-05,3.83615e-05,0,0,0.537789,-0.456348,0.69521,0.572405,0.180597,0.151494,0.785358,1.00838e-05,5.98337e-06,-8.87197e-06,0.685071,0.000982546,0.010587,-5.87003e-06,0.000201977,-0.000945075,-5.87003e-06,0.000201977,-0.000945075,-0.59386,-0.363032,0.163822,0.754121,0.365703,0.785767,0.312908,1
1.72287,-1.1153,-1.80651,-1.04559,1.97311,1.1958,-0.886347,1.72287,-1.1153,-1.80651,-1.04559,1.97311,1.1958,-0.886347,1.78128,-1.07407,-1.82001,-1.12078,1.93739,1.11721,-0.916319,1.19776e-05,1.19776e-05,0,3.59547e-05,-3.83633e-05,2.39771e-05,3.59547e-05,1.19776e-05,1.19776e-05,0,3.59547e-05,-3.83633e-05,2.39771e-05,3.59547e-05,0.537789,-0.456348,0.69521,0.572405,0.180597,0.151494,0.785358,-2.16048e-06,2.00139e-06,1.56706e-05,0.685073,0.00098144,0.0105916,0.000181113,-0.000101897,0.000422596,0.000181113,-0.000101897,0.000422596,-0.584111,-0.412257,0.134967,0.751874,0.357146,0.785963,0.299713,1
1.72397,-1.11956,-1.81004,-1.04583,1.97208,1.19582,-0.887684,1.72397,-1.11956,-1.81004,-1.04583,1.97208,1.19582,-0.887684,1.78128,-1.07407,-1.82001,-1.12078,1.93739,1.11721,-0.916319,1.19776e-05,0,0,0,-1.91642e-05,2.39771e-05,3.59547e-05,1.19776e-05,0,0,0,-1.91642e-05,2.39771e-05,3.59547e-05,0.537789,-0.456348,0.69521,0.572405,0.180597,0.151494,0.785358,3.58256e-06,9.22213e-06,8.70836e-07,0.685061,0.000978917,0.0105891,-0.00125202,-0.000254705,-0.000252812,-0.00125202,-0.000254705,-0.000252812,-0.573189,-0.454888,0.0997201,0.749535,0.3469,0.786157,0.286349,1
1.72521,-1.12359,-1.81429,-1.04607,1.97099,1.19584,-0.889512,1.72521,-1.12359,-1.81429,-1.04607,1.97099,1.19584,-0.889512,1.78128,-1.07407,-1.82001,-1.12078,1.93739,1.11721,-0.916319,0,1.19776e-05,0,1.19994e-05,0,0,3.59547e-05,0,1.19776e-05,0,1.19994e-05,0,0,3.59547e-05,0.537789,-0.456348,0.69521,0.572405,0.180597,0.151494,0.785358,-2.64137e-06,-6.91785e-07,9.50231e-06,0.685069,0.000982315,0.0105956,0.000800413,0.000337952,0.00064033,0.000800413,0.000337952,0.00064033,-0.560697,-0.495206,0.0571688,0.747107,0.336011,0.786315,0.268069,1
1.72669,-1.12725,-1.81962,-1.04632,1.96978,1.19584,-0.891146,1.72669,-1.12725,-1.81962,-1.04632,1.96978,1.19584,-0.891146,1.78128,-1.07407,-1.82001,-1.12078,1.93739,1.11721,-0.916319,-3.59547e-05,0,0,0,0,3.59547e-05,0,-3.59547e-05,0,0,0,0,3.59547e-05,0,0.537789,-0.456348,0.69521,0.572405,0.180597,0.151494,0.785358,-2.02732e-05,-1.68958e-05,1.9023e-06,0.685063,0.00097076,0.0106041,-0.000610741,-0.00117225,0.000864713,-0.000610741,-0.00117225,0.000864713,-0.545991,-0.531789,0.00388194,0.744552,0.323849,0.786384,0.251725,1
1.7286,-1.13071,-1.82623,-1.04657,1.96815,1.19584,-0.89211,1.7286,-1.13071,-1.82623,-1.04657,1.96815,1.19584,-0.89211,1.78128,-1.07407,-1.82001,-1.12078,1.93739,1.11721,-0.916319,1.19776e-05,-1.19776e-05,0,1.19994e-05,0,3.59547e-05,-2.39771e-05,1.19776e-05,-1.19776e-05,0,1.19994e-05,0,3.59547e-05,-2.39771e-05,0.537789,-0.456348,0.69521,0.572405,0.180597,0.151494,0.785358,5.77818e-07,-1.9031e-07,-1.89374e-06,0.685066,0.000978698,0.0105974,0.000363302,0.000793124,-0.000667046,0.000363302,0.000793124,-0.000667046,-0.526848,-0.566358,-0.0622019,0.742062,0.307568,0.786368,0.24209,1
1.73056,-1.13362,-1.83226,-1.04679,1.96584,1.19583,-0.892913,1.73056,-1.13362,-1.83226,-1.04679,1.96584,1.19583,-0.892913,1.78128,-1.07407,-1.82001,-1.12078,1.93739,1.11721,-0.916319,1.19776e-05,1.19994e-05,-2.39771e-05,0,0,-2.39771e-05,-5.99099e-05,1.19776e-05,1.19994e-05,-2.39771e-05,0,0,-2.39771e-05,-5.99099e-05,0.537789,-0.456348,0.69521,0.572405,0.180597,0.151494,0.785358,8.35686e-06,4.20659e-06,-3.16941e-06,0.685065,0.000984459,0.0105929,-0.000168236,0.00056076,-0.000435093,-0.000168236,0.00056076,-0.000435093,-0.507278,-0.595496,-0.122473,0.7399,0.284535,0.786214,0.234061,1
1.73279,-1.13607,-1.83688,-1.04706,1.96286,1.1958,-0.894674,1.73279,-1.13607,-1.83688,-1.04706,1.96286,1.1958,-0.894674,1.78128,-1.07407,-1.82001,-1.12078,1.93739,1.11721,-0.916319,4.79323e-05,1.19994e-05,-2.39771e-05,0,0,-4.79323e-05,3.59547e-05,4.79323e-05,1.19994e-05,-2.39771e-05,0,0,-4.79323e-05,3.59547e-05,0.537789,-0.456348,0.69521,0.572405,0.180597,0.151494,0.785358,2.736e-05,2.16218e-05,-4.43684e-06,0.685068,0.000979314,0.0105861,0.000345247,-0.000522887,-0.000696551,0.000345247,-0.000522887,-0.000696551,-0.484933,-0.619987,-0.168672,0.737219,0.254689,0.785979,0.216444,1
1.73524,-1.1383,-1.841,-1.04733,1.95957,1.19575,-0.896647,1.73524,-1.1383,-1.841,-1.04733,1.95957,1.19575,-0.896647,1.78128,-1.07407,-1.82001,-1.12078,1.93739,1.11721,-0.916319,1.19776e-05,0,0,2.39552e-05,0,4.79323e-05,2.39771e-05,1.19776e-05,0,0,2.39552e-05,0,4.79323e-05,2.39771e-05,0.537789,-0.456348,0.69521,0.572405,0.180597,0.151494,0.785358,-3.32445e-06,-3.47999e-07,8.23191e-06,0.685068,0.000982047,0.010604,-1.19654e-05,0.000274386,0.00180079,-1.19654e-05,0.000274386,0.00180079,-0.460428,-0.642256,-0.209952,0.734525,0.221765,0.785447,0.196718,1
1.73828,-1.1402,-1.84445,-1.0476,1.95655,1.19569,-0.898528,1.73828,-1.1402,-1.84445,-1.0476,1.95655,1.19569,-0.898528,1.78128,-1.07407,-1.82001,-1.12078,1.93739,1.11721,-0.916319,0,1.19776e-05,2.39771e-05,0,3.83284e-05,-5.99317e-05,3.59547e-05,0,1.19776e-05,2.39771e-05,0,3.83284e-05,-5.99317e-05,3.59547e-05,0.537789,-0.456348,0.69521,0.572405,0.180597,0.151494,0.785358,3.20108e-06,1.44222e-06,1.28359e-05,0.685068,0.000979532,0.0105883,5.78244e-06,-0.000243958,-0.00152656,5.78244e-06,-0.000243958,-0.00152656,-0.43006,-0.661262,-0.24441,0.73178,0.191617,0.784851,0.177905,1
1.74203,-1.14179,-1.84717,-1.04788,1.95429,1.19562,-0.900341,1.74203,-1.14179,-1.84717,-1.04788,1.95429,1.19562,-0.900341,1.78128,-1.07407,-1.82001,-1.12078,1.93739,1.11721,-0.916319,-1.1977e-05,0,0,-2.39541e-05,0,2.39759e-05,0,-1.1977e-05,0,0,-2.39541e-05,0,2.39759e-05,0,0.537789,-0.456348,0.69521,0.572405,0.180597,0.151494,0.785358,-4.28643e-06,3.4608e-06,-4.42732e-06,0.685073,0.000977532,0.0105953,0.000470732,-0.000199987,0.000703118,0.000470732,-0.000199987,0.000703118,-0.392556,-0.677171,-0.271594,0.728985,0.169014,0.78413,0.159778,1
1.74679,-1.1433,-1.84952,-1.04829,1.95257,1.1955,-0.902336,1.74679,-1.1433,-1.84952,-1.04829,1.95257,1.1955,-0.902336,1.78128,-1.07407,-1.82001,-1.12078,1.93739,1.11721,-0.916319,-1.1977e-05,-1.1977e-05,-2.39759e-05,-3.5953e-05,0,-8.3883e-05,-1.1977e-05,-1.1977e-05,-1.1977e-05,-2.39759e-05,-3.5953e-05,0,-8.3883e-05,-1.1977e-05,0.537789,-0.456348,0.69521,0.572405,0.180597,0.151494,0.785358,1.08752e-05,-5.02662e-06,-2.81986e-05,0.685073,0.000983238,0.0105995,7.27618e-05,0.000580424,0.000424444,7.27618e-05,0.000580424,0.000424444,-0.344942,-0.692219,-0.29511,0.724855,0.151807,0.782963,0.139832,1
1.75511,-1.1444,-1.85141,-1.04909,1.95044,1.19533,-0.903977,1.75511,-1.1444,-1.85141,-1.04909,1.95044,1.19533,-0.903977,1.78128,-1.07407,-1.82001,-1.12078,1.93739,1.11721,-0.916319,-1.1977e-05,0,-2.39759e-05,0,-3.83266e-05,0,0,-1.1977e-05,0,-2.39759e-05,0,-3.83266e-05,0,0,0.537789,-0.456348,0.69521,0.572405,0.180597,0.151494,0.785358,-3.11319e-06,-6.58257e-06,-9.35761e-06,0.685069,0.000981378,0.0105978,-0.000450975,-0.000187589,-0.000168364,-0.000450975,-0.000187589,-0.000168364,-0.261769,-0.703227,-0.314062,0.716871,0.130514,0.781222,0.123419,1
1.76588,-1.14539,-1.85321,-1.04996,1.94843,1.19515,-0.905651,1.76588,-1.14539,-1.85321,-1.04996,1.94843,1.19515,-0.905651,1.78128,-1.07407,-1.82001,-1.12078,1.93739,1.11721,-0.916319,-3.5953e-05,0,-2.39759e-05,1.19989e-05,1.91633e-05,-2.39759e-05,-3.5953e-05,-3.5953e-05,0,-2.39759e-05,1.19989e-05,1.91633e-05,-2.39759e-05,-3.5953e-05,0.537789,-0.456348,0.69521,0.572405,0.180597,0.151494,0.785358,-1.53324e-05,-3.03301e-05,-6.57981e-06,0.685072,0.000992337,0.0105903,0.00032613,0.00111039,-0.000760971,0.00032613,0.00111039,-0.000760971,-0.15409,-0.713166,-0.332033,0.708169,0.110362,0.779411,0.106679,1
1.77817,-1.14638,-1.85503,-1.05087,1.94585,1.19495,-0.907005,1.77817,-1.14638,-1.85503,-1.05087,1.94585,1.19495,-0.907005,1.78128,-1.07407,-1.82001,-1.12078,1.93739,1.11721,-0.916319,0,0,0,0,0,4.793e-05,3.5953e-05,0,0,0,0,0,4.793e-05,3.5953e-05,0.537789,-0.456348,0.69521,0.572405,0.180597,0.151494,0.785358,-5.07315e-06,2.07488e-06,2.53601e-06,0.685071,0.000981542,0.0105896,-0.000158795,-0.00106518,-6.46941e-05,-0.000158795,-0.00106518,-6.46941e-05,-0.0311647,-0.72311,-0.350229,0.699111,0.084547,0.777437,0.0931332,1
1.79074,-1.14731,-1.85653,-1.05197,1.94263,1.19476,-0.90837,1.79074,-1.14731,-1.85653,-1.05197,1.94263,1.19476,-0.90837,1.78128,-1.07407,-1.82001,-1.12078,1.93739,1.11721,-0.916319,1.1977e-05,1.19989e-05,0,-1.1977e-05,1.91633e-05,2.39759e-05,0,1.1977e-05,1.19989e-05,0,-1.1977e-05,1.91633e-05,2.39759e-05,0,0.537789,-0.456348,0.69521,0.572405,0.180597,0.151494,0.785358,3.41166e-06,1.30402e-05,5.47966e-06,0.685074,0.000988257,0.0105966,0.000372951,0.000677678,0.00069778,0.000372951,0.000677678,0.00069778,0.0945406,-0.732371,-0.365183,0.688088,0.0524438,0.775535,0.0794858,1
1.80119,-1.14808,-1.85719,-1.05312,1.94067,1.19455,-0.909987,1.80119,-1.14808,-1.85719,-1.05312,1.94067,1.19455,-0.909987,1.78128,-1.07407,-1.82001,-1.12078,1.93739,1.11721,-0.916319,0,1.19989e-05,-2.39759e-05,2.39541e-05,-1.91633e-05,-4.793e-05,3.5953e-05,0,1.19989e-05,-2.39759e-05,2.39541e-05,-1.91633e-05,-4.793e-05,3.5953e-05,0.537789,-0.456348,0.69521,0.572405,0.180597,0.151494,0.785358,2.30353e-06,-9.51004e-06,8.61312e-07,0.68507,0.000981426,0.0105945,-0.000417353,-0.000673583,-0.000199859,-0.000417353,-0.000673583,-0.000199859,0.199018,-0.740081,-0.371829,0.676571,0.0328024,0.773488,0.0633201,1
1.80804,-1.14876,-1.85738,-1.0542,1.93949,1.19423,-0.91256,1.80804,-1.14876,-1.85738,-1.0542,1.93949,1.19423,-0.91256,1.78128,-1.07407,-1.82001,-1.12078,1.93739,1.11721,-0.916319,0,1.19989e-05,0,-3.5953e-05,-1.91633e-05,0,3.5953e-05,0,1.19989e-05,0,-3.5953e-05,-1.91633e-05,0,3.5953e-05,0.537789,-0.456348,0.69521,0.572405,0.180597,0.151494,0.785358,5.47285e-06,1.85074e-05,-2.2855e-06,0.685071,0.000976968,0.0105876,0.000101424,-0.000446269,-0.000692068,0.000101424,-0.000446269,-0.000692068,0.267601,-0.746873,-0.373761,0.665785,0.0209958,0.770223,0.0375874,1
1.81214,-1.14936,-1.85741,-1.05515,1.93779,1.19385,-0.915137,1.81214,-1.14936,-1.85741,-1.05515,1.93779,1.19385,-0.915137,1.78128,-1.07407,-1.82001,-1.12078,1.93739,1.11721,-0.916319,-2.39759e-05,0,-2.39759e-05,5.99289e-05,0,-4.793e-05,3.5953e-05,-2.39759e-05,0,-2.39759e-05,5.99289e-05,0,-4.793e-05,3.5953e-05,0.537788,-0.456348,0.69521,0.572405,0.180597,0.151494,0.785358,-1.41546e-05,-4.03304e-05,3.152e-06,0.68507,0.000980573,0.0105901,-0.000101898,0.000362509,0.000251749,-0.000101898,0.000362509,0.000251749,0.308605,-0.752898,-0.374062,0.656249,0.0039569,0.76642,0.0118154,1
1.81533,-1.14995,-1.85758,-1.05614,1.93566,1.19342,-0.91757,1.81533,-1.14995,-1.85758,-1.05614,1.93566,1.19342,-0.91757,1.78128,-1.07407,-1.82001,-1.12078,1.93739,1.11721,-0.916319,0,0,0,0,3.83615e-05,0,2.39759e-05,0,0,0,0,3.83615e-05,0,2.39759e-05,0.537788,-0.456348,0.69521,0.572405,0.180597,0.151494,0.785358,-1.26991e-06,-4.07815e-06,7.96221e-07,0.685069,0.000994039,0.0105874,-8.75117e-05,0.00131807,-0.000268369,-8.75117e-05,0.00131807,-0.000268369,0.34041,-0.758738,-0.375749,0.646434,-0.0172951,0.762119,-0.0125137,1
1.81815,-1.15055,-1.85874,-1.05727,1.93394,1.19292,-0.92113,1.81815,-1.15055,-1.85874,-1.05727,1.93394,1.19292,-0.92113,1.78128,-1.07407,-1.82001,-1.12078,1.93739,1.11721,-0.916319,2.39759e-05,-2.39759e-05,0,1.19989e-05,1.91633e-05,-2.39541e-05,0,2.39759e-05,-2.39759e-05,0,1.19989e-05,1.91633e-05,-2.39541e-05,0,0.537788,-0.456348,0.69521,0.572405,0.180597,0.151494,0.785358,1.2551e-05,-2.27023e-06,-1.1327e-05,0.68507,0.000986381,0.0105902,4.9698e-05,-0.000798188,0.000291975,4.9698e-05,-0.000798188,0.000291975,0.368679,-0.764723,-0.387354,0.635071,-0.0344717,0.757147,-0.0481093,1
1.82079,-1.15112,-1.86005,-1.05855,1.93228,1.19237,-0.924704,1.82079,-1.15112,-1.86005,-1.05855,1.93228,1.19237,-0.924704,1.78128,-1.07407,-1.82001,-1.12078,1.93739,1.11721,-0.916319,2.39759e-05,0,0,1.19989e-05,0,-2.39759e-05,0,2.39759e-05,0,0,1.19989e-05,0,-2.39759e-05,0,0.537789,-0.456348,0.69521,0.572405,0.180597,0.151494,0.785358,1.16475e-05,6.97453e-06,1.58455e-06,0.685062,0.000990819,0.0105935,-0.000698866,0.000430068,0.000323442,-0.000698866,0.000430068,0.000323442,0.39502,-0.770479,-0.400385,0.622327,-0.0511366,0.751661,-0.0838503,1
1.82315,-1.15169,-1.86159,-1.05991,1.93082,1.19179,-0.928166,1.82315,-1.15169,-1.86159,-1.05991,1.93082,1.19179,-0.928166,1.78128,-1.07407,-1.82001,-1.12078,1.93739,1.11721,-0.916319,-1.1977e-05,-1.1977e-05,0,0,-1.91633e-05,2.39759e-05,0,-1.1977e-05,-1.1977e-05,0,0,-1.91633e-05,2.39759e-05,0,0.537789,-0.456348,0.69521,0.572405,0.180597,0.151494,0.785358,-6.61991e-06,-6.67282e-06,-5.77834e-06,0.685078,0.000983789,0.0105933,0.00158443,-0.000718695,-2.43759e-05,0.00158443,-0.000718695,-2.43759e-05,0.41864,-0.776159,-0.415837,0.60865,-0.0656927,0.745814,-0.118475,1
1.82537,-1.15216,-1.86368,-1.06128,1.92998,1.19123,-0.931198,1.82537,-1.15216,-1.86368,-1.06128,1.92998,1.19123,-0.931198,1.78128,-1.07407,-1.82001,-1.12078,1.93739,1.11721,-0.916319,0,-1.19994e-05,0,0,3.83284e-05,-2.39771e-05,3.59547e-05,0,-1.19994e-05,0,0,3.83284e-05,-2.39771e-05,3.59547e-05,0.537789,-0.456348,0.69521,0.572405,0.180597,0.151494,0.785358,2.03973e-06,-8.71987e-06,-7.13437e-06,0.685073,0.00098111,0.0105991,-0.000456921,-0.000263334,0.000568223,-0.000456921,-0.000263334,0.000568223,0.440817,-0.780883,-0.436687,0.594957,-0.0741483,0.740235,-0.148797,1
1.82689,-1.15236,-1.86458,-1.06314,1.92879,1.19076,-0.934282,1.82689,-1.15236,-1.86458,-1.06314,1.92879,1.19076,-0.934282,1.78128,-1.07407,-1.82001,-1.12078,1.93739,1.11721,-0.916319,-1.19776e-05,1.19776e-05,0,0,0,0,3.59547e-05,-1.19776e-05,1.19776e-05,0,0,0,0,3.59547e-05,0.537789,-0.456348,0.69521,0.572405,0.180597,0.151494,0.785358,-6.25527e-06,-2.54603e-06,6.64917e-06,0.685078,0.000976192,0.0105953,0.000491638,-0.000488676,-0.000379094,0.000491638,-0.000488676,-0.000379094,0.456011,-0.782873,-0.445671,0.57644,-0.0860087,0.73555,-0.179636,1
1.82776,-1.15255,-1.86528,-1.06475,1.92788,1.19031,-0.937556,1.82776,-1.15255,-1.86528,-1.06475,1.92788,1.19031,-0.937556,1.78128,-1.07407,-1.82001,-1.12078,1.93739,1.11721,-0.916319,-1.19776e-05,0,0,3.59547e-05,0,2.39771e-05,-3.59547e-05,-1.19776e-05,0,0,3.59547e-05,0,2.39771e-05,-3.59547e-05,0.537789,-0.456348,0.69521,0.572405,0.180597,0.151494,0.785358,-1.36329e-05,-1.79717e-05,9.81762e-06,0.685068,0.000974889,0.010592,-0.00103559,-0.000133979,-0.0003309,-0.00103559,-0.000133979,-0.0003309,0.46479,-0.784747,-0.45267,0.56034,-0.0950806,0.731018,-0.212374,1
1.82769,-1.15279,-1.86571,-1.06633,1.92437,1.18999,-0.940595,1.82769,-1.15279,-1.86571,-1.06633,1.92437,1.18999,-0.940595,1.78128,-1.07407,-1.82001,-1.12078,1.93739,1.11721,-0.916319,-2.39771e-05,0,-2.39771e-05,-2.39552e-05,0,0,0,-2.39771e-05,0,-2.39771e-05,-2.39552e-05,0,0,0,0.537789,-0.456348,0.69521,0.572405,0.180597,0.151494,0.785358,-6.14063e-06,-8.24532e-06,-1.4258e-05,0.685067,0.000984012,0.0105927,-0.000147745,0.00090453,7.09177e-05,-0.000147745,0.00090453,7.09177e-05,0.464057,-0.787208,-0.457067,0.544536,-0.130256,0.727842,-0.24276,1
1.82666,-1.15304,-1.86627,-1.06729,1.9222,1.18965,-0.943435,1.82666,-1.15304,-1.86627,-1.06729,1.9222,1.18965,-0.943435,1.78128,-1.07407,-1.82001,-1.12078,1.93739,1.11721,-0.916319,0,1.19776e-05,0,2.39771e-05,1.91642e-05,2.39771e-05,1.19776e-05,0,1.19776e-05,0,2.39771e-05,1.91642e-05,2.39771e-05,1.19776e-05,0.537788,-0.456348,0.69521,0.572405,0.180597,0.151494,0.785358,-7.68209e-06,-5.97602e-06,1.40166e-05,0.685064,0.000984964,0.0105876,-0.000233192,9.08353e-05,-0.000489135,-0.000233192,9.08353e-05,-0.000489135,0.453762,-0.789627,-0.462621,0.534847,-0.151949,0.724419,-0.271164,1
1.82518,-1.15326,-1.86616,-1.0686,1.92012,1.18924,-0.945812,1.82518,-1.15326,-1.86616,-1.0686,1.92012,1.18924,-0.945812,1.78128,-1.07407,-1.82001,-1.12078,1.93739,1.11721,-0.916319,0,1.19776e-05,0,2.39552e-05,0,5.99317e-05,3.59547e-05,0,1.19776e-05,0,2.39552e-05,0,5.99317e-05,3.59547e-05,0.537788,-0.456348,0.69521,0.572405,0.180597,0.151494,0.785358,-1.08497e-05,-2.3746e-06,1.5516e-05,0.685066,0.000984691,0.0105899,0.000186067,-2.74435e-05,0.000234084,0.000186067,-2.74435e-05,0.000234084,0.438994,-0.791852,-0.461541,0.521808,-0.172738,0.720365,-0.294932,1
1.82239,-1.15368,-1.86792,-1.07165,1.92033,1.18874,-0.947541,1.82239,-1.15368,-1.86792,-1.07165,1.92033,1.18874,-0.947541,1.78128,-1.07407,-1.82001,-1.12078,1.93739,1.11721,-0.916319,1.19776e-05,0,0,2.39552e-05,-1.91642e-05,-3.59547e-05,0,1.19776e-05,0,0,2.39552e-05,-1.91642e-05,-3.59547e-05,0,0.537788,-0.456348,0.69521,0.572405,0.180597,0.151494,0.785358,6.18852e-06,-1.94207e-06,3.39586e-06,0.685071,0.000986125,0.0105911,0.000476227,0.000141437,0.000117587,0.000476227,0.000141437,0.000117587,0.411017,-0.796038,-0.47913,0.491253,-0.170611,0.715361,-0.312226,1
1.81836,-1.15428,-1.87181,-1.07528,1.92057,1.18812,-0.949448,1.81836,-1.15428,-1.87181,-1.07528,1.92057,1.18812,-0.949448,1.78128,-1.07407,-1.82001,-1.12078,1.93739,1.11721,-0.916319,0,1.19994e-05,0,0,3.83633e-05,3.59547e-05,-3.59547e-05,0,1.19994e-05,0,0,3.83633e-05,3.59547e-05,-3.59547e-05,0.537788,-0.456348,0.69521,0.572405,0.180597,0.151494,0.785358,-5.84611e-06,1.08578e-06,9.3598e-06,0.685062,0.000967821,0.0105968,-0.000840244,-0.0018172,0.000562135,-0.000840244,-0.0018172,0.000562135,0.370757,-0.802047,-0.517986,0.454973,-0.168169,0.709117,-0.331296,1
1.81456,-1.15475,-1.87535,-1.07949,1.91988,1.18747,-0.951118,1.81456,-1.15475,-1.87535,-1.07949,1.91988,1.18747,-0.951118,1.78128,-1.07407,-1.82001,-1.12078,1.93739,1.11721,-0.916319,2.39771e-05,-1.19776e-05,0,0,-1.91642e-05,-3.59547e-05,0,2.39771e-05,-1.19776e-05,0,0,-1.91642e-05,-3.59547e-05,0,0.537789,-0.456348,0.69521,0.572405,0.180597,0.151494,0.785358,1.6191e-05,9.18504e-06,-8.94922e-06,0.685057,0.000979378,0.0105946,-0.000518701,0.00118327,-0.000225787,-0.000518701,0.00118327,-0.000225787,0.332741,-0.806756,-0.553374,0.412856,-0.17511,0.702689,-0.347997,1
1.81072,-1.15508,-1.8783,-1.08572,1.91783,1.18673,-0.951899,1.81072,-1.15508,-1.8783,-1.08572,1.91783,1.18673,-0.951899,1.78128,-1.07407,-1.82001,-1.12078,1.93739,1.11721,-0.916319,0,0,0,0,0,0,3.59547e-05,0,0,0,0,0,0,3.59547e-05,0.537789,-0.456348,0.69521,0.572405,0.180597,0.151494,0.785358,6.61744e-24,0,-3.30872e-24,0.685059,0.000979699,0.0105985,0.000228688,3.32698e-05,0.000401749,0.000228688,3.32698e-05,0.000401749,0.294396,-0.810034,-0.582926,0.350597,-0.195612,0.695285,-0.355807,1
1.80523,-1.1553,-1.88109,-1.09489,1.91301,1.18581,-0.951372,1.80523,-1.1553,-1.88109,-1.09489,1.91301,1.18581,-0.951372,1.78128,-1.07407,-1.82001,-1.12078,1.93739,1.11721,-0.916319,0,1.19776e-05,-2.39771e-05,0,1.91642e-05,2.39771e-05,0,0,1.19776e-05,-2.39771e-05,0,1.91642e-05,2.39771e-05,0,0.537789,-0.456348,0.69521,0.572405,0.180597,0.151494,0.785358,-2.83749e-06,-1.90835e-06,-2.46605e-07,0.685065,0.000979729,0.0105919,0.0005557,3.02944e-06,-0.000671726,0.0005557,3.02944e-06,-0.000671726,0.239492,-0.812279,-0.610775,0.258892,-0.243847,0.68608,-0.35053,1
1.79727,-1.15548,-1.88396,-1.10981,1.90807,1.18489,-0.950842,1.79727,-1.15548,-1.88396,-1.10981,1.90807,1.18489,-0.950842,1.78128,-1.07407,-1.82001,-1.12078,1.93739,1.11721,-0.916319,0,0,0,0,1.91642e-05,-3.59547e-05,0,0,0,0,0,1.91642e-05,-3.59547e-05,0,0.537789,-0.456348,0.69521,0.572405,0.180597,0.151494,0.785358,3.17106e-06,-3.59362e-06,-1.50455e-06,0.685064,0.000982673,0.0105907,-6.32075e-05,0.00028385,-0.000120669,-6.32075e-05,0.00028385,-0.000120669,0.159862,-0.814034,-0.639534,0.109715,-0.293212,0.676818,-0.345232,1
