Afshin1997/kuka_rl_ros2/src/catch_and_throw/input_files/idealpd/old_inputs/env_0.csv
torque0,torque1,torque2,torque3,torque4,torque5,torque6,action0,action1,action2,action3,action4,action5,action6,set_target_0,set_target_1,set_target_2,set_target_3,set_target_4,set_target_5,set_target_6,joint_pos_0,joint_pos_1,joint_pos_2,joint_pos_3,joint_pos_4,joint_pos_5,joint_pos_6,joint_vel_0,joint_vel_1,joint_vel_2,joint_vel_3,joint_vel_4,joint_vel_5,joint_vel_6,tennisball_pos_0,tennisball_pos_1,tennisball_pos_2,tennisball_lin_vel_0,tennisball_lin_vel_1,tennisball_lin_vel_2,end_effector_pos_0,end_effector_pos_1,end_effector_pos_2,end_effector_rot_0,end_effector_rot_1,end_effector_rot_2,end_effector_rot_3,end_effector_lin_vel_0,end_effector_lin_vel_1,end_effector_lin_vel_2,obs_task_0,obs_task_1,obs_task_2,obs_task_3,obs_task_4,obs_task_5,obs_task_6,to_final_target_0,to_final_target_1,to_final_target_2,joint_acc_0,joint_acc_1,joint_acc_2,joint_acc_3,joint_acc_4,joint_acc_5,joint_acc_6
-149.89343,131.8912,28.04065,90.13283,6.1517854,6.17861,-2.802646,-0.64712566,0.5813929,-0.31631988,0.33802906,-0.030610755,0.58269507,-0.15545145,1.7155234,-1.0065116,-1.8467743,-1.0832078,1.9342544,1.1752802,-0.931843,1.7773596,-1.0622152,-1.8163688,-1.1154104,1.9377904,1.1180559,-0.91745085,-0.38367707,0.32475019,-0.16312736,0.21338372,0.06293202,0.13904427,-0.15364279,2.96051,-0.501662,0.492666,-3.389,0.0658389,5.11957,0.5285756,-0.45600224,0.69447887,0.5771515,0.17406924,0.15290403,0.78308123,-0.24555041,-0.20095591,0.1843686,1,0,0,0,0,0,0,-3.6105099,0.10166201,0.057334006,-38.404034,32.415207,-16.191399,21.33064,6.213392,13.746922,-15.373209
-176,176,45.561317,107.49584,8.258691,8.196329,-2.4366078,-0.7984273,0.7457762,-0.13416752,0.31036234,0.6846724,0.38022304,-0.20212574,1.6975169,-0.9876376,-1.8297856,-1.0843742,2.0062575,1.1560782,-0.93766344,1.7697474,-1.0557588,-1.8181293,-1.1117502,1.9400582,1.1194464,-0.91922945,-0.88773924,0.75187236,-0.1790936,0.4175105,0.28028885,0.13620655,-0.18573076,2.92464,-0.500644,0.54175,-3.58691,0.0802702,4.90835,0.52380425,-0.45966,0.6984897,0.5829876,0.17178601,0.15313981,0.7792067,-0.5549039,-0.42017323,0.47344878,1,0,0,0,0,0,0,-3.5746398,0.10064402,0.008249998,-50.556885,42.463375,-1.1601895,20.53157,21.412691,-1.1096388,-3.142521
-125.70126,137.1942,29.411715,71.05214,4.9531617,5.131842,-1.7640578,-0.79085714,0.75048655,-0.42671567,0.08080604,0.5976431,0.3881306,-0.36751717,1.6906617,-0.98071015,-1.8608009,-1.1036696,1.9998225,1.1582595,-0.95598114,1.7579046,-1.0453771,-1.8215702,-1.1076132,1.9445348,1.120938,-0.92123026,-1.2838492,1.1327602,-0.39714196,0.41272825,0.5020806,0.14983912,-0.20454066,2.89005,-0.499985,0.589452,-3.45848,0.0802668,4.7702,0.5166787,-0.46483457,0.70426214,0.5911676,0.16910654,0.15367016,0.77350456,-0.7667303,-0.5466091,0.6122908,1,0,0,0,0,0,0,-3.54005,0.099985,-0.039452016,-39.860416,37.799297,-21.237772,-0.4027009,21.776522,0.315848,-1.7735988
-8.844698,115.97674,35.157917,6.71932,-0.38635674,2.856285,0.289859,-0.72983825,0.7749959,-0.23634237,-0.38949177,0.6947837,0.30312565,-0.11944413,1.6849208,-0.96787757,-1.8452044,-1.1465623,2.014013,1.1512505,-0.93317467,1.7436243,-1.0321153,-1.8261535,-1.1062857,1.9511514,1.122502,-0.92317384,-1.4773322,1.390296,-0.4765248,0.038653012,0.7140567,0.15757151,-0.19120078,2.85628,-0.499143,0.636657,-3.37679,0.0788255,4.72055,0.5086626,-0.46957886,0.7105656,0.5994437,0.1667227,0.15472625,0.7674181,-0.81567055,-0.44443846,0.636834,1,0,0,0,0,0,0,-3.50628,0.099143,-0.08665699,-19.72456,25.671148,-7.2758555,-37.657177,20.94531,0.469473,1.2766987
47.26353,111.91767,46.530647,-13.3676405,-1.6151063,2.7949042,1.2282087,-0.7529567,0.7759907,0.107713915,-0.36155164,0.7004559,0.08858066,-0.088941626,1.6683286,-0.9545163,-1.8153821,-1.1424408,2.0211968,1.13136,-0.932068,1.7284151,-1.0172952,-1.8294914,-1.1086947,1.9594655,1.1239992,-0.9249458,-1.5366008,1.5129387,-0.28478277,-0.33480194,0.8711987,0.14795475,-0.17310889,2.82174,-0.498815,0.682823,-3.45404,0.0760598,4.6165,0.5006512,-0.47271174,0.71721375,0.6064163,0.16445793,0.15573993,0.762206,-0.7979295,-0.2627433,0.6737272,1,0,0,0,0,0,0,-3.4717398,0.098814994,-0.13282299,-6.243825,12.37011,19.562387,-37.611546,15.935886,-0.7144183,1.6163796
31.193914,71.93458,28.051834,-3.0629559,-0.47062197,1.23556,0.5495211,-0.781217,0.77124184,-0.14358938,-0.13700111,0.6694278,0.2869278,-0.36989707,1.6502935,-0.94017106,-1.8438504,-1.1223948,2.0264082,1.152692,-0.96193546,1.7131296,-1.0020269,-1.8318069,-1.1130453,1.9688134,1.1255423,-0.9267549,-1.526199,1.5319812,-0.21378118,-0.4693763,0.95711803,0.15705647,-0.18422306,2.78748,-0.49821,0.728028,-3.42658,0.0726109,4.52053,0.49285915,-0.47477877,0.723913,0.6124986,0.16224955,0.15650952,0.7576445,-0.7726092,-0.18114606,0.66642785,1,0,0,0,0,0,0,-3.43748,0.09821001,-0.17802799,0.9245634,2.0271301,7.1230593,-13.704687,8.927441,1.1475891,-1.3187319
3.7554927,51.912857,16.669765,18.051529,1.5086224,0.7562377,-0.29697743,-0.7506812,0.7730059,-0.24736187,0.13914928,0.6542874,0.48844346,-0.37501565,1.6380615,-0.9247263,-1.8565431,-1.0991304,2.0342422,1.1743866,-0.96425647,1.69834,-0.98697054,-1.8342369,-1.116469,1.9786191,1.127318,-0.9287004,-1.4632404,1.4971157,-0.25318047,-0.30090857,0.98947495,0.18419176,-0.19885838,2.75351,-0.497785,0.772028,-3.39653,0.0631082,4.40002,0.48510575,-0.47686377,0.7306513,0.6187172,0.15991123,0.15693906,0.7529857,-0.7749809,-0.21092737,0.6731927,1,0,0,0,0,0,0,-3.40351,0.097784996,-0.22202802,6.27625,-3.4107208,-4.1117373,16.565853,3.57579,2.6458712,-1.7244726
4.0863075,47.57736,14.816158,18.431417,1.5039222,0.5251678,-0.30904007,-0.7287499,0.78287196,-0.23012185,0.06454448,0.6841002,0.4434575,-0.23677623,1.625465,-0.90868336,-1.857249,-1.1100146,2.047029,1.1716638,-0.95237803,1.6843039,-0.9723345,-1.8372486,-1.1180464,1.9886193,1.1293265,-0.93068403,-1.3836191,1.4526143,-0.31768292,-0.1110386,1.0046482,0.20605321,-0.19913933,2.7197,-0.497606,0.814382,-3.38156,0.0515936,4.23545,0.4773526,-0.47928622,0.73742265,0.62533313,0.15740037,0.15705106,0.7480097,-0.77427936,-0.24600777,0.67568535,1,0,0,0,0,0,0,-3.3697,0.097606,-0.264382,7.971382,-4.3857574,-6.6319823,18.713661,1.8424153,2.1062076,-0.2928555
35.870464,52.136555,20.427439,-5.7430744,-0.8648498,0.13035092,0.5103877,-0.72745925,0.7937242,-0.11724116,-0.33697793,0.70517886,0.12888393,-0.20978634,1.611558,-0.8929621,-1.8489727,-1.1517442,2.059137,1.1422149,-0.95166266,1.6709372,-0.95803416,-1.8403385,-1.1198527,1.9987359,1.131312,-0.93263525,-1.3210198,1.4229182,-0.30624542,-0.20466454,1.0152593,0.19740885,-0.19454698,2.68652,-0.497172,0.855803,-3.31774,0.0448002,4.14206,0.4700003,-0.48129562,0.743871,0.6315354,0.15506512,0.15713634,0.7432536,-0.7216372,-0.17928389,0.6326278,1,0,0,0,0,0,0,-3.3365202,0.09717199,-0.305803,6.222272,-2.8448105,1.1000276,-9.645385,1.369381,-0.5224496,0.21630824
42.215878,69.515465,30.413485,-6.4746523,-1.1630411,1.1330966,0.6935119,-0.7275641,0.79764134,0.05256145,-0.31900096,0.66449875,0.20682815,-0.33655417,1.5981808,-0.87827003,-1.8350823,-1.1517527,2.0651858,1.1519948,-0.96629065,1.6579977,-0.94390166,-1.8423622,-1.1229903,2.0087996,1.1332499,-0.9346332,-1.2853444,1.4104744,-0.16788484,-0.3510935,1.0051241,0.1936805,-0.20231575,2.6525,-0.495837,0.897353,-3.40233,0.0493201,4.15503,0.4631419,-0.48233476,0.75014704,0.6369076,0.15273088,0.15722498,0.7391226,-0.6731386,-0.072890766,0.6238484,1,0,0,0,0,0,0,-3.3024998,0.095837,-0.34735298,3.4809113,-1.1103868,13.836056,-14.867985,-0.607419,0.0063568354,-1.0343701
-4.9797034,66.398994,23.056711,25.290108,1.7946129,1.7977749,-0.31544778,-0.7391761,0.7867707,-0.08690066,0.13577609,0.6828712,0.39415166,-0.35685483,1.5840801,-0.8652246,-1.8510523,-1.1094127,2.0770867,1.172665,-0.9703187,1.6451823,-0.9298607,-1.8436363,-1.1253992,2.018794,1.135264,-0.9367265,-1.2805033,1.4021077,-0.1142369,-0.20502202,0.99832827,0.20349447,-0.21247892,2.61795,-0.494991,0.937884,-3.45509,0.060115,4.05308,0.45618314,-0.48320776,0.7567698,0.6423637,0.1499792,0.15706143,0.73498756,-0.7019369,-0.08654189,0.6723855,1,0,0,0,0,0,0,-3.26795,0.094991,-0.38788396,0.3828764,-0.79078674,5.3373737,14.406845,-0.34796,0.80977976,-1.255393
-21.873104,52.861908,13.10426,31.725132,2.2882023,1.2400069,-0.7355606,-0.7283505,0.7817227,-0.23199444,0.15851605,0.64106077,0.53780776,-0.3616061,1.5723472,-0.85168844,-1.8668357,-1.1095476,2.0829,1.1890448,-0.9728871,1.6323553,-0.9158846,-1.8453357,-1.1258932,2.0285978,1.1374823,-0.9389171,-1.2835966,1.3960875,-0.18847539,0.001775861,0.97490925,0.22690956,-0.22187772,2.58455,-0.494501,0.977014,-3.33989,0.0660103,3.913,0.44881862,-0.4845528,0.76371914,0.648551,0.1468216,0.15677051,0.73023826,-0.74642646,-0.14447625,0.6999929,1,0,0,0,0,0,0,-3.23455,0.09450099,-0.427014,-0.3850937,-0.5936861,-7.439536,20.471659,-2.1478653,2.028337,-1.125443
8.241827,51.525578,15.5462475,8.5230255,0.1860598,0.44130015,0.026765915,-0.70773906,0.7925974,-0.16351132,-0.18405208,0.7098767,0.36650878,-0.21068363,1.5615814,-0.83662486,-1.8616868,-1.1442984,2.0995855,1.1741332,-0.95998544,1.6195608,-0.90189135,-1.8476474,-1.1261183,2.0383863,1.1398169,-0.9410772,-1.2782264,1.4005513,-0.24528933,-0.031351976,0.9806581,0.23582374,-0.21458992,2.55153,-0.493974,1.01599,-3.30117,0.0707923,3.89776,0.44144458,-0.4858995,0.77050716,0.65485334,0.14372548,0.1566128,0.7252464,-0.7332266,-0.124788664,0.6697963,1,0,0,0,0,0,0,-3.20153,0.093973994,-0.46599,0.45359135,0.50315857,-5.612156,-3.5520077,0.7385254,0.94917417,0.55913925
26.516094,58.944996,21.58473,-2.153533,-0.8889867,0.39845037,0.4417175,-0.7060798,0.8029722,-0.07234999,-0.26509672,0.703151,0.12263451,-0.2578918,1.5489528,-0.8215941,-1.8548825,-1.152628,2.1087015,1.1520803,-0.9668664,1.6068312,-0.8877865,-1.8499877,-1.1275564,2.048255,1.1420447,-0.94318956,-1.2716273,1.4141458,-0.22984543,-0.1821283,0.9894112,0.21946093,-0.21073547,2.51618,-0.493166,1.05337,-3.53587,0.0751798,3.73806,0.43443802,-0.48667622,0.77691764,0.6606578,0.14094993,0.15670891,0.72049046,-0.6887412,-0.055470772,0.62974304,1,0,0,0,0,0,0,-3.1661801,0.09316599,-0.50337,0.5556345,1.4541626,1.6525418,-15.314071,1.0737419,-1.3822705,0.20944178
-1.4962978,61.97794,19.749409,21.372189,1.2013807,1.2256528,-0.3028163,-0.7096725,0.8029779,-0.14690784,0.1318776,0.6622679,0.29640377,-0.39604238,1.535864,-0.80748874,-1.8646785,-1.1143687,2.1144817,1.171685,-0.9827938,1.5941416,-0.8735529,-1.8523662,-1.1287104,2.058093,1.1442076,-0.9453725,-1.2684454,1.4265645,-0.24018227,-0.093975805,0.98257303,0.21489768,-0.22146893,2.48206,-0.49242,1.0887,-3.41115,0.0736134,3.53272,0.42743635,-0.48729247,0.7834014,0.6665353,0.13809428,0.15687223,0.7155779,-0.70248383,-0.057676405,0.6525591,1,0,0,0,0,0,0,-3.13206,0.09241998,-0.53870004,0.21007061,1.2788296,-0.98670423,8.601536,-0.45218468,-0.5983442,-1.2771249
-13.045719,50.917812,12.558445,25.159391,1.6579343,0.8496752,-0.5062664,-0.7225606,0.7994287,-0.2669467,0.111990675,0.6793048,0.38290238,-0.32365263,1.5218855,-0.79361004,-1.8790609,-1.1175113,2.1260235,1.1824979,-0.9777378,1.5814062,-0.8592421,-1.8554008,-1.12876,2.067893,1.1463972,-0.94761175,-1.275464,1.432601,-0.3244312,0.024080506,0.97951764,0.219524,-0.22533245,2.44847,-0.492082,1.12344,-3.35948,0.063359,3.47394,0.420195,-0.48816577,0.7900019,0.6728783,0.13511847,0.15707032,0.7101455,-0.7297783,-0.091199726,0.6605243,1,0,0,0,0,0,0,-3.0984702,0.092081994,-0.57344,-0.79739094,0.61478615,-8.367151,11.5798,-0.15330315,0.22565126,-0.5643308
7.515337,51.41708,15.683382,12.625645,0.43062344,0.5073494,-0.11975628,-0.668107,0.7999095,-0.23850666,-0.030074237,0.671174,0.44636086,-0.33430737,1.5145955,-0.77925116,-1.8792515,-1.1317674,2.1350105,1.1910334,-0.9810425,1.5688463,-0.8449007,-1.8591373,-1.1283709,2.0776434,1.1486994,-0.9498901,-1.2495745,1.4348476,-0.3897212,0.043216255,0.9744722,0.23372184,-0.22935502,2.41376,-0.491773,1.1573,-3.47066,0.0573144,3.38589,0.41296658,-0.48904562,0.79649436,0.67938215,0.13215053,0.15741077,0.7044132,-0.719191,-0.08044132,0.64399225,1,0,0,0,0,0,0,-3.0637598,0.091773,-0.6073,2.5213242,0.27766228,-6.4873576,1.6699426,-0.3123641,1.4148682,-0.5949825
2.198957,48.65981,13.830675,14.786426,0.69331205,0.47733092,-0.16188684,-0.694801,0.7995081,-0.27930236,0.036002267,0.67638284,0.37791812,-0.31562036,1.4993663,-0.7649499,-1.8870676,-1.1247706,2.1452818,1.1864913,-0.9814521,1.5564314,-0.8305603,-1.8635414,-1.1277701,2.087367,1.1510874,-0.95218843,-1.2389132,1.4339936,-0.45717597,0.0650127,0.97226083,0.24017078,-0.23066773,2.37975,-0.491541,1.19051,-3.40133,0.051314,3.32125,0.4057867,-0.48990116,0.8028139,0.6859667,0.12925978,0.15789495,0.69843453,-0.7163717,-0.08087536,0.6266017,1,0,0,0,0,0,0,-3.0297499,0.09154099,-0.64051,0.9839535,-0.04682541,-6.6677628,1.9376681,-0.06146431,0.58693886,-0.31966865
-3.5923038,54.69643,16.249062,23.478462,1.4127617,1.0436281,-0.357373,-0.671752,0.8015111,-0.28782704,0.20916884,0.65928376,0.41671315,-0.34712768,1.4892563,-0.75040925,-1.8923241,-1.1068531,2.1532955,1.1927587,-0.9869012,1.5441862,-0.8162285,-1.8684776,-1.1262537,2.0970297,1.1535479,-0.9545221,-1.2200854,1.4329768,-0.5053772,0.17984577,0.96498203,0.24737921,-0.23499967,2.34587,-0.49104,1.22223,-3.38836,0.0453526,3.17171,0.39847663,-0.4908469,0.80923444,0.6928247,0.12620537,0.15839212,0.69208235,-0.734985,-0.09277755,0.64614,1,0,0,0,0,0,0,-2.99587,0.091039985,-0.67222995,1.7909765,-0.0975132,-4.7416744,11.257596,-0.53049326,0.5082011,-0.66487193
5.3789997,56.86257,18.660036,18.032791,0.8701894,1.0102555,-0.13407624,-0.65448844,0.8036267,-0.28654942,0.13001284,0.67043555,0.43645796,-0.3212165,1.4787374,-0.73586583,-1.8971325,-1.1132524,2.1640732,1.1971936,-0.98664373,1.5321718,-0.80189574,-1.8737113,-1.1240164,2.106658,1.1560923,-0.95687765,-1.1956527,1.433457,-0.52902424,0.23773518,0.962944,0.25630686,-0.23651274,2.31241,-0.490868,1.25281,-3.34611,0.0364145,3.05831,0.39110118,-0.49173048,0.8157835,0.69981724,0.12294103,0.15887782,0.68549186,-0.73770744,-0.08021246,0.6570944,1,0,0,0,0,0,0,-2.96241,0.090867996,-0.70281,2.3406267,0.06637573,-2.2478461,5.557579,-0.0035881996,0.7755816,-0.39299428
19.644016,56.344433,20.76382,6.3396654,-0.20424882,0.6520936,0.27334723,-0.65253246,0.800964,-0.24988163,-0.027806707,0.67971146,0.3466389,-0.32297418,1.4669186,-0.7217993,-1.8986995,-1.1267971,2.1746292,1.1907562,-0.9891751,1.5203654,-0.7875658,-1.8788669,-1.1221796,2.1163054,1.1586615,-0.95924467,-1.1761501,1.4330363,-0.51056546,0.1647797,0.96617043,0.25747105,-0.23754998,2.27881,-0.490892,1.28227,-3.35987,0.0276628,2.94639,0.38395303,-0.4922247,0.82220644,0.70652926,0.11969624,0.15943222,0.67902184,-0.7065043,-0.032333363,0.63668805,1,0,0,0,0,0,0,-2.9288101,0.09089199,-0.73226994,1.8266916,0.02257824,2.018714,-7.5430927,0.5071163,0.22323728,-0.33131242
12.988487,61.068474,22.023273,14.473292,0.48164126,1.1079065,0.081428304,-0.6394275,0.80850583,-0.25061396,0.13923669,0.6801373,0.40088007,-0.34750742,1.4564226,-0.7067152,-1.9039283,-1.108256,2.184319,1.1987495,-0.9939954,1.5087534,-0.77320635,-1.8837631,-1.1204783,2.1259947,1.1612669,-0.96163934,-1.1566364,1.4370244,-0.48220852,0.17119807,0.9707848,0.2614581,-0.24097183,2.24553,-0.490052,1.31143,-3.32739,0.0304412,2.91557,0.3769626,-0.49233508,0.8286527,0.71302354,0.116330676,0.15997836,0.67265993,-0.6955829,0.0026289509,0.6464835,1,0,0,0,0,0,0,-2.8955297,0.09005201,-0.76142997,1.8176317,0.436306,3.002739,0.4146099,0.6716132,0.36263466,-0.58956444
1.666049,59.885498,19.620182,22.408012,1.2190422,1.3171283,-0.15791246,-0.6510856,0.8097003,-0.27512383,0.223584,0.6760992,0.3955078,-0.32623222,1.4436449,-0.6922363,-1.9112755,-1.0981199,2.1936047,1.2008177,-0.9942626,1.4972254,-0.75880206,-1.8885105,-1.1182104,2.1357145,1.1638991,-0.96405214,-1.1518623,1.4415029,-0.4716871,0.24445118,0.97303104,0.26303884,-0.24217172,2.21136,-0.489231,1.33975,-3.41675,0.0383971,2.83246,0.36989167,-0.4922597,0.83532816,0.71956056,0.11267919,0.16043408,0.6661808,-0.7095348,0.015803022,0.6735054,1,0,0,0,0,0,0,-2.86136,0.089230984,-0.78975004,0.3260374,0.4496336,1.2413442,7.1079106,0.41308403,-0.029551983,-0.37283897
-8.239759,51.28724,13.998663,26.275232,1.6605854,1.1086538,-0.37178534,-0.6555836,0.79675084,-0.3394158,0.2718644,0.663677,0.4473366,-0.3564903,1.4316671,-0.679127,-1.9224521,-1.091024,2.2020822,1.2086327,-0.99970114,1.4856745,-0.7444235,-1.893523,-1.1149508,2.1454115,1.166577,-0.96649545,-1.1565764,1.4366424,-0.5105383,0.35260934,0.9687695,0.26851675,-0.24582413,2.17777,-0.488765,1.36671,-3.35903,0.045587,2.69578,0.3625612,-0.49224064,0.8422307,0.7263663,0.10874582,0.16080941,0.6593229,-0.7395403,0.004347638,0.69501454,1,0,0,0,0,0,0,-2.8277698,0.088764995,-0.81670994,-0.60942173,-0.5053997,-3.7071407,10.597688,-0.27395487,0.2832651,-0.60177445
-8.540968,47.181873,12.00814,25.900196,1.6216189,0.942504,-0.412891,-0.63325846,0.788727,-0.37596977,0.3154596,0.6488701,0.5238334,-0.3626824,1.4223486,-0.6655508,-1.9311199,-1.0834048,2.2102985,1.2189603,-1.0027637,1.4741598,-0.73014224,-1.8991344,-1.1105524,2.155013,1.1693655,-0.9689769,-1.1499879,1.425163,-0.57772845,0.46819612,0.9577308,0.28135273,-0.24976078,2.14439,-0.488499,1.39336,-3.33841,0.0481894,2.66445,0.35493618,-0.49236846,0.84929997,0.73350877,0.1045472,0.16115373,0.65196943,-0.7688515,-0.010893823,0.7100715,1,0,0,0,0,0,0,-2.7943902,0.08849898,-0.84336,0.54979324,-1.1707544,-6.5702796,11.341781,-0.95199347,1.0281026,-0.62711835
-4.3697205,47.66824,12.853382,23.250282,1.3496616,0.896107,-0.30456245,-0.6263719,0.7884218,-0.38373962,0.32628453,0.6572948,0.5476084,-0.33611757,1.4115226,-0.6513001,-1.9375083,-1.077924,2.2207425,1.2241263,-1.0025886,1.4627501,-0.71597064,-1.9053848,-1.105208,2.1645346,1.1722971,-0.9714746,-1.1383355,1.4144071,-0.640202,0.5558062,0.9506356,0.29634747,-0.25063404,2.11067,-0.488073,1.41879,-3.37164,0.0516425,2.54294,0.34708315,-0.49257416,0.85647124,0.7408926,0.10011978,0.16149451,0.6441845,-0.789768,-0.015334822,0.7191589,1,0,0,0,0,0,0,-2.7606702,0.088072985,-0.86879,1.0523558,-1.0969877,-6.070113,8.541763,-0.5648613,1.2870193,-0.32827556
-2.4210706,49.343533,13.84543,21.63413,1.1944346,0.92746556,-0.1968398,-0.6433705,0.7902167,-0.38556874,0.33397758,0.67387354,0.4936709,-0.31071782,1.3984131,-0.63694894,-1.9439416,-1.0718102,2.231922,1.2216642,-1.0025463,1.4513651,-0.70187247,-1.9121063,-1.0992495,2.174056,1.175326,-0.9739589,-1.1389785,1.4081229,-0.682019,0.60830724,0.95253277,0.30454725,-0.24849272,2.0424,-0.486977,1.46535,-3.41463,0.0475362,2.25801,0.3390524,-0.49275607,0.8637061,0.748395,0.095525846,0.1618268,0.6360753,-0.806625,-0.010061107,0.7247873,1,0,0,0,0,0,0,-2.6924,0.086977005,-0.91535,-0.21722317,-0.6552458,-3.9214969,5.0248623,0.30293465,0.62299967,-0.036671758
3.2890959,52.970642,16.28763,19.373442,0.8623557,0.9866289,-0.09597962,-0.62648153,0.7909049,-0.3889858,0.35052013,0.65922654,0.49740466,-0.33827773,1.3887169,-0.622782,-1.9510049,-1.0641974,2.2399788,1.2250664,-1.0077866,1.440024,-0.6878058,-1.9190929,-1.0929381,2.183566,1.1784292,-0.9764413,-1.132926,1.4061584,-0.7031694,0.6379749,0.9507869,0.31157145,-0.24903907,2.00838,-0.486846,1.48724,-3.40216,0.0417586,2.18862,0.33093932,-0.49277252,0.87099177,0.75589633,0.09077126,0.16217859,0.6277573,-0.812031,0.010697758,0.7298979,1,0,0,0,0,0,0,-2.65838,0.086845994,-0.93723994,0.43373108,-0.21805763,-1.8115759,2.7356386,-0.064361095,0.55128336,-0.32380223
6.741755,52.58837,16.834412,17.626915,0.6666731,0.9350654,-0.031792186,-0.60966146,0.77966285,-0.40442085,0.36847338,0.6478288,0.5594092,-0.35018083,1.3790579,-0.6098395,-1.959535,-1.0560907,2.248349,1.2343701,-1.0114594,1.4288164,-0.6737915,-1.9262397,-1.0864073,2.1930227,1.1816393,-0.97893995,-1.1171631,1.3998437,-0.7174979,0.65735716,0.94455886,0.3239143,-0.25100303,1.97458,-0.486833,1.50854,-3.37918,0.0364083,2.13032,0.32283258,-0.4925386,0.8782985,0.7633124,0.08584214,0.1625686,0.6193195,-0.8093385,0.037434295,0.73113555,1,0,0,0,0,0,0,-2.62458,0.086833,-0.95854,1.4115334,-0.6424904,-1.1318684,1.7062306,-0.50508976,1.1316776,-0.47066212
13.304129,54.756496,19.166697,15.069555,0.40792295,0.93697584,0.11883183,-0.580983,0.7733912,-0.38384756,0.36405665,0.6624936,0.5892124,-0.32926968,1.3707181,-0.5964524,-1.9646245,-1.0500016,2.259272,1.2405605,-1.0118669,1.4178911,-0.65986025,-1.9333637,-1.0797964,2.202464,1.1849905,-0.98144335,-1.084945,1.3908693,-0.70966583,0.66165,0.9446466,0.3388297,-0.25101885,1.97458,-0.486833,1.50854,-3.37918,0.0364083,2.13032,0.31485114,-0.49194992,0.8856107,0.7705171,0.080714345,0.1629626,0.610927,-0.79343665,0.07585386,0.7313842,1,0,0,0,0,0,0,-2.62458,0.086833,-0.95854,3.063941,-0.8926153,1.0861397,0.19949675,0.13918877,1.452893,-0.2876848
8.15354,54.50142,17.789444,17.509386,0.60787594,0.9961573,0.04010172,-0.61544853,0.78052646,-0.3852484,0.37298676,0.6518221,0.5432421,-0.3527693,1.3563462,-0.5818076,-1.9718885,-1.0424978,2.2676463,1.2393148,-1.0167203,1.4070879,-0.64597285,-1.9403694,-1.0731589,2.2118864,1.1884428,-0.983962,-1.0794274,1.3880104,-0.6963523,0.66385853,0.94156235,0.3471098,-0.2531431,1.94058,-0.486442,1.52831,-3.4001,0.0333466,1.97692,0.30695382,-0.49100918,0.89294297,0.7775314,0.07539774,0.16336527,0.60255444,-0.7872228,0.10999645,0.73386073,1,0,0,0,0,0,0,-2.59058,0.08644199,-0.9783099,0.34542084,-0.29916763,1.7091751,-0.0077843666,-0.21768808,0.73580146,-0.4953742
4.221364,50.82901,15.148131,18.295504,0.7055088,0.84134406,-0.036362898,-0.6179815,0.7786006,-0.41844973,0.37374452,0.64693975,0.5563937,-0.3534109,1.3452898,-0.5681128,-1.9822143,-1.0357844,2.2765803,1.2440822,-1.0193031,1.3962542,-0.63210166,-1.9474037,-1.0665156,2.2212667,1.1919733,-0.9865007,-1.0854502,1.3868324,-0.7045786,0.66369253,0.93679595,0.35460332,-0.25508365,1.87363,-0.486249,1.56457,-3.31728,0.0213129,1.76739,0.299079,-0.48979154,0.9002589,0.7844245,0.06995528,0.16382326,0.59409297,-0.78595763,0.13548416,0.7306184,1,0,0,0,0,0,0,-2.5236301,0.086248994,-1.01457,-0.81624985,-0.1331091,-0.44373274,-0.24968386,-0.4015565,0.6451428,-0.45825243
1.8457856,48.881996,13.732152,18.834202,0.8102398,0.77425086,-0.04767608,-0.6311751,0.7774669,-0.41614074,0.36441162,0.6609096,0.5531662,-0.32791537,1.3331367,-0.55435497,-1.9890177,-1.0300744,2.2873578,1.2472899,-1.0192922,1.385264,-0.6182362,-1.9545391,-1.0599238,2.2306395,1.195563,-0.9890384,-1.1042225,1.3864522,-0.7151869,0.6567192,0.93796724,0.3602284,-0.2541837,1.84,-0.485887,1.58196,-3.36357,0.0184771,1.7393,0.29118454,-0.4883511,0.90752417,0.79122347,0.06444794,0.16434215,0.5854942,-0.788697,0.15675247,0.7247829,1,0,0,0,0,0,0,-2.49,0.085886985,-1.03196,-2.114153,-0.0562191,-0.6509423,-0.9343505,0.17342567,0.44554472,-0.16670823
7.2531424,51.88749,15.916357,17.944784,0.61158615,0.80503464,0.0061898,-0.5918592,0.77694243,-0.4113698,0.38139609,0.64886487,0.5793199,-0.3407182,1.3260782,-0.54054195,-1.995676,-1.0217842,2.295526,1.253495,-1.0231103,1.3742796,-0.60437167,-1.9617527,-1.0533243,2.2400007,1.1992232,-0.9915752,-1.097066,1.3864095,-0.7221828,0.6602287,0.9357688,0.36769962,-0.25440127,1.80657,-0.485069,1.59817,-3.34219,0.026482,1.62064,0.28334126,-0.48663163,0.9147632,0.79788625,0.05882996,0.16492125,0.5768167,-0.78067464,0.18695062,0.7232167,1,0,0,0,0,0,0,-2.4565701,0.085069,-1.0481701,0.5076647,-0.012636185,-0.32720566,0.12075901,-0.13650656,0.66280365,-0.2905965
11.136984,52.92412,17.000797,15.671712,0.37587112,0.7215028,0.11067991,-0.59379256,0.78180957,-0.40022275,0.3396015,0.6637512,0.5609324,-0.32138464,1.3149004,-0.5261907,-2.001775,-1.0193642,2.3063757,1.2553164,-1.0237136,1.3634001,-0.5904833,-1.9689567,-1.0468737,2.2493887,1.2029406,-0.99409956,-1.0856841,1.3897547,-0.71856135,0.63939214,0.93971187,0.37302202,-0.2526785,1.77326,-0.484235,1.61337,-3.33197,0.0384861,1.52016,0.2756592,-0.48456478,0.92194843,0.804328,0.053126182,0.16556181,0.5681754,-0.76163876,0.22312786,0.71642494,1,0,0,0,0,0,0,-2.42326,0.08423498,-1.06337,0.9263754,0.34065247,0.7454634,-2.3165107,0.47485828,0.5001247,-0.0942111
13.959133,51.23438,16.875978,13.491751,0.18303949,0.53075534,0.16825375,-0.5742546,0.77905935,-0.41458705,0.31829363,0.6694042,0.57182103,-0.32758594,1.3059746,-0.51257735,-2.0104153,-1.0150443,2.316329,1.2601227,-1.0268581,1.3527247,-0.57657206,-1.9761741,-1.040732,2.25883,1.2067152,-0.9966106,-1.0619711,1.3916188,-0.7216908,0.6049905,0.9463824,0.37902775,-0.25145072,1.74016,-0.484485,1.62734,-3.30904,0.0386756,1.3972,0.26823872,-0.48213953,0.9290121,0.8104922,0.04739955,0.16627793,0.5596492,-0.73280287,0.25858828,0.702337,1,0,0,0,0,0,0,-2.39016,0.084484994,-1.0773399,2.1916866,0.21297932,0.019025803,-3.6711693,0.76214075,0.6269753,-0.12810826
16.557432,53.34822,18.208456,12.652868,0.05950606,0.5450951,0.24799657,-0.56946474,0.78678155,-0.38197893,0.28734422,0.6773334,0.54878366,-0.30795676,1.2957782,-0.4978939,-2.014372,-1.0119976,2.3265634,1.2615936,-1.0274062,1.3422819,-0.5626122,-1.9832714,-1.0350405,2.2683592,1.210528,-0.9990968,-1.0390563,1.3975562,-0.7045659,0.5565104,0.95546156,0.38216606,-0.24846117,1.70654,-0.484228,1.64141,-3.36255,0.0388139,1.40692,0.26115733,-0.47931477,0.93593764,0.81632036,0.04167227,0.16705735,0.5513405,-0.6970519,0.29961,0.6884099,1,0,0,0,0,0,0,-2.35654,0.08422798,-1.0914099,2.0999908,0.62839985,2.0651937,-5.0733805,1.0014653,0.364089,0.04785955
8.931712,52.407112,16.144585,19.506506,0.6826043,0.75606275,0.023058774,-0.5623739,0.7792233,-0.4062504,0.3870367,0.6525999,0.5757896,-0.32890192,1.2860446,-0.48468983,-2.0238965,-0.9963368,2.333619,1.2681069,-1.031987,1.3320471,-0.5486361,-1.9903057,-1.0292841,2.277892,1.214379,-1.0015707,-1.0189927,1.3976293,-0.70207983,0.58126754,0.9531957,0.38584685,-0.2479522,1.6727,-0.483757,1.65389,-3.38354,0.0406348,1.24735,0.2542536,-0.47614443,0.94287395,0.8219454,0.03578138,0.16787028,0.5430882,-0.6849951,0.3315759,0.6942475,1,0,0,0,0,0,0,-2.3227,0.08375698,-1.10389,1.8008947,0.007963181,0.6076932,2.2616148,-0.12847185,0.28270483,-0.2165556
6.8759913,48.393467,14.153534,19.248356,0.72156,0.6035167,-0.0065658037,-0.55859536,0.7757467,-0.4172412,0.35310802,0.6574647,0.5918857,-0.3423665,1.2761875,-0.4710614,-2.0320299,-0.9939733,2.3436387,1.2735676,-1.0358074,1.3219687,-0.53468764,-1.9973991,-1.0233217,2.2874022,1.2182757,-1.0040522,-1.0047358,1.3938518,-0.7106703,0.6005515,0.9503082,0.39068538,-0.24900717,1.63898,-0.483127,1.66493,-3.37204,0.0389711,1.1041,0.24745096,-0.4726988,0.9498258,0.8274357,0.02971742,0.16871661,0.5347914,-0.67521966,0.35753277,0.6941727,1,0,0,0,0,0,0,-2.28898,0.08312699,-1.1149299,1.2181044,-0.37469864,-0.50030947,1.7121434,-0.20179749,0.40737987,-0.359568
13.345665,46.70343,15.092567,13.500094,0.17910251,0.2971592,0.17608057,-0.52876484,0.7751868,-0.3986696,0.2718262,0.65743625,0.5702738,-0.3294278,1.2690922,-0.45716897,-2.037266,-0.9961391,2.3531458,1.275303,-1.0369949,1.3121191,-0.52078307,-2.004511,-1.0175635,2.2968817,1.2222067,-1.0065336,-0.9786702,1.3895317,-0.7104009,0.5668143,0.9473846,0.39418074,-0.248675,1.60559,-0.482658,1.67478,-3.33958,0.0363517,0.985074,0.24091561,-0.46897075,0.9566428,0.83268374,0.023632923,0.16963775,0.526595,-0.6425264,0.38671023,0.6761989,1,0,0,0,0,0,0,-2.25559,0.08265799,-1.1247799,2.4433255,-0.39150715,0.33084154,-3.5849214,-0.19733906,0.4087925,-0.1941979
9.263451,47.662567,14.252184,16.902924,0.51093066,0.4252724,0.10376936,-0.54740006,0.78328526,-0.39711478,0.31207186,0.6751071,0.5526239,-0.2980643,1.2573792,-0.44245455,-2.0442226,-0.98635626,2.3643923,1.2774692,-1.03634,1.3023993,-0.5068766,-2.011595,-1.0120093,2.306388,1.2261511,-1.0089884,-0.9703404,1.3910342,-0.7062838,0.550989,0.9519324,0.39445555,-0.24522392,1.57191,-0.482688,1.68415,-3.36792,0.0335623,0.937772,0.23461172,-0.46496406,0.9633506,0.8377038,0.01752664,0.17061229,0.5184943,-0.62255096,0.41377518,0.66758585,1,0,0,0,0,0,0,-2.22191,0.082688004,-1.13415,0.60840845,0.1699686,0.79613924,-1.7970681,0.52604675,0.005251169,0.107985735
6.6773353,48.51128,13.815308,19.914238,0.75397635,0.5584712,0.0226327,-0.5434422,0.78168815,-0.3939913,0.34363347,0.66457665,0.5563064,-0.31879807,1.2480551,-0.42870778,-2.0509942,-0.97764593,2.3728456,1.2817818,-1.0408682,1.2927214,-0.492952,-2.018614,-1.0064112,2.3159132,1.2300955,-1.011426,-0.96792257,1.3929057,-0.6990696,0.5620449,0.9530345,0.39399496,-0.2440074,1.53777,-0.482709,1.69241,-3.4139,0.0339625,0.825369,0.22843824,-0.46067733,0.9700463,0.84256077,0.011303174,0.1716152,0.5104036,-0.61176157,0.44162592,0.66856253,1,0,0,0,0,0,0,-2.18777,0.082708985,-1.14241,-0.020122528,0.19001961,1.1551261,0.89223385,0.1726389,-0.13048053,-0.1300335
1.0689154,41.159004,9.558967,19.855986,0.86856604,0.26669934,-0.083362356,-0.5689734,0.7807793,-0.44508743,0.31301934,0.6613424,0.54097843,-0.3008143,1.2358241,-0.41487405,-2.0631227,-0.9751093,2.3820474,1.2841934,-1.0415074,1.28291,-0.47901356,-2.0258086,-1.000794,2.3254347,1.2340208,-1.0138388,-0.98631084,1.3941417,-0.72457445,0.56090295,0.9518506,0.3917466,-0.24110493,1.50415,-0.48242,1.6993,-3.36149,0.028431,0.689197,0.22230421,-0.4562246,0.9766737,0.84733534,0.0050586294,0.1726951,0.50216895,-0.6097464,0.4546426,0.659119,1,0,0,0,0,0,0,-2.15415,0.08241999,-1.1493001,-2.1314979,0.12631416,-2.0969748,-0.34823418,-0.08041859,-0.31564236,0.06510019
6.459149,42.713287,11.516897,17.172626,0.5631515,0.19769742,0.04885923,-0.5388375,0.78164244,-0.42033055,0.28622204,0.6675312,0.54038036,-0.27867436,1.2290262,-0.4008493,-2.0678415,-0.97217184,2.3921878,1.2880589,-1.0417062,1.273049,-0.46506274,-2.0331595,-0.9953238,2.33496,1.2379271,-1.0162077,-0.9869004,1.3954835,-0.7373604,0.54161936,0.95278805,0.3901254,-0.23615837,1.47082,-0.482383,1.70524,-3.33369,0.0195903,0.593507,0.2163032,-0.45159513,0.9831761,0.8519698,-0.0011502656,0.17386448,0.49387974,-0.59253085,0.47375545,0.6454497,1,0,0,0,0,0,0,-2.12082,0.08238301,-1.15524,-0.30810833,0.15704632,-0.87423325,-2.148199,0.1491785,-0.18437505,0.27577877
7.1505446,43.64505,11.954182,17.651894,0.5614791,0.22954544,0.047640804,-0.5416362,0.78367597,-0.4200377,0.29590127,0.6637142,0.53674054,-0.30798376,1.2188854,-0.38669515,-2.0751634,-0.96573365,2.4013314,1.2916012,-1.0470061,1.2632033,-0.45109236,-2.0405905,-0.9900061,2.3444815,1.2418162,-1.0185518,-0.98464245,1.3976084,-0.74370325,0.5277667,0.95230967,0.3883486,-0.23453867,1.43784,-0.482376,1.71053,-3.2982,0.0109663,0.529552,0.21048242,-0.4467549,0.9895642,0.8564386,-0.0073479223,0.17511803,0.48558488,-0.57409316,0.49530512,0.63469607,1,0,0,0,0,0,0,-2.08784,0.082376,-1.1605301,-0.030851364,0.23498535,-0.21840334,-1.6002893,0.007736683,-0.20592809,-0.060790777
10.2703495,43.359524,13.08062,16.688284,0.50394404,0.21415716,0.13761938,-0.51286334,0.7687118,-0.40488267,0.2984777,0.67001945,0.57088244,-0.301031,1.2119169,-0.37422118,-2.0810788,-0.96015835,2.4114835,1.2989044,-1.0486549,1.2535311,-0.4371735,-2.0479758,-0.9847752,2.3540182,1.2457167,-1.0208788,-0.9620676,1.3900862,-0.73585206,0.5208879,0.9545289,0.39064598,-0.23281038,1.40493,-0.481686,1.71483,-3.29016,0.0137974,0.429428,0.20489512,-0.44167894,0.99585223,0.8606942,-0.013593459,0.1763948,0.47739455,-0.5489849,0.5192775,0.624809,1,0,0,0,0,0,0,-2.05493,0.08168599,-1.16483,2.0608902,-0.71578026,1.1253715,-0.88061094,0.30548573,0.24076104,-0.04630685
7.0585365,35.936672,9.664112,14.599356,0.46298775,-0.15477574,0.10945445,-0.5384883,0.7691843,-0.4471763,0.24060236,0.67638123,0.54145974,-0.27521273,1.1996822,-0.36025506,-2.0926933,-0.96071494,2.4216564,1.2998626,-1.0484,1.24396,-0.42333186,-2.0554602,-0.9798447,2.363597,1.249621,-1.0231695,-0.95608425,1.3823079,-0.75177866,0.48305205,0.95922256,0.3906134,-0.228477,1.37231,-0.480774,1.71832,-3.26235,0.0279679,0.349975,0.19954346,-0.4364748,1.0019346,0.8647515,-0.019741582,0.1777151,0.46928912,-0.5258465,0.52812564,0.6005704,1,0,0,0,0,0,0,-2.02231,0.08077398,-1.16832,0.39775372,-0.72820187,-1.2672663,-3.9889872,0.5354881,0.045204163,0.25310814
13.288095,38.34489,12.210085,10.13559,-0.001699388,-0.3114757,0.3200283,-0.52630794,0.7803024,-0.39219606,0.14790732,0.6995007,0.46679884,-0.24123247,1.1913292,-0.34530163,-2.0946798,-0.965054,2.433547,1.2963009,-1.0472927,1.2344614,-0.4095012,-2.0628607,-0.9757029,2.37329,1.2534739,-1.0253935,-0.94815093,1.3836095,-0.73543984,0.3905686,0.97283083,0.38401127,-0.22068161,1.33865,-0.480696,1.72087,-3.36624,0.0358161,0.254786,0.19458516,-0.4311473,1.007692,0.8685228,-0.025615895,0.17908521,0.46145454,-0.48097974,0.54127854,0.5653672,1,0,0,0,0,0,0,-1.98865,0.08069599,-1.1708701,0.63409805,0.21266937,1.9094586,-9.428984,1.436317,-0.50652623,0.63147545
7.5594654,40.8227,11.371299,19.827105,0.80306923,0.16949332,0.031049013,-0.47214508,0.75550085,-0.4432765,0.3377748,0.6644743,0.5719815,-0.31929052,1.1872469,-0.33395112,-2.1071885,-0.9419254,2.4397376,1.310672,-1.0573225,1.2252699,-0.3957559,-2.0703146,-0.9715172,2.383006,1.2573305,-1.0276041,-0.9101297,1.3715951,-0.74732214,0.4271764,0.9715002,0.38589215,-0.22195072,1.30506,-0.481365,1.72275,-3.35917,0.0290788,0.188112,0.18985584,-0.4256363,1.0133669,0.87210894,-0.031556085,0.18045521,0.45372456,-0.46539345,0.5608206,0.56603926,1,0,0,0,0,0,0,-1.95506,0.08136499,-1.17275,3.620255,-1.1708021,-0.889194,3.4706593,-0.032627583,0.14265776,-0.3455639
5.9657025,39.784355,10.510033,20.333597,0.86999345,0.1624137,0.022221062,-0.4919517,0.7580484,-0.42952365,0.28423217,0.67350936,0.56394666,-0.2827587,1.1760747,-0.31995106,-2.113267,-0.943094,2.450357,1.3137252,-1.05588,1.2163435,-0.38211644,-2.0778372,-0.96701014,2.3927107,1.2612044,-1.0298071,-0.88767457,1.3614709,-0.75263894,0.45788124,0.97029084,0.38750577,-0.2205453,1.27175,-0.481147,1.72362,-3.33103,0.0239979,0.0867844,0.18525642,-0.41992667,1.0190442,0.8755567,-0.037673697,0.18181032,0.44601122,-0.45336336,0.5804952,0.56599194,1,0,0,0,0,0,0,-1.92175,0.081146985,-1.17362,1.9990087,-0.99048615,-0.14221668,2.8761983,-0.049078465,0.09806156,-0.08216798
7.345002,38.791805,10.599565,19.177422,0.74425787,0.055686533,0.048731327,-0.45222235,0.7517147,-0.44773278,0.2792094,0.67424816,0.5473247,-0.29678473,1.1711212,-0.30694497,-2.1226106,-0.9390892,2.4601355,1.3159368,-1.0594856,1.207749,-0.36858475,-2.0854895,-0.9622303,2.4024,1.265082,-1.0320063,-0.850594,1.3504587,-0.76812774,0.4840289,0.9688158,0.38770783,-0.2206062,1.23816,-0.480686,1.72314,-3.35867,0.0198456,-0.0482082,0.18081987,-0.41402996,1.0246964,0.878855,-0.04393654,0.18316329,0.4383315,-0.43553376,0.5990325,0.56268555,1,0,0,0,0,0,0,-1.88816,0.080686,-1.17314,3.5161614,-1.0710955,-1.2256265,2.4322689,-0.067567825,-0.012153387,-0.21622479
9.895027,35.622772,10.41022,14.053536,0.31580544,-0.28661984,0.18204576,-0.44706032,0.7560615,-0.4476696,0.19559093,0.68810475,0.5221048,-0.2613638,1.163043,-0.29297858,-2.1302564,-0.94267124,2.4712105,1.3172925,-1.0581427,1.1994826,-0.35511363,-2.0932791,-0.95766413,2.4121199,1.2689463,-1.0341787,-0.81898147,1.3461941,-0.7819772,0.44680557,0.97321016,0.38625345,-0.21672283,1.20485,-0.480179,1.72173,-3.33109,0.0151651,-0.140798,0.17667715,-0.40800455,1.030174,0.88194907,-0.050142296,0.18455102,0.43080428,-0.4022918,0.6098789,0.5403644,1,0,0,0,0,0,0,-1.8548499,0.080179006,-1.17173,3.028202,-0.3638506,-1.1424184,-3.8908124,0.5201578,-0.06675124,0.22976398
17.247297,42.267796,14.780817,12.411891,-0.04339084,-0.18093696,0.3575542,-0.36610734,0.7580067,-0.4206985,0.20235573,0.6884642,0.525778,-0.25558606,1.1628718,-0.27931297,-2.135349,-0.93742853,2.4809663,1.3215241,-1.0597373,1.1918322,-0.3416468,-2.1010573,-0.953509,2.4218893,1.272801,-1.0363073,-0.7468404,1.3471305,-0.7762508,0.40473193,0.9786907,0.3857358,-0.2122399,1.17181,-0.480056,1.71936,-3.30406,0.0138059,-0.237167,0.17302418,-0.40177566,1.0354446,0.88473374,-0.056281123,0.18596879,0.42366758,-0.34822077,0.6331257,0.52031726,1,0,0,0,0,0,0,-1.82181,0.08005598,-1.1693599,7.2361946,0.17757416,0.6329298,-4.329258,0.6804228,0.08891821,0.29987395
14.574545,34.431053,11.887399,9.188971,-0.10633838,-0.5732534,0.38032058,-0.39884436,0.7527559,-0.4159981,0.111438945,0.7078005,0.4685595,-0.2687983,1.1519477,-0.2663712,-2.142657,-0.94236505,2.4926693,1.319657,-1.0631871,1.1846644,-0.32817852,-2.108721,-0.95014346,2.4317656,1.2766119,-1.0384035,-0.7067799,1.347111,-0.7628791,0.31332275,0.9908937,0.38023663,-0.20896496,1.13808,-0.479971,1.71583,-3.37243,0.0205722,-0.352526,0.16990432,-0.39543852,1.0403967,0.88720554,-0.06218003,0.18740134,0.41698998,-0.29544383,0.6391988,0.48443827,1,0,0,0,0,0,0,-1.78808,0.079970986,-1.1658299,4.014683,0.10244846,1.3876915,-9.261924,1.3375401,-0.3538251,0.23263991
6.529957,32.176907,8.322884,15.883718,0.5626767,-0.37873733,0.10765797,-0.3937808,0.74742097,-0.4562931,0.19465327,0.68895483,0.4994699,-0.29335913,1.1452863,-0.25343642,-2.1543503,-0.9306781,2.5006611,1.326559,-1.0677394,1.1777464,-0.3147365,-2.1164267,-0.94719756,2.4416914,1.2803828,-1.040492,-0.68724716,1.3434414,-0.77246493,0.2877735,0.9936385,0.376263,-0.20939347,1.10469,-0.479996,1.71085,-3.33974,0.0253129,-0.498593,0.16709173,-0.38904163,1.0451288,0.88949543,-0.06793485,0.18885554,0.4105073,-0.2724314,0.6445237,0.4670956,1,0,0,0,0,0,0,-1.7546899,0.07999599,-1.16085,1.7489195,-0.30920506,-0.64502954,-2.7298808,0.33916235,-0.3719926,-0.19582212
3.4981198,27.64183,6.4070587,18.807434,0.9585329,-0.34707975,-0.0025959946,-0.32436627,0.71332633,-0.48871163,0.24607393,0.6767242,0.54064286,-0.32532117,1.1453098,-0.24340385,-2.165298,-0.92259014,2.509364,1.334447,-1.0730242,1.1712252,-0.30149186,-2.1244147,-0.944059,2.4515905,1.2841479,-1.042613,-0.6409741,1.3182471,-0.8066065,0.32187852,0.9885649,0.3764558,-0.2137728,1.07137,-0.479817,1.70526,-3.3312,0.0199142,-0.559247,0.1644027,-0.38260838,1.0497713,0.8916871,-0.07374218,0.19028273,0.40404022,-0.26369935,0.6472749,0.46084127,1,0,0,0,0,0,0,-1.72137,0.079817,-1.1552601,4.4478297,-2.478242,-3.1296253,3.2232761,-0.4361272,-0.012123585,-0.6194174
-1.5873308,24.583977,3.6663601,21.04937,1.3258071,-0.34113792,-0.08958273,-0.38310623,0.71458614,-0.47232294,0.22497374,0.7026003,0.5035246,-0.2814608,1.1329145,-0.23003325,-2.171647,-0.92156166,2.5218506,1.3345003,-1.070759,1.1648127,-0.28848755,-2.1326392,-0.9405695,2.4615011,1.2878863,-1.0447474,-0.6428211,1.2944885,-0.82570446,0.35715413,0.9917058,0.37274727,-0.21413147,1.03841,-0.480061,1.69891,-3.29671,0.00949481,-0.634217,0.16167352,-0.37617138,1.0543745,0.89384156,-0.07963331,0.1916416,0.39746585,-0.27215648,0.6468408,0.4577727,1,0,0,0,0,0,0,-1.6884099,0.08006099,-1.14891,-0.6298542,-2.3617268,-1.2925386,3.3076227,0.31080246,-0.47701597,-0.2433598
-4.2252603,21.262135,1.8874893,22.163666,1.5488098,-0.36219898,-0.13965753,-0.38503507,0.6929485,-0.48441562,0.25370848,0.7041784,0.5174638,-0.27213404,1.1263092,-0.2191927,-2.1810808,-0.9151987,2.531919,1.3396326,-1.0719608,1.1582628,-0.27577126,-2.1410277,-0.9366442,2.4714499,1.291598,-1.046876,-0.6608973,1.263983,-0.84109753,0.40355176,0.99594736,0.37019324,-0.21320495,1.00554,-0.479564,1.69145,-3.28645,0.00710243,-0.7465,0.15878794,-0.36975914,1.0589631,0.89599484,-0.08562317,0.19290096,0.39070573,-0.2903312,0.64382356,0.45696843,1,0,0,0,0,0,0,-1.65554,0.079564005,-1.1414499,-2.3662567,-3.049779,-0.78419447,4.410374,0.39314032,-0.39346218,-0.12632906
-1.3198173,18.62891,2.4306903,18.257675,1.1970656,-0.6098323,-0.040551256,-0.344048,0.6754552,-0.51195633,0.22406422,0.7022689,0.5141279,-0.28832352,1.1238581,-0.20822573,-2.1922233,-0.9142378,2.5416768,1.3430108,-1.0757083,1.1517054,-0.2633778,-2.1496527,-0.93248427,2.4814367,1.2952887,-1.0490046,-0.65521634,1.2312335,-0.86788756,0.41950133,0.9994859,0.3686439,-0.21318306,0.97335,-0.478567,1.68339,-3.21928,0.0186245,-0.805819,0.15582123,-0.3634259,1.063459,0.8981185,-0.09161667,0.19406973,0.38383114,-0.2948072,0.63460106,0.4448926,1,0,0,0,0,0,0,-1.6233499,0.078567,-1.13339,0.20426512,-3.2464743,-2.1704912,1.4018953,0.3610611,-0.1965046,-0.16615689
-0.47384524,17.821293,2.4032052,15.96297,0.97898984,-0.7666,0.0150440065,-0.37174112,0.67431855,-0.5142026,0.1884884,0.71536654,0.49129736,-0.253354,1.1145313,-0.19594592,-2.201073,-0.91363543,2.5529733,1.3444184,-1.07434,1.1451117,-0.25124085,-2.1585143,-0.92844546,2.4914885,1.2989508,-1.0511045,-0.66200495,1.2079742,-0.89045155,0.39807835,1.0071368,0.3656326,-0.20943558,0.940051,-0.478399,1.67447,-3.32988,0.0279493,-0.891888,0.15285948,-0.35721603,1.0677719,0.90018773,-0.09746967,0.19518577,0.376914,-0.29271927,0.62127525,0.42453653,1,0,0,0,0,0,0,-1.5900509,0.078399,-1.12447,-1.0391593,-2.2854567,-1.7594099,-2.3238122,0.7666588,-0.29823184,0.23661852
-0.29030466,11.225082,1.0200584,11.020488,0.6489731,-1.202881,0.07357152,-0.3871553,0.65704805,-0.534277,0.11382216,0.7118853,0.43710923,-0.2578117,1.1063962,-0.18553604,-2.211942,-0.91706324,2.562677,1.3426617,-1.0768857,1.1383864,-0.23933113,-2.1676428,-0.9250313,2.5015974,1.3025519,-1.0531683,-0.6768626,1.185538,-0.9191215,0.3219788,1.0124786,0.35847735,-0.20543872,0.906871,-0.478806,1.66461,-3.31799,0.0282189,-0.98573,0.1499819,-0.35126695,1.071753,0.9022064,-0.10293179,0.19629773,0.3699943,-0.28229305,0.5907784,0.38735524,1,0,0,0,0,0,0,-1.5568709,0.07880598,-1.11461,-1.7161369,-2.171278,-2.5540352,-7.771617,0.5509138,-0.6152153,0.33129454
-8.923229,-0.68656635,-4.8279085,15.392091,1.47412,-1.2574956,-0.17365347,-0.40477327,0.5856544,-0.5869525,0.23030467,0.69236505,0.5032606,-0.2922889,1.0979091,-0.18076569,-2.2263381,-0.90200084,2.570834,1.352878,-1.0823972,1.1314265,-0.2279154,-2.1772292,-0.92180216,2.5116873,1.3061262,-1.0552225,-0.7036513,1.1270181,-0.96978045,0.32252198,1.0076578,0.35704577,-0.20583962,0.873806,-0.479146,1.65385,-3.30647,0.0203128,-1.07694,0.14693682,-0.34570277,1.0754684,0.9042755,-0.1080866,0.19734755,0.3628458,-0.30818617,0.54940116,0.36445162,1,0,0,0,0,0,0,-1.523806,0.079146,-1.1038499,-3.1280875,-5.8236837,-4.487729,-0.14760494,-0.51944256,-0.17364621,-0.16217828
-6.668728,13.835009,-1.3863723,21.246326,1.5889664,-0.68046296,-0.19777013,-0.4333667,0.6167905,-0.5598957,0.24482262,0.70690274,0.47247958,-0.24350344,1.0880898,-0.16623636,-2.2332187,-0.8973199,2.5823774,1.3533742,-1.0795728,1.1240851,-0.2168814,-2.1871054,-0.91833556,2.521758,1.3096644,-1.0572519,-0.74678,1.095466,-0.9900959,0.3539397,1.0065409,0.35227197,-0.2026344,0.84011,-0.479422,1.64194,-3.36961,0.00897625,-1.19091,0.14364462,-0.34032235,1.0791006,0.90639585,-0.11317489,0.19834152,0.35538495,-0.3326718,0.5386954,0.36123833,1,0,0,0,0,0,0,-1.4901099,0.079422,-1.0919399,-5.0695777,-3.171301,-1.0452628,2.933377,-0.20024776,-0.62090755,0.11958778
-11.070633,-5.4811025,-6.28796,18.913677,1.9861803,-1.1262608,-0.24800831,-0.38411868,0.48882017,-0.6219861,0.3090147,0.6647528,0.5510393,-0.3364688,1.0856732,-0.16799937,-2.249304,-0.88743407,2.5882335,1.3647683,-1.0908988,1.1166197,-0.2066325,-2.1973708,-0.9142033,2.5316954,1.3132197,-1.0593176,-0.74807996,1.0013485,-1.0368956,0.43231958,0.98968434,0.35619912,-0.20840482,0.807502,-0.478962,1.62897,-3.2608,-0.00232181,-1.29666,0.13997301,-0.3352381,1.0826759,0.90858334,-0.11829781,0.19917119,0.34758106,-0.37514564,0.50287145,0.35483477,1,0,0,0,0,0,0,-1.4575019,0.078962,-1.07897,-0.60293674,-9.415269,-4.0638447,7.6661167,-1.7161846,0.29593706,-0.735271
-14.851976,-33.793213,-12.026101,10.119061,2.2079024,-2.0822124,-0.088198975,-0.36422235,0.34854856,-0.63101,0.29457822,0.67966944,0.5326814,-0.2905413,1.0801975,-0.17177764,-2.2604718,-0.8847455,2.5996623,1.3664879,-1.0883718,1.1093622,-0.1978792,-2.2081091,-0.909413,2.541522,1.3168112,-1.0614004,-0.7180744,0.833496,-1.0864373,0.4943047,0.98027647,0.3603848,-0.20839545,0.774455,-0.479071,1.61503,-3.30477,-0.0116169,-1.3936,0.13577755,-0.3308769,1.0860274,0.9108482,-0.12324789,0.19957726,0.3396092,-0.43077186,0.41883814,0.32732737,1,0,0,0,0,0,0,-1.4244549,0.079070985,-1.0650301,3.079617,-16.73143,-5.0630093,6.120646,-0.87652206,0.48013926,-0.0076532364
-17.722755,-45.349396,-14.819655,8.9141245,2.5084987,-2.336952,-0.08127874,-0.35203794,0.2428353,-0.6427126,0.37451917,0.6447679,0.54966074,-0.28121728,1.0741584,-0.17359567,-2.2723804,-0.87196106,2.6059988,1.3717773,-1.0895221,1.1025053,-0.19109404,-2.219309,-0.9037987,2.5511808,1.3204542,-1.0634699,-0.6742456,0.6270236,-1.1321504,0.58382815,0.96094173,0.36601895,-0.20627396,0.741084,-0.478906,1.60008,-3.33705,-0.00666689,-1.49539,0.13092259,-0.32746062,1.0891047,0.9131965,-0.12797098,0.1994106,0.33155823,-0.5005538,0.3212127,0.3002929,1,0,0,0,0,0,0,-1.391084,0.078906,-1.0500801,4.648602,-20.596481,-4.927206,8.961666,-1.8383622,0.62279105,0.26875734
-15.349968,-37.865925,-12.811514,7.8591814,2.090849,-2.299939,-0.044274114,-0.3776124,0.21748035,-0.6621202,0.3275034,0.64575887,0.48580652,-0.24641722,1.0647441,-0.169346,-2.285521,-0.87104833,2.6157568,1.3690349,-1.0881116,1.0959097,-0.18610036,-2.2309325,-0.8976799,2.560668,1.324103,-1.0654879,-0.6536812,0.4569706,-1.1733781,0.62137586,0.94481325,0.3648144,-0.20002945,0.708137,-0.478562,1.58379,-3.29466,0.00558293,-1.62883,0.12547107,-0.3249705,1.0918667,0.9156234,-0.13234462,0.19876225,0.32343802,-0.55722123,0.23058744,0.26754424,1,0,0,0,0,0,0,-1.3581369,0.07856199,-1.0337899,2.3213148,-16.96288,-4.471636,3.8080573,-1.5449643,-0.05699992,0.71914196
-21.41643,-71.46364,-20.196472,-2.68039,2.293437,-3.4498007,0.04690195,-0.3505994,-0.01462694,-0.6805054,0.3218304,0.6283556,0.47168761,-0.23348221,1.0608498,-0.18756306,-2.298983,-0.8654969,2.6235034,1.3712717,-1.0888361,1.0895678,-0.1833762,-2.2429678,-0.89142287,2.5699797,1.327727,-1.0674257,-0.6252751,0.2112143,-1.2167754,0.62777954,0.92707795,0.36207613,-0.19075786,0.675105,-0.478381,1.56642,-3.3032,0.0145487,-1.73753,0.11930355,-0.32383195,1.094101,0.9181799,-0.1360204,0.19748552,0.3153467,-0.634434,0.08070889,0.20831504,1,0,0,0,0,0,0,-1.325105,0.078381,-1.0164199,3.602755,-24.485552,-5.3711176,0.81750154,-1.6390681,-0.1521945,1.2126625
-16.337936,-78.70764,-17.867731,-9.839083,1.9187561,-3.859816,0.32335445,-0.22926454,-0.1595447,-0.6736234,0.29985595,0.633215,0.4590297,-0.27634728,1.0666413,-0.19933066,-2.3103302,-0.86143726,2.6333013,1.3736299,-1.0950605,1.0840155,-0.1833173,-2.2553008,-0.8853327,2.5791655,1.3313147,-1.0693045,-0.52900004,-0.062162086,-1.2426817,0.60363024,0.9160983,0.3581247,-0.18564244,0.641989,-0.478902,1.5481,-3.31169,0.0115404,-1.83157,0.112490766,-0.32432312,1.095633,0.9208251,-0.13878722,0.19538055,0.30764514,-0.695417,-0.0866399,0.1344659,1,0,0,0,0,0,0,-1.291989,0.078902006,-0.9981,10.506571,-27.222622,-3.7836075,-2.1544814,-0.9612322,-0.26342273,0.88192225
-3.6744506,-47.95764,-6.7118964,-4.5594444,1.3333317,-2.9103699,0.5405827,-0.07627661,-0.20967396,-0.6685852,0.3538657,0.614191,0.50660986,-0.26891685,1.0763879,-0.2042847,-2.3221593,-0.84994614,2.6405845,1.3819757,-1.0961962,1.0800482,-0.1856333,-2.2677214,-0.87926924,2.5882177,1.3349005,-1.0711393,-0.3518142,-0.2878386,-1.2436942,0.60814774,0.90176404,0.35902497,-0.18205164,0.609324,-0.479164,1.52942,-3.26644,0.000917912,-1.86805,0.10538092,-0.32609195,1.0965645,0.92339355,-0.1409234,0.19247195,0.30073163,-0.7156215,-0.20159999,0.07883468,1,0,0,0,0,0,0,-1.259324,0.079164,-0.97942,18.013996,-22.493198,-0.55975914,0.68677664,-1.3592124,0.19288063,0.6180495
9.179004,-20.815914,3.71241,-3.210949,0.48311436,-2.3116329,0.8184497,0.0700888,-0.26558658,-0.6563064,0.30239287,0.6296805,0.4638221,-0.20578672,1.0870571,-0.21219195,-2.333352,-0.84902996,2.6511858,1.3812827,-1.091718,1.0782934,-0.18976939,-2.2799742,-0.8733641,2.59719,1.3384672,-1.0729055,-0.118389346,-0.45534834,-1.2172986,0.5850514,0.89593023,0.3564397,-0.17425467,0.577253,-0.478433,1.50984,-3.20706,0.00377021,-1.95836,0.09843251,-0.32874,1.0969814,0.9257183,-0.14262956,0.18885617,0.29501814,-0.6876034,-0.28116202,0.028325284,1,0,0,0,0,0,0,-1.227253,0.07843301,-0.95984,22.877722,-16.694324,3.1147242,-2.2031546,-0.6272912,-0.12885928,0.9168297
6.021501,-24.680124,1.6168334,-0.6772209,0.82895124,-2.2740893,0.70509905,0.13905971,-0.4286317,-0.65527576,0.39351094,0.5748572,0.4872412,-0.13605289,1.0921994,-0.23263256,-2.345502,-0.834013,2.6546757,1.3871914,-1.0865108,1.0787741,-0.19572365,-2.2919295,-0.86725104,2.6059713,1.3420225,-1.074544,0.10174222,-0.6420756,-1.186463,0.62061626,0.8719205,0.35547403,-0.15992323,0.54422,-0.477878,1.48933,-3.3033,0.00913771,-2.05065,0.091647774,-0.33217397,1.0969645,0.9277853,-0.14406684,0.18456484,0.29050797,-0.67488396,-0.3605452,-0.013315018,1,0,0,0,0,0,0,-1.19422,0.077878,-0.93933004,21.456327,-18.660187,3.6329746,3.7407517,-2.4389744,-0.04284978,1.597771
4.478144,-25.697582,0.374209,-1.3707407,0.7426848,-2.387797,0.59975064,0.1955212,-0.51019543,-0.6416029,0.3578364,0.5670534,0.45857155,-0.17398125,1.0983262,-0.2467432,-2.3560898,-0.8314674,2.6626766,1.3878797,-1.0919421,1.0811354,-0.20345104,-2.3035529,-0.86090815,2.614501,1.3455454,-1.0760756,0.27889925,-0.81636345,-1.1519508,0.63950795,0.8464767,0.3513138,-0.15033439,0.511856,-0.477757,1.46805,-3.23645,0.0138899,-2.12847,0.08496491,-0.336434,1.0964981,0.9296552,-0.145195,0.17966363,0.2870199,-0.6650294,-0.44528517,-0.059901424,1,0,0,0,0,0,0,-1.1618559,0.077757,-0.91805,17.076794,-17.445528,4.1029453,2.0819545,-2.6337743,-0.42235255,1.1331141
-1.4338939,-32.02124,-4.1035314,-2.5748506,0.6971138,-2.629996,0.34580812,0.18239427,-0.58692884,-0.64391166,0.31343934,0.50958997,0.47683066,-0.20445615,1.0993748,-0.2621439,-2.367944,-0.8295642,2.66546,1.3932285,-1.0965211,1.0846354,-0.21280515,-2.314936,-0.85463583,2.6226454,1.3490378,-1.0775461,0.37272385,-0.9752201,-1.133035,0.62390035,0.80350965,0.34843636,-0.14521518,0.479112,-0.47823,1.44579,-3.27443,0.0143864,-2.22578,0.07826888,-0.34163332,1.0954891,0.9314486,-0.14581229,0.17433472,0.28416467,-0.66943175,-0.543273,-0.11755091,1,0,0,0,0,0,0,-1.129112,0.07822999,-0.89579004,9.054589,-15.927612,2.1713018,-1.3153195,-4.3706775,-0.3654778,0.7300526
-10.159343,-28.409107,-8.911072,2.2605963,0.8981031,-2.4078014,-0.062685855,0.0897278,-0.61966836,-0.6585505,0.3062414,0.43935126,0.49191856,-0.18146794,1.0936081,-0.274772,-2.380791,-0.8240117,2.6665804,1.3982296,-1.0956929,1.0881869,-0.22343743,-2.3263342,-0.8486086,2.63021,1.3525149,-1.0789576,0.35094002,-1.0928036,-1.144297,0.5968936,0.7407439,0.34727433,-0.13901822,0.445669,-0.47888,1.4222,-3.34423,0.00932962,-2.35847,0.071344376,-0.3477338,1.093924,0.933319,-0.14579551,0.16891116,0.2812977,-0.6977475,-0.6313264,-0.1731313,1,0,0,0,0,0,0,-1.095669,0.07887998,-0.87219995,-1.6937375,-11.8329525,-1.7863035,-2.341032,-6.2241793,-0.22058487,0.86957514
-19.244911,-41.832,-16.134546,-4.3934674,0.5093759,-3.036756,-0.3624193,-0.070575096,-0.65254825,-0.6844281,0.0765089,0.35459208,0.50630295,-0.2605193,1.0811293,-0.28869227,-2.394777,-0.8409577,2.6656692,1.4031452,-1.1050094,1.09051,-0.23497307,-2.338072,-0.843907,2.6369734,1.355992,-1.0803709,0.1967815,-1.174115,-1.1888638,0.42940181,0.65522766,0.34706882,-0.14119124,0.412863,-0.479086,1.3979,-3.28064,-0.00360534,-2.42996,0.06402242,-0.35495895,1.0915419,0.9354724,-0.14459689,0.16376486,0.27778405,-0.7411434,-0.75196964,-0.2641741,1,0,0,0,0,0,0,-1.062863,0.079086006,-0.8479,-14.165047,-8.217025,-5.988455,-16.327072,-8.4638,-0.2180934,0.07113218
-25.31394,-15.681976,-16.492285,7.9603004,0.12916479,-1.9211814,-0.845315,-0.25685188,-0.60470694,-0.67491883,0.09073514,-0.041771207,0.55351907,-0.31161335,1.0648248,-0.29544377,-2.4055638,-0.8348335,2.6327963,1.4113438,-1.1115322,1.0904452,-0.24676502,-2.3502486,-0.8407446,2.641818,1.3595091,-1.0818586,-0.06723875,-1.1813694,-1.2351382,0.2802812,0.42825165,0.35286736,-0.15088302,0.380252,-0.479205,1.37279,-3.26113,-0.0209039,-2.51105,0.056272853,-0.36297956,1.0883929,0.9380092,-0.14216815,0.15971167,0.27279848,-0.7839765,-0.8169914,-0.33648074,1,0,0,0,0,0,0,-1.030252,0.07920501,-0.82278997,-24.315886,-0.8686781,-6.979084,-14.400816,-22.528488,0.484699,-0.84224045
-22.699224,-51.31987,-20.457865,-19.793865,-2.1715224,-3.7891932,-0.5916984,-0.39803097,-0.6526183,-0.6856875,-0.48688334,-0.4465234,0.61823547,-0.34675908,1.050642,-0.31202686,-2.4188173,-0.88943297,2.5971658,1.4213326,-1.1165346,1.087382,-0.25861835,-2.3628104,-0.84143794,2.6433249,1.363114,-1.0834818,-0.38019854,-1.1872343,-1.2689373,-0.18441421,0.057389047,0.36158377,-0.16660975,0.347173,-0.479099,1.34618,-3.30785,-0.0264821,-2.66167,0.048449196,-0.37235993,1.0837955,0.94100034,-0.1373609,0.15745407,0.26619262,-0.7810281,-0.97534144,-0.5056738,1,0,0,0,0,0,0,-0.99717295,0.079099,-0.79617995,-29.579893,-0.7572651,-5.002308,-46.054928,-37.36763,0.4175365,-1.7089307
-11.114399,-46.115944,-13.638531,-26.918724,-3.0133183,-3.769947,-0.07877697,-0.45198265,-0.6569687,-0.5755252,-0.71396554,-0.6195749,0.70035243,-0.2973446,1.0421836,-0.32431522,-2.420363,-0.91283447,2.5813673,1.4331492,-1.1132163,1.0815359,-0.27048635,-2.3750365,-0.8474394,2.6409903,1.3668467,-1.0852327,-0.6489029,-1.1873981,-1.2090659,-0.73740786,-0.3323411,0.37472695,-0.17923936,0.314303,-0.478713,1.31889,-3.287,-0.0176041,-2.72897,0.040947527,-0.38334203,1.0773219,0.9442896,-0.12960128,0.15702902,0.25857764,-0.74155,-1.1343902,-0.70012337,1,0,0,0,0,0,0,-0.964303,0.078713,-0.76888996,-25.716423,-0.24087429,5.3081512,-54.911316,-39.60409,0.52945614,-1.6912401
11.796959,24.468317,7.052651,-7.7577157,-3.0824387,-1.3440316,0.4197173,-0.39296913,-0.504163,-0.48412383,-0.76530313,-0.6242871,0.7115883,-0.36725977,1.0422391,-0.32090265,-2.4234488,-0.92396975,2.5785615,1.4380056,-1.1219587,1.0740229,-0.28161764,-2.3860953,-0.8582159,2.6354513,1.3707243,-1.0871458,-0.7845793,-1.0887375,-1.0711734,-1.1909767,-0.6296996,0.390239,-0.19648196,0.282007,-0.478748,1.2902,-3.22966,-0.00439584,-2.86884,0.03430195,-0.3950367,1.0693825,0.9474917,-0.11967474,0.15811546,0.250872,-0.64373744,-1.1748052,-0.8319968,1,0,0,0,0,0,0,-0.93200696,0.07874799,-0.7402,-13.295221,9.759951,13.849497,-45.31497,-30.29843,1.0048032,-2.1011086
-0.6912241,6.9612093,-0.07469916,-1.2058725,-0.7228441,-1.2885869,0.33214986,-0.5103827,-0.6491529,-0.5015175,-0.78611207,-0.5281676,0.695736,-0.32100734,1.0229846,-0.34653294,-2.436247,-0.9368271,2.5826344,1.440298,-1.1192465,1.0653483,-0.29244232,-2.3959677,-0.8722178,2.628047,1.3747278,-1.0891733,-0.89309824,-1.0809528,-0.9606681,-1.4688437,-0.77843505,0.40186894,-0.20548563,0.249002,-0.479435,1.26032,-3.30049,-0.00177856,-2.98752,0.028050132,-0.40716282,1.0603127,0.95051223,-0.108295925,0.15988885,0.24338019,-0.6259965,-1.2173685,-0.939746,1,0,0,0,0,0,0,-0.89900196,0.07943499,-0.71031994,-10.2664585,0.5959749,10.63447,-27.454067,-15.181923,0.56067705,-1.0863036
-18.360405,-2.538107,-9.187547,9.322902,1.4540938,-0.948441,-0.016625851,-0.63724166,-0.69750714,-0.53605056,-0.7852696,-0.5211801,0.70530695,-0.24083696,1.0016241,-0.36219305,-2.4495728,-0.95074475,2.575929,1.4452585,-1.113257,1.0554491,-0.30361366,-2.4052222,-0.88773024,2.619853,1.3788458,-1.0912104,-1.0189226,-1.1300697,-0.9161538,-1.5768003,-0.83358043,0.41366118,-0.20344695,0.216836,-0.479912,1.22975,-3.21654,-0.009245,-3.05743,0.021368343,-0.41961655,1.0503873,0.953421,-0.09601799,0.16173002,0.23582248,-0.6903449,-1.2453061,-1.0185853,1,0,0,0,0,0,0,-0.86683595,0.07991201,-0.67975,-11.634445,-5.1834583,3.6812305,-10.238314,-5.718744,0.69640875,0.09897947
-27.815268,-4.466918,-13.634436,16.210989,2.7339978,-0.6438213,-0.2024156,-0.6775619,-0.7291793,-0.5620263,-0.7908414,-0.4853701,0.70526606,-0.19684462,0.98769295,-0.3765316,-2.4614248,-0.9668144,2.571316,1.4493724,-1.1108948,1.0444151,-0.31550646,-2.414469,-0.9034964,2.6116095,1.3830763,-1.0931768,-1.1281105,-1.2100447,-0.930836,-1.5743625,-0.8213377,0.42493615,-0.19452791,0.185291,-0.479495,1.19905,-3.15454,-0.0114924,-3.06963,0.013713013,-0.43225273,1.0398333,0.95626885,-0.08325927,0.1632676,0.22795068,-0.7997647,-1.2587622,-1.0768535,1,0,0,0,0,0,0,-0.83529097,0.07949498,-0.64904994,-9.853053,-8.302307,-2.3819566,0.8997202,1.1021376,0.76690316,0.8748144
-30.515114,2.8006663,-13.912604,20.957193,3.2173471,-0.2580198,-0.2739849,-0.70566434,-0.74312884,-0.5970121,-0.79648817,-0.4497994,0.70644706,-0.15744291,0.9738487,-0.38981935,-2.4741702,-0.9831452,2.5666294,1.453721,-1.1089212,1.0324789,-0.32817316,-2.4241927,-0.9188677,2.6037664,1.3874136,-1.0950212,-1.2119697,-1.2865477,-0.98963475,-1.5223686,-0.77217686,0.43575734,-0.18063688,0.152575,-0.479151,1.1674,-3.27156,-0.0103056,-3.16501,0.004875196,-0.44489706,1.0288066,0.95906585,-0.07027354,0.16433673,0.21965349,-0.92146385,-1.2536064,-1.1208875,1,0,0,0,0,0,0,-0.802575,0.079151005,-0.6174,-7.316613,-7.9493046,-6.855917,5.8766365,4.852247,0.82283616,1.4586776
-25.622272,15.939846,-9.725811,23.23767,3.0499535,0.1803829,-0.18422526,-0.7110014,-0.75380224,-0.5972164,-0.7973499,-0.42058635,0.7102438,-0.16596144,0.9613788,-0.4035534,-2.4839144,-0.9986027,2.5617077,1.458438,-1.1116174,1.0199686,-0.3414631,-2.4345076,-0.93366015,2.5965147,1.3918539,-1.096736,-1.2612456,-1.3439916,-1.0480312,-1.4628612,-0.7093777,0.44626856,-0.1677195,0.1203,-0.479068,1.1347,-3.22757,-0.00690562,-3.27051,-0.005044479,-0.45735544,1.0174116,0.96177083,-0.057223707,0.16489354,0.2110267,-1.0253657,-1.2288489,-1.1554902,1,0,0,0,0,0,0,-0.7703,0.079068005,-0.5846999,-4.0379763,-5.995536,-6.73666,6.545496,6.2734604,0.87931156,1.4436573
-26.513985,18.152357,-9.842274,23.286402,3.260067,0.24689806,-0.14733821,-0.7460115,-0.7856172,-0.6608294,-0.79071945,-0.27331915,0.70156324,-0.061342977,0.94536746,-0.4200248,-2.5005906,-1.0127321,2.5691829,1.4620103,-1.1028702,1.0070349,-0.3552742,-2.445574,-0.947929,2.590251,1.3963801,-1.0982504,-1.3011308,-1.394366,-1.1290475,-1.4127522,-0.5991196,0.45403397,-0.145503,0.0882405,-0.479493,1.10079,-3.20591,-0.00264144,-3.39047,-0.01604269,-0.4695457,1.0056686,0.96437883,-0.04413577,0.16479234,0.20216036,-1.1344838,-1.199975,-1.1904947,1,0,0,0,0,0,0,-0.7382405,0.079492986,-0.55079,-3.1286955,-5.3019047,-8.95443,5.633569,10.9975815,0.5659878,2.425036
-21.228834,30.835655,-5.5867,24.516426,2.7666864,0.65742207,-0.09636522,-0.7544272,-0.7828441,-0.6638027,-0.7773349,-0.3162775,0.70396805,-0.10937444,0.93159217,-0.4335586,-2.5119543,-1.0256625,2.5586233,1.4667768,-1.1091878,0.9938055,-0.3694105,-2.4573042,-0.9617907,2.584834,1.4009787,-1.0995951,-1.327966,-1.4207996,-1.1898226,-1.375512,-0.5225635,0.4612583,-0.12994516,0.0557121,-0.479846,1.06617,-3.25283,0.000116868,-3.4621,-0.027935851,-0.4813321,0.99361175,0.9668533,-0.031040885,0.16412942,0.19311301,-1.2172596,-1.1543895,-1.2206712,1,0,0,0,0,0,0,-0.7057121,0.079845995,-0.51616997,-2.001381,-2.8683424,-6.7907333,4.2494774,7.6336026,0.577271,1.752457
-14.951115,40.62896,-1.2707186,24.1674,2.1756396,0.9445754,-0.028456055,-0.75179785,-0.78149575,-0.67051584,-0.7836248,-0.33245036,0.71502525,-0.20327532,0.9186257,-0.4475601,-2.524356,-1.0401531,2.551589,1.4724813,-1.1199226,0.98042166,-0.38366604,-2.4694655,-0.97545207,2.5799284,1.4056498,-1.1008768,-1.3403419,-1.4277507,-1.2266616,-1.3616127,-0.4802626,0.46876866,-0.12684907,0.0226959,-0.480436,1.0307,-3.30163,-0.00934058,-3.54698,-0.04044287,-0.49259916,0.9812581,0.96914315,-0.017951872,0.16307417,0.18397252,-1.271193,-1.0992488,-1.2501918,1,0,0,0,0,0,0,-0.6726959,0.08043599,-0.48069996,-0.75523853,-0.88026524,-4.2147875,1.8070698,4.1978416,0.64371824,0.477615
-9.655352,48.9105,2.392995,24.158867,1.6183873,1.2062738,0.044560723,-0.7513585,-0.7772953,-0.671781,-0.7805959,-0.39430848,0.7250578,-0.17760997,0.90528584,-0.46139556,-2.5366435,-1.0535116,2.5404975,1.4781556,-1.1186378,0.9669844,-0.3978839,-2.4818213,-0.98907244,2.57508,1.4103991,-1.1021261,-1.3436872,-1.4203255,-1.2396185,-1.3610404,-0.48651817,0.47677583,-0.12401948,-0.00747602,-0.479939,0.998897,-3.01719,-0.0167171,-3.18039,-0.05329522,-0.5032658,0.9686224,0.97119284,-0.0048633493,0.16184345,0.17483583,-1.2985972,-1.0367436,-1.2777115,0,1,0,0,0,0,0,-0.64252394,0.07993901,-0.448897,-0.0108242035,0.5941868,-1.6828775,0.37779808,-0.6666422,0.7440269,0.40450245
-9.661321,47.078026,2.325346,23.060545,1.7395489,1.1492234,0.11826875,-0.76100194,-0.7971077,-0.68231833,-0.7753512,-0.29645255,0.71493995,-0.086067736,0.8908842,-0.47759467,-2.5500531,-1.0666076,2.5454347,1.4818931,-1.1107329,0.95351803,-0.4120671,-2.4945288,-1.0029955,2.5705092,1.4162388,-1.1030844,-1.344036,-1.4139662,-1.3398811,-1.4600987,-0.44927505,0.7989231,-0.0631627,-0.0304556,-0.473471,0.997874,-2.29796,0.0512679,-0.102371,-0.066487566,-0.51323795,0.95556825,0.97295946,0.007922088,0.16046943,0.16594177,-1.3379718,-0.95188564,-1.3521476,1,0,0,0,0,0,0,-0.6195444,0.07347098,-0.447874,0.65083504,1.2020111,-19.994186,-19.17498,5.550474,63.77469,11.1831
82.48178,176,110,110,6.272401,20.527344,-0.22708762,-0.5909418,0.65039295,0.20607676,0.7755091,0.64121354,0.52882826,0.10668096,0.89442384,-0.34702778,-2.473921,-0.9254446,2.6346304,1.4691216,-1.0924164,0.93811804,-0.42882895,-2.4894776,-1.0100298,2.5693376,1.4382801,-1.1140555,-1.4818783,-1.6762153,0.8241247,-0.51609665,0.15071724,2.7079527,-1.3581396,-0.048929,-0.464301,1.00789,-1.84733,0.2009,1.00197,-0.07780051,-0.518006,0.9453926,0.97465956,0.0059249247,0.15699369,0.15923761,-1.0684154,-0.29588607,-0.91555643,1,0,0,0,0,0,0,-0.601071,0.064300984,-0.45788997,23.267246,-9.54E-05,127.529236,74.95854,107.27297,201.54613,-104.404594
-45.3786,176,8.436268,110,8.638906,6.4815655,-1.8212632,-0.8062645,-0.6795038,-0.75368595,0.7052677,0.015625976,0.34161034,0.12146002,0.8574916,-0.49677932,-2.5648463,-0.939503,2.5709002,1.4724412,-1.1019095,0.9222298,-0.4446652,-2.4805093,-1.0099707,2.5729158,1.4654732,-1.1283263,-1.6155857,-1.5513561,0.9063139,0.18156461,0.4335088,2.7321553,-1.4447032,-0.0666594,-0.454197,1.01744,-1.77304,0.406933,0.954592,-0.08937663,-0.5190097,0.9387436,0.9766481,-0.0038263763,0.15227245,0.15151516,-1.1907783,-0.020835735,-0.5849325,1,0,0,0,0,0,0,-0.5833406,0.054196984,-0.46743995,-10.70435,12.915921,3.8310409,70.2527,30.213398,5.1186085,-7.0299625
-79.540924,150.80824,-16.098843,107.79969,8.653044,3.4355087,-2.5219226,-0.8227985,-0.62529355,-0.7307477,0.7378324,0.48017645,0.508713,-0.18788049,0.83994997,-0.5071945,-2.553584,-0.93618745,2.6209335,1.5163444,-1.1471144,0.90636927,-0.45869803,-2.4763932,-1.0028028,2.579069,1.4909363,-1.1417159,-1.5690277,-1.3532127,0.23339692,0.89837253,0.6854858,2.4894402,-1.3013532,-0.0847874,-0.445173,1.02627,-1.8128,0.614769,0.883365,-0.10275051,-0.5178231,0.9350556,0.97883815,-0.015841233,0.1479813,0.14045037,-1.3904517,0.17625196,-0.30078334,1,0,0,0,0,0,0,-0.5652126,0.04517299,-0.47627002,6.8305492,20.03932,-71.22047,72.625885,27.930664,-22.74127,15.080571
-75.436516,116.409805,-20.928986,82.714005,5.941344,1.3693585,-2.1620145,-0.8101939,-0.56334317,-0.7229135,0.7562316,0.46427894,0.49949047,-0.12147345,0.82534987,-0.51503235,-2.5486846,-0.9271797,2.6254969,1.5408853,-1.1538632,0.8911248,-0.47072196,-2.4799447,-0.9902439,2.5866754,1.5133743,-1.1533087,-1.5047866,-1.1527258,-0.5609345,1.3780785,0.79380566,2.1635466,-1.1117337,-0.101848,-0.436095,1.03441,-1.70606,0.792246,0.814152,-0.11780442,-0.5152016,0.93339854,0.98099,-0.027925564,0.14507541,0.12582424,-1.5451589,0.30169064,-0.12659578,1,0,0,0,0,0,0,-0.54815197,0.036094993,-0.48441,7.875085,19.876553,-82.29296,48.88611,13.131356,-32.0673,19.018482
-49.93258,93.09304,-12.517258,55.87837,3.211648,0.3573479,-1.2062738,-0.82482475,-0.50625217,-0.725392,0.7263595,0.5484515,0.35718116,-0.011392158,0.8086423,-0.52134717,-2.5524838,-0.91760796,2.6415205,1.5490924,-1.1544479,0.8764058,-0.48095536,-2.4901032,-0.97491455,2.5950258,1.5326118,-1.1630305,-1.4587917,-0.98136467,-1.1721336,1.5863067,0.853265,1.8442701,-0.92640734,-0.119189,-0.425944,1.04249,-1.73413,0.913807,0.807333,-0.13384268,-0.51170295,0.93280536,0.98287874,-0.038835716,0.14362086,0.10869286,-1.6196702,0.37856442,-0.04341022,1,0,0,0,0,0,0,-0.53081095,0.025943995,-0.49249,5.241823,16.796482,-62.507652,21.34087,7.194197,-31.743122,18.267488
-22.444792,91.00911,0.12564737,39.158123,0.8466304,0.23861837,-0.36064616,-0.8445876,-0.40431082,-0.7508968,0.696887,0.45684248,0.17513432,-0.028908113,0.791947,-0.52138644,-2.565193,-0.9052259,2.64071,1.5501252,-1.1659213,0.86185557,-0.48952365,-2.5044045,-0.9590807,2.6033418,1.5488415,-1.1711138,-1.4540324,-0.8163298,-1.5160079,1.5825804,0.824755,1.550185,-0.7708357,-0.138157,-0.416647,1.04936,-1.89677,0.947456,0.687253,-0.15001571,-0.5076185,0.9326835,0.9843524,-0.04803572,0.14346433,0.09033718,-1.6082122,0.433102,-0.0073628696,1,0,0,0,0,0,0,-0.51184297,0.016646981,-0.49936002,0.3895998,16.192389,-34.295296,-0.33745766,-2.6730537,-29.123068,14.994574
-4.61431,76.37352,6.4800205,25.033537,-0.9087093,-0.11060715,0.20893218,-0.86113656,-0.38808143,-0.78267235,0.66892344,0.16427232,0.10237689,-0.06728188,0.77574193,-0.5283318,-2.5826719,-0.8921884,2.619769,1.5590792,-1.177842,0.8471213,-0.49682927,-2.5205216,-0.94415283,2.6103075,1.5624199,-1.1778716,-1.4811528,-0.70261025,-1.6410148,1.4621291,0.6521648,1.2951342,-0.64609736,-0.155134,-0.407045,1.0549,-1.69771,0.95034,0.553715,-0.16571322,-0.5032517,0.9325884,0.9853408,-0.055257328,0.14459679,0.071707666,-1.546228,0.4532828,-0.014223639,1,0,0,0,0,0,0,-0.49486595,0.007045001,-0.50490004,-3.1110525,11.182785,-11.667037,-12.23774,-17.7099,-25.074196,11.829269
3.2124088,53.40331,7.413702,14.783465,-1.277732,-0.7489648,0.5061394,-0.864585,-0.42269474,-0.7951878,0.65897095,0.09461251,-0.122865126,-0.13457812,0.7606628,-0.53909874,-2.6000404,-0.8782557,2.6197686,1.5501333,-1.1913294,0.832058,-0.5035918,-2.53686,-0.9306078,2.6153352,1.573595,-1.1835955,-1.5158803,-0.66773283,-1.6286457,1.3180867,0.4510627,1.059588,-0.54929453,-0.173628,-0.397331,1.05944,-1.84944,0.951081,0.453889,-0.18080126,-0.49895215,0.9321895,0.9858929,-0.060425207,0.14667615,0.053386137,-1.4854168,0.43716043,-0.05086472,1,0,0,0,0,0,0,-0.47637197,-0.0026690066,-0.50944,-3.825593,3.4062028,2.087164,-14.568281,-20.728987,-23.137522,9.214044
5.113735,30.353832,5.433523,7.217268,-1.6337047,-1.3752595,0.609135,-0.87361366,-0.47273698,-0.79006946,0.63821334,-0.21157724,-0.34672645,-0.13662522,0.7446966,-0.5508655,-2.615867,-0.8667865,2.5941775,1.5389224,-1.1972581,0.81666285,-0.51056886,-2.552588,-0.9183569,2.6177232,1.5825233,-1.188486,-1.5480798,-0.7077572,-1.5522339,1.194009,0.16614358,0.8385726,-0.46997193,-0.191927,-0.387976,1.06308,-1.82983,0.95721,0.364745,-0.19534317,-0.49505264,0.93122774,0.986072,-0.06345645,0.1495569,0.03560689,-1.4339622,0.38817602,-0.11279086,1,0,0,0,0,0,0,-0.45807296,-0.012024015,-0.51307994,-3.4000874,-4.026854,8.219242,-12.449431,-29.03131,-21.71055,7.6026974
0.28842533,0.89750767,-0.008881688,0.444412,-1.1247613,-2.0252779,0.5639993,-0.8728495,-0.5848783,-0.79565847,0.6444411,-0.2893461,-0.3171547,-0.1432023,0.72937787,-0.5690567,-2.6321537,-0.8539128,2.5887885,1.5508078,-1.2028062,0.80105025,-0.51861405,-2.5675454,-0.90694237,2.6174524,1.589508,-1.192686,-1.5652096,-0.83678454,-1.4771515,1.124532,-0.09259876,0.6524499,-0.4036119,-0.209699,-0.378007,1.06585,-1.77724,0.962558,0.276232,-0.20967382,-0.49182007,0.929451,0.98596305,-0.06441392,0.15293677,0.018386692,-1.4246383,0.31445295,-0.20047653,1,0,0,0,0,0,0,-0.44030097,-0.021993011,-0.51585,-1.5861034,-12.917566,7.5282335,-6.7589283,-26.117027,-18.398773,6.532675
-3.151313,2.220272,-1.0067315,3.7168615,-0.4237259,-1.8225782,0.4370203,-0.86830086,-0.61393434,-0.79790246,0.6639892,-0.31256112,-0.30151373,-0.14176755,0.71422017,-0.5800075,-2.6473358,-0.84054345,2.5861962,1.5593567,-1.2068627,0.78537756,-0.5280316,-2.5819306,-0.8957863,2.6150835,1.5948734,-1.1963042,-1.5673124,-0.9768781,-1.4260688,1.1136364,-0.28555578,0.4980411,-0.34807077,-0.228767,-0.368799,1.06782,-1.90676,0.956368,0.197327,-0.22404541,-0.4892145,0.92688674,0.9856168,-0.06363234,0.15654929,0.0016254719,-1.4347657,0.25480357,-0.27635136,1,0,0,0,0,0,0,-0.421233,-0.031201005,-0.51781994,-0.02720356,-14.06579,5.005121,-0.794363,-19.427073,-15.364361,5.529976
-5.1079187,12.026865,-0.4931394,8.149591,0.12339781,-1.4015675,0.3897086,-0.867727,-0.6409517,-0.7955407,0.654494,-0.32516816,-0.2438746,0.038040847,0.6986049,-0.5921267,-2.6614847,-0.83033687,2.5825667,1.570486,-1.1925001,0.7697421,-0.53869843,-2.5959954,-0.8845625,2.611307,1.5989361,-1.1993064,-1.5617257,-1.0968223,-1.4002118,1.1263402,-0.40892577,0.375926,-0.28403595,-0.246184,-0.358896,1.06789,-1.74176,0.960966,0.00667572,-0.23855934,-0.48704085,0.9236804,0.98505384,-0.061485097,0.1602241,-0.01471667,-1.4514226,0.21699409,-0.33700672,1,0,0,0,0,0,0,-0.40381598,-0.04110402,-0.51789004,0.713253,-12.085819,2.5095701,1.5913963,-12.453234,-12.208223,6.4038095
-5.803912,21.049131,0.31711996,11.144044,0.44958532,-1.0029386,0.38285947,-0.8636881,-0.6797155,-0.79466546,0.6408562,-0.3373922,-0.12482306,0.21145113,0.6833733,-0.60666996,-2.675462,-0.8204769,2.5775676,1.5864538,-1.1781613,0.7541953,-0.55038667,-2.6099458,-0.87320805,2.6066988,1.6020374,-1.201599,-1.5519725,-1.1931577,-1.3932164,1.139466,-0.47857678,0.2880707,-0.21087721,-0.263366,-0.348525,1.06712,-1.71812,0.970022,-0.0762701,-0.25323543,-0.4851079,0.919941,0.98428524,-0.058272716,0.16385849,-0.030611578,-1.4682051,0.19740178,-0.38831976,1,0,0,0,0,0,0,-0.38663396,-0.05147502,-0.51711994,1.0835648,-9.7445965,0.6852627,1.6234875,-7.096738,-8.817852,7.314834
-5.771365,36.21911,2.1120918,16.097872,0.7817404,-0.5312043,0.33668223,-0.85989726,-0.6902146,-0.7943853,0.6449193,-0.31117588,-0.1413085,0.26707336,0.66820556,-0.61940813,-2.6893842,-0.8087161,2.575581,1.5879066,-1.1748917,0.73874956,-0.5627606,-2.6239,-0.8617239,2.6017663,1.6043835,-1.203184,-1.5420765,-1.2524993,-1.3956902,1.1522425,-0.49915147,0.21680771,-0.14109941,-0.280883,-0.339665,1.06515,-1.7517,0.967895,-0.196874,-0.26802698,-0.4832115,0.91582733,0.9833201,-0.054264363,0.16737607,-0.04606714,-1.4782432,0.19918378,-0.42153502,1,0,0,0,0,0,0,-0.36911696,-0.06033501,-0.51515,1.0052443,-6.062269,-0.10485649,1.53656,-2.2723436,-7.1614237,6.950793
-4.968289,49.64006,3.7881784,19.788504,0.7145209,-0.113295496,0.29180145,-0.86210406,-0.6914052,-0.7903566,0.63369715,-0.40598205,-0.11330282,0.2580656,0.65253913,-0.6319011,-2.7029357,-0.7983542,2.5611682,1.5930532,-1.1773775,0.7233649,-0.57546544,-2.6378808,-0.85020256,2.5965097,1.606142,-1.2041548,-1.5376011,-1.2769021,-1.3978145,1.1527709,-0.5354484,0.16225487,-0.08284072,-0.298676,-0.330884,1.06353,-1.77938,0.957985,-0.162601,-0.2828009,-0.48119617,0.91147405,0.9821373,-0.04961499,0.17090108,-0.061134774,-1.4727292,0.2144478,-0.44264364,1,0,0,0,0,0,0,-0.35132396,-0.069116,-0.51352996,0.3694296,-2.5749922,0.11358261,0.2455473,-3.953135,-5.447495,5.7355657
-3.7737622,57.29616,4.882554,21.6193,0.6334153,0.14242226,0.25878498,-0.85427284,-0.69874537,-0.7960528,0.6278976,-0.45495698,-0.040290486,0.23970523,0.6379376,-0.64533997,-2.7174861,-0.7874128,2.551014,1.602113,-1.1801844,0.70803076,-0.5882685,-2.6519036,-0.8387394,2.5908105,1.6074905,-1.2046355,-1.5324628,-1.2818735,-1.4020225,1.1446252,-0.58296806,0.12579548,-0.03684228,-0.31678,-0.321725,1.0609,-1.81038,0.942539,-0.262535,-0.29743984,-0.47898108,0.90695345,0.9807133,-0.04442001,0.17456622,-0.07586113,-1.4563471,0.23576206,-0.458044,1,0,0,0,0,0,0,-0.33321998,-0.078274995,-0.51089996,0.36633015,-0.6299019,0.03902912,-0.67281723,-5.147183,-3.6179633,4.4623747
-2.5815876,63.32728,5.778511,22.84719,0.6284882,0.2946071,0.23647383,-0.85014784,-0.68999344,-0.79902095,0.6084871,-0.46529403,-0.0386171,0.20909682,0.623016,-0.65726787,-2.7318058,-0.7778907,2.5442812,1.6036289,-1.1837258,0.6927491,-0.6009934,-2.6659684,-0.82746124,2.5846689,1.6085377,-1.2047461,-1.5274495,-1.2697331,-1.4059739,1.1225512,-0.62630224,0.097787835,-0.0028994216,-0.334389,-0.31256,1.05713,-1.76085,0.931082,-0.377297,-0.31186214,-0.47652614,0.90231127,0.97904027,-0.03874024,0.17841057,-0.090271756,-1.432899,0.26039463,-0.46911803,1,0,0,0,0,0,0,-0.31561098,-0.087440014,-0.50712997,0.29716492,1.0871649,0.18181801,-2.115035,-4.805553,-2.7678967,3.221307
-2.3071873,65.83027,6.0526986,23.522676,0.80037695,0.3322091,0.22829194,-0.8473686,-0.68769294,-0.7976688,0.60089153,-0.4350239,-0.073135376,0.23501067,0.6080122,-0.6697627,-2.7457354,-0.7673721,2.5411665,1.6012242,-1.1812451,0.67751604,-0.61355996,-2.6800523,-0.81642437,2.5782754,1.6093197,-1.2045478,-1.522634,-1.252675,-1.4072077,1.0975997,-0.6454552,0.071847856,0.026730552,-0.351785,-0.302138,1.05164,-1.73959,0.92909,-0.548875,-0.32605675,-0.47380525,0.8975828,0.9771338,-0.032645643,0.18234894,-0.10436693,-1.4103192,0.28724152,-0.47692052,1,0,0,0,0,0,0,-0.29821497,-0.097862005,-0.50164,0.26082993,1.5830755,0.4933834,-2.4193764,-2.4200797,-2.5841713,2.789621
-3.6979933,59.804924,4.794695,21.473942,0.86268157,0.17193806,0.2292054,-0.8512788,-0.7051972,-0.7998206,0.5832408,-0.45028856,-0.08036168,0.27582726,0.59238815,-0.6840797,-2.7600343,-0.7581003,2.5332465,1.6012836,-1.176965,0.6623021,-0.6260588,-2.6941514,-0.8056698,2.5717409,1.609869,-1.2040595,-1.5215126,-1.2492865,-1.4093635,1.0684938,-0.6577736,0.049044427,0.05550769,-0.370518,-0.293464,1.04635,-1.87336,0.923435,-0.529039,-0.34009084,-0.47084597,0.89271086,0.9750168,-0.026127085,0.1862819,-0.11814698,-1.3965218,0.30978185,-0.49335593,1,0,0,0,0,0,0,-0.27948198,-0.106536,-0.49635,-0.049996376,0.21691322,0.29609203,-2.7946234,-1.6819596,-2.3073106,2.7324803
-4.213502,60.93344,4.6796412,22.373343,1.012932,0.2347467,0.18446697,-0.84711903,-0.70414704,-0.7975266,0.5967782,-0.45384553,-0.039152347,0.23647629,0.57759017,-0.69647354,-2.773904,-0.74599195,2.5263562,1.6059538,-1.1804118,0.64710623,-0.63856053,-2.7082582,-0.7950783,2.5651224,1.6102467,-1.203348,-1.5194597,-1.2508037,-1.4094893,1.0564201,-0.66429204,0.033895124,0.0760964,-0.387892,-0.283829,1.03957,-1.73743,0.935471,-0.678074,-0.35399425,-0.46763694,0.88769925,0.97269183,-0.019259773,0.19017784,-0.13165109,-1.3836455,0.33544812,-0.50642145,1,0,0,0,0,0,0,-0.26210797,-0.116171,-0.48956996,0.046539307,-0.2758026,0.49154758,-1.0788202,-1.0847688,-1.5607864,1.9244626
-3.3225899,54.15641,4.0667505,18.82106,0.8318791,0.014041662,0.25397795,-0.84531176,-0.71260154,-0.79991245,0.5374672,-0.4649131,-0.107635684,0.32234028,0.56257504,-0.7098207,-2.7882495,-0.7413316,2.518631,1.5994831,-1.171114,0.6319352,-0.6511338,-2.7223725,-0.784812,2.558439,1.610445,-1.2023963,-1.516686,-1.2598568,-1.4109793,1.0171934,-0.6712157,0.01491849,0.10120096,-0.406404,-0.273766,1.03152,-1.85112,0.950859,-0.804925,-0.3678034,-0.4642418,0.8824535,0.9701868,-0.011956844,0.19395603,-0.14482965,-1.3752542,0.3514243,-0.53336036,1,0,0,0,0,0,0,-0.24359599,-0.126234,-0.48152,0.1445055,-1.0176659,0.31409264,-3.7904024,-1.1182904,-1.9679004,2.3777544
-3.1408994,55.22471,4.1213484,18.97378,0.8847877,0.10877532,0.24017707,-0.84284866,-0.710209,-0.8006931,0.52542317,-0.45600656,0.020503541,0.2918737,0.54765034,-0.7221547,-2.8024418,-0.73226964,2.5128384,1.6124954,-1.173209,0.61679846,-0.6637852,-2.736506,-0.774951,2.551729,1.6105671,-1.2012385,-1.513064,-1.2672906,-1.4125422,0.9760953,-0.672246,0.011026126,0.120042354,-0.425278,-0.26506,1.02326,-1.88742,0.949609,-0.825679,-0.38151824,-0.4606668,0.8769367,0.9675124,-0.004243875,0.19759224,-0.15766689,-1.3654853,0.3699463,-0.5605561,1,0,0,0,0,0,0,-0.22472197,-0.13494,-0.47326,0.22358894,-0.8533478,0.32110214,-3.9829135,-0.5307317,-0.47402996,1.7461374
-3.0589435,51.75254,3.6101627,17.46173,0.74746245,0.050215483,0.24366415,-0.8395765,-0.7269879,-0.8052547,0.50371695,-0.50522345,0.058521822,0.29012635,0.5328408,-0.736484,-2.8170314,-0.7245793,2.5012066,1.6164193,-1.1722258,0.6017075,-0.67657113,-2.7506738,-0.7655163,2.544874,1.6106968,-1.1999186,-1.5080719,-1.2826897,-1.4170563,0.9329838,-0.69087434,0.0133205205,0.13531053,-0.442789,-0.254622,1.01185,-1.7511,0.955955,-1.14126,-0.39514175,-0.4569396,0.8710949,0.9646653,0.0038958595,0.20112056,-0.17016481,-1.3566267,0.3841191,-0.5948528,1,0,0,0,0,0,0,-0.20721099,-0.145378,-0.46185,0.37992,-1.6480684,-0.011181831,-4.1673183,-2.26295,0.13116598,1.3891131
-2.2154002,43.97884,2.9781928,12.985468,0.5972664,-0.17327577,0.3266682,-0.8419892,-0.73410773,-0.80406123,0.4010452,-0.45548975,0.039805915,0.3013189,0.5175086,-0.7499819,-2.83108,-0.7254118,2.499325,1.6146774,-1.1697867,0.58664805,-0.689523,-2.7648797,-0.75688744,2.5379884,1.6108418,-1.1984614,-1.5054251,-1.299697,-1.4206707,0.8399211,-0.68888104,0.014343935,0.14883079,-0.460443,-0.245427,1.00101,-1.76539,0.952095,-1.08467,-0.40873247,-0.45312688,0.86477613,0.9616914,0.012585418,0.20438397,-0.18225929,-1.355116,0.3907476,-0.6470939,1,0,0,0,0,0,0,-0.18955699,-0.15457301,-0.45100993,0.18177032,-1.7984629,0.027036667,-9.159338,-0.202775,-0.043688342,1.2197644
-1.2111473,39.32202,2.6228752,9.906864,0.34272563,-0.25637436,0.39415324,-0.8388055,-0.73922795,-0.8115038,0.31906262,-0.49010003,0.11798443,0.3293378,0.5027675,-0.7634458,-2.84603,-0.7249812,2.4889784,1.6226403,-1.1655276,0.5716191,-0.70263314,-2.7791505,-0.7494612,2.5310533,1.6110535,-1.196865,-1.5022112,-1.3151526,-1.4279109,0.71058494,-0.69675773,0.02276186,0.16271365,-0.477468,-0.237375,0.988677,-1.70255,0.943626,-1.23281,-0.42231432,-0.44929057,0.85783136,0.9586236,0.021958014,0.20729929,-0.19387023,-1.3545043,0.39174765,-0.71336395,1,0,0,0,0,0,0,-0.17253196,-0.162625,-0.438677,0.25641918,-1.6386032,-0.3537178,-12.782669,-1.1976004,0.66236925,1.2440085
4.0174894,47.35812,5.581362,12.143858,0.67013586,-0.011432707,0.4772607,-0.8413144,-0.7351387,-0.8014929,0.27945927,-0.41458714,0.058455322,0.2708027,0.48748764,-0.776147,-2.848377,-0.72151524,2.4895947,1.616899,-1.1697847,0.5565997,-0.7158339,-2.7929177,-0.74330616,2.5242631,1.6113014,-1.1951884,-1.5022852,-1.3219655,-1.3577541,0.5840986,-0.6748227,0.024829196,0.16897611,-0.495437,-0.227429,0.976064,-1.79689,0.934337,-1.26134,-0.43581444,-0.44540504,0.8503356,0.9555513,0.031782113,0.20963982,-0.204848,-1.3439121,0.39842722,-0.7648377,1,0,0,0,0,0,0,-0.15456298,-0.172571,-0.426064,-0.13418198,-0.7462263,7.539153,-12.558735,1.6592383,0.0068422407,0.50349534
10.511867,55.506035,8.946422,14.780111,0.9177429,0.29935873,0.5820934,-0.84087354,-0.7402913,-0.79866165,0.24471101,-0.4032394,0.08018439,0.30259472,0.4725123,-0.78986305,-2.848377,-0.71883506,2.4839392,1.6193199,-1.1649289,0.5415707,-0.72908425,-2.8053155,-0.738266,2.5177324,1.6115799,-1.1934394,-1.50369,-1.3261168,-1.1982733,0.4773728,-0.64766955,0.028367417,0.1767332,-0.5133924,-0.21809264,0.96271545,-1.7950935,0.9334029,-1.3593541,-0.44909778,-0.44143337,0.8424555,0.9525956,0.041658044,0.21120606,-0.21498406,-1.3186114,0.40787694,-0.7989972,1,0,0,0,0,0,0,-0.13660759,-0.18190737,-0.41271544,-0.32143593,-0.44589043,16.573477,-10.644728,2.1119833,0.17548501,0.6860614
15.189442,65.1292,11.591786,18.678349,1.1843187,0.6586571,0.59108746,-0.8365863,-0.73955184,-0.8035922,0.23125826,-0.40384063,0.17339596,0.26953515,0.4579121,-0.80303943,-2.848377,-0.71514016,2.4773483,1.6289195,-1.1664859,0.52654463,-0.742347,-2.8156686,-0.734025,2.511442,1.6119633,-1.1916426,-1.5030565,-1.3264166,-0.9787487,0.40627715,-0.6247542,0.04129753,0.18034038,-0.5313299,-0.20876561,0.94838744,-1.7932987,0.9324697,-1.4572703,-0.46201304,-0.43733868,0.83438927,0.9498445,0.051175762,0.2119637,-0.22416016,-1.2781924,0.42120433,-0.8124333,1,0,0,0,0,0,0,-0.118670106,-0.1912344,-0.39838743,-0.1490593,-0.03900528,22.598743,-7.1280837,1.6971588,1.1715546,0.3065437
16.785091,69.05037,12.394032,20.493984,1.2962207,0.7746477,0.5630837,-0.8333705,-0.7410512,-0.8070871,0.2024123,-0.4068683,0.17654008,0.25884855,0.44320756,-0.81645215,-2.848377,-0.71378374,2.470755,1.6296173,-1.1657578,0.5115424,-0.75560784,-2.8237023,-0.7303381,2.5053194,1.6124783,-1.1898249,-1.4998723,-1.3259035,-0.7433471,0.35617438,-0.60964173,0.05454753,0.18216915,-0.5492494,-0.19944791,0.93308103,-1.7915058,0.93153745,-1.5550885,-0.4744826,-0.43311352,0.8262613,0.9473439,0.060117166,0.21195883,-0.23237684,-1.2323031,0.43388057,-0.81605774,1,0,0,0,0,0,0,-0.100750566,-0.20055209,-0.38308102,0.1257658,0.043535233,24.100578,-5.029231,0.98719597,1.2468948,0.16669631
17.201422,64.22863,11.697069,18.01752,1.0302973,0.6537227,0.56900233,-0.8265029,-0.74234664,-0.80495954,0.121877536,-0.42737255,0.2495656,0.26635072,0.42889208,-0.8298425,-2.848377,-0.7181503,2.462582,1.6374348,-1.1631899,0.49660617,-0.7688658,-2.829554,-0.7273178,2.4992387,1.6131687,-1.1879882,-1.4920326,-1.32588,-0.5306522,0.28401658,-0.60861635,0.07361694,0.18418893,-0.567151,-0.19013952,0.91679716,-1.7897147,0.93060607,-1.652809,-0.48650673,-0.4288174,0.81801355,0.9451107,0.06854718,0.21125731,-0.23966098,-1.1883912,0.43866184,-0.8307449,1,0,0,0,0,0,0,-0.082848966,-0.20986049,-0.36679715,0.6365776,-0.017094612,21.698904,-7.204443,-0.33409595,1.8278688,0.20363629
