Afshin1997/kuka_rl_ros2/src/catch_and_throw/output_files/tm/nn_ema3.00_jvws1_realball_D24H10M28S32/recorded_data.csv
pure_target_joint_0,pure_target_joint_1,pure_target_joint_2,pure_target_joint_3,pure_target_joint_4,pure_target_joint_5,pure_target_joint_6,target_joint_0,target_joint_1,target_joint_2,target_joint_3,target_joint_4,target_joint_5,target_joint_6,pos_joint_0,pos_joint_1,pos_joint_2,pos_joint_3,pos_joint_4,pos_joint_5,pos_joint_6,vel_joint_0,vel_joint_1,vel_joint_2,vel_joint_3,vel_joint_4,vel_joint_5,vel_joint_6,vel_smooth_joint_0,vel_smooth_joint_1,vel_smooth_joint_2,vel_smooth_joint_3,vel_smooth_joint_4,vel_smooth_joint_5,vel_smooth_joint_6,ee_pos_x,ee_pos_y,ee_pos_z,ee_or_w,ee_or_x,ee_or_y,ee_or_z,ee_vel_x,ee_vel_y,ee_vel_z,ball_pos_x,ball_pos_y,ball_pos_z,ball_raw_vx,ball_raw_vy,ball_raw_vz,ball_ema_vx,ball_ema_vy,ball_ema_vz,action_0,action_1,action_2,action_3,action_4,action_5,action_6,command_published
1.71492,-1.01873,-1.77812,-1.14788,2.003,1.18696,-0.933304,1.76392,-1.05327,-1.80589,-1.12476,1.95368,1.1344,-0.920495,1.78025,-1.06478,-1.81515,-1.11706,1.93723,1.11687,-0.916226,0,0,0,0,0,0,0,0,0,0,0,0,0,0,0.531074,-0.454461,0.694202,0.574486,0.175238,0.152571,0.784844,0,0,0,2.89532,-0.477318,0.116664,-3.1112,-0.069809,5.51192,-3.22636,-0.0739872,5.22324,-0.653388,0.460532,0.370302,-0.308288,0.657615,0.700915,-0.170781,1
1.71615,-1.02126,-1.77894,-1.14013,2.00492,1.18691,-0.932229,1.73156,-1.03088,-1.78758,-1.13824,1.98704,1.16943,-0.928766,1.78025,-1.06478,-1.81515,-1.11706,1.93723,1.11687,-0.916226,-5.32681e-07,1.93555e-07,5.70101e-07,1.23994e-06,1.04346e-06,2.11257e-07,4.23885e-07,-5.32681e-07,1.93555e-07,5.70101e-07,1.23994e-06,1.04346e-06,2.11257e-07,4.23885e-07,0.531074,-0.454461,0.694202,0.574486,0.175238,0.152571,0.784844,-5.37296e-07,-6.46143e-07,6.39495e-07,2.86504,-0.477017,0.174278,-3.02737,0.030157,5.76136,-3.06928,-0.019826,5.48664,-0.64101,0.435202,0.362136,-0.230771,0.676819,0.700336,-0.160028,1
1.7117,-1.01156,-1.77058,-1.14704,2.01264,1.18313,-0.933987,1.71473,-1.0182,-1.77664,-1.1438,2.00637,1.18598,-0.932937,1.77854,-1.06357,-1.81418,-1.11787,1.93896,1.11872,-0.916675,-0.343564,0.242154,0.194711,-0.162103,0.345786,0.368551,-0.0897994,-0.343564,0.242154,0.194711,-0.162103,0.345786,0.368551,-0.0897994,0.529926,-0.454605,0.695211,0.574932,0.174135,0.151678,0.784936,-0.20703,-0.0262267,0.190029,2.83437,-0.475974,0.231789,-3.06687,0.104246,5.75106,-3.04712,0.0672013,5.60621,-0.668386,0.520138,0.435948,-0.291731,0.736763,0.644172,-0.173127,1
1.70283,-0.994122,-1.77401,-1.15685,2.0174,1.18492,-0.938985,1.71059,-1.00963,-1.77353,-1.14776,2.0119,1.18452,-0.934797,1.77222,-1.05917,-1.8106,-1.12066,1.9454,1.12552,-0.918306,-0.955718,0.664896,0.54104,-0.413248,0.978551,1.03191,-0.245851,-0.955718,0.664896,0.54104,-0.413248,0.978551,1.03191,-0.245851,0.525663,-0.455204,0.698925,0.576618,0.170061,0.148314,0.785235,-0.582763,-0.0848031,0.529142,2.80306,-0.475052,0.286887,-3.13129,0.092274,5.50985,-3.09908,0.0982597,5.48046,-0.693929,0.650434,0.36585,-0.361887,0.719921,0.59398,-0.206794,1
1.69359,-0.983692,-1.76789,-1.16641,2.02778,1.19357,-0.939569,1.70274,-0.995874,-1.77163,-1.15679,2.0188,1.18664,-0.937882,1.76235,-1.0522,-1.80486,-1.12475,1.95573,1.13601,-0.920829,-1.1192,0.798911,0.663253,-0.447779,1.1901,1.17434,-0.284588,-1.1192,0.798911,0.663253,-0.447779,1.1901,1.17434,-0.284588,0.518938,-0.456147,0.704827,0.579281,0.163671,0.14293,0.785631,-0.689237,-0.0951618,0.641331,2.77311,-0.473986,0.34123,-2.9952,0.106531,5.43431,-3.06325,0.0994027,5.32208,-0.687553,0.685042,0.369678,-0.416696,0.720485,0.575534,-0.187404,1
1.68241,-0.974262,-1.76253,-1.16778,2.03787,1.20354,-0.946722,1.69311,-0.983942,-1.76808,-1.16436,2.02771,1.1939,-0.941211,1.75243,-1.04452,-1.79891,-1.12896,1.9664,1.14582,-0.923437,-0.983166,0.820134,0.596604,-0.44199,1.06927,0.909757,-0.267001,-0.983166,0.820134,0.596604,-0.44199,1.06927,0.909757,-0.267001,0.512227,-0.45676,0.711043,0.581903,0.157344,0.137728,0.785915,-0.592576,-0.0232888,0.607976,2.7428,-0.472912,0.39552,-3.03075,0.107402,5.429,-3.01298,0.106966,5.28166,-0.700167,0.702581,0.363856,-0.388199,0.714688,0.577216,-0.232849,1
1.67157,-0.963652,-1.767,-1.16468,2.04725,1.20998,-0.95307,1.6825,-0.973967,-1.76499,-1.16666,2.03769,1.20266,-0.946521,1.74326,-1.03612,-1.79365,-1.13365,1.97619,1.15375,-0.926025,-0.952513,0.945946,0.517722,-0.543673,1.00143,0.772901,-0.27867,-0.952513,0.945946,0.517722,-0.543673,1.00143,0.772901,-0.27867,0.50629,-0.45656,0.717051,0.584181,0.151762,0.133805,0.786,-0.545586,0.0642383,0.608223,2.7119,-0.471577,0.448691,-3.08993,0.133488,5.31712,-3.06034,0.120445,5.22306,-0.716932,0.724693,0.266543,-0.310222,0.710564,0.562295,-0.270447,1
1.6628,-0.952884,-1.77088,-1.16584,2.05639,1.21711,-0.954462,1.67209,-0.963612,-1.76685,-1.16574,2.04719,1.21015,-0.951831,1.73418,-1.02685,-1.78889,-1.13906,1.98562,1.16107,-0.928738,-0.965267,1.0084,0.489088,-0.594697,0.989151,0.771625,-0.293168,-0.965267,1.0084,0.489088,-0.594697,0.989151,0.771625,-0.293168,0.50064,-0.455729,0.723038,0.586337,0.146401,0.130747,0.785927,-0.541157,0.102461,0.610355,2.68179,-0.470448,0.499891,-3.01087,0.11299,5.11997,-3.0504,0.123239,5.06854,-0.713751,0.739626,0.180104,-0.267761,0.707693,0.560453,-0.257237,1
1.65383,-0.942045,-1.76887,-1.16918,2.06524,1.22453,-0.954695,1.66275,-0.952866,-1.76941,-1.16638,2.05632,1.21718,-0.954172,1.72488,-1.01725,-1.78442,-1.14434,1.99506,1.16853,-0.931782,-0.996083,1.01725,0.456742,-0.524542,1.00209,0.802053,-0.346415,-0.996083,1.01725,0.456742,-0.524542,1.00209,0.802053,-0.346415,0.494886,-0.454868,0.729042,0.588785,0.140944,0.127891,0.785564,-0.56658,0.0712369,0.613836,2.65167,-0.469607,0.5508,-3.01247,0.0840038,5.09091,-3.01167,0.0984967,4.95544,-0.710454,0.752037,0.15551,-0.248383,0.701836,0.559983,-0.229137,1
1.64313,-0.931294,-1.77474,-1.16747,2.0742,1.22984,-0.958523,1.6534,-0.942067,-1.77084,-1.16792,2.06527,1.224,-0.955594,1.71534,-1.00754,-1.78074,-1.14869,2.00455,1.17612,-0.935277,-1.0165,1.03232,0.326508,-0.400673,1.00216,0.799917,-0.389067,-1.0165,1.03232,0.326508,-0.400673,1.00216,0.799917,-0.389067,0.488917,-0.45446,0.73498,0.591944,0.13548,0.125148,0.784592,-0.588079,0.00957127,0.599434,2.62116,-0.468963,0.60065,-3.05116,0.0644863,4.98498,-3.03181,0.074245,4.88795,-0.722059,0.76241,0.0599987,-0.187754,0.696466,0.537242,-0.23246,1
1.6335,-0.92072,-1.77863,-1.16953,2.08407,1.23483,-0.961361,1.6434,-0.931338,-1.77425,-1.16841,2.07443,1.22976,-0.958276,1.70574,-0.997653,-1.77824,-1.15216,2.01401,1.18364,-0.938822,-1.01032,1.05264,0.207686,-0.334315,0.994424,0.788394,-0.360781,-1.01032,1.05264,0.207686,-0.334315,0.994424,0.788394,-0.360781,0.482881,-0.454452,0.740729,0.595641,0.130204,0.122691,0.783075,-0.587324,-0.0155606,0.578082,2.5909,-0.468107,0.648415,-3.02579,0.0856072,4.77654,-3.03848,0.0750467,4.73076,-0.722363,0.769332,-0.00386142,-0.173711,0.700621,0.511911,-0.225395,1
1.62415,-0.910114,-1.77088,-1.1802,2.09463,1.23674,-0.9604,1.63357,-0.920712,-1.77572,-1.17168,2.08424,1.23406,-0.960411,1.69619,-0.987593,-1.77663,-1.15516,2.02338,1.19104,-0.94203,-1.0057,1.07001,0.136166,-0.29998,0.984496,0.774722,-0.318794,-1.0057,1.07001,0.136166,-0.29998,0.984496,0.774722,-0.318794,0.476895,-0.454579,0.746296,0.599484,0.125134,0.120524,0.781303,-0.583771,-0.021962,0.563908,2.56138,-0.466769,0.695726,-2.95243,0.133732,4.73112,-2.98911,0.10967,4.60383,-0.720348,0.774789,0.0575681,-0.250493,0.712482,0.457001,-0.183701,1
1.6128,-0.899313,-1.77317,-1.18258,2.10405,1.23281,-0.963976,1.62365,-0.910065,-1.77339,-1.17813,2.09434,1.23528,-0.961534,1.68661,-0.977393,-1.77584,-1.15775,2.03269,1.19821,-0.945015,-1.01562,1.08244,0.0374008,-0.25062,0.980963,0.74145,-0.311674,-1.01562,1.08244,0.0374008,-0.25062,0.980963,0.74145,-0.311674,0.470942,-0.454868,0.751674,0.603509,0.120318,0.118629,0.779248,-0.586391,-0.0493978,0.542124,2.53114,-0.465422,0.742709,-3.0237,0.134674,4.69829,-2.98806,0.134203,4.5647,-0.738141,0.780801,0.0266622,-0.248288,0.713596,0.345948,-0.18961,1
1.60379,-0.888339,-1.77915,-1.17575,2.11163,1.24371,-0.974604,1.61338,-0.89927,-1.77409,-1.18028,2.10359,1.23652,-0.965739,1.67697,-0.967099,-1.77568,-1.16022,2.04204,1.20495,-0.947882,-1.01992,1.09024,-0.00105041,-0.269463,0.991914,0.684145,-0.294487,-1.01992,1.09024,-0.00105041,-0.269463,0.991914,0.684145,-0.294487,0.465074,-0.455255,0.75683,0.607635,0.115879,0.116974,0.776962,-0.574591,-0.0440961,0.520724,2.50067,-0.46468,0.788463,-3.04663,0.0742406,4.57535,-3.03516,0.104457,4.48682,-0.731764,0.787596,-0.0347452,-0.155309,0.695941,0.387541,-0.267225,1
1.5951,-0.877805,-1.78362,-1.16516,2.12028,1.25714,-0.977267,1.60387,-0.888449,-1.77877,-1.17481,2.1119,1.24434,-0.972613,1.66728,-0.956736,-1.77544,-1.16318,2.05151,1.21088,-0.950497,-1.02534,1.09691,0.0481916,-0.351332,1.00673,0.573461,-0.259423,-1.02534,1.09691,0.0481916,-0.351332,1.00673,0.573461,-0.259423,0.459425,-0.455426,0.761818,0.611448,0.11193,0.115479,0.774769,-0.548977,-0.00408773,0.50928,2.47105,-0.46399,0.832983,-2.96245,0.0689894,4.45206,-3.00454,0.071615,4.3637,-0.721802,0.789304,-0.0818455,-0.0198275,0.68771,0.46263,-0.267704,1
1.58522,-0.86706,-1.79358,-1.16839,2.12975,1.25766,-0.977208,1.5948,-0.877753,-1.78499,-1.16862,2.12049,1.25391,-0.976586,1.6575,-0.946301,-1.7751,-1.16639,2.06102,1.21587,-0.953138,-1.03696,1.10539,0.0237915,-0.326513,1.00058,0.485189,-0.296162,-1.03696,1.10539,0.0237915,-0.326513,1.00058,0.485189,-0.296162,0.453955,-0.455472,0.766704,0.615167,0.108446,0.114169,0.772512,-0.544486,-0.0128739,0.50269,2.44114,-0.462809,0.877444,-2.99058,0.11816,4.4461,-2.97651,0.0935748,4.29908,-0.722829,0.792405,-0.184779,-0.0200239,0.687268,0.417872,-0.240694,1
1.57648,-0.856121,-1.80126,-1.17237,2.13753,1.25935,-0.980531,1.5855,-0.867012,-1.79301,-1.16858,2.12933,1.25795,-0.978053,1.64771,-0.935791,-1.77539,-1.16858,2.07038,1.22081,-0.956372,-1.03047,1.1127,-0.0794058,-0.146463,0.975959,0.553089,-0.381716,-1.03047,1.1127,-0.0794058,-0.146463,0.975959,0.553089,-0.381716,0.448353,-0.455835,0.771628,0.619574,0.104892,0.11301,0.769646,-0.576176,-0.0690546,0.517047,2.41039,-0.461701,0.920368,-3.07488,0.110775,4.29233,-3.03273,0.114468,4.21922,-0.712329,0.796703,-0.258676,-0.0378795,0.671533,0.385413,-0.241594,1
1.56837,-0.845419,-1.80218,-1.1837,2.14582,1.26557,-0.985559,1.57664,-0.85618,-1.79957,-1.17421,2.13766,1.26048,-0.980957,1.63802,-0.925233,-1.77672,-1.16917,2.07955,1.22651,-0.960026,-1.01588,1.116,-0.194437,0.0129949,0.962109,0.644226,-0.389244,-1.01588,1.116,-0.194437,0.0129949,0.962109,0.644226,-0.389244,0.442442,-0.456678,0.776651,0.624837,0.100866,0.11189,0.766084,-0.604632,-0.118233,0.523169,2.38033,-0.46072,0.961039,-3.00586,0.0980675,4.06711,-3.04037,0.104421,4.02972,-0.696497,0.79814,-0.254613,-0.145341,0.662695,0.390659,-0.255333,1
1.55841,-0.83484,-1.80228,-1.17989,2.15513,1.27134,-0.99003,1.56791,-0.84545,-1.80198,-1.17992,2.14608,1.26546,-0.98542,1.62843,-0.914642,-1.77921,-1.16906,2.08864,1.23239,-0.96348,-1.00899,1.11953,-0.32433,0.0112404,0.956317,0.600828,-0.342535,-1.00899,1.11953,-0.32433,0.0112404,0.956317,0.600828,-0.342535,0.436491,-0.457812,0.781473,0.630414,0.0969259,0.110979,0.762146,-0.590527,-0.134449,0.479026,2.35046,-0.459786,1.00141,-2.9876,0.0933886,4.0372,-2.99673,0.095728,3.90215,-0.700192,0.798025,-0.230616,-0.108334,0.664943,0.389484,-0.265497,1
1.54837,-0.824111,-1.8099,-1.16139,2.16385,1.27852,-0.995521,1.55839,-0.834802,-1.80416,-1.17622,2.15499,1.27169,-0.990285,1.61894,-0.904012,-1.78265,-1.16955,2.09762,1.23775,-0.966689,-0.994424,1.12426,-0.39768,-0.109406,0.940978,0.534305,-0.33536,-0.994424,1.12426,-0.39768,-0.109406,0.940978,0.534305,-0.33536,0.430887,-0.458854,0.785783,0.635801,0.093654,0.110537,0.758134,-0.547607,-0.101757,0.420632,2.32006,-0.459085,1.0414,-3.04015,0.0700861,3.99939,-3.01387,0.0817373,3.86829,-0.705751,0.799013,-0.272447,0.0816173,0.662324,0.407671,-0.288319,1
1.53946,-0.813472,-1.82035,-1.15237,2.17172,1.28569,-0.999078,1.54865,-0.824133,-1.8106,-1.16376,2.16364,1.27852,-0.995038,1.6096,-0.893353,-1.78628,-1.17108,2.10648,1.2428,-0.970002,-0.979861,1.12593,-0.368994,-0.207685,0.930576,0.532475,-0.362395,-0.979861,1.12593,-0.368994,-0.207685,0.930576,0.532475,-0.362395,0.425664,-0.459492,0.789714,0.640847,0.0907953,0.110438,0.754237,-0.518943,-0.0513605,0.399887,2.29006,-0.457953,1.07972,-2.9994,0.11321,3.83118,-3.01977,0.0916481,3.76529,-0.701345,0.798806,-0.340706,0.187131,0.6524,0.428829,-0.29076,1
1.5299,-0.802911,-1.82696,-1.15459,2.18026,1.28813,-1.00145,1.5393,-0.813492,-1.81939,-1.15518,2.17189,1.28451,-0.998782,1.60029,-0.882688,-1.78964,-1.17245,2.11531,1.24797,-0.973586,-0.984778,1.12552,-0.341356,-0.0885197,0.932532,0.557491,-0.392509,-0.984778,1.12552,-0.341356,-0.0885197,0.932532,0.557491,-0.392509,0.420407,-0.45999,0.793749,0.645959,0.0877294,0.110283,0.750252,-0.548399,-0.0695257,0.438971,2.25999,-0.456379,1.11693,-3.00779,0.15747,3.72181,-3.0036,0.13534,3.6265,-0.703907,0.797767,-0.373226,0.178665,0.649487,0.401529,-0.278658,1
1.51974,-0.79245,-1.83284,-1.14965,2.18755,1.29252,-1.00701,1.52975,-0.802936,-1.82678,-1.1528,2.17995,1.28862,-1.00225,1.59092,-0.872024,-1.79321,-1.17189,2.12413,1.25342,-0.977413,-0.993362,1.12564,-0.408928,0.191161,0.928772,0.589921,-0.414255,-0.993362,1.12564,-0.408928,0.191161,0.928772,0.589921,-0.414255,0.414645,-0.460973,0.798256,0.651826,0.0840793,0.109857,0.745644,-0.614068,-0.151267,0.496278,2.23009,-0.455898,1.15344,-2.98958,0.0480622,3.65005,-2.99869,0.102766,3.53593,-0.711722,0.795742,-0.396311,0.222378,0.634275,0.391058,-0.295945,1
1.50973,-0.782146,-1.83973,-1.1392,2.19542,1.30102,-1.01238,1.51978,-0.792489,-1.83309,-1.14827,2.1877,1.29355,-1.00696,1.58151,-0.861362,-1.7976,-1.16937,2.13287,1.25905,-0.981319,-0.992189,1.12517,-0.512176,0.333567,0.917207,0.598333,-0.410466,-0.992189,1.12517,-0.512176,0.333567,0.917207,0.598333,-0.410466,0.40841,-0.462552,0.80307,0.658482,0.0800371,0.109333,0.740299,-0.644556,-0.198959,0.505437,2.19994,-0.455123,1.18882,-3.01445,0.0775397,3.53842,-3.00201,0.0628009,3.44423,-0.717808,0.792159,-0.421354,0.301656,0.625553,0.41969,-0.310569,1
1.49914,-0.771777,-1.8465,-1.13157,2.20432,1.30524,-1.01613,1.50959,-0.78213,-1.8397,-1.13991,2.19568,1.29995,-1.01197,1.5721,-0.850713,-1.80272,-1.16629,2.14149,1.26455,-0.985163,-0.995291,1.12297,-0.565497,0.317145,0.903935,0.565576,-0.401555,-0.995291,1.12297,-0.565497,0.317145,0.903935,0.565576,-0.401555,0.402079,-0.464327,0.807809,0.665382,0.0760795,0.108968,0.734578,-0.639498,-0.19707,0.483467,2.16982,-0.454089,1.22247,-3.01218,0.103372,3.36461,-3.01331,0.090456,3.30151,-0.729566,0.789366,-0.437795,0.347216,0.628272,0.40684,-0.30965,1
1.48898,-0.761215,-1.85216,-1.12856,2.21302,1.30704,-1.01956,1.49925,-0.771729,-1.84622,-1.13273,2.20427,1.30463,-1.01605,1.56261,-0.840095,-1.80817,-1.16313,2.14997,1.26987,-0.989063,-1.00669,1.11893,-0.585661,0.349094,0.886788,0.556607,-0.420675,-1.00669,1.11893,-0.585661,0.349094,0.886788,0.556607,-0.420675,0.395727,-0.466107,0.812452,0.672364,0.0722347,0.108763,0.728615,-0.652325,-0.20085,0.485328,2.14039,-0.452978,1.25573,-2.94373,0.111136,3.32682,-2.97796,0.107254,3.19572,-0.736295,0.788795,-0.439852,0.345625,0.630535,0.371693,-0.304999,1
1.47871,-0.750699,-1.85848,-1.12332,2.22031,1.30996,-1.02534,1.48895,-0.761226,-1.85232,-1.128,2.21267,1.30732,-1.02015,1.553,-0.829519,-1.81383,-1.15929,2.15833,1.27526,-0.993156,-1.02049,1.11386,-0.607947,0.455506,0.877962,0.580333,-0.442247,-1.02049,1.11386,-0.607947,0.455506,0.877962,0.580333,-0.442247,0.389129,-0.467998,0.817224,0.67964,0.0681655,0.10855,0.72226,-0.688145,-0.221535,0.509463,2.11032,-0.45208,1.28856,-3.00643,0.0897527,3.28271,-2.97508,0.100444,3.15477,-0.742923,0.788202,-0.446487,0.35965,0.619845,0.346994,-0.321806,1
1.46885,-0.74032,-1.86549,-1.11551,2.22702,1.31813,-1.03156,1.47881,-0.750733,-1.85865,-1.12268,2.22017,1.31127,-1.02545,1.54326,-0.818982,-1.81967,-1.15467,2.16667,1.28067,-0.997334,-1.0346,1.11067,-0.623965,0.515778,0.883713,0.563193,-0.43987,-1.0346,1.11067,-0.623965,0.515778,0.883713,0.563193,-0.43987,0.382242,-0.470018,0.822172,0.687183,0.0638722,0.108264,0.715527,-0.710852,-0.230933,0.522827,2.08022,-0.451632,1.3199,-3.01015,0.0447571,3.13359,-3.00829,0.0672549,3.05815,-0.74414,0.786629,-0.458134,0.391631,0.603433,0.374545,-0.342291,1
1.45933,-0.729873,-1.87145,-1.10984,2.23578,1.32436,-1.03552,1.46893,-0.740303,-1.86523,-1.11604,2.22753,1.31764,-1.031,1.53341,-0.808462,-1.82561,-1.1498,2.17505,1.28573,-1.00149,-1.04497,1.11025,-0.628008,0.512311,0.884255,0.507436,-0.438436,-1.04497,1.11025,-0.628008,0.512311,0.884255,0.507436,-0.438436,0.375255,-0.472031,0.827167,0.694762,0.059653,0.107998,0.708578,-0.712525,-0.221366,0.521322,2.05058,-0.450796,1.35021,-2.96445,0.0836253,3.03159,-2.9873,0.0641912,2.93259,-0.740832,0.785889,-0.458429,0.399574,0.607313,0.386341,-0.34025,1
1.44915,-0.719409,-1.87805,-1.10354,2.24423,1.32751,-1.03962,1.45916,-0.729869,-1.87161,-1.10968,2.2357,1.32359,-1.03556,1.52349,-0.797946,-1.8316,-1.1449,2.18333,1.29045,-1.00577,-1.04996,1.10966,-0.635951,0.522222,0.865688,0.489431,-0.462572,-1.04996,1.10966,-0.635951,0.522222,0.865688,0.489431,-0.462572,0.368251,-0.473935,0.83216,0.70234,0.0555235,0.107841,0.701431,-0.717563,-0.209216,0.523132,2.02067,-0.449997,1.38014,-2.99056,0.0798911,2.99288,-2.9775,0.0817582,2.86223,-0.743301,0.785368,-0.464519,0.413613,0.609003,0.370691,-0.338529,1
1.4387,-0.708998,-1.88549,-1.09626,2.25116,1.33162,-1.04537,1.44908,-0.719423,-1.87826,-1.10329,2.24385,1.32775,-1.04003,1.51354,-0.787442,-1.83768,-1.13977,2.19145,1.29527,-1.01027,-1.04849,1.10792,-0.64748,0.557682,0.848097,0.525947,-0.487035,-1.04849,1.10792,-0.64748,0.557682,0.848097,0.525947,-0.487035,0.361154,-0.475707,0.837203,0.709994,0.0512085,0.107763,0.694027,-0.731429,-0.197157,0.532279,1.99044,-0.44908,1.40836,-3.02286,0.0917226,2.82156,-3.00671,0.0858068,2.75722,-0.748465,0.784433,-0.47808,0.435112,0.597096,0.363514,-0.351013,1
1.42867,-0.69859,-1.89213,-1.08961,2.25852,1.337,-1.05073,1.4388,-0.708999,-1.88529,-1.09642,2.25127,1.33194,-1.04528,1.50363,-0.776951,-1.84384,-1.13438,2.1995,1.30035,-1.01488,-1.04504,1.10659,-0.65267,0.580364,0.850954,0.546248,-0.485894,-1.04504,1.10659,-0.65267,0.580364,0.850954,0.546248,-0.485894,0.353937,-0.477328,0.842323,0.717662,0.0466244,0.107685,0.686434,-0.740576,-0.182204,0.539653,1.96021,-0.448353,1.43521,-3.02331,0.072667,2.68508,-3.02309,0.0821948,2.60332,-0.749605,0.78361,-0.482874,0.447661,0.590192,0.366464,-0.358512,1
1.41871,-0.688155,-1.89841,-1.08392,2.26704,1.34049,-1.05526,1.42869,-0.698583,-1.89204,-1.08985,2.25881,1.33653,-1.05052,1.49371,-0.766471,-1.85007,-1.12878,2.20757,1.30542,-1.01947,-1.04882,1.10579,-0.662462,0.599074,0.852766,0.524911,-0.483265,-1.04882,1.10579,-0.662462,0.599074,0.852766,0.524911,-0.483265,0.346642,-0.478821,0.847495,0.72528,0.0419425,0.107606,0.678698,-0.747863,-0.172171,0.544188,1.93022,-0.44727,1.46146,-2.99897,0.108323,2.62493,-3.01114,0.0904948,2.50501,-0.750009,0.78316,-0.483405,0.448607,0.594706,0.350757,-0.357851,1
1.40856,-0.677653,-1.90504,-1.07787,2.27518,1.34298,-1.05959,1.41866,-0.688138,-1.8985,-1.08383,2.26694,1.34024,-1.05521,1.48374,-0.756,-1.85643,-1.12298,2.21558,1.31031,-1.02412,-1.05601,1.10467,-0.678293,0.624342,0.838787,0.508313,-0.497214,-1.05601,1.10467,-0.678293,0.624342,0.838787,0.508313,-0.497214,0.339272,-0.480218,0.852707,0.732906,0.0372385,0.107591,0.670736,-0.758054,-0.163621,0.54894,1.90035,-0.446422,1.48706,-2.98703,0.0847936,2.56017,-2.993,0.096558,2.44255,-0.75176,0.783471,-0.486151,0.451068,0.596051,0.326759,-0.354726,1
1.39845,-0.667189,-1.91211,-1.07103,2.28252,1.34753,-1.06436,1.40857,-0.677662,-1.90515,-1.07768,2.27498,1.3435,-1.0597,1.47372,-0.745539,-1.86289,-1.117,2.22348,1.3151,-1.02889,-1.05842,1.10361,-0.685123,0.638036,0.830247,0.503554,-0.508528,-1.05842,1.10361,-0.685123,0.638036,0.830247,0.503554,-0.508528,0.331833,-0.481485,0.857955,0.740538,0.0324672,0.107656,0.66254,-0.764082,-0.148017,0.552847,1.87018,-0.445502,1.51124,-3.01673,0.0919729,2.41778,-3.00188,0.0883833,2.33898,-0.752649,0.783502,-0.492173,0.459665,0.590367,0.324248,-0.3547,1
1.38861,-0.656709,-1.91843,-1.06566,2.2911,1.35197,-1.06846,1.39852,-0.667185,-1.91192,-1.0714,2.28283,1.3475,-1.06419,1.46369,-0.735084,-1.86938,-1.11096,2.23138,1.31976,-1.03369,-1.05836,1.10338,-0.684475,0.637476,0.835949,0.48138,-0.505747,-1.05836,1.10338,-0.684475,0.637476,0.835949,0.48138,-0.505747,0.324375,-0.482579,0.863224,0.748082,0.027672,0.107758,0.654214,-0.763816,-0.12933,0.55463,1.84044,-0.444624,1.53391,-2.97436,0.0878066,2.26719,-2.99554,0.0898898,2.19249,-0.750841,0.783755,-0.490579,0.452919,0.597198,0.322052,-0.3477,1
1.3789,-0.646221,-1.92467,-1.06021,2.29962,1.35655,-1.0728,1.38864,-0.656707,-1.91841,-1.06564,2.29108,1.352,-1.06852,1.45366,-0.724628,-1.87588,-1.1049,2.23931,1.32418,-1.03845,-1.05969,1.10385,-0.687992,0.639936,0.838404,0.453917,-0.499405,-1.05969,1.10385,-0.687992,0.639936,0.838404,0.453917,-0.499405,0.316927,-0.483501,0.868506,0.755494,0.022923,0.107891,0.645804,-0.764039,-0.112371,0.55645,1.81052,-0.443841,1.55589,-2.99151,0.0783294,2.1986,-2.98293,0.083068,2.0829,-0.747582,0.784074,-0.4879,0.446899,0.603075,0.323675,-0.343496,1
1.3692,-0.635939,-1.93174,-1.05294,2.30701,1.36521,-1.0778,1.3789,-0.646272,-1.92488,-1.05976,2.29933,1.35757,-1.07297,1.44362,-0.714168,-1.88242,-1.09882,2.24724,1.32845,-1.04316,-1.05994,1.10425,-0.693308,0.644411,0.836403,0.447664,-0.494375,-1.05994,1.10425,-0.693308,0.644411,0.836403,0.447664,-0.494375,0.309479,-0.484246,0.873801,0.762781,0.0181762,0.108066,0.637304,-0.765695,-0.0935831,0.558507,1.78049,-0.443643,1.57708,-3.00369,0.0198334,2.11885,-2.9976,0.0490814,2.00873,-0.744115,0.782289,-0.493207,0.458798,0.597639,0.367555,-0.346394,1
1.3595,-0.625668,-1.93829,-1.04772,2.3163,1.37125,-1.08128,1.3692,-0.635941,-1.93161,-1.05345,2.30748,1.36456,-1.07742,1.43359,-0.703704,-1.88898,-1.09275,2.2552,1.33272,-1.04781,-1.05646,1.10459,-0.691623,0.637088,0.843311,0.453142,-0.486895,-1.05646,1.10459,-0.691623,0.637088,0.843311,0.453142,-0.486895,0.302039,-0.484778,0.879103,0.769911,0.0133673,0.10826,0.62876,-0.763285,-0.0700439,0.558616,1.75083,-0.442858,1.59679,-2.96519,0.0784606,1.97053,-2.98444,0.049147,1.89469,-0.740887,0.780361,-0.49306,0.450321,0.610976,0.385277,-0.33474,1
1.34966,-0.615028,-1.9441,-1.04459,2.32594,1.37141,-1.08485,1.35947,-0.625576,-1.93811,-1.04824,2.31638,1.36978,-1.0813,1.42361,-0.693242,-1.89553,-1.08673,2.26322,1.33715,-1.0524,-1.05078,1.10394,-0.68985,0.633926,0.848827,0.479938,-0.483355,-1.05078,1.10394,-0.68985,0.633926,0.848827,0.479938,-0.483355,0.294612,-0.485065,0.884405,0.776859,0.00842375,0.108443,0.62021,-0.762252,-0.0449681,0.559458,1.72146,-0.441925,1.61598,-2.93715,0.0933051,1.91935,-2.95117,0.0858828,1.79494,-0.739449,0.782138,-0.485758,0.421411,0.627181,0.342561,-0.32447,1
1.33952,-0.60446,-1.95088,-1.03903,2.33318,1.37394,-1.09022,1.34959,-0.615046,-1.94434,-1.04398,2.32534,1.372,-1.0853,1.41368,-0.682796,-1.90208,-1.08069,2.27127,1.34195,-1.05697,-1.0454,1.10124,-0.693991,0.640223,0.851052,0.531217,-0.480701,-1.0454,1.10124,-0.693991,0.640223,0.851052,0.531217,-0.480701,0.287162,-0.485099,0.889715,0.783644,0.0032257,0.108603,0.611635,-0.765846,-0.0210843,0.560804,1.69185,-0.440972,1.63464,-2.96105,0.0953466,1.86595,-2.9491,0.0943258,1.74265,-0.741651,0.783366,-0.487936,0.416642,0.619061,0.319873,-0.332481,1
1.32965,-0.594212,-1.9581,-1.03249,2.3407,1.38147,-1.09517,1.33959,-0.60454,-1.95099,-1.03878,2.33325,1.37519,-1.09011,1.40379,-0.67237,-1.90865,-1.07472,2.27942,1.34701,-1.06145,-1.04181,1.09981,-0.692308,0.622261,0.86872,0.535229,-0.466556,-1.04181,1.09981,-0.692308,0.622261,0.86872,0.535229,-0.466556,0.279724,-0.484897,0.895002,0.790235,-0.00212855,0.108731,0.603077,-0.759526,0.00150197,0.556114,1.66191,-0.440365,1.652,-2.99375,0.0606179,1.73625,-2.9774,0.0779822,1.6511,-0.741457,0.781574,-0.494451,0.422247,0.612797,0.344626,-0.337224,1
1.32039,-0.583884,-1.96458,-1.02668,2.34954,1.38928,-1.09845,1.3298,-0.594192,-1.95791,-1.03267,2.34103,1.38154,-1.09475,1.39392,-0.661938,-1.91518,-1.06899,2.28773,1.35178,-1.06583,-1.04209,1.10217,-0.685559,0.587889,0.883947,0.475327,-0.457658,-1.04209,1.10217,-0.685559,0.587889,0.883947,0.475327,-0.457658,0.272408,-0.484497,0.900226,0.796596,-0.00732466,0.108863,0.594584,-0.743389,0.0215832,0.548409,1.63248,-0.43964,1.66832,-2.94315,0.0725508,1.63137,-2.96845,0.0665843,1.53381,-0.735365,0.780545,-0.494044,0.423103,0.618072,0.375024,-0.326211,1
1.31086,-0.573586,-1.97126,-1.02078,2.35827,1.39574,-1.10207,1.32032,-0.583891,-1.96463,-1.02666,2.34951,1.38894,-1.09853,1.38404,-0.651489,-1.92169,-1.06346,2.29606,1.35614,-1.07021,-1.04477,1.10352,-0.688719,0.580045,0.874203,0.447672,-0.467741,-1.04477,1.10352,-0.688719,0.580045,0.874203,0.447672,-0.467741,0.265219,-0.483921,0.905397,0.802801,-0.0123311,0.10907,0.586057,-0.736971,0.0399371,0.546017,1.60254,-0.439202,1.68422,-2.99435,0.0438273,1.59032,-2.96875,0.058189,1.46085,-0.731808,0.779036,-0.495736,0.426813,0.622189,0.395991,-0.318526,1
1.30099,-0.563245,-1.97844,-1.01489,2.36612,1.40073,-1.10713,1.31077,-0.573575,-1.97139,-1.02078,2.35805,1.39537,-1.10243,1.37415,-0.641046,-1.92825,-1.0579,2.30429,1.36061,-1.07467,-1.04243,1.10127,-0.697112,0.59299,0.863673,0.492038,-0.472116,-1.04243,1.10127,-0.697112,0.59299,0.863673,0.492038,-0.472116,0.258047,-0.483139,0.910559,0.808909,-0.0174598,0.109351,0.577412,-0.740367,0.0615512,0.547556,1.57254,-0.438411,1.69858,-2.99976,0.0791162,1.43605,-2.99705,0.0614718,1.36319,-0.73157,0.778009,-0.501901,0.430144,0.618383,0.401199,-0.324667,1
1.29129,-0.552765,-1.98497,-1.01095,2.37452,1.40378,-1.11182,1.30103,-0.56321,-1.97828,-1.01538,2.36626,1.40024,-1.10704,1.36432,-0.630626,-1.93487,-1.05224,2.3125,1.36556,-1.07907,-1.03411,1.09848,-0.699477,0.60132,0.869989,0.549701,-0.45757,-1.03411,1.09848,-0.699477,0.60132,0.869989,0.549701,-0.45757,0.250846,-0.482108,0.915728,0.814863,-0.0229131,0.109629,0.568731,-0.741136,0.0865172,0.54873,1.54231,-0.437611,1.71158,-3.0229,0.0799924,1.3001,-3.01133,0.0795543,1.21808,-0.73025,0.778615,-0.501001,0.412951,0.620248,0.382244,-0.327581,1
1.2818,-0.542289,-1.99122,-1.00735,2.383,1.40777,-1.11611,1.29134,-0.552766,-1.9849,-1.01103,2.37454,1.40401,-1.11172,1.35454,-0.620229,-1.94151,-1.04653,2.32077,1.37089,-1.08335,-1.02884,1.09657,-0.702213,0.605093,0.87624,0.575397,-0.448299,-1.02884,1.09657,-0.702213,0.605093,0.87624,0.575397,-0.448299,0.243646,-0.480833,0.920895,0.820629,-0.0286262,0.109883,0.560067,-0.738786,0.108557,0.548482,1.51247,-0.436729,1.72368,-2.98433,0.0881433,1.20929,-3.00362,0.0840679,1.1047,-0.727423,0.779395,-0.497143,0.391713,0.622314,0.368743,-0.327526,1
1.27277,-0.531974,-1.99773,-1.00276,2.39165,1.41499,-1.1199,1.28192,-0.542329,-1.99129,-1.0071,2.38305,1.40858,-1.11598,1.3448,-0.609843,-1.94819,-1.04083,2.32906,1.37628,-1.08764,-1.02868,1.09607,-0.707272,0.598244,0.874295,0.56319,-0.455952,-1.02868,1.09607,-0.707272,0.598244,0.874295,0.56319,-0.455952,0.236497,-0.479355,0.926036,0.826246,-0.0344148,0.110167,0.551358,-0.731649,0.126939,0.544672,1.4827,-0.43635,1.73511,-2.97642,0.0379533,1.14349,-2.98038,0.0630483,1.02639,-0.720304,0.778688,-0.495412,0.380657,0.625884,0.387066,-0.322564,1
1.26372,-0.521616,-2.00393,-0.998167,2.40064,1.42138,-1.12323,1.27276,-0.531963,-1.99765,-1.00276,2.39174,1.41478,-1.11978,1.33506,-0.599452,-1.95488,-1.0353,2.33735,1.38145,-1.092,-1.02749,1.09733,-0.705631,0.570349,0.874282,0.530255,-0.463601,-1.02749,1.09733,-0.705631,0.570349,0.874282,0.530255,-0.463601,0.229481,-0.477698,0.931109,0.831722,-0.0401018,0.110526,0.5426,-0.715299,0.146188,0.536108,1.45266,-0.43557,1.74508,-3.00425,0.0779152,0.99746,-2.99034,0.0579342,0.920476,-0.713433,0.778363,-0.490532,0.371325,0.632935,0.399228,-0.312311,1
1.25449,-0.511002,-2.00904,-0.9983,2.4106,1.42297,-1.12579,1.26367,-0.521552,-2.00366,-0.999349,2.40088,1.42018,-1.12304,1.32536,-0.589052,-1.96153,-1.03005,2.34565,1.38643,-1.09638,-1.02105,1.09818,-0.699323,0.539343,0.878895,0.520554,-0.460859,-1.02105,1.09818,-0.699323,0.539343,0.878895,0.520554,-0.460859,0.222646,-0.475844,0.936093,0.837005,-0.0456666,0.110944,0.533881,-0.696961,0.168524,0.527001,1.42335,-0.434468,1.754,-2.93092,0.11023,0.891173,-2.96758,0.0940725,0.794316,-0.708635,0.780503,-0.475023,0.317513,0.649485,0.365368,-0.294111,1
1.24569,-0.50048,-2.0147,-0.995622,2.41938,1.42847,-1.12978,1.2546,-0.511025,-2.00918,-0.997597,2.41031,1.42394,-1.12615,1.31574,-0.578652,-1.96813,-1.02502,2.35402,1.39149,-1.10068,-1.01009,1.09738,-0.693894,0.52322,0.886571,0.547326,-0.448921,-1.01009,1.09738,-0.693894,0.52322,0.886571,0.547326,-0.448921,0.215966,-0.473761,0.941003,0.842059,-0.0512658,0.111375,0.525266,-0.6836,0.192965,0.521342,1.39355,-0.434076,1.76216,-2.98041,0.0392228,0.816262,-2.95566,0.0747263,0.703717,-0.700496,0.781717,-0.465723,0.293997,0.653661,0.369723,-0.29095,1
1.23749,-0.490248,-2.02085,-0.988665,2.42791,1.43885,-1.1339,1.24584,-0.500552,-2.01483,-0.994552,2.41932,1.42969,-1.12981,1.30622,-0.568254,-1.97465,-1.02023,2.3625,1.3967,-1.10483,-1.00001,1.0977,-0.681909,0.490735,0.902279,0.551767,-0.427892,-1.00001,1.0977,-0.681909,0.490735,0.902279,0.551767,-0.427892,0.209446,-0.471445,0.945835,0.846849,-0.0569156,0.111789,0.516827,-0.663788,0.215851,0.51205,1.36354,-0.433903,1.76947,-3.00115,0.0173301,0.730813,-2.99078,0.0282764,0.623537,-0.687259,0.780059,-0.462084,0.315623,0.654104,0.421484,-0.290727,1
1.22876,-0.47982,-2.02586,-0.988901,2.43832,1.44194,-1.13606,1.23736,-0.490199,-2.02057,-0.990463,2.42838,1.43703,-1.13341,1.29679,-0.557841,-1.98101,-1.01588,2.37114,1.40178,-1.10879,-0.99163,1.10038,-0.662117,0.429795,0.920685,0.521043,-0.408039,-0.99163,1.10038,-0.662117,0.429795,0.920685,0.521043,-0.408039,0.20318,-0.468932,0.950541,0.851348,-0.0624101,0.112188,0.508651,-0.632856,0.236208,0.495946,1.3341,-0.432989,1.77547,-2.94398,0.0913799,0.600255,-2.97257,0.054355,0.515534,-0.680253,0.780207,-0.448499,0.269823,0.67185,0.401618,-0.27273,1
1.22017,-0.469023,-2.03003,-0.994341,2.448,1.44275,-1.13749,1.2288,-0.479728,-2.02565,-0.990202,2.43814,1.44137,-1.13588,1.28746,-0.547411,-1.98722,-1.01192,2.37989,1.4068,-1.11263,-0.978213,1.10138,-0.648962,0.408194,0.926778,0.538023,-0.403841,-0.978213,1.10138,-0.648962,0.408194,0.926778,0.538023,-0.403841,0.197156,-0.466213,0.955139,0.855588,-0.0678202,0.112582,0.500695,-0.613515,0.259681,0.489531,1.30517,-0.432071,1.78072,-2.89309,0.0917584,0.525296,-2.91854,0.0915691,0.412775,-0.672859,0.78388,-0.428169,0.175781,0.681093,0.359538,-0.248637,1
1.21198,-0.458322,-2.03421,-0.996087,2.45719,1.44733,-1.14084,1.22027,-0.469047,-2.03003,-0.993417,2.44788,1.44369,-1.13797,1.27827,-0.536985,-1.99332,-1.00803,2.3887,1.41213,-1.11643,-0.961642,1.09962,-0.640404,0.41284,0.932625,0.585143,-0.399049,-0.961642,1.09962,-0.640404,0.41284,0.932625,0.585143,-0.399049,0.191267,-0.463249,0.959698,0.859616,-0.0734316,0.11295,0.492859,-0.602709,0.284211,0.488958,1.27565,-0.431016,1.78544,-2.95146,0.105539,0.471592,-2.92227,0.0986487,0.348444,-0.662898,0.78663,-0.408933,0.119417,0.684914,0.352043,-0.244058,1
1.20402,-0.447698,-2.03909,-0.991144,2.46616,1.45452,-1.14605,1.21204,-0.458341,-2.03439,-0.994414,2.45713,1.44798,-1.1413,1.26922,-0.526561,-1.99928,-1.0045,2.39763,1.41755,-1.12007,-0.95009,1.10074,-0.619691,0.336076,0.952,0.559882,-0.371435,-0.95009,1.10074,-0.619691,0.336076,0.952,0.559882,-0.371435,0.185615,-0.460093,0.964136,0.863379,-0.0790149,0.113296,0.485281,-0.565717,0.300199,0.466097,1.24574,-0.430362,1.78889,-2.99119,0.0654042,0.345612,-2.97132,0.0854716,0.258602,-0.652013,0.788624,-0.398047,0.133573,0.685247,0.369698,-0.259718,1
1.19706,-0.437354,-2.04482,-0.988835,2.4756,1.46184,-1.14989,1.20427,-0.447768,-2.0393,-0.991802,2.46628,1.45455,-1.14571,1.26027,-0.516106,-2.005,-1.00199,2.40673,1.42254,-1.12344,-0.94005,1.10604,-0.588398,0.201482,0.967157,0.497203,-0.341433,-0.94005,1.10604,-0.588398,0.201482,0.967157,0.497203,-0.341433,0.180439,-0.456838,0.968282,0.866798,-0.0840768,0.113675,0.478194,-0.508622,0.311783,0.427971,1.21608,-0.430094,1.79135,-2.96596,0.0268281,0.245976,-2.97858,0.0461161,0.145794,-0.632116,0.787519,-0.398223,0.131548,0.68871,0.392984,-0.2645,1
1.18966,-0.427049,-2.05055,-0.989977,2.4853,1.46665,-1.15208,1.19695,-0.437364,-2.04482,-0.989697,2.47566,1.46121,-1.14948,1.25143,-0.505603,-2.01045,-1.00039,2.4159,1.4272,-1.12669,-0.925879,1.1108,-0.562709,0.14036,0.969121,0.488372,-0.343498,-0.925879,1.1108,-0.562709,0.14036,0.969121,0.488372,-0.343498,0.175717,-0.453469,0.972175,0.869934,-0.0887229,0.114101,0.471512,-0.473041,0.32954,0.410992,1.18667,-0.42965,1.79337,-2.94082,0.0443339,0.201583,-2.95339,0.035581,0.0737797,-0.617696,0.785533,-0.401039,0.104098,0.694041,0.3945,-0.253945,1
1.18177,-0.416456,-2.05559,-0.994538,2.4949,1.46931,-1.15333,1.18954,-0.426977,-2.05038,-0.990831,2.48528,1.46611,-1.15185,1.24277,-0.495073,-2.01573,-0.998922,2.42508,1.43204,-1.13006,-0.9048,1.11183,-0.553978,0.167331,0.968276,0.52918,-0.367639,-0.9048,1.11183,-0.553978,0.167331,0.968276,0.52918,-0.367639,0.171198,-0.4499,0.976017,0.872922,-0.0934863,0.114519,0.464923,-0.463963,0.351774,0.417308,1.15714,-0.428722,1.79394,-2.95297,0.0928283,0.0571489,-2.9469,0.0685811,-0.0206341,-0.609926,0.786171,-0.398535,0.0438405,0.698178,0.372756,-0.232678,1
1.1745,-0.405749,-2.06029,-0.997302,2.50391,1.47329,-1.15681,1.18193,-0.416428,-2.0555,-0.994088,2.49475,1.46964,-1.15389,1.23433,-0.484553,-2.02101,-0.997282,2.43427,1.43722,-1.13358,-0.878468,1.1091,-0.559623,0.178255,0.972799,0.56381,-0.373739,-0.878468,1.1091,-0.559623,0.178255,0.972799,0.56381,-0.373739,0.166775,-0.446131,0.979867,0.875798,-0.0985466,0.114903,0.458327,-0.450793,0.367412,0.4149,1.12697,-0.427923,1.79316,-3.01733,0.079909,-0.0783682,-2.98515,0.0863686,-0.16061,-0.598307,0.788042,-0.392769,-0.000201736,0.696345,0.360639,-0.23227,1
1.16768,-0.395292,-2.06511,-0.995917,2.51315,1.47942,-1.16104,1.17461,-0.405811,-2.06032,-0.996265,2.50397,1.47383,-1.15699,1.2261,-0.474058,-2.02634,-0.99589,2.44353,1.44252,-1.137,-0.85926,1.10655,-0.56497,0.118887,0.9811,0.554586,-0.349087,-0.85926,1.10655,-0.56497,0.118887,0.9811,0.554586,-0.349087,0.162571,-0.442271,0.983581,0.8785,-0.103574,0.115294,0.451905,-0.41992,0.371306,0.390775,1.09754,-0.427279,1.79167,-2.94254,0.0643373,-0.14869,-2.97993,0.0721231,-0.263529,-0.5842,0.787662,-0.38766,-0.000276832,0.696177,0.369062,-0.240401,1
1.16099,-0.38495,-2.06974,-0.994392,2.52261,1.48569,-1.16465,1.16771,-0.395321,-2.06506,-0.995882,2.5132,1.47946,-1.16088,1.21801,-0.463567,-2.03167,-0.995224,2.45285,1.44759,-1.14017,-0.848157,1.10793,-0.560191,0.0266965,0.984888,0.51825,-0.32243,-0.848157,1.10793,-0.560191,0.0266965,0.984888,0.51825,-0.32243,0.158724,-0.438417,0.987032,0.880988,-0.108209,0.115751,0.445818,-0.380268,0.371348,0.359422,1.06773,-0.426982,1.78923,-2.98173,0.0297159,-0.243759,-2.96214,0.0470266,-0.346224,-0.570219,0.786165,-0.380675,0.00832507,0.69761,0.380977,-0.244779,1
1.1539,-0.374419,-2.07471,-0.998406,2.532,1.48857,-1.16677,1.16089,-0.384903,-2.06982,-0.995777,2.52259,1.48484,-1.16428,1.21005,-0.453057,-2.03692,-0.995227,2.46217,1.45243,-1.14323,-0.833016,1.11044,-0.549815,-0.024394,0.982436,0.503024,-0.323511,-0.833016,1.11044,-0.549815,-0.024394,0.982436,0.503024,-0.323511,0.155226,-0.43455,0.990257,0.883302,-0.112494,0.116275,0.440004,-0.349701,0.378246,0.34185,1.0377,-0.426213,1.78535,-3.00298,0.076896,-0.388551,-2.99236,0.0533059,-0.466155,-0.561513,0.786387,-0.377886,-0.0317952,0.698322,0.361494,-0.235415,1
1.14663,-0.363856,-2.07849,-1.00394,2.54188,1.49006,-1.16682,1.15386,-0.374411,-2.07441,-0.998786,2.53212,1.48822,-1.16625,1.20227,-0.44254,-2.04208,-0.995393,2.47147,1.45728,-1.14638,-0.812139,1.10981,-0.539983,-0.0114864,0.980979,0.521171,-0.340788,-0.812139,1.10981,-0.539983,-0.0114864,0.980979,0.521171,-0.340788,0.151936,-0.43058,0.993405,0.885504,-0.116781,0.116804,0.434282,-0.309936,0.341139,0.304371,1.0086,-0.425749,1.78033,-2.90927,0.0464052,-0.501466,-2.95612,0.0616506,-0.595008,-0.556335,0.786839,-0.364102,-0.0854699,0.704101,0.327795,-0.204383,1
1.14038,-0.353482,-2.08575,-1.00428,2.55084,1.49543,-1.17062,1.14689,-0.363903,-2.07936,-1.00264,2.54165,1.49103,-1.16776,1.19466,-0.432035,-2.04716,-0.99548,2.48077,1.46227,-1.14963,-0.793748,1.10777,-0.532576,-0.00698375,0.982921,0.53064,-0.344274,-0.793748,1.10777,-0.532576,-0.00698375,0.982921,0.53064,-0.344274,0.148771,-0.42648,0.996541,0.88761,-0.121213,0.117299,0.428599,-0.322026,0.403497,0.3405,0.979235,-0.425232,1.77504,-2.93698,0.051713,-0.52917,-2.92313,0.0490591,-0.665318,-0.54279,0.78553,-0.385837,-0.0880513,0.70069,0.331671,-0.209957,1
1.13513,-0.343127,-2.09071,-1.00286,2.56018,1.50102,-1.17473,1.14063,-0.353487,-2.08518,-1.00384,2.55093,1.49549,-1.1707,1.18719,-0.42154,-2.05216,-0.995855,2.49011,1.46712,-1.15275,-0.783522,1.10769,-0.523015,-0.0688844,0.987475,0.496004,-0.317252,-0.783522,1.10769,-0.523015,-0.0688844,0.987475,0.496004,-0.317252,0.145829,-0.42235,0.999557,0.889579,-0.12549,0.117796,0.423115,-0.291901,0.401912,0.318802,0.949268,-0.425065,1.76846,-2.99661,0.0166684,-0.658536,-2.9668,0.0341907,-0.743853,-0.520595,0.784135,-0.385538,-0.070067,0.700758,0.338972,-0.219785,1
1.1278,-0.332849,-2.09562,-1.00943,2.57047,1.50053,-1.17657,1.13461,-0.343146,-2.0907,-1.00486,2.56042,1.4995,-1.17417,1.17982,-0.411044,-2.05712,-0.996845,2.49948,1.47162,-1.1556,-0.773977,1.10796,-0.522865,-0.136273,0.991086,0.456225,-0.285711,-0.773977,1.10796,-0.522865,-0.136273,0.991086,0.456225,-0.285711,0.143186,-0.418285,1.00236,0.891399,-0.129346,0.118342,0.417939,-0.262477,0.395784,0.294502,0.92065,-0.424072,1.76077,-2.8618,0.099358,-0.768566,-2.9292,0.0580132,-0.863551,-0.520208,0.781956,-0.385066,-0.125868,0.709883,0.289106,-0.209715,1
1.1196,-0.32212,-2.10109,-1.01618,2.57993,1.49738,-1.17816,1.12758,-0.332736,-2.09576,-1.00948,2.57026,1.49987,-1.17651,1.1726,-0.400555,-2.06216,-0.998127,2.50886,1.47596,-1.15833,-0.751319,1.10632,-0.540973,-0.134365,0.98896,0.459017,-0.290653,-0.751319,1.10632,-0.540973,-0.134365,0.98896,0.459017,-0.290653,0.140748,-0.414249,1.00502,0.89313,-0.132992,0.118928,0.412901,-0.25035,0.398612,0.288542,0.89158,-0.423349,1.75243,-2.90701,0.0723243,-0.833929,-2.88441,0.0858411,-0.951247,-0.530023,0.784349,-0.389308,-0.180552,0.710717,0.214215,-0.198265,1
1.1136,-0.311314,-2.10754,-1.01884,2.58811,1.49976,-1.18318,1.12015,-0.322101,-2.10134,-1.01516,2.57961,1.49876,-1.17902,1.1656,-0.390089,-2.06733,-0.999373,2.51824,1.48027,-1.16116,-0.728247,1.10336,-0.549365,-0.128983,0.991357,0.451975,-0.305633,-0.728247,1.10336,-0.549365,-0.128983,0.991357,0.451975,-0.305633,0.138429,-0.410183,1.00764,0.894822,-0.136644,0.119512,0.407846,-0.237842,0.401946,0.28498,0.861801,-0.422713,1.74334,-2.97793,0.0635684,-0.908816,-2.94247,0.0679463,-1.02137,-0.519965,0.787744,-0.402124,-0.194626,0.69872,0.194848,-0.220203,1
1.10802,-0.300938,-2.11161,-1.02237,2.5974,1.50419,-1.18492,1.1137,-0.311422,-2.10694,-1.01906,2.58839,1.50027,-1.18236,1.15868,-0.37964,-2.07252,-1.00095,2.52768,1.48414,-1.164,-0.73102,1.10245,-0.546377,-0.200381,1.00087,0.369588,-0.294043,-0.73102,1.10245,-0.546377,-0.200381,1.00087,0.369588,-0.294043,0.136307,-0.406206,1.01013,0.896485,-0.139943,0.120091,0.402875,-0.212643,0.386325,0.261309,0.832206,-0.42215,1.73276,-2.95951,0.0562757,-1.05819,-2.96872,0.059922,-1.1335,-0.506642,0.787026,-0.390915,-0.214186,0.697205,0.200437,-0.209149,1
1.10088,-0.290629,-2.11667,-1.02541,2.60724,1.50659,-1.18483,1.10763,-0.300955,-2.11186,-1.02225,2.59754,1.50368,-1.18446,1.1517,-0.369176,-2.07773,-1.00325,2.53715,1.48716,-1.16676,-0.741709,1.10646,-0.554725,-0.279935,0.998054,0.272725,-0.288225,-0.741709,1.10646,-0.554725,-0.279935,0.998054,0.272725,-0.288225,0.134451,-0.402449,1.0124,0.898158,-0.142515,0.120736,0.398026,-0.188404,0.366679,0.235729,0.80324,-0.422092,1.72135,-2.89658,0.00578165,-1.14138,-2.92805,0.0310287,-1.24978,-0.508249,0.78547,-0.389371,-0.22165,0.700894,0.194339,-0.180748,1
1.09343,-0.28019,-2.1231,-1.02986,2.61653,1.50466,-1.1859,1.1008,-0.290596,-2.11701,-1.02576,2.6071,1.50551,-1.18512,1.14474,-0.358672,-2.08303,-1.00603,2.54653,1.48963,-1.16955,-0.729448,1.1106,-0.562152,-0.30614,0.983816,0.250086,-0.301061,-0.729448,1.1106,-0.562152,-0.30614,0.983816,0.250086,-0.301061,0.13282,-0.39882,1.01452,0.899846,-0.144619,0.121478,0.393198,-0.170239,0.365475,0.22479,0.773779,-0.421537,1.70937,-2.94611,0.0555128,-1.19765,-2.92135,0.0306472,-1.31951,-0.513049,0.784827,-0.400691,-0.23833,0.699948,0.150282,-0.163499,1
1.08563,-0.270124,-2.13179,-1.03161,2.62529,1.50053,-1.19032,1.09334,-0.280283,-2.12366,-1.02919,2.6164,1.50411,-1.18674,1.13792,-0.348156,-2.08831,-1.00896,2.55583,1.49211,-1.17232,-0.711861,1.10945,-0.553461,-0.312263,0.980198,0.271987,-0.285257,-0.711861,1.10945,-0.553461,-0.312263,0.980198,0.271987,-0.285257,0.131342,-0.395165,1.01655,0.901468,-0.146687,0.122258,0.388447,-0.156709,0.372215,0.219004,0.744189,-0.421191,1.69642,-2.95901,0.034675,-1.29547,-2.95256,0.0450939,-1.39656,-0.522824,0.780318,-0.43481,-0.226523,0.694552,0.0842221,-0.179924,1
1.07857,-0.260445,-2.1392,-1.03228,2.63465,1.4968,-1.19258,1.08582,-0.270221,-2.13147,-1.03134,2.62544,1.50063,-1.18978,1.13116,-0.337661,-2.09354,-1.01198,2.56515,1.49461,-1.17481,-0.713593,1.10624,-0.551607,-0.324028,0.986016,0.256222,-0.242271,-0.713593,1.10624,-0.551607,-0.324028,0.986016,0.256222,-0.242271,0.129953,-0.391501,1.01852,0.902987,-0.148725,0.123031,0.383873,-0.150915,0.368287,0.211676,0.715058,-0.420472,1.68192,-2.91313,0.0718176,-1.44995,-2.93607,0.0532463,-1.52271,-0.525975,0.772167,-0.456527,-0.203006,0.694972,0.0219157,-0.177708,1
1.07125,-0.25046,-2.14568,-1.03453,2.64423,1.49303,-1.19312,1.0785,-0.260368,-2.13897,-1.03268,2.6347,1.49679,-1.19215,1.12433,-0.327199,-2.09892,-1.01509,2.57449,1.49663,-1.17704,-0.728262,1.10272,-0.581594,-0.331471,0.985033,0.175771,-0.228027,-0.728262,1.10272,-0.581594,-0.331471,0.985033,0.175771,-0.228027,0.128591,-0.387971,1.02043,0.904519,-0.150444,0.123834,0.379311,-0.153787,0.349801,0.205044,0.685949,-0.419996,1.66686,-2.91091,0.0475883,-1.50567,-2.91202,0.059703,-1.62781,-0.530813,0.767391,-0.467591,-0.194421,0.697386,-0.0360538,-0.16088,1
1.06417,-0.24012,-2.15305,-1.04092,2.65282,1.49045,-1.19392,1.07131,-0.250371,-2.1459,-1.03556,2.64398,1.49332,-1.19319,1.11736,-0.316792,-2.10467,-1.01812,2.58379,1.49776,-1.17929,-0.741492,1.09463,-0.629862,-0.310733,0.978956,0.067541,-0.246568,-0.741492,1.09463,-0.629862,-0.310733,0.978956,0.067541,-0.246568,0.127184,-0.384675,1.02232,0.906217,-0.151675,0.124694,0.374457,-0.165571,0.327146,0.205936,0.655759,-0.419868,1.65045,-3.01901,0.0128895,-1.64139,-2.96496,0.0302389,-1.72353,-0.531946,0.766721,-0.483747,-0.228008,0.69027,-0.0730717,-0.146275,1
1.05707,-0.230232,-2.16096,-1.04981,2.66164,1.48232,-1.19308,1.06416,-0.240233,-2.15318,-1.04155,2.65287,1.48906,-1.19351,1.11031,-0.306476,-2.1108,-1.0209,2.59306,1.49792,-1.18163,-0.747562,1.08373,-0.662037,-0.276842,0.978733,-0.0267048,-0.247332,-0.747562,1.08373,-0.662037,-0.276842,0.978733,-0.0267048,-0.247332,0.125693,-0.381597,1.02427,0.908092,-0.152476,0.125571,0.36926,-0.176635,0.311131,0.211959,0.626162,-0.41909,1.63282,-2.95964,0.0778049,-1.76228,-2.98932,0.0453472,-1.85184,-0.532357,0.762437,-0.501579,-0.289167,0.685768,-0.156039,-0.11453,1
1.05077,-0.220452,-2.16922,-1.05935,2.67018,1.473,-1.19344,1.05727,-0.230259,-2.16104,-1.04998,2.66157,1.48202,-1.19338,1.10321,-0.296237,-2.11714,-1.02355,2.60233,1.49733,-1.18384,-0.749941,1.07806,-0.675962,-0.282452,0.978805,-0.0942302,-0.219821,-0.749941,1.07806,-0.675962,-0.282452,0.978805,-0.0942302,-0.219821,0.124178,-0.378682,1.02622,0.910041,-0.152908,0.126445,0.363945,-0.174551,0.298721,0.207616,0.597704,-0.418616,1.61423,-2.84577,0.0473469,-1.85915,-2.9027,0.0625759,-1.96072,-0.524423,0.757849,-0.520763,-0.358063,0.678495,-0.24333,-0.0960706,1
1.04538,-0.210662,-2.17537,-1.06665,2.67912,1.46956,-1.1963,1.051,-0.22045,-2.16869,-1.05879,2.67028,1.47447,-1.19407,1.0961,-0.286032,-2.12364,-1.02657,2.61157,1.49609,-1.18573,-0.750742,1.07647,-0.694428,-0.351993,0.97086,-0.165132,-0.182811,-0.750742,1.07647,-0.694428,-0.351993,0.97086,-0.165132,-0.182811,0.122773,-0.375975,1.02805,0.911999,-0.152813,0.127373,0.358722,-0.158481,0.276113,0.183276,0.568526,-0.418102,1.59515,-2.91786,0.0513703,-1.9086,-2.88182,0.0493586,-2.03388,-0.507261,0.753697,-0.517367,-0.400754,0.675515,-0.265249,-0.105684,1
1.03921,-0.20082,-2.18093,-1.07139,2.68789,1.46599,-1.19879,1.04518,-0.210649,-2.17522,-1.06601,2.67908,1.46953,-1.19621,1.08902,-0.275857,-2.13035,-1.03044,2.62071,1.49395,-1.18727,-0.746093,1.07169,-0.721386,-0.45912,0.960249,-0.280249,-0.143659,-0.746093,1.07169,-0.721386,-0.45912,0.960249,-0.280249,-0.143659,0.121593,-0.373624,1.02961,0.913983,-0.151846,0.128407,0.353679,-0.135034,0.237846,0.146702,0.539084,-0.417836,1.57504,-2.94415,0.0266463,-2.01097,-2.93101,0.0390083,-2.10978,-0.498082,0.750363,-0.50583,-0.409522,0.671748,-0.279555,-0.115256,1
1.03302,-0.191109,-2.18675,-1.07655,2.69666,1.4609,-1.1975,1.0392,-0.200853,-2.181,-1.0715,2.68789,1.46561,-1.19785,1.08203,-0.265739,-2.13727,-1.03526,2.62977,1.49078,-1.18856,-0.729352,1.06446,-0.738476,-0.553047,0.952147,-0.38323,-0.129457,-0.729352,1.06446,-0.738476,-0.553047,0.952147,-0.38323,-0.129457,0.12067,-0.37169,1.03086,0.916019,-0.149897,0.129509,0.34881,-0.111099,0.203838,0.11405,0.510334,-0.417976,1.55383,-2.87501,-0.0139773,-2.12053,-2.90958,0.00633448,-2.21575,-0.490099,0.746302,-0.494768,-0.412926,0.668886,-0.298792,-0.0894519,1
1.02463,-0.181526,-2.19309,-1.08426,2.70619,1.45583,-1.19572,1.03247,-0.191141,-2.18688,-1.07719,2.69685,1.4609,-1.19738,1.07524,-0.255684,-2.14422,-1.04071,2.63877,1.48701,-1.18988,-0.706307,1.05847,-0.728733,-0.59466,0.947418,-0.410809,-0.148725,-0.706307,1.05847,-0.728733,-0.59466,0.947418,-0.410809,-0.148725,0.119955,-0.370006,1.0319,0.918077,-0.147371,0.130582,0.344042,-0.0934906,0.193736,0.0980795,0.481348,-0.417271,1.5319,-2.8986,0.0704378,-2.19296,-2.8868,0.0282302,-2.30675,-0.50605,0.741584,-0.488733,-0.435489,0.67424,-0.31179,-0.0583444,1
1.01494,-0.173271,-2.2008,-1.09216,2.71581,1.45096,-1.19712,1.02431,-0.181858,-2.19343,-1.08431,2.70621,1.45588,-1.19651,1.06862,-0.24568,-2.151,-1.04633,2.64773,1.48311,-1.19131,-0.691348,1.05359,-0.704936,-0.591564,0.943938,-0.411366,-0.153556,-0.691348,1.05359,-0.704936,-0.591564,0.943938,-0.411366,-0.153556,0.119351,-0.368362,1.03287,0.920101,-0.144747,0.131567,0.339342,-0.0852823,0.197333,0.0971172,0.452197,-0.416675,1.50906,-2.91515,0.0596285,-2.28437,-2.90688,0.0650331,-2.38867,-0.536782,0.724091,-0.49795,-0.458333,0.680797,-0.321545,-0.0580795,1
1.00706,-0.167033,-2.20992,-1.09637,2.72574,1.44818,-1.19951,1.01539,-0.173775,-2.20115,-1.09124,2.71589,1.45148,-1.19737,1.06205,-0.235726,-2.1576,-1.05194,2.65667,1.47913,-1.19257,-0.695208,1.0479,-0.688202,-0.593417,0.94431,-0.428384,-0.113099,-0.695208,1.0479,-0.688202,-0.593417,0.94431,-0.428384,-0.113099,0.118776,-0.366724,1.03382,0.922057,-0.142101,0.132472,0.334767,-0.0848878,0.194,0.0944556,0.423661,-0.416159,1.48484,-2.85357,0.0516295,-2.42143,-2.88436,0.055629,-2.5029,-0.549911,0.686935,-0.523242,-0.444238,0.690679,-0.309449,-0.0694685,1
1.00144,-0.159977,-2.21891,-1.09979,2.73482,1.44611,-1.20179,1.00762,-0.166828,-2.20989,-1.09617,2.72553,1.44836,-1.19949,1.0553,-0.225866,-2.16412,-1.05772,2.66566,1.47497,-1.19344,-0.728388,1.03434,-0.688873,-0.624869,0.953058,-0.448715,-0.072376,-0.728388,1.03434,-0.688873,-0.624869,0.953058,-0.448715,-0.072376,0.118134,-0.365226,1.03469,0.923984,-0.139249,0.133305,0.330294,-0.0982798,0.172986,0.0789628,0.394331,-0.416371,1.45984,-2.93304,-0.0212759,-2.49997,-2.8933,0.0151768,-2.6107,-0.53856,0.658891,-0.547831,-0.420665,0.6916,-0.288621,-0.0835554,1
0.995992,-0.15293,-2.22846,-1.10492,2.74391,1.44561,-1.20588,1.00148,-0.159979,-2.21905,-1.10021,2.73482,1.4465,-1.20224,1.04818,-0.216247,-2.17078,-1.06375,2.67476,1.4707,-1.19414,-0.770708,0.998224,-0.713986,-0.646078,0.966601,-0.451752,-0.0759205,-0.770708,0.998224,-0.713986,-0.646078,0.966601,-0.451752,-0.0759205,0.11726,-0.364026,1.0354,0.925986,-0.136115,0.134005,0.325678,-0.132181,0.137806,0.0589093,0.364836,-0.416235,1.43405,-2.94948,0.0136137,-2.5792,-2.94126,-0.00383109,-2.68959,-0.521912,0.63317,-0.576802,-0.411701,0.691471,-0.250942,-0.117362,1
0.990276,-0.148817,-2.23819,-1.11425,2.75394,1.44693,-1.20871,0.995925,-0.153663,-2.2285,-1.10597,2.74414,1.44606,-1.20556,1.04083,-0.207053,-2.17775,-1.06974,2.68397,1.46654,-1.19501,-0.780512,0.945416,-0.75542,-0.621098,0.976763,-0.427425,-0.105305,-0.780512,0.945416,-0.75542,-0.621098,0.976763,-0.427425,-0.105305,0.116022,-0.363155,1.03597,0.928119,-0.132879,0.134485,0.320705,-0.172497,0.107555,0.0484058,0.335832,-0.416011,1.40707,-2.9004,0.0223994,-2.6985,-2.92494,0.0180066,-2.78885,-0.505565,0.582364,-0.604413,-0.445071,0.699688,-0.196142,-0.137075,1
0.98504,-0.148214,-2.24784,-1.12426,2.76409,1.45985,-1.21318,0.990396,-0.149694,-2.23817,-1.11442,2.75397,1.44983,-1.20912,1.03357,-0.198318,-2.18511,-1.07544,2.69323,1.46273,-1.19619,-0.754147,0.901082,-0.797534,-0.582404,0.977635,-0.381302,-0.142312,-0.754147,0.901082,-0.797534,-0.582404,0.977635,-0.381302,-0.142312,0.114449,-0.362492,1.03647,0.930342,-0.129801,0.134733,0.315377,-0.199115,0.0928102,0.0445928,0.307526,-0.415341,1.37935,-2.8306,0.0670493,-2.77196,-2.8655,0.0447243,-2.88523,-0.485292,0.501042,-0.6273,-0.488221,0.708673,-0.0287259,-0.169912,1
0.981617,-0.162219,-2.25847,-1.12696,2.77409,1.48449,-1.22307,0.985493,-0.151866,-2.24809,-1.12243,2.76405,1.46278,-1.21454,1.02659,-0.190014,-2.19287,-1.08098,2.7025,1.45945,-1.19774,-0.720755,0.854361,-0.837444,-0.587367,0.978854,-0.314542,-0.183792,-0.720755,0.854361,-0.837444,-0.587367,0.978854,-0.314542,-0.183792,0.112639,-0.361991,1.03687,0.932605,-0.126939,0.13477,0.309791,-0.218196,0.071813,0.025573,0.277885,-0.415198,1.35073,-2.9641,0.014329,-2.86194,-2.89735,0.0406891,-2.96695,-0.449744,0.277955,-0.656022,-0.459792,0.715894,0.250477,-0.253287,1
0.987879,-0.216312,-2.26907,-1.12116,2.78357,1.50075,-1.23658,0.984038,-0.172241,-2.25847,-1.12483,2.77396,1.4824,-1.22397,1.0199,-0.182353,-2.20099,-1.08685,2.71183,1.45718,-1.19968,-0.693421,0.767595,-0.873904,-0.648057,0.990456,-0.172644,-0.221965,-0.693421,0.767595,-0.873904,-0.648057,0.990456,-0.172644,-0.221965,0.11056,-0.361814,1.03692,0.934888,-0.12424,0.134517,0.304063,-0.249443,0.0253367,-0.0243799,0.248433,-0.415056,1.32062,-2.94514,0.0141352,-3.01049,-2.95462,0.0142321,-3.08621,-0.320202,-0.339582,-0.680836,-0.343157,0.717466,0.435781,-0.369001,1
1.00702,-0.235365,-2.28186,-1.14985,2.78906,1.5153,-1.24826,0.9911,-0.207552,-2.26962,-1.12978,2.78257,1.50033,-1.23612,1.0135,-0.176074,-2.20944,-1.09318,2.72129,1.45707,-1.20213,-0.658363,0.568975,-0.908364,-0.687415,1.00517,0.134159,-0.291642,-0.658363,0.568975,-0.908364,-0.687415,1.00517,0.134159,-0.291642,0.107895,-0.362239,1.03637,0.937178,-0.121988,0.133693,0.298231,-0.326755,-0.0571828,-0.101363,0.219791,-0.41452,1.28943,-2.86427,0.0535935,-3.11944,-2.90471,0.0338644,-3.21497,-0.0648005,-0.592914,-0.724215,-0.566707,0.677752,0.582276,-0.461285,1
0.973876,-0.245807,-2.29208,-1.17046,2.77833,1.52054,-1.24923,0.993951,-0.233212,-2.28122,-1.14783,2.78501,1.51297,-1.24558,1.00777,-0.173393,-2.21823,-1.09926,2.73085,1.46027,-1.20559,-0.557778,0.0270811,-0.94562,-0.600971,1.01324,0.519993,-0.432049,-0.557778,0.0270811,-0.94562,-0.600971,1.01324,0.519993,-0.432049,0.103784,-0.364147,1.03486,0.939588,-0.120436,0.131456,0.292213,-0.519972,-0.283171,-0.230151,0.19139,-0.414034,1.25713,-2.84004,0.0486672,-3.22933,-2.85216,0.0511304,-3.32439,-0.338939,-0.724139,-0.738474,-0.711954,0.474838,0.602614,-0.436387,1
0.954231,-0.248288,-2.29659,-1.18183,2.76069,1.52399,-1.25083,0.977252,-0.243817,-2.29065,-1.16815,2.7766,1.52009,-1.24939,1.00378,-0.176877,-2.22742,-1.10488,2.74035,1.46657,-1.21053,-0.298128,-0.721003,-0.991816,-0.585363,0.992549,0.793454,-0.601416,-0.298128,-0.721003,-0.991816,-0.585363,0.992549,0.793454,-0.601416,0.0976586,-0.368867,1.03176,0.942253,-0.118841,0.126858,0.286257,-0.710429,-0.631903,-0.443189,0.162143,-0.413912,1.22437,-2.92474,0.0121206,-3.27617,-2.88239,0.0303939,-3.40275,-0.495533,-0.714113,-0.691653,-0.769538,0.203451,0.574199,-0.402954,1
0.946548,-0.258887,-2.30441,-1.18956,2.7399,1.52787,-1.25888,0.957222,-0.250317,-2.29742,-1.18092,2.7599,1.5241,-1.25244,1.00156,-0.185687,-2.23705,-1.11174,2.74902,1.47462,-1.21663,-0.178753,-1.11704,-1.03814,-0.848328,0.84596,0.901357,-0.680537,-0.178753,-1.11704,-1.03814,-0.848328,0.84596,0.901357,-0.680537,0.0902672,-0.376494,1.02665,0.945151,-0.115917,0.120606,0.280547,-0.771533,-0.872197,-0.66661,0.133812,-0.413904,1.19077,-2.83309,0.000813603,-3.36049,-2.87891,0.0064671,-3.46833,-0.550082,-0.731993,-0.673577,-0.778213,-0.0911854,0.53248,-0.422572,1
0.934152,-0.272993,-2.31648,-1.19812,2.74019,1.53516,-1.26047,0.94537,-0.259764,-2.30547,-1.18977,2.74517,1.52872,-1.25727,0.998285,-0.196273,-2.24684,-1.12107,2.7553,1.48301,-1.2228,-0.494363,-1.1175,-1.0297,-1.10666,0.500653,0.87144,-0.625002,-0.494363,-1.1175,-1.0297,-1.10666,0.500653,0.87144,-0.625002,0.0824437,-0.385604,1.01998,0.948263,-0.111239,0.114949,0.274245,-0.823925,-0.927045,-0.781298,0.105639,-0.413809,1.15626,-2.8173,0.00949502,-3.45116,-2.82519,0.00515431,-3.55582,-0.641328,-0.767206,-0.696412,-0.770484,-0.151161,0.521501,-0.376781,1
0.922098,-0.285036,-2.32717,-1.20829,2.73496,1.54936,-1.26018,0.934238,-0.272477,-2.31614,-1.19852,2.73881,1.53689,-1.26,0.991987,-0.20643,-2.25628,-1.13179,2.75779,1.49082,-1.22842,-0.817152,-1.03155,-0.966776,-1.15473,0.0496154,0.782049,-0.564737,-0.817152,-1.03155,-0.966776,-1.15473,0.0496154,0.782049,-0.564737,0.0744453,-0.394774,1.01269,0.951519,-0.105459,0.111424,0.2666,-0.853821,-0.880611,-0.793975,0.0771113,-0.413088,1.12089,-2.85277,0.0720948,-3.53656,-2.83504,0.0407949,-3.64386,-0.698893,-0.786061,-0.708913,-0.765002,-0.228284,0.585352,-0.317643,1
0.911705,-0.295411,-2.33742,-1.21888,2.72962,1.55833,-1.26106,0.922513,-0.284619,-2.32706,-1.2084,2.73493,1.54805,-1.26047,0.983814,-0.216168,-2.26533,-1.14251,2.75666,1.49794,-1.23371,-0.903596,-1.02468,-0.943581,-1.1107,-0.270182,0.723564,-0.553678,-0.903596,-1.02468,-0.943581,-1.1107,-0.270182,0.723564,-0.553678,0.0664548,-0.403545,1.00531,0.954747,-0.0992756,0.109829,0.257955,-0.858361,-0.843426,-0.795714,0.0503751,-0.411449,1.09077,-2.67363,0.163934,-3.01243,-2.7632,0.118014,-3.42449,-0.721081,-0.792423,-0.72094,-0.763668,-0.27041,0.603936,-0.273531,1
0.896104,-0.29987,-2.34614,-1.21417,2.72084,1.52078,-1.22857,0.910403,-0.293932,-2.33704,-1.21506,2.72876,1.5467,-1.25272,0.974983,-0.226192,-2.27445,-1.15285,2.7537,1.50493,-1.23869,-0.957683,-1.0879,-0.979893,-1.0735,-0.350094,0.751129,-0.500891,-0.957683,-1.0879,-0.979893,-1.0735,-0.350094,0.751129,-0.500891,0.058187,-0.412149,0.997763,0.957874,-0.0929681,0.109038,0.248887,-0.922209,-0.842984,-0.821571,0.0303241,-0.404628,1.093,-2.00509,0.682074,0.223279,-2.33936,0.423004,-1.54458,-0.788787,-0.736772,-0.716923,-0.613183,-0.328675,0.15843,0.101208,1
0.882679,-0.227306,-2.3469,-1.11229,2.79128,1.4695,-1.25703,0.896648,-0.280614,-2.34415,-1.18988,2.74064,1.51735,-1.24381,0.965631,-0.236692,-2.2839,-1.16299,2.75033,1.51248,-1.24299,-1.01344,-1.1265,-1.01444,-1.06726,-0.36183,0.836265,-0.411001,-1.01344,-1.1265,-1.01444,-1.06726,-0.36183,0.836265,-0.411001,0.0493204,-0.42067,0.989947,0.960869,-0.0867078,0.108353,0.239735,-0.984185,-0.826867,-0.851113,0.0151714,-0.39566,1.10738,-1.51527,0.896874,1.43777,-1.76018,0.789474,0.680525,-0.829515,0.0938627,-0.629939,0.50702,0.409515,-0.429776,-0.140458,1
0.871931,-0.271976,-2.36496,-1.11599,2.80125,1.46359,-1.2438,0.883348,-0.256614,-2.35122,-1.13868,2.77616,1.48084,-1.24661,0.955765,-0.247221,-2.29355,-1.17274,2.74661,1.51942,-1.24566,-1.06621,-1.0979,-1.02211,-0.994664,-0.419568,0.641163,-0.166002,-1.06621,-1.0979,-1.02211,-0.994664,-0.419568,0.641163,-0.166002,0.0400572,-0.428967,0.982112,0.963639,-0.0801364,0.107873,0.230958,-1.00983,-0.792803,-0.827232,0.000368667,-0.385592,1.12274,-1.48028,1.00679,1.53589,-1.49777,0.95183,1.33683,-0.838342,-0.247546,-0.714086,0.567521,0.546427,-0.558282,0.0185362,1
0.861109,-0.219252,-2.37192,-1.11767,2.80441,1.4744,-1.23145,0.871913,-0.247627,-2.36219,-1.11548,2.79955,1.46777,-1.24402,0.94528,-0.255129,-2.30297,-1.17852,2.7443,1.52177,-1.24613,-1.14306,-0.599018,-0.967996,-0.266871,-0.0860424,-0.104006,0.0544656,-1.14306,-0.599018,-0.967996,-0.266871,-0.0860424,-0.104006,0.0544656,0.0308545,-0.435514,0.976628,0.966186,-0.0739499,0.107562,0.222364,-0.972668,-0.482667,-0.372713,-0.0130035,-0.375263,1.13672,-1.33721,1.03291,1.39868,-1.40874,1.01985,1.31729,-0.841711,0.358768,-0.689582,0.608546,0.601045,-0.473667,0.146736,1
0.857657,-0.19847,-2.37767,-1.12214,2.82257,1.48562,-1.22282,0.862951,-0.227237,-2.37162,-1.11837,2.80816,1.4745,-1.23238,0.934191,-0.257683,-2.31192,-1.1754,2.74731,1.51705,-1.24596,-1.19502,0.0251196,-0.923913,0.863054,0.678159,-0.851071,-0.0152911,-1.19502,0.0251196,-0.923913,0.863054,0.678159,-0.851071,-0.0152911,0.0216922,-0.43833,0.976484,0.96875,-0.070509,0.106426,0.212664,-0.970896,-0.0520315,0.292784,-0.0282853,-0.364914,1.1504,-1.52818,1.03488,1.36791,-1.4327,1.03389,1.2333,-0.76534,0.592133,-0.657559,0.53259,0.75261,-0.314344,0.23143,1
0.848168,-0.192797,-2.38521,-1.13064,2.83183,1.47191,-1.21828,0.856148,-0.202247,-2.37812,-1.12315,2.82035,1.47939,-1.22384,0.922857,-0.256525,-2.3209,-1.16564,2.75552,1.50846,-1.24582,-1.19742,0.209133,-0.970372,1.17905,1.03492,-0.956358,0.042169,-1.19742,0.209133,-0.970372,1.17905,1.03492,-0.956358,0.042169,0.0122772,-0.438255,0.980247,0.971332,-0.0698316,0.104079,0.202005,-0.993338,0.100745,0.480393,-0.04321,-0.355039,1.16259,-1.49247,0.987458,1.21847,-1.51033,1.01117,1.14319,-0.746892,0.637275,-0.64307,0.350016,0.76312,-0.365511,0.275338,1
0.834965,-0.188194,-2.39789,-1.1222,2.83868,1.46076,-1.22055,0.847239,-0.193065,-2.3865,-1.12641,2.83123,1.47255,-1.21998,0.911764,-0.252608,-2.33012,-1.15595,2.7652,1.50106,-1.24424,-1.1473,0.596319,-0.975435,0.883449,1.00981,-0.624195,0.278618,-1.1473,0.596319,-0.975435,0.883449,1.00981,-0.624195,0.278618,0.00375161,-0.436367,0.984931,0.973455,-0.0706819,0.102183,0.192217,-0.795217,0.294756,0.502386,-0.0569114,-0.344832,1.17343,-1.37014,1.02071,1.08432,-1.43131,1.00408,1.00139,-0.767989,0.644141,-0.677744,0.337567,0.734848,-0.403038,0.236896,1
0.822824,-0.180178,-2.40759,-1.11228,2.84665,1.45142,-1.21896,0.83523,-0.187341,-2.39715,-1.12183,2.83896,1.46121,-1.21958,0.901322,-0.244924,-2.33907,-1.14897,2.77504,1.49628,-1.24098,-1.06174,1.00306,-0.917711,0.606784,1.06482,-0.397119,0.40268,-1.06174,1.00306,-0.917711,0.606784,1.06482,-0.397119,0.40268,-0.00261676,-0.432505,0.989891,0.9749,-0.0728401,0.101719,0.184166,-0.55807,0.485764,0.54587,-0.0716954,-0.334734,1.18366,-1.4784,1.00985,1.02317,-1.42427,1.01528,0.903745,-0.784977,0.647466,-0.685157,0.366825,0.716134,-0.448589,0.220206,1
0.813767,-0.171173,-2.41623,-1.10696,2.85793,1.44484,-1.21263,0.823595,-0.179931,-2.40732,-1.11343,2.8451,1.45211,-1.21777,0.891383,-0.235455,-2.34773,-1.14416,2.78521,1.4922,-1.23716,-1.03753,0.996309,-0.911024,0.417369,1.08154,-0.461809,0.403628,-1.03753,0.996309,-0.911024,0.417369,1.08154,-0.461809,0.403628,-0.0076915,-0.427942,0.994688,0.976036,-0.0750129,0.101716,0.177143,-0.519677,0.452121,0.476627,-0.0862871,-0.325719,1.19311,-1.45918,0.901467,0.945282,-1.46879,0.955659,0.834228,-0.776159,0.642819,-0.684917,0.372032,0.727146,-0.473587,0.245225,1
0.806105,-0.162044,-2.42429,-1.1101,2.86981,1.43888,-1.20641,0.814116,-0.171142,-2.41608,-1.10908,2.84798,1.44499,-1.21266,0.881324,-0.226406,-2.35658,-1.14014,2.7952,1.48709,-1.23369,-1.08336,0.918165,-0.953497,0.430456,1.02868,-0.608205,0.331609,-1.08336,0.918165,-0.953497,0.430456,1.02868,-0.608205,0.331609,-0.0128177,-0.423813,0.999075,0.977245,-0.0762232,0.101556,0.169905,-0.565163,0.413401,0.453685,-0.10047,-0.315333,1.20101,-1.41825,1.03864,0.789821,-1.43871,0.970055,0.717552,-0.752193,0.643619,-0.677106,0.300421,0.746179,-0.482112,0.272821,1
0.797163,-0.154009,-2.43327,-1.11059,2.88018,1.43179,-1.20196,0.805785,-0.162317,-2.42452,-1.10944,2.84842,1.4386,-1.20685,0.870916,-0.217843,-2.36573,-1.13561,2.80456,1.48098,-1.23069,-1.11219,0.891056,-0.977557,0.521319,0.952812,-0.678427,0.303606,-1.11219,0.891056,-0.977557,0.521319,0.952812,-0.678427,0.303606,-0.0182087,-0.419825,1.00347,0.97853,-0.0770226,0.101481,0.162012,-0.580875,0.427752,0.475769,-0.11435,-0.304685,1.20881,-1.38805,1.06473,0.779212,-1.40315,1.05169,0.634516,-0.737526,0.638338,-0.675339,0.250224,0.756161,-0.491872,0.287344,1
0.788089,-0.145731,-2.44265,-1.10656,2.88876,1.42339,-1.19694,0.79713,-0.153948,-2.43337,-1.10946,2.84842,1.43146,-1.20181,0.86049,-0.209364,-2.37494,-1.13073,2.81294,1.47448,-1.22758,-1.08994,0.898341,-0.966958,0.509014,0.823395,-0.692907,0.350676,-1.08994,0.898341,-0.966958,0.509014,0.823395,-0.692907,0.350676,-0.0234035,-0.415695,1.00795,0.979725,-0.0777472,0.101839,0.154025,-0.535564,0.442804,0.472095,-0.129054,-0.294888,1.2158,-1.47039,0.979716,0.699234,-1.42922,1.02222,0.589223,-0.724011,0.636329,-0.677112,0.241778,0.758147,-0.510873,0.30643,1
0.779099,-0.137499,-2.45219,-1.10605,2.89564,1.41546,-1.19309,0.78811,-0.145742,-2.44269,-1.10744,2.84842,1.42351,-1.19723,0.850373,-0.20082,-2.38403,-1.12646,2.81997,1.46793,-1.22399,-1.04796,0.904928,-0.951682,0.399978,0.668589,-0.689412,0.402906,-1.04796,0.904928,-0.951682,0.399978,0.668589,-0.689412,0.402906,-0.0280249,-0.41156,1.0122,0.980755,-0.0781293,0.102812,0.146442,-0.472607,0.434169,0.432814,-0.142726,-0.28505,1.22049,-1.36721,0.98379,0.469351,-1.4188,0.981753,0.434292,-0.712743,0.633205,-0.6816,0.204043,0.756735,-0.524701,0.309095,1
0.76958,-0.129706,-2.46153,-1.10264,2.9012,1.408,-1.18927,0.778967,-0.137609,-2.45214,-1.10533,2.84842,1.41558,-1.19309,0.840578,-0.192267,-2.39303,-1.12307,2.82564,1.46133,-1.22005,-1.02118,0.90063,-0.948195,0.319843,0.535365,-0.702094,0.42858,-1.02118,0.90063,-0.948195,0.319843,0.535365,-0.702094,0.42858,-0.0321031,-0.40756,1.01611,0.981656,-0.0779914,0.104347,0.139213,-0.430673,0.422079,0.40047,-0.157964,-0.275397,1.22522,-1.52382,0.965309,0.472486,-1.44552,0.974549,0.320918,-0.70998,0.625616,-0.685068,0.204225,0.755582,-0.533373,0.307759,1
0.759992,-0.12166,-2.47065,-1.0984,2.90559,1.40065,-1.18395,0.769563,-0.129643,-2.46148,-1.10244,2.84842,1.40803,-1.18889,0.830972,-0.183769,-2.40204,-1.12014,2.83018,1.45454,-1.21593,-1.0074,0.893747,-0.955285,0.298612,0.428686,-0.729501,0.439636,-1.0074,0.893747,-0.955285,0.298612,0.428686,-0.729501,0.439636,-0.0358312,-0.40366,1.01982,0.982474,-0.07744,0.106315,0.132083,-0.40615,0.419484,0.388668,-0.172676,-0.265379,1.22917,-1.47116,1.00183,0.395668,-1.49749,0.983569,0.284077,-0.709803,0.621091,-0.686105,0.217413,0.754165,-0.538919,0.319849,1
0.750622,-0.113466,-2.47983,-1.09634,2.90939,1.39344,-1.17949,0.760046,-0.121623,-2.47067,-1.09895,2.84842,1.40068,-1.18416,0.82147,-0.175336,-2.41114,-1.11739,2.83381,1.44753,-1.21177,-0.998962,0.886722,-0.963681,0.283527,0.343265,-0.750936,0.438961,-0.998962,0.886722,-0.963681,0.283527,0.343265,-0.750936,0.438961,-0.0393268,-0.399802,1.02342,0.983227,-0.0766,0.108612,0.124899,-0.387758,0.418527,0.379244,-0.187153,-0.255458,1.23154,-1.44769,0.99206,0.236881,-1.45943,0.996944,0.166274,-0.708476,0.618703,-0.686979,0.210479,0.755784,-0.540887,0.322839,1
0.740982,-0.105771,-2.48932,-1.09333,2.91228,1.38613,-1.17543,0.750555,-0.113591,-2.47991,-1.0961,2.84842,1.39341,-1.17959,0.812011,-0.166981,-2.42029,-1.11468,2.83672,1.44037,-1.20761,-0.997685,0.877571,-0.968032,0.287817,0.274865,-0.760084,0.43982,-0.997685,0.877571,-0.968032,0.287817,0.274865,-0.760084,0.43982,-0.0426534,-0.395943,1.02697,0.98392,-0.0755803,0.111157,0.117618,-0.374818,0.422928,0.376168,-0.202045,-0.245044,1.23329,-1.4892,1.04144,0.174832,-1.46845,1.01675,0.0558566,-0.710293,0.612098,-0.690323,0.213466,0.755576,-0.542328,0.321826,1
0.731691,-0.0981158,-2.4988,-1.0911,2.91467,1.37875,-1.17077,0.741069,-0.105781,-2.48932,-1.09353,2.84842,1.38611,-1.17528,0.802552,-0.158697,-2.42946,-1.11187,2.83905,1.43315,-1.20338,-0.999026,0.871373,-0.968477,0.303833,0.220095,-0.763027,0.451675,-0.999026,0.871373,-0.968477,0.303833,0.220095,-0.763027,0.451675,-0.0458422,-0.392025,1.0305,0.984539,-0.0745003,0.113902,0.110265,-0.362087,0.432467,0.378392,-0.216056,-0.235347,1.23329,-1.40108,0.969662,0.000345707,-1.44514,1.00555,-0.062411,-0.708612,0.605816,-0.69341,0.207721,0.756188,-0.544023,0.326074,1
0.722443,-0.0907032,-2.5083,-1.08885,2.91672,1.3714,-1.16611,0.731702,-0.0981765,-2.49881,-1.0911,2.84842,1.37876,-1.17077,0.793084,-0.150465,-2.43865,-1.109,2.84092,1.42592,-1.19907,-0.999589,0.86667,-0.969882,0.303074,0.176238,-0.763879,0.457938,-0.999589,0.86667,-0.969882,0.303074,0.176238,-0.763879,0.457938,-0.0488985,-0.38804,1.03403,0.985085,-0.0733762,0.116799,0.102865,-0.349395,0.438505,0.375224,-0.229883,-0.225344,1.23237,-1.38277,1.00034,-0.0924706,-1.39193,0.985,-0.196062,-0.706408,0.59762,-0.696559,0.201501,0.758011,-0.545179,0.329591,1
0.712822,-0.0828613,-2.51785,-1.08484,2.91805,1.36381,-1.16188,0.72235,-0.0905959,-2.50831,-1.08841,2.84842,1.37134,-1.16622,0.783612,-0.142296,-2.44786,-1.10616,2.84241,1.41867,-1.19474,-0.999897,0.858227,-0.974506,0.296867,0.141121,-0.765253,0.457313,-0.999897,0.858227,-0.974506,0.296867,0.141121,-0.765253,0.457313,-0.0518455,-0.384028,1.0375,0.985567,-0.0721657,0.119788,0.0954013,-0.340374,0.44111,0.368978,-0.245168,-0.215641,1.23107,-1.52849,0.970252,-0.129402,-1.45563,0.985295,-0.260936,-0.707899,0.594349,-0.699919,0.213184,0.756416,-0.548594,0.328539,1
0.703485,-0.0750696,-2.52739,-1.08282,2.91917,1.35615,-1.15754,0.712893,-0.0828739,-2.51785,-1.08534,2.84842,1.36379,-1.16185,0.77415,-0.13422,-2.45712,-1.10339,2.84361,1.41141,-1.19038,-0.997715,0.847191,-0.979901,0.288855,0.113006,-0.767513,0.46099,-0.997715,0.847191,-0.979901,0.288855,0.113006,-0.767513,0.46099,-0.0547118,-0.380015,1.04091,0.985989,-0.0708454,0.122816,0.0878782,-0.332862,0.441623,0.361418,-0.259287,-0.206088,1.22851,-1.4119,0.955351,-0.256729,-1.4702,0.962801,-0.343065,-0.706645,0.591509,-0.702762,0.205622,0.755593,-0.552565,0.328481,1
0.694143,-0.0678594,-2.53687,-1.08134,2.92035,1.34881,-1.15334,0.703484,-0.075215,-2.52738,-1.08296,2.84842,1.35623,-1.15757,0.764708,-0.126241,-2.46642,-1.10066,2.84457,1.40412,-1.186,-0.995602,0.837817,-0.984595,0.287804,0.0904881,-0.770585,0.464865,-0.995602,0.837817,-0.984595,0.287804,0.0904881,-0.770585,0.464865,-0.057507,-0.375998,1.04427,0.986352,-0.0694283,0.125853,0.0803133,-0.325235,0.44456,0.35702,-0.273062,-0.196603,1.2252,-1.37745,0.94848,-0.330913,-1.39468,0.951915,-0.443821,-0.705653,0.583816,-0.70447,0.193189,0.757796,-0.553113,0.32661,1
0.684167,-0.0606145,-2.54627,-1.07715,2.92122,1.34118,-1.15014,0.693985,-0.0678507,-2.53685,-1.08066,2.84842,1.34874,-1.15359,0.755273,-0.118326,-2.47577,-1.09789,2.84533,1.3968,-1.1816,-0.996116,0.833287,-0.988935,0.295063,0.0724572,-0.775722,0.464087,-0.996116,0.833287,-0.988935,0.295063,0.0724572,-0.775722,0.464087,-0.0602269,-0.371942,1.0476,0.986653,-0.0679583,0.128892,0.0726879,-0.31662,0.45182,0.357169,-0.287205,-0.185586,1.22104,-1.41436,1.10167,-0.415492,-1.3959,1.02507,-0.523203,-0.711061,0.577117,-0.704967,0.207473,0.758862,-0.556161,0.314608,1
0.674757,-0.0531873,-2.55586,-1.07513,2.92174,1.33353,-1.146,0.684309,-0.060569,-2.54632,-1.07769,2.84842,1.34118,-1.1499,0.745839,-0.110457,-2.48516,-1.09514,2.84595,1.38943,-1.17721,-0.99553,0.828331,-0.992284,0.286374,0.0580192,-0.78018,0.461634,-0.99553,0.828331,-0.992284,0.286374,0.0580192,-0.78018,0.461634,-0.0628685,-0.36785,1.05091,0.986895,-0.0664253,0.131913,0.0649954,-0.308087,0.454547,0.351712,-0.301284,-0.176353,1.21616,-1.40783,0.923328,-0.488544,-1.4111,1.0125,-0.602018,-0.710819,0.572692,-0.706963,0.200074,0.757962,-0.558938,0.312128,1
0.665646,-0.04651,-2.56568,-1.07407,2.92224,1.32603,-1.14203,0.674832,-0.0533748,-2.55592,-1.07537,2.84842,1.33357,-1.14604,0.7364,-0.10266,-2.49457,-1.09247,2.84644,1.38202,-1.17288,-0.996957,0.818165,-0.993839,0.277601,0.0464581,-0.78232,0.453486,-0.996957,0.818165,-0.993839,0.277601,0.0464581,-0.78232,0.453486,-0.0654513,-0.363756,1.05415,0.987083,-0.0648011,0.134881,0.0572336,-0.302731,0.455165,0.344685,-0.315821,-0.166588,1.20906,-1.45375,0.976509,-0.709713,-1.43079,0.949919,-0.749128,-0.707541,0.561497,-0.711094,0.184,0.758034,-0.559897,0.308542,1
0.655837,-0.0398978,-2.57526,-1.07014,2.92262,1.31839,-1.13923,0.665472,-0.0465263,-2.56562,-1.07335,2.84842,1.326,-1.14232,0.726931,-0.0949579,-2.50399,-1.08981,2.84683,1.3746,-1.16865,-1.00181,0.808291,-0.994892,0.284767,0.0372008,-0.785505,0.440608,-1.00181,0.808291,-0.994892,0.284767,0.0372008,-0.785505,0.440608,-0.0679953,-0.359645,1.05736,0.987215,-0.063126,0.137785,0.049367,-0.298148,0.460343,0.343336,-0.331273,-0.156492,1.20216,-1.54523,1.00956,-0.689733,-1.49949,0.993037,-0.849723,-0.710939,0.550601,-0.712664,0.196679,0.757879,-0.562076,0.294145,1
0.646317,-0.0327489,-2.5848,-1.06796,2.92297,1.31069,-1.13512,0.655909,-0.0397636,-2.57525,-1.07058,2.84842,1.31838,-1.1389,0.717441,-0.0873489,-2.51343,-1.08715,2.84715,1.36714,-1.16451,-1.00151,0.798541,-0.998519,0.276805,0.029788,-0.788976,0.434035,-1.00151,0.798541,-0.998519,0.276805,0.029788,-0.788976,0.434035,-0.0705026,-0.355516,1.06053,0.987291,-0.0613982,0.140613,0.0414039,-0.293244,0.461055,0.336841,-0.345255,-0.146855,1.19436,-1.39816,0.963736,-0.780475,-1.47169,0.98665,-0.885104,-0.711241,0.546,-0.713716,0.191881,0.75824,-0.564471,0.293823,1
0.636701,-0.0267244,-2.59453,-1.06643,2.92336,1.30325,-1.13174,0.646293,-0.03303,-2.58485,-1.06812,2.84842,1.31075,-1.13531,0.707967,-0.0798589,-2.52292,-1.08459,2.8474,1.35965,-1.16044,-0.998816,0.783464,-1.00361,0.264079,0.0238524,-0.791035,0.425773,-0.998816,0.783464,-1.00361,0.264079,0.0238524,-0.791035,0.425773,-0.0729896,-0.351413,1.06363,0.987316,-0.0595721,0.143337,0.0333738,-0.291324,0.458067,0.327177,-0.360024,-0.136901,1.18503,-1.47688,0.995344,-0.932491,-1.43752,0.97954,-1.00648,-0.712651,0.531346,-0.716075,0.181546,0.759619,-0.56403,0.286937,1
0.626907,-0.0209644,-2.60428,-1.06362,2.92358,1.29574,-1.12916,0.636657,-0.0267905,-2.59453,-1.06611,2.84842,1.30323,-1.13194,0.698493,-0.0725058,-2.53244,-1.08206,2.8476,1.35214,-1.15647,-1.00091,0.769586,-1.0062,0.269863,0.0190995,-0.79372,0.412801,-1.00091,0.769586,-1.0062,0.269863,0.0190995,-0.79372,0.412801,-0.075469,-0.34732,1.06667,0.987286,-0.0576828,0.145951,0.0252543,-0.289039,0.460996,0.324333,-0.375026,-0.12675,1.17518,-1.50017,1.01514,-0.984979,-1.48852,1.00524,-1.10873,-0.715867,0.515414,-0.718395,0.184363,0.759741,-0.56407,0.273066,1
0.617422,-0.0154564,-2.61407,-1.06295,2.92385,1.28829,-1.12587,0.626984,-0.0210274,-2.60429,-1.06416,2.84842,1.29575,-1.12898,0.688997,-0.0652734,-2.54198,-1.07951,2.84777,1.34461,-1.15259,-1.00372,0.757862,-1.0076,0.267702,0.0152937,-0.795852,0.406226,-1.00372,0.757862,-1.0076,0.267702,0.0152937,-0.795852,0.406226,-0.077935,-0.343214,1.06967,0.987198,-0.055758,0.148463,0.0170452,-0.286052,0.462756,0.319484,-0.389357,-0.117182,1.16354,-1.43311,0.95683,-1.16409,-1.46664,0.985987,-1.22453,-0.715752,0.49817,-0.720874,0.165615,0.7608,-0.563208,0.267202,1
0.607607,-0.0115607,-2.62384,-1.06051,2.92425,1.28117,-1.12347,0.617339,-0.0158595,-2.61406,-1.06251,2.84842,1.28837,-1.12609,0.679474,-0.0581924,-2.55154,-1.07703,2.84789,1.33708,-1.14879,-1.0064,0.738081,-1.01055,0.256642,0.0122462,-0.795499,0.396031,-1.0064,0.738081,-1.01055,0.256642,0.0122462,-0.795499,0.396031,-0.0804142,-0.33913,1.0726,0.987055,-0.0537592,0.150848,0.00875978,-0.288602,0.458895,0.309296,-0.403631,-0.106946,1.15097,-1.4274,1.02361,-1.25754,-1.43026,0.990219,-1.36081,-0.718672,0.466317,-0.722986,0.165235,0.763552,-0.559056,0.253168,1
0.597977,-0.00780299,-2.63368,-1.05868,2.92451,1.27399,-1.12067,0.607653,-0.0115952,-2.62386,-1.06066,2.84842,1.28116,-1.12337,0.669925,-0.0513291,-2.56113,-1.07465,2.848,1.32955,-1.14512,-1.0093,0.712223,-1.01433,0.246627,0.00980601,-0.794248,0.379357,-1.0093,0.712223,-1.01433,0.246627,0.00980601,-0.794248,0.379357,-0.0829542,-0.335107,1.07544,0.986863,-0.0516624,0.153074,0.000375615,-0.295137,0.452987,0.297847,-0.41786,-0.0978611,1.13762,-1.42293,0.908452,-1.33455,-1.42516,0.966029,-1.44604,-0.71948,0.435261,-0.725444,0.159693,0.76513,-0.555526,0.24456,1
0.588287,-0.00613511,-2.6436,-1.05627,2.92487,1.26705,-1.11834,0.597962,-0.00832543,-2.6337,-1.05854,2.84842,1.27405,-1.12079,0.660354,-0.0447476,-2.57076,-1.07239,2.84808,1.32204,-1.1416,-1.011,0.678966,-1.01776,0.232163,0.00785167,-0.791182,0.364527,-1.011,0.678966,-1.01776,0.232163,0.00785167,-0.791182,0.364527,-0.0855978,-0.331174,1.07815,0.986625,-0.0494506,0.155112,-0.00810992,-0.306109,0.442938,0.282979,-0.431625,-0.0880781,1.12314,-1.37647,0.978304,-1.44854,-1.3997,0.943378,-1.54154,-0.720674,0.386125,-0.728406,0.161125,0.76791,-0.549848,0.23264,1
0.578188,-0.00650349,-2.65351,-1.05146,2.92513,1.26022,-1.11723,0.588185,-0.00664417,-2.6436,-1.05567,2.84842,1.26708,-1.11864,0.650764,-0.0385429,-2.58042,-1.07022,2.84815,1.31457,-1.13823,-1.01326,0.633359,-1.02091,0.224728,0.00628712,-0.785308,0.349139,-1.01326,0.633359,-1.02091,0.224728,0.00628712,-0.785308,0.349139,-0.0884022,-0.327366,1.08072,0.986344,-0.0471147,0.156929,-0.0166866,-0.323932,0.430258,0.267124,-0.446105,-0.0784486,1.10821,-1.44804,0.962951,-1.49285,-1.41225,0.970627,-1.62069,-0.725765,0.320394,-0.730885,0.187626,0.769767,-0.543514,0.209999,1
0.568076,-0.00879674,-2.66353,-1.04762,2.92507,1.25354,-1.11645,0.578185,-0.00698471,-2.65354,-1.0517,2.84842,1.26026,-1.11731,0.641155,-0.0328294,-2.59011,-1.06809,2.8482,1.30716,-1.13499,-1.01517,0.575922,-1.0245,0.224666,0.00503433,-0.778253,0.333924,-1.01517,0.575922,-1.0245,0.224666,0.00503433,-0.778253,0.333924,-0.0914341,-0.323702,1.08314,0.986023,-0.0446624,0.158494,-0.0253542,-0.34834,0.415292,0.25063,-0.459591,-0.0685123,1.09285,-1.34864,0.993627,-1.5359,-1.39834,0.978289,-1.66438,-0.730783,0.240326,-0.734237,0.20476,0.768716,-0.53625,0.185411,1
0.558056,-0.0189243,-2.67379,-1.04444,2.92494,1.24762,-1.11659,0.568099,-0.0107553,-2.66359,-1.04778,2.84842,1.25373,-1.11668,0.63152,-0.0277698,-2.59984,-1.06589,2.84824,1.29983,-1.13194,-1.01852,0.496522,-1.02852,0.240123,0.00403118,-0.769841,0.31248,-1.01852,0.496522,-1.02852,0.240123,0.00403118,-0.769841,0.31248,-0.0947867,-0.320212,1.08542,0.985666,-0.0421041,0.159766,-0.0341323,-0.38475,0.396576,0.233362,-0.473448,-0.0593148,1.07577,-1.38562,0.919752,-1.70799,-1.36713,0.95669,-1.77195,-0.734636,0.0884554,-0.739522,0.214521,0.766939,-0.522156,0.153435,1
0.547793,-0.0399962,-2.68429,-1.03686,2.92451,1.24223,-1.11891,0.557996,-0.0216604,-2.67385,-1.04334,2.84842,1.24775,-1.11714,0.621833,-0.0235961,-2.6096,-1.06343,2.84828,1.29259,-1.12915,-1.02588,0.390422,-1.03264,0.275744,0.00322792,-0.75991,0.278219,-1.02588,0.390422,-1.03264,0.275744,0.00322792,-0.75991,0.278219,-0.0985928,-0.316928,1.08753,0.985275,-0.0394597,0.160688,-0.0430812,-0.436015,0.374157,0.215494,-0.488533,-0.0494563,1.05742,-1.50855,0.985848,-1.8353,-1.44708,0.9528,-1.92165,-0.7404,-0.164001,-0.746873,0.265776,0.762315,-0.503622,0.102354,1
