Afshin1997/kuka_rl_ros2/src/catch_and_throw/output_files/tm/nn_ema7.00_jvws1_realball_D22H15M37S42/recorded_data.csv
pure_target_joint_0,pure_target_joint_1,pure_target_joint_2,pure_target_joint_3,pure_target_joint_4,pure_target_joint_5,pure_target_joint_6,target_joint_0,target_joint_1,target_joint_2,target_joint_3,target_joint_4,target_joint_5,target_joint_6,pos_joint_0,pos_joint_1,pos_joint_2,pos_joint_3,pos_joint_4,pos_joint_5,pos_joint_6,vel_joint_0,vel_joint_1,vel_joint_2,vel_joint_3,vel_joint_4,vel_joint_5,vel_joint_6,vel_smooth_joint_0,vel_smooth_joint_1,vel_smooth_joint_2,vel_smooth_joint_3,vel_smooth_joint_4,vel_smooth_joint_5,vel_smooth_joint_6,ee_pos_x,ee_pos_y,ee_pos_z,ee_or_w,ee_or_x,ee_or_y,ee_or_z,ee_vel_x,ee_vel_y,ee_vel_z,ball_pos_x,ball_pos_y,ball_pos_z,ball_raw_vx,ball_raw_vy,ball_raw_vz,ball_ema_vx,ball_ema_vy,ball_ema_vz,action_0,action_1,action_2,action_3,action_4,action_5,action_6,command_published
2.72045,-1.66466,1.78084,0.955887,1.49794,-1.3583,-2.81552,2.6512,-1.60959,1.77374,1.00256,1.4294,-1.41985,-2.8532,2.65011,-1.60871,1.77363,1.0033,1.42832,-1.42082,-2.8538,0,0,0,0,0,0,0,0,0,0,0,0,0,0,0.700002,6.25485e-05,0.554334,-0.382502,9.53392e-06,0.000120164,0.923954,0,0,0,0.703712,-0.0041126,0.525387,-0.00079839,-0.000294063,0.000538045,0.000207765,2.09115e-05,-7.40801e-05,0.70345,-0.559464,0.0720666,-0.474084,0.69629,0.625178,0.382774,1
2.71702,-1.6626,1.79444,0.971695,1.49676,-1.36014,-2.81502,2.65775,-1.6148,1.77463,0.998358,1.43591,-1.41401,-2.8496,2.65011,-1.60871,1.77363,1.0033,1.42832,-1.42082,-2.8538,0,0,0,0,0,0,0,0,0,0,0,0,0,0,0.700002,6.25485e-05,0.554334,-0.382502,9.53392e-06,0.000120164,0.923954,0,0,0,0.703712,-0.0041126,0.525387,-0.00079839,-0.000294063,0.000538045,0.000207765,2.09115e-05,-7.40801e-05,0.669142,-0.538801,0.208103,-0.316007,0.684449,0.606773,0.387762,1
2.71388,-1.66507,1.76405,0.975548,1.49505,-1.35542,-2.81838,2.67386,-1.62776,1.77712,0.988788,1.45209,-1.39946,-2.84064,2.65011,-1.60871,1.77363,1.0033,1.42832,-1.42082,-2.8538,0,0,0,0,0,0,0,0,0,0,0,0,0,0,0.700002,6.25485e-05,0.554334,-0.382502,9.53392e-06,0.000120164,0.923954,0,0,0,0.703705,-0.0041217,0.525394,-9.89115e-05,-0.000124802,9.40068e-05,-9.36644e-06,-0.00013889,-1.87329e-05,0.637792,-0.563572,-0.0958034,-0.277477,0.667309,0.654032,0.354174,1
2.71271,-1.66431,1.77,0.974218,1.49526,-1.35587,-2.81839,2.69473,-1.64498,1.7798,0.978019,1.47342,-1.37992,-2.82888,2.65011,-1.60871,1.77363,1.0033,1.42832,-1.42082,-2.8538,0,0,0,0,0,0,0,0,0,0,0,0,0,0,0.700002,6.25485e-05,0.554334,-0.382502,9.53392e-06,0.000120164,0.923954,0,0,0,0.703719,-0.00411656,0.525397,0.000130088,-0.00185303,-0.000511061,8.34465e-05,1.60154e-05,0.000167744,0.626006,-0.555934,-0.0362876,-0.290774,0.66948,0.649481,0.354082,1
2.71272,-1.66351,1.76701,0.975038,1.49391,-1.35477,-2.81566,2.7093,-1.65794,1.77913,0.972638,1.48897,-1.36476,-2.82049,2.65011,-1.60871,1.77363,1.0033,1.42832,-1.42082,-2.8538,0,0,0,0,0,0,0,0,0,0,0,0,0,0,0.700002,6.25485e-05,0.554334,-0.382502,9.53392e-06,0.000120164,0.923954,0,0,0,0.703708,-0.0041008,0.52539,-0.00109882,0.00161417,-0.000750859,-1.70299e-05,0.000206328,0.000161358,0.626162,-0.547901,-0.0661911,-0.282582,0.655922,0.660484,0.381367,1
2.7127,-1.66352,1.76878,0.974425,1.49431,-1.35505,-2.81616,2.71383,-1.66322,1.77464,0.972858,1.49461,-1.35786,-2.81759,2.65011,-1.60871,1.77363,1.0033,1.42832,-1.42082,-2.8538,0,0,0,0,0,0,0,0,0,0,0,0,0,0,0.700002,6.25485e-05,0.554334,-0.382502,9.53392e-06,0.000120164,0.923954,0,0,0,0.703715,-0.00412513,0.525393,0.000699879,-0.00246268,0.000325806,-4.51292e-05,-6.41315e-05,0.000154546,0.625952,-0.548012,-0.0484896,-0.288713,0.659902,0.657705,0.376371,1
2.71284,-1.66354,1.76822,0.974769,1.49406,-1.35489,-2.81595,2.71351,-1.66406,1.77022,0.974227,1.49497,-1.35586,-2.81714,2.65011,-1.60871,1.77363,1.0033,1.42832,-1.42082,-2.8538,0,0,0,0,0,0,0,0,0,0,0,0,0,0,0.700002,6.25485e-05,0.554334,-0.382502,9.53392e-06,0.000120164,0.923954,0,0,0,0.703712,-0.00410575,0.5254,-0.00023804,0.00184295,0.000663112,3.32083e-05,6.27113e-05,9.45159e-05,0.627363,-0.548288,-0.0540692,-0.285272,0.657413,0.659318,0.378467,1
2.71279,-1.66358,1.76835,0.974677,1.49416,-1.35497,-2.81611,2.7129,-1.66383,1.76841,0.974667,1.49449,-1.35526,-2.8167,2.65011,-1.60871,1.77363,1.0033,1.42832,-1.42082,-2.8538,0,0,0,0,0,0,0,0,0,0,0,0,0,0,0.700002,6.25485e-05,0.554334,-0.382502,9.53392e-06,0.000120164,0.923954,0,0,0,0.703711,-0.00412246,0.525392,-0.000130847,-0.00174668,-0.000891008,1.02179e-05,-4.64031e-05,-4.3852e-05,0.626872,-0.548639,-0.0527675,-0.286186,0.65849,0.658562,0.376914,1
2.71281,-1.66357,1.76833,0.97472,1.49412,-1.35494,-2.81606,2.71277,-1.66363,1.76823,0.974675,1.49424,-1.35502,-2.81623,2.65011,-1.60871,1.77363,1.0033,1.42832,-1.42082,-2.8538,0,0,0,0,0,0,0,0,0,0,0,0,0,0,0.700002,6.25485e-05,0.554334,-0.382502,9.53392e-06,0.000120164,0.923954,0,0,0,0.703711,-0.00412217,0.525398,-2.14319e-05,2.54504e-05,0.000514366,-0.000113249,-0.000247263,-3.83173e-05,0.627074,-0.548572,-0.0529744,-0.285758,0.658076,0.658866,0.377391,1
2.7128,-1.66357,1.76834,0.974703,1.49414,-1.35495,-2.81607,2.71278,-1.66356,1.76831,0.974678,1.49415,-1.35496,-2.81606,2.65011,-1.60871,1.77363,1.0033,1.42832,-1.42082,-2.8538,0,0,0,0,0,0,0,0,0,0,0,0,0,0,0.700002,6.25485e-05,0.554334,-0.382502,9.53392e-06,0.000120164,0.923954,0,0,0,0.703703,-0.00410239,0.525387,-0.000755105,0.001958,-0.00108546,-0.00015923,8.71784e-06,-6.98226e-05,0.626951,-0.548564,-0.0529225,-0.285933,0.658224,0.658746,0.3773,1
2.7128,-1.66357,1.76836,0.974701,1.49414,-1.35495,-2.81607,2.7128,-1.66356,1.76834,0.974693,1.49414,-1.35494,-2.81605,2.65011,-1.60871,1.77363,1.0033,1.42832,-1.42082,-2.8538,0,0,0,0,0,0,0,0,0,0,0,0,0,0,0.700002,6.25485e-05,0.554334,-0.382502,9.53392e-06,0.000120164,0.923954,0,0,0,0.703711,-0.0040946,0.525382,0.000792579,0.000767627,-0.000416838,-5.10897e-05,0.000170222,-0.0001422,0.626985,-0.548555,-0.0527176,-0.285946,0.658216,0.658745,0.37733,1
2.7128,-1.66357,1.76835,0.974703,1.49414,-1.35495,-2.81607,2.71281,-1.66357,1.76834,0.974704,1.49413,-1.35494,-2.81607,2.65011,-1.60871,1.77363,1.0033,1.42832,-1.42082,-2.8538,0,0,0,0,0,0,0,0,0,0,0,0,0,0,0.700002,6.25485e-05,0.554334,-0.382502,9.53392e-06,0.000120164,0.923954,0,0,0,0.703715,-0.00412354,0.525394,0.000395001,-0.00290663,0.00113712,-3.15053e-05,0.000168283,-0.000144328,0.626978,-0.548555,-0.0527773,-0.285927,0.658224,0.658738,0.377323,1
2.7128,-1.66357,1.76835,0.974704,1.49414,-1.35495,-2.81607,2.7128,-1.66357,1.76834,0.974705,1.49414,-1.35495,-2.81607,2.65011,-1.60871,1.77363,1.0033,1.42832,-1.42082,-2.8538,0,0,0,0,0,0,0,0,0,0,0,0,0,0,0.700002,6.25485e-05,0.554334,-0.382502,9.53392e-06,0.000120164,0.923954,0,0,0,0.703703,-0.00411021,0.525399,-0.00126798,0.00138347,0.000587601,-6.98226e-05,4.28708e-05,-5.19412e-05,0.626985,-0.548562,-0.0527881,-0.285915,0.658225,0.658745,0.3773,1
2.7128,-1.66357,1.76836,0.9747,1.49414,-1.35495,-2.81607,2.7128,-1.66357,1.76835,0.974704,1.49414,-1.35495,-2.81607,2.65011,-1.60871,1.77363,1.0033,1.42832,-1.42082,-2.8538,0,0,0,0,0,0,0,0,0,0,0,0,0,0,0.700002,6.25485e-05,0.554334,-0.382502,9.53392e-06,0.000120164,0.923954,0,0,0,0.703704,-0.00409171,0.525378,0.000118643,0.00184188,-0.00216523,-8.7704e-05,0.000339347,-0.0001141,0.626963,-0.548557,-0.0527246,-0.285961,0.65824,0.658715,0.377328,1
2.7128,-1.66357,1.76836,0.974702,1.49414,-1.35495,-2.81607,2.7128,-1.66357,1.76835,0.974703,1.49414,-1.35495,-2.81607,2.65011,-1.60871,1.77363,1.0033,1.42832,-1.42082,-2.8538,0,0,0,0,0,0,0,0,0,0,0,0,0,0,0.700002,6.25485e-05,0.554334,-0.382502,9.53392e-06,0.000120164,0.923954,0,0,0,0.703722,-0.00411073,0.525392,0.00178402,-0.00186732,0.00141551,0.000100476,0.000143104,-6.34364e-05,0.626984,-0.548553,-0.0527054,-0.285937,0.658236,0.658731,0.377313,1
2.71281,-1.66357,1.76835,0.974707,1.49414,-1.35495,-2.81607,2.7128,-1.66357,1.76835,0.974703,1.49414,-1.35495,-2.81607,2.65011,-1.60871,1.77363,1.0033,1.42832,-1.42082,-2.8538,0,0,0,0,0,0,0,0,0,0,0,0,0,0,0.700002,6.25485e-05,0.554334,-0.382502,9.53392e-06,0.000120164,0.923954,0,0,0,0.703715,-0.00411388,0.525384,-0.000761569,-0.000335318,-0.000844072,0.000168596,-0.000124694,-1.61784e-05,0.627002,-0.548562,-0.0527785,-0.285893,0.658222,0.658753,0.377285,1
2.7128,-1.66357,1.76836,0.974702,1.49414,-1.35495,-2.81607,2.7128,-1.66357,1.76836,0.974702,1.49414,-1.35495,-2.81607,2.65011,-1.60871,1.77363,1.0033,1.42832,-1.42082,-2.8538,0,0,0,0,0,0,0,0,0,0,0,0,0,0,0.700002,6.25485e-05,0.554334,-0.382502,9.53392e-06,0.000120164,0.923954,0,0,0,0.70371,-0.00408916,0.525375,-0.000563558,0.00243525,-0.000909912,5.10897e-05,0.000125423,-0.000175408,0.626978,-0.548562,-0.052746,-0.285936,0.658237,0.658728,0.377303,1
2.7128,-1.66357,1.76836,0.974699,1.49414,-1.35495,-2.81607,2.7128,-1.66357,1.76836,0.974703,1.49414,-1.35495,-2.81607,2.65011,-1.60871,1.77363,1.0033,1.42832,-1.42082,-2.8538,0,0,0,0,0,0,0,0,0,0,0,0,0,0,0.700002,6.25485e-05,0.554334,-0.382502,9.53392e-06,0.000120164,0.923954,0,0,0,0.703722,-0.00410186,0.525389,0.0012134,-0.00123173,0.00136363,0.000158378,0.000303488,-0.000203082,0.626972,-0.548551,-0.0526543,-0.285964,0.658249,0.658712,0.377321,1
2.71281,-1.66357,1.76836,0.974706,1.49414,-1.35495,-2.81607,2.7128,-1.66357,1.76836,0.974703,1.49414,-1.35495,-2.81607,2.65011,-1.60871,1.77363,1.0033,1.42832,-1.42082,-2.8538,0,0,0,0,0,0,0,0,0,0,0,0,0,0,0.700002,6.25485e-05,0.554334,-0.382502,9.53392e-06,0.000120164,0.923954,0,0,0,0.703719,-0.00412107,0.525381,-0.000268592,-0.00192341,-0.000787869,0.0002563,-0.000111829,-0.000176685,0.627006,-0.54856,-0.0527448,-0.285901,0.65823,0.658747,0.377285,1
2.7128,-1.66357,1.76835,0.974706,1.49414,-1.35495,-2.81607,2.7128,-1.66357,1.76836,0.974703,1.49414,-1.35495,-2.81607,2.65011,-1.60871,1.77363,1.0033,1.42832,-1.42082,-2.8538,0,0,0,0,0,0,0,0,0,0,0,0,0,0,0.700002,6.25485e-05,0.554334,-0.382502,9.53392e-06,0.000120164,0.923954,0,0,0,0.703711,-0.00409854,0.525385,-0.000869069,0.00226557,0.000389583,7.23771e-05,-0.000104132,1.74556e-05,0.626993,-0.548566,-0.0528017,-0.285896,0.658223,0.65875,0.377284,1
2.7128,-1.66357,1.76834,0.974707,1.49414,-1.35495,-2.81607,2.7128,-1.66357,1.76836,0.974703,1.49414,-1.35495,-2.81607,2.65011,-1.60871,1.77363,1.0033,1.42832,-1.42082,-2.8538,0,0,0,0,0,0,0,0,0,0,0,0,0,0,0.700002,6.25485e-05,0.554334,-0.382502,9.53392e-06,0.000120164,0.923954,0,0,0,0.703716,-0.00412297,0.525383,0.000472683,-0.00239163,-0.000175068,-7.06741e-05,-0.000135468,-6.68424e-05,0.626993,-0.548569,-0.0528515,-0.28589,0.65821,0.658763,0.377289,1
2.71281,-1.66357,1.76834,0.974709,1.49414,-1.35494,-2.81607,2.7128,-1.66357,1.76835,0.974704,1.49414,-1.35495,-2.81607,2.65011,-1.60871,1.77363,1.0033,1.42832,-1.42082,-2.8538,0,0,0,0,0,0,0,0,0,0,0,0,0,0,0.700002,6.25485e-05,0.554334,-0.382502,9.53392e-06,0.000120164,0.923954,0,0,0,0.703716,-0.00412389,0.525387,5.52809e-05,-9.51579e-05,0.000429962,1.19209e-05,-0.000336879,7.9189e-05,0.627007,-0.548568,-0.0528828,-0.285865,0.658194,0.658786,0.37728,1
2.7128,-1.66357,1.76834,0.974708,1.49414,-1.35494,-2.81607,2.7128,-1.66357,1.76835,0.974706,1.49414,-1.35495,-2.81607,2.65011,-1.60871,1.77363,1.0033,1.42832,-1.42082,-2.8538,0,0,0,0,0,0,0,0,0,0,0,0,0,0,0.700002,6.25485e-05,0.554334,-0.382502,9.53392e-06,0.000120164,0.923954,0,0,0,0.703702,-0.00409486,0.525382,-0.00136702,0.00287007,-0.000542094,-0.000134536,-0.000225207,7.06741e-05,0.626994,-0.548569,-0.0528996,-0.28588,0.658194,0.658778,0.377295,1
2.7128,-1.66357,1.76835,0.974704,1.49414,-1.35495,-2.81607,2.71281,-1.66357,1.76835,0.974707,1.49414,-1.35495,-2.81607,2.65011,-1.60871,1.77363,1.0033,1.42832,-1.42082,-2.8538,0,0,0,0,0,0,0,0,0,0,0,0,0,0,0.700002,6.25485e-05,0.554334,-0.382502,9.53392e-06,0.000120164,0.923954,0,0,0,0.703708,-0.00410383,0.525383,0.000548914,-0.000898465,0.000143195,-0.000254597,7.55635e-05,-4.68322e-05,0.626974,-0.548564,-0.052843,-0.285922,0.658209,0.658754,0.377319,1
2.7128,-1.66357,1.76835,0.974701,1.49414,-1.35495,-2.81607,2.7128,-1.66357,1.76834,0.974707,1.49414,-1.35495,-2.81607,2.65011,-1.60871,1.77363,1.0033,1.42832,-1.42082,-2.8538,0,0,0,0,0,0,0,0,0,0,0,0,0,0,0.700002,6.25485e-05,0.554334,-0.382502,9.53392e-06,0.000120164,0.923954,0,0,0,0.703707,-0.00410057,0.525375,-8.41836e-05,0.000329171,-0.000871902,-0.000202656,0.000282211,-8.6001e-05,0.626966,-0.548557,-0.0527636,-0.285954,0.658226,0.658731,0.377335,1
2.7128,-1.66357,1.76836,0.974699,1.49414,-1.35495,-2.81607,2.7128,-1.66357,1.76834,0.974706,1.49414,-1.35495,-2.81607,2.65011,-1.60871,1.77363,1.0033,1.42832,-1.42082,-2.8538,0,0,0,0,0,0,0,0,0,0,0,0,0,0,0.700002,6.25485e-05,0.554334,-0.382502,9.53392e-06,0.000120164,0.923954,0,0,0,0.703724,-0.00408921,0.525387,0.00172026,0.00115089,0.00127359,4.85352e-05,0.000331604,-5.10897e-05,0.626971,-0.548549,-0.0526686,-0.285966,0.658243,0.658716,0.377333,1
2.7128,-1.66357,1.76836,0.974702,1.49414,-1.35495,-2.81607,2.7128,-1.66357,1.76835,0.974704,1.49414,-1.35495,-2.81607,2.65011,-1.60871,1.77363,1.0033,1.42832,-1.42082,-2.8538,0,0,0,0,0,0,0,0,0,0,0,0,0,0,0.700002,6.25485e-05,0.554334,-0.382502,9.53392e-06,0.000120164,0.923954,0,0,0,0.703713,-0.00411888,0.52538,-0.00113508,-0.00298981,-0.000690655,4.17233e-05,0.000271151,-5.70502e-05,0.626977,-0.548554,-0.0527026,-0.285943,0.658242,0.658719,0.377318,1
2.71281,-1.66357,1.76835,0.974707,1.49414,-1.35495,-2.81607,2.7128,-1.66357,1.76835,0.974702,1.49414,-1.35495,-2.81607,2.65011,-1.60871,1.77363,1.0033,1.42832,-1.42082,-2.8538,0,0,0,0,0,0,0,0,0,0,0,0,0,0,0.700002,6.25485e-05,0.554334,-0.382502,9.53392e-06,0.000120164,0.923954,0,0,0,0.703717,-0.00413215,0.525374,0.000475217,-0.00135663,-0.000664085,0.000144754,-0.000207838,-0.000141348,0.627009,-0.548568,-0.0528047,-0.285884,0.658221,0.658759,0.377272,1
2.71281,-1.66357,1.76835,0.974709,1.49414,-1.35494,-2.81607,2.7128,-1.66357,1.76836,0.974702,1.49414,-1.35495,-2.81607,2.65011,-1.60871,1.77363,1.0033,1.42832,-1.42082,-2.8538,0,0,0,0,0,0,0,0,0,0,0,0,0,0,0.700002,6.25485e-05,0.554334,-0.382502,9.53392e-06,0.000120164,0.923954,0,0,0,0.703718,-0.00410774,0.525372,8.00748e-05,0.00234219,-0.000211626,0.000258854,-0.000405697,-0.000155824,0.627017,-0.548571,-0.0528418,-0.285867,0.658208,0.658775,0.377261,1
2.71281,-1.66357,1.76835,0.974708,1.49414,-1.35494,-2.81607,2.7128,-1.66357,1.76836,0.974703,1.49414,-1.35495,-2.81607,2.65011,-1.60871,1.77363,1.0033,1.42832,-1.42082,-2.8538,0,0,0,0,0,0,0,0,0,0,0,0,0,0,0.700002,6.25485e-05,0.554334,-0.382502,9.53392e-06,0.000120164,0.923954,0,0,0,0.703723,-0.00410948,0.525394,0.000447054,-0.000171552,0.00220586,0.000215428,-0.000265114,4.64065e-05,0.627003,-0.548563,-0.0528175,-0.285878,0.658205,0.658773,0.377281,1
2.71281,-1.66357,1.76835,0.974708,1.49414,-1.35494,-2.81607,2.71281,-1.66357,1.76835,0.974706,1.49414,-1.35495,-2.81607,2.65011,-1.60871,1.77363,1.0033,1.42832,-1.42082,-2.8538,0,0,0,0,0,0,0,0,0,0,0,0,0,0,0.700002,6.25485e-05,0.554334,-0.382502,9.53392e-06,0.000120164,0.923954,0,0,0,0.703713,-0.00410959,0.525388,-0.000992064,-1.13128e-05,-0.000579218,7.66345e-05,-0.000201701,0.000164764,0.626998,-0.548563,-0.0528287,-0.285881,0.658202,0.658773,0.377291,1
2.7128,-1.66357,1.76835,0.974704,1.49414,-1.35495,-2.81607,2.71281,-1.66357,1.76835,0.974707,1.49414,-1.35495,-2.81607,2.65011,-1.60871,1.77363,1.0033,1.42832,-1.42082,-2.8538,0,0,0,0,0,0,0,0,0,0,0,0,0,0,0.700002,6.25485e-05,0.554334,-0.382502,9.53392e-06,0.000120164,0.923954,0,0,0,0.703719,-0.00409697,0.525379,0.000536779,0.00123501,-0.000886852,-3.66143e-05,6.40783e-05,4.47035e-05,0.626979,-0.54856,-0.0527784,-0.285923,0.65822,0.658746,0.37731,1
2.7128,-1.66357,1.76837,0.974697,1.49414,-1.35495,-2.81606,2.71281,-1.66357,1.76835,0.974708,1.49414,-1.35495,-2.81607,2.65011,-1.60871,1.77363,1.0033,1.42832,-1.42082,-2.8538,0,0,0,0,0,0,0,0,0,0,0,0,0,0,0.700002,6.25485e-05,0.554334,-0.382502,9.53392e-06,0.000120164,0.923954,0,0,0,0.703711,-0.00409382,0.525376,-0.000704832,0.000303215,-0.000286517,-2.46934e-05,0.000513152,5.70502e-05,0.626953,-0.548547,-0.0526436,-0.285984,0.658249,0.658702,0.377345,1
2.7128,-1.66357,1.76836,0.9747,1.49414,-1.35495,-2.81607,2.7128,-1.66357,1.76835,0.974706,1.49414,-1.35495,-2.81607,2.65011,-1.60871,1.77363,1.0033,1.42832,-1.42082,-2.8538,0,0,0,0,0,0,0,0,0,0,0,0,0,0,0.700002,6.25485e-05,0.554334,-0.382502,9.53392e-06,0.000120164,0.923954,0,0,0,0.703708,-0.00410581,0.525379,-0.000365868,-0.00122618,0.000310988,-0.000166893,0.000426383,4.08718e-05,0.626964,-0.548552,-0.0526948,-0.285962,0.658247,0.65871,0.377337,1
2.7128,-1.66357,1.76835,0.974706,1.49414,-1.35495,-2.81607,2.7128,-1.66357,1.76835,0.974703,1.49414,-1.35495,-2.81607,2.65011,-1.60871,1.77363,1.0033,1.42832,-1.42082,-2.8538,0,0,0,0,0,0,0,0,0,0,0,0,0,0,0.700002,6.25485e-05,0.554334,-0.382502,9.53392e-06,0.000120164,0.923954,0,0,0,0.70371,-0.00412036,0.525388,0.000190996,-0.00150385,0.000930333,-0.000206062,-5.25466e-05,3.15053e-05,0.626992,-0.548568,-0.0528421,-0.285895,0.65822,0.658753,0.377292,1
2.71281,-1.66357,1.76834,0.974709,1.49414,-1.35494,-2.81607,2.7128,-1.66357,1.76836,0.974702,1.49414,-1.35495,-2.81607,2.65011,-1.60871,1.77363,1.0033,1.42832,-1.42082,-2.8538,0,0,0,0,0,0,0,0,0,0,0,0,0,0,0.700002,6.25485e-05,0.554334,-0.382502,9.53392e-06,0.000120164,0.923954,0,0,0,0.703711,-0.00412711,0.52539,0.000139661,-0.00065948,0.000122203,-0.000189883,-0.000297301,-4.68322e-05,0.627001,-0.548575,-0.0529353,-0.285864,0.658197,0.658781,0.377276,1
2.7128,-1.66357,1.76834,0.974707,1.49414,-1.35494,-2.81607,2.7128,-1.66357,1.76835,0.974702,1.49414,-1.35495,-2.81607,2.65011,-1.60871,1.77363,1.0033,1.42832,-1.42082,-2.8538,0,0,0,0,0,0,0,0,0,0,0,0,0,0,0.700002,6.25485e-05,0.554334,-0.382502,9.53392e-06,0.000120164,0.923954,0,0,0,0.703707,-0.00410298,0.525375,-0.000418002,0.00235076,-0.00146301,-0.000130279,-0.000239134,-3.10796e-05,0.626996,-0.548571,-0.0529048,-0.285884,0.658194,0.658779,0.377293,1
2.71281,-1.66357,1.76834,0.974707,1.49413,-1.35494,-2.81607,2.7128,-1.66357,1.76835,0.974705,1.49414,-1.35495,-2.81607,2.65011,-1.60871,1.77363,1.0033,1.42832,-1.42082,-2.8538,0,0,0,0,0,0,0,0,0,0,0,0,0,0,0.700002,6.25485e-05,0.554334,-0.382502,9.53392e-06,0.000120164,0.923954,0,0,0,0.703721,-0.00410456,0.525387,0.00146557,-0.000164193,0.00126852,3.40598e-06,-0.000222792,0.00010516,0.626999,-0.548562,-0.0528533,-0.285886,0.658193,0.65878,0.377301,1
2.7128,-1.66357,1.76836,0.974703,1.49414,-1.35495,-2.81607,2.7128,-1.66357,1.76834,0.974707,1.49414,-1.35495,-2.81607,2.65011,-1.60871,1.77363,1.0033,1.42832,-1.42082,-2.8538,0,0,0,0,0,0,0,0,0,0,0,0,0,0,0.700002,6.25485e-05,0.554334,-0.382502,9.53392e-06,0.000120164,0.923954,0,0,0,0.703718,-0.00409408,0.525385,-0.000293695,0.0010333,-0.000170343,0.000154972,6.81761e-05,9.91992e-05,0.626983,-0.548553,-0.052734,-0.285926,0.658219,0.658746,0.377315,1
2.7128,-1.66357,1.76836,0.974702,1.49414,-1.35495,-2.81607,2.7128,-1.66357,1.76834,0.974707,1.49414,-1.35494,-2.81607,2.65011,-1.60871,1.77363,1.0033,1.42832,-1.42082,-2.8538,0,0,0,0,0,0,0,0,0,0,0,0,0,0,0.700002,6.25485e-05,0.554334,-0.382502,9.53392e-06,0.000120164,0.923954,0,0,0,0.703713,-0.00411183,0.525382,-0.000527528,-0.0018479,-0.000378579,0.00014816,0.000203707,-1.02179e-05,0.626979,-0.548552,-0.0526923,-0.285939,0.658234,0.658729,0.377318,1
2.7128,-1.66357,1.76837,0.9747,1.49414,-1.35495,-2.81607,2.7128,-1.66357,1.76835,0.974706,1.49414,-1.35495,-2.81607,2.65011,-1.60871,1.77363,1.0033,1.42832,-1.42082,-2.8538,0,0,0,0,0,0,0,0,0,0,0,0,0,0,0.700002,6.25485e-05,0.554334,-0.382502,9.53392e-06,0.000120164,0.923954,0,0,0,0.703725,-0.00410766,0.52538,0.00113464,0.00040015,-0.000143263,0.000215428,0.000276905,-0.000109843,0.626977,-0.548552,-0.0526443,-0.285955,0.658251,0.658712,0.377313,1
2.7128,-1.66357,1.76836,0.974704,1.49414,-1.35495,-2.81607,2.7128,-1.66357,1.76835,0.974704,1.49414,-1.35495,-2.81607,2.65011,-1.60871,1.77363,1.0033,1.42832,-1.42082,-2.8538,0,0,0,0,0,0,0,0,0,0,0,0,0,0,0.700002,6.25485e-05,0.554334,-0.382502,9.53392e-06,0.000120164,0.923954,0,0,0,0.703718,-0.00411336,0.525382,-0.000625694,-0.000563668,0.000218403,0.000178814,8.79302e-05,-5.87532e-05,0.62699,-0.548557,-0.0527053,-0.285923,0.658241,0.658729,0.377298,1
2.7128,-1.66357,1.76835,0.974706,1.49414,-1.35495,-2.81607,2.7128,-1.66357,1.76836,0.974703,1.49414,-1.35495,-2.81607,2.65011,-1.60871,1.77363,1.0033,1.42832,-1.42082,-2.8538,0,0,0,0,0,0,0,0,0,0,0,0,0,0,0.700002,6.25485e-05,0.554334,-0.382502,9.53392e-06,0.000120164,0.923954,0,0,0,0.703707,-0.00409927,0.525389,-0.0011397,0.00142509,0.000735678,1.02179e-05,-7.1622e-05,0.000108566,0.626992,-0.548564,-0.0527952,-0.285897,0.658224,0.658749,0.377288,1
2.7128,-1.66357,1.76834,0.974709,1.49414,-1.35494,-2.81607,2.7128,-1.66357,1.76836,0.974703,1.49414,-1.35495,-2.81607,2.65011,-1.60871,1.77363,1.0033,1.42832,-1.42082,-2.8538,0,0,0,0,0,0,0,0,0,0,0,0,0,0,0.700002,6.25485e-05,0.554334,-0.382502,9.53392e-06,0.000120164,0.923954,0,0,0,0.703705,-0.00411859,0.525394,-0.000224134,-0.00191149,0.000460064,-0.000232458,-0.000192774,0.00011112,0.626992,-0.548571,-0.0529066,-0.285873,0.658201,0.658773,0.377287,1
2.7128,-1.66357,1.76834,0.974707,1.49414,-1.35494,-2.81607,2.7128,-1.66357,1.76836,0.974704,1.49414,-1.35495,-2.81607,2.65011,-1.60871,1.77363,1.0033,1.42832,-1.42082,-2.8538,0,0,0,0,0,0,0,0,0,0,0,0,0,0,0.700002,6.25485e-05,0.554334,-0.382502,9.53392e-06,0.000120164,0.923954,0,0,0,0.703716,-0.00410858,0.525385,0.00109233,0.000969968,-0.000913166,-0.000140497,-0.000173702,0.000119635,0.626991,-0.548567,-0.0528748,-0.285889,0.658198,0.658773,0.377295,1
2.7128,-1.66357,1.76835,0.974704,1.49414,-1.35495,-2.81607,2.7128,-1.66357,1.76835,0.974706,1.49414,-1.35495,-2.81607,2.65011,-1.60871,1.77363,1.0033,1.42832,-1.42082,-2.8538,0,0,0,0,0,0,0,0,0,0,0,0,0,0,0.700002,6.25485e-05,0.554334,-0.382502,9.53392e-06,0.000120164,0.923954,0,0,0,0.703706,-0.00410164,0.52538,-0.00107954,0.000730712,-0.000539772,-0.000183923,8.38556e-05,5.57729e-05,0.626975,-0.54856,-0.0528245,-0.285922,0.658209,0.658753,0.377322,1
2.7128,-1.66357,1.76835,0.974704,1.49414,-1.35495,-2.81607,2.7128,-1.66357,1.76835,0.974707,1.49414,-1.35495,-2.81607,2.65011,-1.60871,1.77363,1.0033,1.42832,-1.42082,-2.8538,0,0,0,0,0,0,0,0,0,0,0,0,0,0,0.700002,6.25485e-05,0.554334,-0.382502,9.53392e-06,0.000120164,0.923954,0,0,0,0.703718,-0.00410806,0.525381,0.00111802,-0.000610574,0.000107829,-0.000133685,4.61969e-05,-2.80993e-05,0.626984,-0.54856,-0.0528053,-0.28592,0.658214,0.658752,0.377315,1
2.71281,-1.66357,1.76835,0.974707,1.49414,-1.35495,-2.81607,2.7128,-1.66357,1.76834,0.974706,1.49414,-1.35495,-2.81607,2.65011,-1.60871,1.77363,1.0033,1.42832,-1.42082,-2.8538,0,0,0,0,0,0,0,0,0,0,0,0,0,0,0.700002,6.25485e-05,0.554334,-0.382502,9.53392e-06,0.000120164,0.923954,0,0,0,0.703716,-0.00412902,0.525395,-0.00015426,-0.00226032,0.00150403,5.44957e-05,-0.000170046,1.95844e-05,0.627001,-0.548562,-0.0528272,-0.285885,0.658205,0.658769,0.377291,1
2.71281,-1.66357,1.76835,0.974707,1.49414,-1.35495,-2.81607,2.7128,-1.66357,1.76835,0.974705,1.49414,-1.35495,-2.81607,2.65011,-1.60871,1.77363,1.0033,1.42832,-1.42082,-2.8538,0,0,0,0,0,0,0,0,0,0,0,0,0,0,0.700002,6.25485e-05,0.554334,-0.382502,9.53392e-06,0.000120164,0.923954,0,0,0,0.703727,-0.00411465,0.525386,0.00108753,0.00143217,-0.000855763,0.000298875,-0.000237447,-4.68322e-05,0.627007,-0.548562,-0.0527855,-0.285886,0.658211,0.658767,0.37728,1
2.7128,-1.66357,1.76836,0.974705,1.49414,-1.35495,-2.81607,2.7128,-1.66357,1.76835,0.974705,1.49414,-1.35495,-2.81607,2.65011,-1.60871,1.77363,1.0033,1.42832,-1.42082,-2.8538,0,0,0,0,0,0,0,0,0,0,0,0,0,0,0.700002,6.25485e-05,0.554334,-0.382502,9.53392e-06,0.000120164,0.923954,0,0,0,0.703716,-0.00410693,0.525382,-0.00105321,0.000729847,-0.000428043,0.000235013,-1.62117e-05,-7.06741e-05,0.626991,-0.548558,-0.0527421,-0.285913,0.658223,0.658746,0.377298,1
2.7128,-1.66357,1.76835,0.974706,1.49414,-1.35495,-2.81607,2.7128,-1.66357,1.76835,0.974706,1.49414,-1.35495,-2.81607,2.65011,-1.60871,1.77363,1.0033,1.42832,-1.42082,-2.8538,0,0,0,0,0,0,0,0,0,0,0,0,0,0,0.700002,6.25485e-05,0.554334,-0.382502,9.53392e-06,0.000120164,0.923954,0,0,0,0.703712,-0.00411,0.525381,-0.000417996,-0.000317051,-1.2294e-05,6.13076e-05,-7.65381e-05,-2.12874e-06,0.626994,-0.548562,-0.0527879,-0.2859,0.658219,0.658755,0.377295,1
2.7128,-1.66357,1.76836,0.974703,1.49414,-1.35495,-2.81607,2.71281,-1.66357,1.76835,0.974706,1.49414,-1.35495,-2.81607,2.65011,-1.60871,1.77363,1.0033,1.42832,-1.42082,-2.8538,0,0,0,0,0,0,0,0,0,0,0,0,0,0,0.700002,6.25485e-05,0.554334,-0.382502,9.53392e-06,0.000120164,0.923954,0,0,0,0.703731,-0.00410295,0.525389,0.00194046,0.000707007,0.000794094,0.000229904,5.10332e-05,6.30106e-05,0.626987,-0.548555,-0.0527048,-0.285925,0.658231,0.658738,0.3773,1
2.7128,-1.66357,1.76836,0.974703,1.49414,-1.35495,-2.81607,2.7128,-1.66357,1.76835,0.974706,1.49414,-1.35495,-2.81607,2.65011,-1.60871,1.77363,1.0033,1.42832,-1.42082,-2.8538,0,0,0,0,0,0,0,0,0,0,0,0,0,0,0.700002,6.25485e-05,0.554334,-0.382502,9.53392e-06,0.000120164,0.923954,0,0,0,0.703723,-0.00411298,0.525391,-0.00081758,-0.000990131,0.000182338,0.000109843,0.000150096,5.70502e-05,0.62698,-0.548554,-0.052717,-0.285926,0.658233,0.658733,0.377311,1
2.7128,-1.66357,1.76836,0.974702,1.49414,-1.35495,-2.81607,2.7128,-1.66357,1.76835,0.974705,1.49414,-1.35495,-2.81607,2.65011,-1.60871,1.77363,1.0033,1.42832,-1.42082,-2.8538,0,0,0,0,0,0,0,0,0,0,0,0,0,0,0.700002,6.25485e-05,0.554334,-0.382502,9.53392e-06,0.000120164,0.923954,0,0,0,0.703719,-0.00411325,0.525391,-0.000428031,-2.76468e-05,-1.20572e-05,5.27927e-05,0.000195099,2.63963e-05,0.626976,-0.548556,-0.052711,-0.285936,0.658239,0.658726,0.377309,1
2.7128,-1.66357,1.76836,0.974704,1.49414,-1.35495,-2.81607,2.7128,-1.66357,1.76836,0.974704,1.49414,-1.35495,-2.81607,2.65011,-1.60871,1.77363,1.0033,1.42832,-1.42082,-2.8538,0,0,0,0,0,0,0,0,0,0,0,0,0,0,0.700002,6.25485e-05,0.554334,-0.382502,9.53392e-06,0.000120164,0.923954,0,0,0,0.703721,-0.00410037,0.525396,0.000258899,0.00133201,0.000456156,-3.40598e-06,9.72101e-05,0.000203933,0.626982,-0.548556,-0.0527433,-0.285919,0.658229,0.658738,0.377308,1
2.7128,-1.66357,1.76835,0.974706,1.49414,-1.35495,-2.81607,2.7128,-1.66357,1.76836,0.974703,1.49414,-1.35495,-2.81607,2.65011,-1.60871,1.77363,1.0033,1.42832,-1.42082,-2.8538,0,0,0,0,0,0,0,0,0,0,0,0,0,0,0.700002,6.25485e-05,0.554334,-0.382502,9.53392e-06,0.000120164,0.923954,0,0,0,0.703707,-0.00411509,0.525383,-0.00143228,-0.00147354,-0.00127115,-7.40801e-05,-5.54636e-05,0.000120061,0.62699,-0.548564,-0.0528187,-0.285897,0.658217,0.658755,0.377295,1
2.7128,-1.66357,1.76835,0.974704,1.49414,-1.35495,-2.81607,2.7128,-1.66357,1.76836,0.974703,1.49414,-1.35495,-2.81607,2.65011,-1.60871,1.77363,1.0033,1.42832,-1.42082,-2.8538,0,0,0,0,0,0,0,0,0,0,0,0,0,0,0.700002,6.25485e-05,0.554334,-0.382502,9.53392e-06,0.000120164,0.923954,0,0,0,0.703717,-0.00409636,0.5254,0.00101796,0.00181759,0.00163684,-0.000120061,0.000104468,0.000163913,0.626974,-0.548559,-0.0527857,-0.285922,0.658221,0.658743,0.377312,1
2.7128,-1.66357,1.76834,0.974706,1.49414,-1.35495,-2.81607,2.7128,-1.66357,1.76835,0.974704,1.49414,-1.35495,-2.81607,2.65011,-1.60871,1.77363,1.0033,1.42832,-1.42082,-2.8538,0,0,0,0,0,0,0,0,0,0,0,0,0,0,0.700002,6.25485e-05,0.554334,-0.382502,9.53392e-06,0.000120164,0.923954,0,0,0,0.703711,-0.00411691,0.525386,-0.000665425,-0.00208597,-0.001349,-0.000301429,-3.74891e-05,-8.51495e-07,0.626985,-0.548567,-0.052878,-0.285898,0.658206,0.658763,0.377308,1
2.7128,-1.66357,1.76835,0.974702,1.49414,-1.35495,-2.81607,2.7128,-1.66357,1.76835,0.974705,1.49414,-1.35495,-2.81607,2.65011,-1.60871,1.77363,1.0033,1.42832,-1.42082,-2.8538,0,0,0,0,0,0,0,0,0,0,0,0,0,0,0.700002,6.25485e-05,0.554334,-0.382502,9.53392e-06,0.000120164,0.923954,0,0,0,0.70371,-0.00409766,0.525392,-0.000111909,0.00190245,0.000600773,-0.000212022,0.000152321,-5.53472e-06,0.62697,-0.548561,-0.0528023,-0.285935,0.658221,0.658741,0.377319,1
2.7128,-1.66357,1.76835,0.974704,1.49414,-1.35495,-2.81607,2.7128,-1.66357,1.76835,0.974705,1.49414,-1.35495,-2.81607,2.65011,-1.60871,1.77363,1.0033,1.42832,-1.42082,-2.8538,0,0,0,0,0,0,0,0,0,0,0,0,0,0,0.700002,6.25485e-05,0.554334,-0.382502,9.53392e-06,0.000120164,0.923954,0,0,0,0.703711,-0.00411191,0.525376,0.000149544,-0.00148925,-0.00175714,-0.000149012,2.72944e-05,-0.000174131,0.626986,-0.548563,-0.0528237,-0.285918,0.658215,0.658752,0.377314,1
2.7128,-1.66357,1.76835,0.974704,1.49414,-1.35495,-2.81607,2.7128,-1.66357,1.76835,0.974704,1.49414,-1.35495,-2.81607,2.65011,-1.60871,1.77363,1.0033,1.42832,-1.42082,-2.8538,0,0,0,0,0,0,0,0,0,0,0,0,0,0,0.700002,6.25485e-05,0.554334,-0.382502,9.53392e-06,0.000120164,0.923954,0,0,0,0.70372,-0.00410438,0.525383,0.000853766,0.000759587,0.00073953,-1.61784e-05,-2.47965e-05,-0.000210745,0.62699,-0.548563,-0.0528031,-0.285917,0.65822,0.658749,0.377301,1
2.71281,-1.66357,1.76836,0.974705,1.49414,-1.35495,-2.81607,2.7128,-1.66357,1.76835,0.974704,1.49414,-1.35495,-2.81607,2.65011,-1.60871,1.77363,1.0033,1.42832,-1.42082,-2.8538,0,0,0,0,0,0,0,0,0,0,0,0,0,0,0.700002,6.25485e-05,0.554334,-0.382502,9.53392e-06,0.000120164,0.923954,0,0,0,0.703735,-0.00411945,0.525393,0.00146497,-0.00143011,0.000916316,0.000318459,-8.60609e-05,-5.23669e-05,0.627,-0.548556,-0.0527326,-0.285907,0.65822,0.658752,0.377293,1
2.7128,-1.66357,1.76836,0.974705,1.49414,-1.35495,-2.81607,2.7128,-1.66357,1.76835,0.974704,1.49414,-1.35495,-2.81607,2.65011,-1.60871,1.77363,1.0033,1.42832,-1.42082,-2.8538,0,0,0,0,0,0,0,0,0,0,0,0,0,0,0.700002,6.25485e-05,0.554334,-0.382502,9.53392e-06,0.000120164,0.923954,0,0,0,0.703726,-0.00409664,0.525384,-0.000960672,0.0023262,-0.000881629,0.00029632,-4.51126e-05,-0.000156675,0.626996,-0.548558,-0.0527297,-0.285913,0.658229,0.658743,0.377294,1
2.7128,-1.66357,1.76836,0.974701,1.49414,-1.35495,-2.81607,2.7128,-1.66357,1.76835,0.974704,1.49414,-1.35495,-2.81607,2.65011,-1.60871,1.77363,1.0033,1.42832,-1.42082,-2.8538,0,0,0,0,0,0,0,0,0,0,0,0,0,0,0.700002,6.25485e-05,0.554334,-0.382502,9.53392e-06,0.000120164,0.923954,0,0,0,0.703716,-0.00409871,0.525376,-0.000961585,-0.000199641,-0.000806119,0.00025034,0.000175378,-0.000113675,0.626981,-0.548555,-0.0526682,-0.285944,0.658245,0.65872,0.377305,1
2.7128,-1.66357,1.76835,0.974706,1.49414,-1.35495,-2.81607,2.7128,-1.66357,1.76835,0.974704,1.49414,-1.35495,-2.81607,2.65011,-1.60871,1.77363,1.0033,1.42832,-1.42082,-2.8538,0,0,0,0,0,0,0,0,0,0,0,0,0,0,0.700002,6.25485e-05,0.554334,-0.382502,9.53392e-06,0.000120164,0.923954,0,0,0,0.703712,-0.00411382,0.525385,-0.000416097,-0.00157434,0.000968822,7.49316e-05,-5.12394e-05,-7.70603e-05,0.626996,-0.548562,-0.0527752,-0.285902,0.658227,0.658747,0.377292,1
2.7128,-1.66357,1.76835,0.974705,1.49414,-1.35495,-2.81607,2.7128,-1.66357,1.76836,0.974704,1.49414,-1.35495,-2.81607,2.65011,-1.60871,1.77363,1.0033,1.42832,-1.42082,-2.8538,0,0,0,0,0,0,0,0,0,0,0,0,0,0,0.700002,6.25485e-05,0.554334,-0.382502,9.53392e-06,0.000120164,0.923954,0,0,0,0.70372,-0.00410953,0.525395,0.000832321,0.000425015,0.000956283,-2.98023e-05,3.21073e-05,0.000156249,0.626982,-0.548562,-0.0527835,-0.28591,0.658224,0.658744,0.377297,1
2.7128,-1.66357,1.76834,0.974707,1.49414,-1.35495,-2.81607,2.7128,-1.66357,1.76836,0.974704,1.49414,-1.35495,-2.81607,2.65011,-1.60871,1.77363,1.0033,1.42832,-1.42082,-2.8538,0,0,0,0,0,0,0,0,0,0,0,0,0,0,0.700002,6.25485e-05,0.554334,-0.382502,9.53392e-06,0.000120164,0.923954,0,0,0,0.703706,-0.00411674,0.52538,-0.0013647,-0.000715305,-0.00140606,-0.000298023,-0.000123008,-9.79219e-06,0.62699,-0.548571,-0.0529047,-0.285886,0.658203,0.658768,0.377298,1
2.7128,-1.66357,1.76834,0.974707,1.49414,-1.35494,-2.81607,2.7128,-1.66357,1.76835,0.974705,1.49414,-1.35495,-2.81607,2.65011,-1.60871,1.77363,1.0033,1.42832,-1.42082,-2.8538,0,0,0,0,0,0,0,0,0,0,0,0,0,0,0.700002,6.25485e-05,0.554334,-0.382502,9.53392e-06,0.000120164,0.923954,0,0,0,0.703713,-0.0041136,0.525396,0.000660171,0.00031373,0.00153445,-0.000360182,-0.000119582,7.62088e-05,0.626984,-0.54857,-0.0529196,-0.28589,0.658196,0.658773,0.377301,1
2.71284,-1.6636,1.7673,0.975183,1.49388,-1.35464,-2.81613,2.7128,-1.66357,1.76833,0.974713,1.49413,-1.35494,-2.81607,2.65011,-1.60871,1.77363,1.0033,1.42832,-1.42082,-2.8538,0,0,0,0,0,0,0,0,0,0,0,0,0,0,0.700002,6.25485e-05,0.554334,-0.382502,9.53392e-06,0.000120164,0.923954,0,0,0,0.7018,-0.00571901,0.528854,-0.187331,-0.157229,0.338732,-0.0206683,-0.0174993,0.0373108,0.627355,-0.54888,-0.0633183,-0.281127,0.655611,0.661816,0.376642,1
2.7128,-1.66361,1.76764,0.97491,1.49394,-1.35474,-2.81611,2.71281,-1.66358,1.76823,0.974754,1.49411,-1.35491,-2.81608,2.65011,-1.60871,1.77363,1.0033,1.42832,-1.42082,-2.8538,0,0,0,0,0,0,0,0,0,0,0,0,0,0,0.700002,6.25485e-05,0.554334,-0.382502,9.53392e-06,0.000120164,0.923954,0,0,0,0.703705,-0.00411302,0.525376,0.2063,0.173906,-0.376618,-0.01379,-0.0116335,0.0247955,0.62696,-0.548977,-0.0598736,-0.283858,0.656282,0.660796,0.376875,1
2.71281,-1.66356,1.76802,0.974789,1.49398,-1.3548,-2.816,2.71281,-1.66358,1.76803,0.974839,1.49405,-1.35485,-2.81609,2.65011,-1.60871,1.77363,1.0033,1.42832,-1.42082,-2.8538,0,0,0,0,0,0,0,0,0,0,0,0,0,0,0.700002,6.25485e-05,0.554334,-0.382502,9.53392e-06,0.000120164,0.923954,0,0,0,0.703719,-0.00409912,0.525374,0.00136775,0.00138107,-0.000201313,-0.0068358,-0.00558977,0.0121666,0.627028,-0.548495,-0.0560891,-0.285072,0.656676,0.66018,0.377991,1
2.7128,-1.66355,1.76835,0.974685,1.49409,-1.35491,-2.81602,2.71282,-1.66359,1.76782,0.974911,1.49399,-1.35479,-2.81609,2.65011,-1.60871,1.77363,1.0033,1.42832,-1.42082,-2.8538,0,0,0,0,0,0,0,0,0,0,0,0,0,0,0.700002,6.25485e-05,0.554334,-0.382502,9.53392e-06,0.000120164,0.923954,0,0,0,0.703725,-0.00410483,0.525385,0.000577916,-0.000570981,0.00105455,0.000115803,0.000178335,-0.000213725,0.626955,-0.548394,-0.0528393,-0.286109,0.657776,0.65909,0.377801,1
2.71279,-1.66355,1.76868,0.974579,1.4942,-1.35502,-2.81603,2.71281,-1.66359,1.76781,0.974897,1.49398,-1.35478,-2.81608,2.65011,-1.60871,1.77363,1.0033,1.42832,-1.42082,-2.8538,0,0,0,0,0,0,0,0,0,0,0,0,0,0,0.700002,6.25485e-05,0.554334,-0.382502,9.53392e-06,0.000120164,0.923954,0,0,0,0.703719,-0.0040949,0.525387,-0.000507606,0.000929231,0.000189655,0.00708018,0.00608203,-0.0124352,0.626848,-0.548316,-0.0494744,-0.287168,0.658818,0.657988,0.377662,1
2.71278,-1.66354,1.769,0.974467,1.4943,-1.35513,-2.81604,2.71281,-1.66357,1.76802,0.974804,1.49402,-1.35483,-2.81605,2.65011,-1.60871,1.77363,1.0033,1.42832,-1.42082,-2.8538,0,0,0,0,0,0,0,0,0,0,0,0,0,0,0.700002,6.25485e-05,0.554334,-0.382502,9.53392e-06,0.000120164,0.923954,0,0,0,0.703719,-0.00410674,0.525381,-3.68091e-05,-0.00121877,-0.000644159,0.0138453,0.0117035,-0.0248977,0.62672,-0.548213,-0.0463278,-0.288287,0.65984,0.656912,0.377557,1
2.71276,-1.66353,1.76932,0.974351,1.4944,-1.35524,-2.81605,2.7128,-1.66356,1.76834,0.974688,1.4941,-1.35492,-2.81603,2.65011,-1.60871,1.77363,1.0033,1.42832,-1.42082,-2.8538,0,0,0,0,0,0,0,0,0,0,0,0,0,0,0.700002,6.25485e-05,0.554334,-0.382502,9.53392e-06,0.000120164,0.923954,0,0,0,0.703717,-0.00410787,0.525376,-0.000252997,-0.000114498,-0.000463828,0.0206326,0.0173221,-0.0371916,0.626592,-0.548117,-0.0430668,-0.289448,0.660851,0.655816,0.377439,1
2.71284,-1.66358,1.7684,0.974746,1.4942,-1.35499,-2.81611,2.71279,-1.66355,1.76865,0.974584,1.49419,-1.35502,-2.81603,2.65011,-1.60871,1.77363,1.0033,1.42832,-1.42082,-2.8538,0,0,0,0,0,0,0,0,0,0,0,0,0,0,0.700002,6.25485e-05,0.554334,-0.382502,9.53392e-06,0.000120164,0.923954,0,0,0,0.703731,-0.00410472,0.525394,0.00144664,0.000313767,0.00180238,0.000238419,1.95511e-05,0.000189458,0.627304,-0.548652,-0.0522909,-0.285495,0.658883,0.658279,0.376913,1
2.71279,-1.6636,1.76834,0.974708,1.49419,-1.35499,-2.81615,2.71279,-1.66354,1.76886,0.974522,1.49426,-1.35509,-2.81605,2.65011,-1.60871,1.77363,1.0033,1.42832,-1.42082,-2.8538,0,0,0,0,0,0,0,0,0,0,0,0,0,0,0.700002,6.25485e-05,0.554334,-0.382502,9.53392e-06,0.000120164,0.923954,0,0,0,0.703711,-0.00412662,0.525388,-0.00198711,-0.00216054,-0.000646693,-5.36442e-05,-0.000340279,0.000169447,0.626884,-0.548804,-0.0529271,-0.285882,0.658713,0.658368,0.376517,1
2.7128,-1.66357,1.76833,0.974706,1.49414,-1.35495,-2.81607,2.71279,-1.66355,1.76885,0.974536,1.49428,-1.3551,-2.81607,2.65011,-1.60871,1.77363,1.0033,1.42832,-1.42082,-2.8538,0,0,0,0,0,0,0,0,0,0,0,0,0,0,0.700002,6.25485e-05,0.554334,-0.382502,9.53392e-06,0.000120164,0.923954,0,0,0,0.703714,-0.00409406,0.525389,0.000325404,0.00323232,0.000136078,-0.000130279,-0.000104012,9.62189e-05,0.626931,-0.548577,-0.0529706,-0.285902,0.658216,0.658738,0.377333,1
2.7128,-1.66357,1.76834,0.9747,1.49414,-1.35495,-2.81607,2.7128,-1.66357,1.76866,0.974611,1.49425,-1.35506,-2.81609,2.65011,-1.60871,1.77363,1.0033,1.42832,-1.42082,-2.8538,0,0,0,0,0,0,0,0,0,0,0,0,0,0,0.700002,6.25485e-05,0.554334,-0.382502,9.53392e-06,0.000120164,0.923954,0,0,0,0.703713,-0.00410923,0.525376,-0.000138926,-0.00153771,-0.00129261,-0.000126021,-0.000129979,-1.31982e-05,0.626953,-0.548542,-0.0528691,-0.285962,0.658222,0.658752,0.377337,1
2.7128,-1.66357,1.76834,0.974705,1.49414,-1.35495,-2.81607,2.7128,-1.66358,1.76845,0.974678,1.4942,-1.355,-2.8161,2.65011,-1.60871,1.77363,1.0033,1.42832,-1.42082,-2.8538,0,0,0,0,0,0,0,0,0,0,0,0,0,0,0.700002,6.25485e-05,0.554334,-0.382502,9.53392e-06,0.000120164,0.923954,0,0,0,0.703714,-0.00411738,0.525379,0.000150414,-0.000822766,0.000270746,-0.000137091,-8.5695e-05,-3.49113e-05,0.626995,-0.548559,-0.0528513,-0.285905,0.658198,0.658768,0.377318,1
2.7128,-1.66357,1.76834,0.974708,1.49414,-1.35494,-2.81607,2.7128,-1.66358,1.76836,0.974703,1.49416,-1.35497,-2.81609,2.65011,-1.60871,1.77363,1.0033,1.42832,-1.42082,-2.8538,0,0,0,0,0,0,0,0,0,0,0,0,0,0,0.700002,6.25485e-05,0.554334,-0.382502,9.53392e-06,0.000120164,0.923954,0,0,0,0.703715,-0.00412172,0.525388,0.000103008,-0.00044034,0.000860419,-0.000124318,-0.000176689,-2.89508e-05,0.626996,-0.548568,-0.0528988,-0.285882,0.658197,0.658775,0.377297,1
2.71281,-1.66357,1.76834,0.974708,1.49413,-1.35494,-2.81607,2.7128,-1.66357,1.76834,0.974705,1.49414,-1.35495,-2.81607,2.65011,-1.60871,1.77363,1.0033,1.42832,-1.42082,-2.8538,0,0,0,0,0,0,0,0,0,0,0,0,0,0,0.700002,6.25485e-05,0.554334,-0.382502,9.53392e-06,0.000120164,0.923954,0,0,0,0.703716,-0.00412114,0.525397,6.54077e-05,5.70459e-05,0.0009276,-0.000129427,-0.000224239,-1.02179e-05,0.626997,-0.548569,-0.0528996,-0.285877,0.658193,0.658781,0.377292,1
2.7128,-1.66357,1.76836,0.9747,1.49414,-1.35495,-2.81607,2.7128,-1.66357,1.76834,0.974705,1.49414,-1.35495,-2.81607,2.65011,-1.60871,1.77363,1.0033,1.42832,-1.42082,-2.8538,0,0,0,0,0,0,0,0,0,0,0,0,0,0,0.700002,6.25485e-05,0.554334,-0.382502,9.53392e-06,0.000120164,0.923954,0,0,0,0.703714,-0.00408182,0.525367,-0.00019142,0.00394701,-0.00298495,5.61987e-05,0.000242044,-0.000126873,0.62697,-0.548554,-0.0527159,-0.28596,0.65823,0.658727,0.377328,1
2.7128,-1.66357,1.76835,0.974705,1.49414,-1.35495,-2.81607,2.7128,-1.66357,1.76834,0.974706,1.49414,-1.35495,-2.81607,2.65011,-1.60871,1.77363,1.0033,1.42832,-1.42082,-2.8538,0,0,0,0,0,0,0,0,0,0,0,0,0,0,0.700002,6.25485e-05,0.554334,-0.382502,9.53392e-06,0.000120164,0.923954,0,0,0,0.70372,-0.0041122,0.52538,0.00052037,-0.00288325,0.00126699,7.23771e-05,-1.19342e-05,-9.66447e-05,0.626996,-0.548557,-0.0527614,-0.285913,0.65822,0.658751,0.377309,1
2.7128,-1.66357,1.76837,0.9747,1.49414,-1.35495,-2.81607,2.7128,-1.66357,1.76835,0.974705,1.49414,-1.35495,-2.81607,2.65011,-1.60871,1.77363,1.0033,1.42832,-1.42082,-2.8538,0,0,0,0,0,0,0,0,0,0,0,0,0,0,0.700002,6.25485e-05,0.554334,-0.382502,9.53392e-06,0.000120164,0.923954,0,0,0,0.703724,-0.00409224,0.5254,0.00048988,0.00207686,0.00208354,0.000154972,0.000361663,0.000194567,0.626964,-0.548548,-0.0526429,-0.285959,0.658247,0.65871,0.377322,1
2.7128,-1.66357,1.76836,0.974702,1.49414,-1.35495,-2.81607,2.7128,-1.66357,1.76835,0.974704,1.49414,-1.35495,-2.81607,2.65011,-1.60871,1.77363,1.0033,1.42832,-1.42082,-2.8538,0,0,0,0,0,0,0,0,0,0,0,0,0,0,0.700002,6.25485e-05,0.554334,-0.382502,9.53392e-06,0.000120164,0.923954,0,0,0,0.703715,-0.0041178,0.525383,-0.00093006,-0.00250845,-0.00166709,8.17435e-05,0.000238106,8.13178e-05,0.626979,-0.548553,-0.0526892,-0.285936,0.658241,0.658724,0.377316,1
2.7128,-1.66357,1.76836,0.974701,1.49414,-1.35495,-2.81607,2.7128,-1.66357,1.76836,0.974703,1.49414,-1.35495,-2.81607,2.65011,-1.60871,1.77363,1.0033,1.42832,-1.42082,-2.8538,0,0,0,0,0,0,0,0,0,0,0,0,0,0,0.700002,6.25485e-05,0.554334,-0.382502,9.53392e-06,0.000120164,0.923954,0,0,0,0.703724,-0.00409463,0.525389,0.00095037,0.00238354,0.000527302,0.000122615,0.000276955,3.5337e-05,0.626973,-0.548553,-0.0526595,-0.285953,0.658252,0.658711,0.377311,1
2.71281,-1.66357,1.76835,0.974706,1.49414,-1.35495,-2.81607,2.7128,-1.66357,1.76836,0.974702,1.49414,-1.35495,-2.81607,2.65011,-1.60871,1.77363,1.0033,1.42832,-1.42082,-2.8538,0,0,0,0,0,0,0,0,0,0,0,0,0,0,0.700002,6.25485e-05,0.554334,-0.382502,9.53392e-06,0.000120164,0.923954,0,0,0,0.703718,-0.00411606,0.525385,-0.000572352,-0.00203768,-0.000311677,7.5783e-05,-5.69969e-05,4.17233e-05,0.626997,-0.548561,-0.0527694,-0.285899,0.658227,0.658747,0.377291,1
2.71281,-1.66357,1.76834,0.974711,1.49414,-1.35494,-2.81607,2.7128,-1.66357,1.76836,0.974702,1.49414,-1.35495,-2.81607,2.65011,-1.60871,1.77363,1.0033,1.42832,-1.42082,-2.8538,0,0,0,0,0,0,0,0,0,0,0,0,0,0,0.700002,6.25485e-05,0.554334,-0.382502,9.53392e-06,0.000120164,0.923954,0,0,0,0.703704,-0.00411557,0.525389,-0.00135992,4.92077e-05,0.000334016,-0.000116655,-0.000397728,0.000223517,0.627009,-0.548574,-0.052928,-0.285846,0.658194,0.658788,0.377268,1
2.7128,-1.66357,1.76835,0.974705,1.49414,-1.35495,-2.81607,2.7128,-1.66357,1.76836,0.974703,1.49414,-1.35495,-2.81607,2.65011,-1.60871,1.77363,1.0033,1.42832,-1.42082,-2.8538,0,0,0,0,0,0,0,0,0,0,0,0,0,0,0.700002,6.25485e-05,0.554334,-0.382502,9.53392e-06,0.000120164,0.923954,0,0,0,0.703728,-0.00410382,0.525391,0.00231813,0.00116252,0.000188754,-4.08718e-05,-7.06608e-05,3.10796e-05,0.626983,-0.548565,-0.0528293,-0.285906,0.658209,0.65876,0.377297,1
2.71281,-1.66357,1.76834,0.974709,1.49413,-1.35494,-2.81607,2.7128,-1.66357,1.76835,0.974706,1.49414,-1.35495,-2.81607,2.65011,-1.60871,1.77363,1.0033,1.42832,-1.42082,-2.8538,0,0,0,0,0,0,0,0,0,0,0,0,0,0,0.700002,6.25485e-05,0.554334,-0.382502,9.53392e-06,0.000120164,0.923954,0,0,0,0.703714,-0.00412013,0.525399,-0.00140575,-0.00164407,0.000895112,-8.7704e-05,-0.000273825,3.95945e-05,0.627003,-0.548565,-0.0528901,-0.28587,0.65819,0.658787,0.377296,1
2.7128,-1.66357,1.76835,0.974705,1.49414,-1.35495,-2.81607,2.7128,-1.66357,1.76835,0.974707,1.49414,-1.35495,-2.81607,2.65011,-1.60871,1.77363,1.0033,1.42832,-1.42082,-2.8538,0,0,0,0,0,0,0,0,0,0,0,0,0,0,0.700002,6.25485e-05,0.554334,-0.382502,9.53392e-06,0.000120164,0.923954,0,0,0,0.703715,-0.0041026,0.525391,9.86189e-05,0.00181265,-0.000862916,-3.74658e-05,2.43242e-05,0.000177962,0.626979,-0.548559,-0.0527988,-0.285914,0.658211,0.658754,0.377309,1
2.7128,-1.66357,1.76834,0.974708,1.49414,-1.35494,-2.81607,2.7128,-1.66357,1.76834,0.974708,1.49414,-1.35495,-2.81607,2.65011,-1.60871,1.77363,1.0033,1.42832,-1.42082,-2.8538,0,0,0,0,0,0,0,0,0,0,0,0,0,0,0.700002,6.25485e-05,0.554334,-0.382502,9.53392e-06,0.000120164,0.923954,0,0,0,0.703707,-0.00411609,0.525395,-0.000822904,-0.00132987,0.000346795,-0.000176259,-0.000150149,0.000143903,0.626994,-0.548564,-0.0528762,-0.28588,0.658196,0.658777,0.377304,1
2.7128,-1.66357,1.76835,0.974705,1.49414,-1.35495,-2.81607,2.7128,-1.66357,1.76834,0.974707,1.49414,-1.35495,-2.81607,2.65011,-1.60871,1.77363,1.0033,1.42832,-1.42082,-2.8538,0,0,0,0,0,0,0,0,0,0,0,0,0,0,0.700002,6.25485e-05,0.554334,-0.382502,9.53392e-06,0.000120164,0.923954,0,0,0,0.703717,-0.00411676,0.525388,0.00103927,-6.93006e-05,-0.000641902,-4.59807e-05,-6.93835e-06,7.7486e-05,0.626983,-0.548562,-0.052809,-0.28591,0.658211,0.658756,0.377302,1
2.7128,-1.66357,1.76835,0.974703,1.49414,-1.35495,-2.81607,2.7128,-1.66357,1.76835,0.974707,1.49414,-1.35495,-2.81607,2.65011,-1.60871,1.77363,1.0033,1.42832,-1.42082,-2.8538,0,0,0,0,0,0,0,0,0,0,0,0,0,0,0.700002,6.25485e-05,0.554334,-0.382502,9.53392e-06,0.000120164,0.923954,0,0,0,0.703716,-0.00410097,0.525387,-8.62985e-05,0.00152461,-9.7805e-05,1.44754e-05,7.83874e-05,-4.59807e-05,0.626983,-0.548557,-0.0527636,-0.285925,0.65822,0.658745,0.377315,1
2.7128,-1.66357,1.76835,0.974703,1.49414,-1.35495,-2.81607,2.7128,-1.66357,1.76835,0.974706,1.49414,-1.35495,-2.81607,2.65011,-1.60871,1.77363,1.0033,1.42832,-1.42082,-2.8538,0,0,0,0,0,0,0,0,0,0,0,0,0,0,0.700002,6.25485e-05,0.554334,-0.382502,9.53392e-06,0.000120164,0.923954,0,0,0,0.703727,-0.00410262,0.525398,0.00110848,-0.00016942,0.00112073,5.96046e-06,9.91825e-05,-1.31982e-05,0.626982,-0.548556,-0.052751,-0.285926,0.658226,0.65874,0.377312,1
2.7128,-1.66357,1.76836,0.974704,1.49414,-1.35495,-2.81607,2.7128,-1.66357,1.76835,0.974705,1.49414,-1.35495,-2.81607,2.65011,-1.60871,1.77363,1.0033,1.42832,-1.42082,-2.8538,0,0,0,0,0,0,0,0,0,0,0,0,0,0,0.700002,6.25485e-05,0.554334,-0.382502,9.53392e-06,0.000120164,0.923954,0,0,0,0.70371,-0.0041169,0.525393,-0.00163257,-0.00143271,-0.000526251,7.83375e-05,8.85388e-05,-4.42777e-05,0.626984,-0.548558,-0.052745,-0.285922,0.658229,0.658738,0.377304,1
2.7128,-1.66357,1.76836,0.974704,1.49414,-1.35495,-2.81607,2.7128,-1.66357,1.76835,0.974704,1.49414,-1.35495,-2.81607,2.65011,-1.60871,1.77363,1.0033,1.42832,-1.42082,-2.8538,0,0,0,0,0,0,0,0,0,0,0,0,0,0,0.700002,6.25485e-05,0.554334,-0.382502,9.53392e-06,0.000120164,0.923954,0,0,0,0.703726,-0.0041034,0.525385,0.00157702,0.00136329,-0.000854718,0.000179665,3.62284e-05,-4.64065e-05,0.62699,-0.548557,-0.0527242,-0.285922,0.658232,0.658738,0.3773,1
2.7128,-1.66357,1.76835,0.974704,1.49414,-1.35495,-2.81607,2.7128,-1.66357,1.76835,0.974704,1.49414,-1.35495,-2.81607,2.65011,-1.60871,1.77363,1.0033,1.42832,-1.42082,-2.8538,0,0,0,0,0,0,0,0,0,0,0,0,0,0,0.700002,6.25485e-05,0.554334,-0.382502,9.53392e-06,0.000120164,0.923954,0,0,0,0.703707,-0.00411186,0.52539,-0.00178869,-0.000796219,0.000504646,5.10897e-05,8.38756e-05,-5.70502e-05,0.626983,-0.548559,-0.0527559,-0.28592,0.65823,0.658737,0.377303,1
2.7128,-1.66357,1.76834,0.974707,1.49414,-1.35495,-2.81607,2.7128,-1.66357,1.76836,0.974704,1.49414,-1.35495,-2.81607,2.65011,-1.60871,1.77363,1.0033,1.42832,-1.42082,-2.8538,0,0,0,0,0,0,0,0,0,0,0,0,0,0,0.700002,6.25485e-05,0.554334,-0.382502,9.53392e-06,0.000120164,0.923954,0,0,0,0.703709,-0.00412113,0.525393,0.000227608,-0.00098309,0.000278187,-0.000149012,-0.000127365,1.36239e-05,0.626993,-0.548568,-0.0528615,-0.285886,0.65821,0.658764,0.37729,1
2.7128,-1.66357,1.76834,0.974707,1.49414,-1.35495,-2.81607,2.7128,-1.66357,1.76835,0.974704,1.49414,-1.35495,-2.81607,2.65011,-1.60871,1.77363,1.0033,1.42832,-1.42082,-2.8538,0,0,0,0,0,0,0,0,0,0,0,0,0,0,0.700002,6.25485e-05,0.554334,-0.382502,9.53392e-06,0.000120164,0.923954,0,0,0,0.70371,-0.00410741,0.525387,0.000101066,0.0013688,-0.000582616,-0.00019925,-0.000183218,-5.91789e-05,0.626992,-0.548571,-0.0528977,-0.285887,0.658202,0.658771,0.37729,1
2.7128,-1.66357,1.76833,0.974709,1.49413,-1.35494,-2.81607,2.7128,-1.66357,1.76835,0.974705,1.49414,-1.35495,-2.81607,2.65011,-1.60871,1.77363,1.0033,1.42832,-1.42082,-2.8538,0,0,0,0,0,0,0,0,0,0,0,0,0,0,0.700002,6.25485e-05,0.554334,-0.382502,9.53392e-06,0.000120164,0.923954,0,0,0,0.703703,-0.00412389,0.525397,-0.000656444,-0.0016352,0.00103493,-0.000308241,-0.000223408,-2.80993e-05,0.626992,-0.548572,-0.0529492,-0.285873,0.658187,0.658785,0.377297,1
2.7128,-1.66357,1.76834,0.974704,1.49414,-1.35495,-2.81607,2.7128,-1.66357,1.76835,0.974706,1.49414,-1.35495,-2.81607,2.65011,-1.60871,1.77363,1.0033,1.42832,-1.42082,-2.8538,0,0,0,0,0,0,0,0,0,0,0,0,0,0,0.700002,6.25485e-05,0.554334,-0.382502,9.53392e-06,0.000120164,0.923954,0,0,0,0.703707,-0.00410453,0.525379,0.000418189,0.00202697,-0.00192866,-0.000178814,2.07219e-06,-7.45058e-05,0.62698,-0.548564,-0.0528503,-0.285918,0.658204,0.65876,0.377314,1
2.7128,-1.66357,1.76834,0.974707,1.49414,-1.35494,-2.81607,2.7128,-1.66357,1.76834,0.974707,1.49414,-1.35495,-2.81607,2.65011,-1.60871,1.77363,1.0033,1.42832,-1.42082,-2.8538,0,0,0,0,0,0,0,0,0,0,0,0,0,0,0.700002,6.25485e-05,0.554334,-0.382502,9.53392e-06,0.000120164,0.923954,0,0,0,0.703709,-0.0041195,0.525393,0.000200777,-0.00148318,0.00144678,-0.000192438,-0.000130016,2.98023e-05,0.626993,-0.548564,-0.0528833,-0.285888,0.658194,0.658777,0.377309,1
2.7128,-1.66357,1.76836,0.974701,1.49414,-1.35495,-2.81607,2.7128,-1.66357,1.76834,0.974707,1.49414,-1.35494,-2.81607,2.65011,-1.60871,1.77363,1.0033,1.42832,-1.42082,-2.8538,0,0,0,0,0,0,0,0,0,0,0,0,0,0,0.700002,6.25485e-05,0.554334,-0.382502,9.53392e-06,0.000120164,0.923954,0,0,0,0.703711,-0.0040957,0.525392,0.000130026,0.00225752,-0.000118719,3.66143e-05,0.000195075,4.25747e-07,0.626972,-0.548554,-0.0527335,-0.285944,0.658226,0.658734,0.377321,1
2.7128,-1.66357,1.76836,0.974704,1.49414,-1.35495,-2.81607,2.7128,-1.66357,1.76834,0.974706,1.49414,-1.35495,-2.81607,2.65011,-1.60871,1.77363,1.0033,1.42832,-1.42082,-2.8538,0,0,0,0,0,0,0,0,0,0,0,0,0,0,0.700002,6.25485e-05,0.554334,-0.382502,9.53392e-06,0.000120164,0.923954,0,0,0,0.703714,-0.00412126,0.525399,0.000326415,-0.00264106,0.000726736,8.00405e-05,9.7902e-05,9.49417e-05,0.626986,-0.548553,-0.0527385,-0.285917,0.658221,0.658745,0.377316,1
2.71281,-1.66357,1.76835,0.974708,1.49414,-1.35495,-2.81607,2.7128,-1.66357,1.76835,0.974705,1.49414,-1.35495,-2.81607,2.65011,-1.60871,1.77363,1.0033,1.42832,-1.42082,-2.8538,0,0,0,0,0,0,0,0,0,0,0,0,0,0,0.700002,6.25485e-05,0.554334,-0.382502,9.53392e-06,0.000120164,0.923954,0,0,0,0.703705,-0.00412838,0.525397,-0.000904893,-0.000701668,-0.000217409,3.15053e-05,-0.00017437,0.00017115,0.626999,-0.548564,-0.0528304,-0.285875,0.658209,0.658767,0.377284,1
2.7128,-1.66357,1.76835,0.974706,1.49414,-1.35495,-2.81607,2.7128,-1.66357,1.76835,0.974705,1.49414,-1.35495,-2.81607,2.65011,-1.60871,1.77363,1.0033,1.42832,-1.42082,-2.8538,0,0,0,0,0,0,0,0,0,0,0,0,0,0,0.700002,6.25485e-05,0.554334,-0.382502,9.53392e-06,0.000120164,0.923954,0,0,0,0.703712,-0.00411389,0.525386,0.00074483,0.00150828,-0.00114828,8.7704e-05,-6.95332e-05,2.93766e-05,0.62699,-0.548563,-0.0527928,-0.285902,0.658217,0.658754,0.377291,1
2.71281,-1.66357,1.76835,0.974705,1.49414,-1.35495,-2.81607,2.7128,-1.66357,1.76835,0.974705,1.49414,-1.35495,-2.81607,2.65011,-1.60871,1.77363,1.0033,1.42832,-1.42082,-2.8538,0,0,0,0,0,0,0,0,0,0,0,0,0,0,0.700002,6.25485e-05,0.554334,-0.382502,9.53392e-06,0.000120164,0.923954,0,0,0,0.703728,-0.00410669,0.525383,0.00152226,0.000699362,-0.000231523,0.000212874,-9.97945e-05,1.53269e-05,0.626997,-0.548558,-0.0527534,-0.285905,0.658218,0.658755,0.377296,1
2.7128,-1.66357,1.76836,0.974701,1.49414,-1.35495,-2.81607,2.7128,-1.66357,1.76835,0.974706,1.49414,-1.35495,-2.81607,2.65011,-1.60871,1.77363,1.0033,1.42832,-1.42082,-2.8538,0,0,0,0,0,0,0,0,0,0,0,0,0,0,0.700002,6.25485e-05,0.554334,-0.382502,9.53392e-06,0.000120164,0.923954,0,0,0,0.703727,-0.00409459,0.525395,-0.00010148,0.0012123,0.00113419,0.000297172,0.00021474,-9.32387e-05,0.626977,-0.548549,-0.0526494,-0.28595,0.658244,0.658719,0.377313,1
2.7128,-1.66357,1.76837,0.974698,1.49414,-1.35495,-2.81607,2.7128,-1.66357,1.76835,0.974705,1.49414,-1.35495,-2.81607,2.65011,-1.60871,1.77363,1.0033,1.42832,-1.42082,-2.8538,0,0,0,0,0,0,0,0,0,0,0,0,0,0,0.700002,6.25485e-05,0.554334,-0.382502,9.53392e-06,0.000120164,0.923954,0,0,0,0.703703,-0.00408149,0.525377,-0.00234813,0.00132648,-0.00181694,9.19615e-05,0.000420226,-0.000240973,0.626966,-0.548551,-0.0526349,-0.285977,0.658261,0.658697,0.377328,1
2.7128,-1.66357,1.76837,0.974699,1.49414,-1.35495,-2.81607,2.7128,-1.66357,1.76836,0.974704,1.49414,-1.35495,-2.81607,2.65011,-1.60871,1.77363,1.0033,1.42832,-1.42082,-2.8538,0,0,0,0,0,0,0,0,0,0,0,0,0,0,0.700002,6.25485e-05,0.554334,-0.382502,9.53392e-06,0.000120164,0.923954,0,0,0,0.703716,-0.00411694,0.525391,0.00125448,-0.00347071,0.00134784,6.64166e-05,0.000450118,-0.00020223,0.626965,-0.548551,-0.0526319,-0.285974,0.658265,0.658694,0.377321,1
2.7128,-1.66357,1.76837,0.974699,1.49414,-1.35495,-2.81607,2.7128,-1.66357,1.76836,0.974702,1.49414,-1.35495,-2.81607,2.65011,-1.60871,1.77363,1.0033,1.42832,-1.42082,-2.8538,0,0,0,0,0,0,0,0,0,0,0,0,0,0,0.700002,6.25485e-05,0.554334,-0.382502,9.53392e-06,0.000120164,0.923954,0,0,0,0.703718,-0.00409771,0.525376,0.000139996,0.00196399,-0.0015217,8.17435e-05,0.000396797,-0.000216705,0.626969,-0.548554,-0.0526438,-0.285972,0.658265,0.658695,0.377318,1
2.7128,-1.66357,1.76836,0.974702,1.49414,-1.35495,-2.81607,2.7128,-1.66357,1.76836,0.9747,1.49414,-1.35495,-2.81607,2.65011,-1.60871,1.77363,1.0033,1.42832,-1.42082,-2.8538,0,0,0,0,0,0,0,0,0,0,0,0,0,0,0.700002,6.25485e-05,0.554334,-0.382502,9.53392e-06,0.000120164,0.923954,0,0,0,0.703711,-0.00409407,0.525387,-0.000681165,0.000358658,0.00115093,-0.000121764,0.000196705,-5.40699e-05,0.626976,-0.54856,-0.0527484,-0.285936,0.658244,0.658721,0.37731,1
2.7128,-1.66357,1.76835,0.974704,1.49414,-1.35495,-2.81607,2.7128,-1.66357,1.76836,0.974699,1.49414,-1.35495,-2.81607,2.65011,-1.60871,1.77363,1.0033,1.42832,-1.42082,-2.8538,0,0,0,0,0,0,0,0,0,0,0,0,0,0,0.700002,6.25485e-05,0.554334,-0.382502,9.53392e-06,0.000120164,0.923954,0,0,0,0.703703,-0.00409296,0.525381,-0.000842223,0.000114787,-0.000651647,-0.00033038,9.29028e-05,-8.2595e-05,0.626976,-0.548569,-0.052843,-0.285922,0.658228,0.658738,0.377307,1
2.7128,-1.66357,1.76834,0.974705,1.49414,-1.35495,-2.81607,2.7128,-1.66357,1.76836,0.9747,1.49414,-1.35495,-2.81607,2.65011,-1.60871,1.77363,1.0033,1.42832,-1.42082,-2.8538,0,0,0,0,0,0,0,0,0,0,0,0,0,0,0.700002,6.25485e-05,0.554334,-0.382502,9.53392e-06,0.000120164,0.923954,0,0,0,0.703716,-0.0041041,0.525384,0.00131133,-0.00111925,0.000299391,-0.000145606,-0.000102149,-9.57932e-05,0.626991,-0.548567,-0.0528501,-0.285905,0.658212,0.658759,0.377297,1
2.7128,-1.66357,1.76835,0.974706,1.49414,-1.35495,-2.81607,2.7128,-1.66357,1.76836,0.974702,1.49414,-1.35495,-2.81607,2.65011,-1.60871,1.77363,1.0033,1.42832,-1.42082,-2.8538,0,0,0,0,0,0,0,0,0,0,0,0,0,0,0.700002,6.25485e-05,0.554334,-0.382502,9.53392e-06,0.000120164,0.923954,0,0,0,0.703716,-0.00410258,0.525381,6.13658e-05,0.000156003,-0.000355921,7.66345e-05,-0.000117297,1.27724e-05,0.626995,-0.548561,-0.0528094,-0.285901,0.658209,0.658761,0.377299,1
2.7128,-1.66357,1.76835,0.974706,1.49414,-1.35495,-2.81607,2.7128,-1.66357,1.76835,0.974703,1.49414,-1.35495,-2.81607,2.65011,-1.60871,1.77363,1.0033,1.42832,-1.42082,-2.8538,0,0,0,0,0,0,0,0,0,0,0,0,0,0,0.700002,6.25485e-05,0.554334,-0.382502,9.53392e-06,0.000120164,0.923954,0,0,0,0.70372,-0.00411966,0.525384,0.000405302,-0.00173317,0.000314563,5.02382e-05,-9.9738e-05,-5.19412e-05,0.626995,-0.548563,-0.0528165,-0.285897,0.65821,0.658761,0.377297,1
2.71281,-1.66357,1.76835,0.974707,1.49414,-1.35495,-2.81607,2.7128,-1.66357,1.76835,0.974705,1.49414,-1.35495,-2.81607,2.65011,-1.60871,1.77363,1.0033,1.42832,-1.42082,-2.8538,0,0,0,0,0,0,0,0,0,0,0,0,0,0,0.700002,6.25485e-05,0.554334,-0.382502,9.53392e-06,0.000120164,0.923954,0,0,0,0.703708,-0.0040941,0.525378,-0.00109639,0.00235086,-0.000542714,1.61784e-05,-0.000178475,-5.96046e-06,0.626999,-0.548565,-0.0528306,-0.285892,0.658208,0.658766,0.377292,1
2.71281,-1.66357,1.76834,0.974709,1.49414,-1.35494,-2.81607,2.7128,-1.66357,1.76835,0.974706,1.49414,-1.35495,-2.81607,2.65011,-1.60871,1.77363,1.0033,1.42832,-1.42082,-2.8538,0,0,0,0,0,0,0,0,0,0,0,0,0,0,0.700002,6.25485e-05,0.554334,-0.382502,9.53392e-06,0.000120164,0.923954,0,0,0,0.703719,-0.00412145,0.525384,0.00103386,-0.00274203,0.000633461,0.000139645,-0.000357082,-6.00304e-05,0.627013,-0.548568,-0.0528569,-0.285867,0.658198,0.658783,0.377275,1
2.71281,-1.66357,1.76834,0.974708,1.49414,-1.35494,-2.81607,2.71281,-1.66357,1.76835,0.974706,1.49414,-1.35495,-2.81607,2.65011,-1.60871,1.77363,1.0033,1.42832,-1.42082,-2.8538,0,0,0,0,0,0,0,0,0,0,0,0,0,0,0.700002,6.25485e-05,0.554334,-0.382502,9.53392e-06,0.000120164,0.923954,0,0,0,0.703716,-0.00411159,0.525378,-0.000222552,0.000995,-0.000589462,0.000141348,-0.000293254,-3.95945e-05,0.627006,-0.548567,-0.0528488,-0.285875,0.6582,0.658777,0.37728,1
2.7128,-1.66357,1.76834,0.974707,1.49414,-1.35494,-2.81607,2.71281,-1.66357,1.76835,0.974707,1.49414,-1.35495,-2.81607,2.65011,-1.60871,1.77363,1.0033,1.42832,-1.42082,-2.8538,0,0,0,0,0,0,0,0,0,0,0,0,0,0,0.700002,6.25485e-05,0.554334,-0.382502,9.53392e-06,0.000120164,0.923954,0,0,0,0.703715,-0.00411443,0.525383,-0.000118685,-0.000282896,0.000439133,-8.51495e-06,-0.000181412,-3.02281e-05,0.626996,-0.548566,-0.0528524,-0.285886,0.658202,0.658772,0.377293,1
2.7128,-1.66357,1.76835,0.974703,1.49414,-1.35495,-2.81607,2.71281,-1.66357,1.76835,0.974708,1.49414,-1.35494,-2.81607,2.65011,-1.60871,1.77363,1.0033,1.42832,-1.42082,-2.8538,0,0,0,0,0,0,0,0,0,0,0,0,0,0,0.700002,6.25485e-05,0.554334,-0.382502,9.53392e-06,0.000120164,0.923954,0,0,0,0.703715,-0.0040961,0.525373,-6.12858e-05,0.00188459,-0.00094993,-2.38419e-05,4.43509e-05,-8.21693e-05,0.626982,-0.548561,-0.0527841,-0.285926,0.658219,0.658747,0.377311,1
2.7128,-1.66357,1.76835,0.974707,1.49414,-1.35495,-2.81607,2.71281,-1.66357,1.76835,0.974708,1.49414,-1.35494,-2.81607,2.65011,-1.60871,1.77363,1.0033,1.42832,-1.42082,-2.8538,0,0,0,0,0,0,0,0,0,0,0,0,0,0,0.700002,6.25485e-05,0.554334,-0.382502,9.53392e-06,0.000120164,0.923954,0,0,0,0.703709,-0.00412684,0.525393,-0.000546941,-0.0030004,0.00191429,-8.85555e-05,-6.61239e-05,6.38621e-05,0.626991,-0.548562,-0.0528328,-0.285894,0.658207,0.658764,0.377303,1
2.71281,-1.66357,1.76834,0.974711,1.49413,-1.35494,-2.81607,2.7128,-1.66357,1.76835,0.974707,1.49414,-1.35495,-2.81607,2.65011,-1.60871,1.77363,1.0033,1.42832,-1.42082,-2.8538,0,0,0,0,0,0,0,0,0,0,0,0,0,0,0.700002,6.25485e-05,0.554334,-0.382502,9.53392e-06,0.000120164,0.923954,0,0,0,0.703705,-0.00412862,0.525386,-0.000427717,-0.00018283,-0.00075156,-0.000111546,-0.000353044,0.000131982,0.627007,-0.548572,-0.0529249,-0.285854,0.658189,0.658791,0.377277,1
2.7128,-1.66357,1.76835,0.974705,1.49414,-1.35495,-2.81607,2.7128,-1.66357,1.76835,0.974706,1.49414,-1.35495,-2.81607,2.65011,-1.60871,1.77363,1.0033,1.42832,-1.42082,-2.8538,0,0,0,0,0,0,0,0,0,0,0,0,0,0,0.700002,6.25485e-05,0.554334,-0.382502,9.53392e-06,0.000120164,0.923954,0,0,0,0.703722,-0.00411045,0.525383,0.00176899,0.00182227,-0.000298816,-6.38621e-05,-4.80829e-05,7.5783e-05,0.626984,-0.548564,-0.0528334,-0.285905,0.658205,0.658762,0.377303,1
2.7128,-1.66357,1.76835,0.974706,1.49414,-1.35495,-2.81607,2.7128,-1.66357,1.76835,0.974707,1.49414,-1.35495,-2.81607,2.65011,-1.60871,1.77363,1.0033,1.42832,-1.42082,-2.8538,0,0,0,0,0,0,0,0,0,0,0,0,0,0,0.700002,6.25485e-05,0.554334,-0.382502,9.53392e-06,0.000120164,0.923954,0,0,0,0.703708,-0.00411267,0.525385,-0.0013922,-0.000209067,0.000247003,-7.5783e-05,-9.92324e-05,0.000120912,0.626992,-0.548561,-0.0528365,-0.285895,0.6582,0.65877,0.377309,1
2.7128,-1.66357,1.76835,0.974704,1.49414,-1.35495,-2.81607,2.7128,-1.66357,1.76834,0.974707,1.49414,-1.35495,-2.81607,2.65011,-1.60871,1.77363,1.0033,1.42832,-1.42082,-2.8538,0,0,0,0,0,0,0,0,0,0,0,0,0,0,0.700002,6.25485e-05,0.554334,-0.382502,9.53392e-06,0.000120164,0.923954,0,0,0,0.703713,-0.00410546,0.525381,0.000539448,0.000749201,-0.000471242,-2.72478e-05,3.62817e-05,2.89508e-05,0.626983,-0.54856,-0.0527889,-0.285918,0.658216,0.65875,0.377309,1
2.7128,-1.66357,1.76836,0.974701,1.49414,-1.35495,-2.81607,2.7128,-1.66357,1.76834,0.974707,1.49414,-1.35495,-2.81607,2.65011,-1.60871,1.77363,1.0033,1.42832,-1.42082,-2.8538,0,0,0,0,0,0,0,0,0,0,0,0,0,0,0.700002,6.25485e-05,0.554334,-0.382502,9.53392e-06,0.000120164,0.923954,0,0,0,0.703714,-0.00409346,0.525384,8.84295e-05,0.00118689,0.00028887,2.98023e-05,0.000237896,2.21389e-05,0.626973,-0.548553,-0.0527088,-0.285948,0.658233,0.658727,0.377324,1
2.7128,-1.66357,1.76837,0.974697,1.49414,-1.35495,-2.81607,2.7128,-1.66357,1.76835,0.974705,1.49414,-1.35495,-2.81607,2.65011,-1.60871,1.77363,1.0033,1.42832,-1.42082,-2.8538,0,0,0,0,0,0,0,0,0,0,0,0,0,0,0.700002,6.25485e-05,0.554334,-0.382502,9.53392e-06,0.000120164,0.923954,0,0,0,0.703718,-0.00410525,0.525383,0.00043579,-0.00118051,-4.77578e-05,0.000126021,0.000500197,-0.000125595,0.62696,-0.548546,-0.0526118,-0.285984,0.658259,0.658695,0.377335,1
2.7128,-1.66357,1.76836,0.974704,1.49414,-1.35495,-2.81607,2.7128,-1.66357,1.76835,0.974704,1.49414,-1.35495,-2.81607,2.65011,-1.60871,1.77363,1.0033,1.42832,-1.42082,-2.8538,0,0,0,0,0,0,0,0,0,0,0,0,0,0,0.700002,6.25485e-05,0.554334,-0.382502,9.53392e-06,0.000120164,0.923954,0,0,0,0.703716,-0.00412573,0.525394,-0.000223209,-0.0020727,0.00104366,0.000109843,0.000136658,8.2595e-05,0.626988,-0.548554,-0.0527046,-0.285921,0.658239,0.65873,0.377305,1
2.71281,-1.66357,1.76835,0.974708,1.49414,-1.35495,-2.81607,2.7128,-1.66357,1.76836,0.974702,1.49414,-1.35495,-2.81607,2.65011,-1.60871,1.77363,1.0033,1.42832,-1.42082,-2.8538,0,0,0,0,0,0,0,0,0,0,0,0,0,0,0.700002,6.25485e-05,0.554334,-0.382502,9.53392e-06,0.000120164,0.923954,0,0,0,0.70372,-0.00412114,0.525386,0.00040739,0.000460794,-0.000724915,5.10897e-05,-0.000207179,0.000106437,0.627003,-0.548568,-0.0528283,-0.285875,0.658217,0.658761,0.377273,1
2.71281,-1.66357,1.76835,0.974708,1.49414,-1.35495,-2.81607,2.7128,-1.66357,1.76836,0.974702,1.49414,-1.35495,-2.81607,2.65011,-1.60871,1.77363,1.0033,1.42832,-1.42082,-2.8538,0,0,0,0,0,0,0,0,0,0,0,0,0,0,0.700002,6.25485e-05,0.554334,-0.382502,9.53392e-06,0.000120164,0.923954,0,0,0,0.703714,-0.00411238,0.525392,-0.000565663,0.000875801,0.000518028,0.000127724,-0.000224153,0.000141774,0.626999,-0.548565,-0.0528198,-0.28588,0.658209,0.658768,0.377279,1
2.71281,-1.66357,1.76834,0.97471,1.49413,-1.35494,-2.81607,2.7128,-1.66357,1.76836,0.974704,1.49414,-1.35495,-2.81607,2.65011,-1.60871,1.77363,1.0033,1.42832,-1.42082,-2.8538,0,0,0,0,0,0,0,0,0,0,0,0,0,0,0.700002,6.25485e-05,0.554334,-0.382502,9.53392e-06,0.000120164,0.923954,0,0,0,0.703715,-0.00412031,0.525388,0.000120421,-0.00080127,-0.000373305,3.91688e-05,-0.000350939,0.000141774,0.627007,-0.548567,-0.0528819,-0.285859,0.658192,0.658788,0.37728,1
2.71281,-1.66357,1.76834,0.974708,1.49414,-1.35494,-2.81607,2.7128,-1.66357,1.76835,0.974706,1.49414,-1.35495,-2.81607,2.65011,-1.60871,1.77363,1.0033,1.42832,-1.42082,-2.8538,0,0,0,0,0,0,0,0,0,0,0,0,0,0,0.700002,6.25485e-05,0.554334,-0.382502,9.53392e-06,0.000120164,0.923954,0,0,0,0.703713,-0.0041122,0.52539,-0.000215018,0.00079029,0.00018015,-2.98023e-05,-0.000260671,9.02585e-05,0.626998,-0.548567,-0.0528771,-0.285875,0.658195,0.65878,0.377286,1
2.7128,-1.66357,1.76835,0.974705,1.49414,-1.35495,-2.81607,2.71281,-1.66357,1.76835,0.974708,1.49414,-1.35495,-2.81607,2.65011,-1.60871,1.77363,1.0033,1.42832,-1.42082,-2.8538,0,0,0,0,0,0,0,0,0,0,0,0,0,0,0.700002,6.25485e-05,0.554334,-0.382502,9.53392e-06,0.000120164,0.923954,0,0,0,0.703714,-0.00411519,0.525388,3.76691e-05,-0.000314939,-0.000182067,-8.34465e-05,-6.95498e-06,2.85251e-05,0.626982,-0.548562,-0.0528233,-0.285908,0.658207,0.65876,0.377309,1
2.7128,-1.66357,1.76835,0.974703,1.49414,-1.35495,-2.81607,2.71281,-1.66357,1.76834,0.974708,1.49414,-1.35494,-2.81607,2.65011,-1.60871,1.77363,1.0033,1.42832,-1.42082,-2.8538,0,0,0,0,0,0,0,0,0,0,0,0,0,0,0.700002,6.25485e-05,0.554334,-0.382502,9.53392e-06,0.000120164,0.923954,0,0,0,0.703715,-0.00411674,0.525391,0.000134833,-0.00015242,0.000281391,-5.96046e-05,0.000139399,-2.46934e-05,0.626977,-0.548557,-0.0527692,-0.28593,0.65822,0.658743,0.377319,1
2.7128,-1.66357,1.76836,0.9747,1.49414,-1.35495,-2.81607,2.7128,-1.66357,1.76835,0.974707,1.49414,-1.35495,-2.81607,2.65011,-1.60871,1.77363,1.0033,1.42832,-1.42082,-2.8538,0,0,0,0,0,0,0,0,0,0,0,0,0,0,0.700002,6.25485e-05,0.554334,-0.382502,9.53392e-06,0.000120164,0.923954,0,0,0,0.703707,-0.0040913,0.525373,-0.000776943,0.00247528,-0.00172203,-0.000140497,0.000306871,-0.000147309,0.626967,-0.548557,-0.0527364,-0.285958,0.658237,0.65872,0.37733,1
2.7128,-1.66357,1.76836,0.974699,1.49414,-1.35495,-2.81607,2.7128,-1.66357,1.76835,0.974705,1.49414,-1.35495,-2.81607,2.65011,-1.60871,1.77363,1.0033,1.42832,-1.42082,-2.8538,0,0,0,0,0,0,0,0,0,0,0,0,0,0,0.700002,6.25485e-05,0.554334,-0.382502,9.53392e-06,0.000120164,0.923954,0,0,0,0.703704,-0.00409792,0.525376,-0.000293122,-0.000664993,0.00028714,-0.000163487,0.000345883,-0.000267795,0.626967,-0.548558,-0.0527279,-0.285965,0.658245,0.658713,0.377328,1
2.7128,-1.66357,1.76835,0.974701,1.49414,-1.35495,-2.81607,2.7128,-1.66357,1.76835,0.974703,1.49414,-1.35495,-2.81607,2.65011,-1.60871,1.77363,1.0033,1.42832,-1.42082,-2.8538,0,0,0,0,0,0,0,0,0,0,0,0,0,0,0.700002,6.25485e-05,0.554334,-0.382502,9.53392e-06,0.000120164,0.923954,0,0,0,0.703713,-0.00411625,0.525374,0.000893645,-0.00180736,-0.000164619,-0.0001141,0.000230875,-0.000295894,0.626976,-0.548561,-0.0527551,-0.285946,0.65824,0.658722,0.377315,1
2.7128,-1.66357,1.76835,0.974704,1.49414,-1.35495,-2.81607,2.7128,-1.66357,1.76835,0.974701,1.49414,-1.35495,-2.81607,2.65011,-1.60871,1.77363,1.0033,1.42832,-1.42082,-2.8538,0,0,0,0,0,0,0,0,0,0,0,0,0,0,0.700002,6.25485e-05,0.554334,-0.382502,9.53392e-06,0.000120164,0.923954,0,0,0,0.703716,-0.00411177,0.525388,0.000260511,0.000465732,0.00138319,-1.70299e-05,6.43278e-05,-0.000172853,0.626986,-0.548562,-0.0527776,-0.285923,0.65823,0.658738,0.377303,1
2.71281,-1.66357,1.76834,0.974708,1.49414,-1.35495,-2.81607,2.7128,-1.66357,1.76836,0.974701,1.49414,-1.35495,-2.81607,2.65011,-1.60871,1.77363,1.0033,1.42832,-1.42082,-2.8538,0,0,0,0,0,0,0,0,0,0,0,0,0,0,0.700002,6.25485e-05,0.554334,-0.382502,9.53392e-06,0.000120164,0.923954,0,0,0,0.703708,-0.00412655,0.525384,-0.000791009,-0.00145265,-0.000404293,-3.74658e-05,-0.000175242,-6.64166e-05,0.626999,-0.548568,-0.0528595,-0.285883,0.658208,0.658766,0.377286,1
2.71281,-1.66357,1.76834,0.974709,1.49414,-1.35494,-2.81607,2.7128,-1.66357,1.76835,0.974702,1.49414,-1.35495,-2.81607,2.65011,-1.60871,1.77363,1.0033,1.42832,-1.42082,-2.8538,0,0,0,0,0,0,0,0,0,0,0,0,0,0,0.700002,6.25485e-05,0.554334,-0.382502,9.53392e-06,0.000120164,0.923954,0,0,0,0.703718,-0.00411772,0.525376,0.00100471,0.00089139,-0.000739997,7.32286e-05,-0.000311674,-4.17233e-05,0.627007,-0.548569,-0.0528664,-0.285874,0.6582,0.658778,0.377277,1
2.71281,-1.66357,1.76834,0.974711,1.49413,-1.35494,-2.81607,2.7128,-1.66357,1.76835,0.974704,1.49414,-1.35495,-2.81607,2.65011,-1.60871,1.77363,1.0033,1.42832,-1.42082,-2.8538,0,0,0,0,0,0,0,0,0,0,0,0,0,0,0.700002,6.25485e-05,0.554334,-0.382502,9.53392e-06,0.000120164,0.923954,0,0,0,0.703715,-0.00411476,0.5254,-0.000277187,0.000286842,0.00232722,0.000160081,-0.000429529,0.000323568,0.627013,-0.548564,-0.0528717,-0.285847,0.658184,0.658797,0.377277,1
2.71281,-1.66357,1.76835,0.97471,1.49413,-1.35494,-2.81607,2.71281,-1.66357,1.76835,0.974707,1.49414,-1.35495,-2.81607,2.65011,-1.60871,1.77363,1.0033,1.42832,-1.42082,-2.8538,0,0,0,0,0,0,0,0,0,0,0,0,0,0,0.700002,6.25485e-05,0.554334,-0.382502,9.53392e-06,0.000120164,0.923954,0,0,0,0.70372,-0.00412539,0.525394,0.000512839,-0.00108878,-0.000647155,0.000184774,-0.000304845,0.000335063,0.627004,-0.548562,-0.0528396,-0.285861,0.65819,0.658787,0.377283,1
2.7128,-1.66357,1.76835,0.974706,1.49414,-1.35495,-2.81607,2.71281,-1.66357,1.76834,0.974708,1.49414,-1.35494,-2.81607,2.65011,-1.60871,1.77363,1.0033,1.42832,-1.42082,-2.8538,0,0,0,0,0,0,0,0,0,0,0,0,0,0,0.700002,6.25485e-05,0.554334,-0.382502,9.53392e-06,0.000120164,0.923954,0,0,0,0.703713,-0.0041167,0.525388,-0.000622473,0.000847447,-0.000622473,5.61987e-05,-6.00271e-05,0.000245656,0.626987,-0.548559,-0.0527965,-0.285896,0.658205,0.658764,0.377303,1
2.7128,-1.66357,1.76836,0.974703,1.49414,-1.35495,-2.81607,2.71281,-1.66357,1.76834,0.974709,1.49414,-1.35494,-2.81607,2.65011,-1.60871,1.77363,1.0033,1.42832,-1.42082,-2.8538,0,0,0,0,0,0,0,0,0,0,0,0,0,0,0.700002,6.25485e-05,0.554334,-0.382502,9.53392e-06,0.000120164,0.923954,0,0,0,0.703722,-0.0041074,0.525382,0.000926785,0.00098402,-0.000611552,0.000117506,8.97662e-05,2.89508e-05,0.626983,-0.548555,-0.052723,-0.285929,0.658226,0.658741,0.37731,1
2.7128,-1.66357,1.76836,0.974703,1.49414,-1.35495,-2.81607,2.71281,-1.66357,1.76835,0.974708,1.49414,-1.35494,-2.81607,2.65011,-1.60871,1.77363,1.0033,1.42832,-1.42082,-2.8538,0,0,0,0,0,0,0,0,0,0,0,0,0,0,0.700002,6.25485e-05,0.554334,-0.382502,9.53392e-06,0.000120164,0.923954,0,0,0,0.703709,-0.00412004,0.525387,-0.00125081,-0.00124544,0.00052851,4.68322e-05,0.000136452,3.27826e-05,0.626981,-0.548556,-0.0527361,-0.285924,0.658229,0.658736,0.37731,1
2.7128,-1.66357,1.76836,0.974701,1.49414,-1.35495,-2.81607,2.7128,-1.66357,1.76835,0.974706,1.49414,-1.35495,-2.81607,2.65011,-1.60871,1.77363,1.0033,1.42832,-1.42082,-2.8538,0,0,0,0,0,0,0,0,0,0,0,0,0,0,0.700002,6.25485e-05,0.554334,-0.382502,9.53392e-06,0.000120164,0.923954,0,0,0,0.703719,-0.00409407,0.525387,0.000915943,0.00249451,-5.72465e-05,-1.44754e-05,0.000279852,-2.68221e-05,0.62697,-0.548555,-0.0527037,-0.285952,0.658243,0.658718,0.377319,1
2.7128,-1.66357,1.76836,0.974696,1.49414,-1.35495,-2.81607,2.7128,-1.66357,1.76835,0.974704,1.49414,-1.35495,-2.81607,2.65011,-1.60871,1.77363,1.0033,1.42832,-1.42082,-2.8538,0,0,0,0,0,0,0,0,0,0,0,0,0,0,0.700002,6.25485e-05,0.554334,-0.382502,9.53392e-06,0.000120164,0.923954,0,0,0,0.703705,-0.00408413,0.52537,-0.00141962,0.00102429,-0.00170232,-0.000121764,0.000539858,-0.000378064,0.626954,-0.548554,-0.0526631,-0.285996,0.658264,0.658688,0.377339,1
2.7128,-1.66357,1.76836,0.974701,1.49414,-1.35495,-2.81607,2.7128,-1.66357,1.76836,0.974702,1.49414,-1.35495,-2.81607,2.65011,-1.60871,1.77363,1.0033,1.42832,-1.42082,-2.8538,0,0,0,0,0,0,0,0,0,0,0,0,0,0,0.700002,6.25485e-05,0.554334,-0.382502,9.53392e-06,0.000120164,0.923954,0,0,0,0.703714,-0.00412103,0.52539,0.000857245,-0.00360976,0.00195942,-0.00013113,0.000326918,-0.000149437,0.626971,-0.548556,-0.0527173,-0.285953,0.658247,0.658714,0.377322,1
2.7128,-1.66357,1.76835,0.974703,1.49414,-1.35495,-2.81607,2.7128,-1.66357,1.76836,0.974701,1.49414,-1.35495,-2.81607,2.65011,-1.60871,1.77363,1.0033,1.42832,-1.42082,-2.8538,0,0,0,0,0,0,0,0,0,0,0,0,0,0,0.700002,6.25485e-05,0.554334,-0.382502,9.53392e-06,0.000120164,0.923954,0,0,0,0.703715,-0.00410661,0.525374,0.000147689,0.00142958,-0.00158323,-4.93867e-05,0.00013908,-0.000146031,0.626981,-0.548562,-0.0527617,-0.285933,0.658238,0.658727,0.377304,1
2.7128,-1.66357,1.76835,0.974706,1.49414,-1.35495,-2.81607,2.7128,-1.66357,1.76836,0.9747,1.49414,-1.35495,-2.81607,2.65011,-1.60871,1.77363,1.0033,1.42832,-1.42082,-2.8538,0,0,0,0,0,0,0,0,0,0,0,0,0,0,0.700002,6.25485e-05,0.554334,-0.382502,9.53392e-06,0.000120164,0.923954,0,0,0,0.703725,-0.0041168,0.525396,0.00103482,-0.00105378,0.00222364,6.04561e-05,-0.000101055,6.72681e-05,0.626996,-0.548562,-0.0527966,-0.285895,0.658218,0.658756,0.377291,1
2.7128,-1.66357,1.76835,0.974705,1.49414,-1.35495,-2.81607,2.7128,-1.66357,1.76836,0.974701,1.49414,-1.35495,-2.81607,2.65011,-1.60871,1.77363,1.0033,1.42832,-1.42082,-2.8538,0,0,0,0,0,0,0,0,0,0,0,0,0,0,0.700002,6.25485e-05,0.554334,-0.382502,9.53392e-06,0.000120164,0.923954,0,0,0,0.703705,-0.00409806,0.525382,-0.00206294,0.00187513,-0.0013117,3.32083e-05,-7.09136e-06,2.76736e-05,0.626986,-0.548562,-0.0527909,-0.285911,0.65822,0.658748,0.3773,1
2.71281,-1.66357,1.76834,0.974708,1.49414,-1.35494,-2.81607,2.7128,-1.66357,1.76835,0.974703,1.49414,-1.35495,-2.81607,2.65011,-1.60871,1.77363,1.0033,1.42832,-1.42082,-2.8538,0,0,0,0,0,0,0,0,0,0,0,0,0,0,0.700002,6.25485e-05,0.554334,-0.382502,9.53392e-06,0.000120164,0.923954,0,0,0,0.70371,-0.00410622,0.525379,0.000541441,-0.000797607,-0.000302741,-5.36442e-05,-0.000214583,3.27826e-05,0.627001,-0.548567,-0.0528553,-0.285883,0.658205,0.658771,0.37729,1
2.71281,-1.66357,1.76835,0.974708,1.49414,-1.35494,-2.81607,2.7128,-1.66357,1.76835,0.974705,1.49414,-1.35495,-2.81607,2.65011,-1.60871,1.77363,1.0033,1.42832,-1.42082,-2.8538,0,0,0,0,0,0,0,0,0,0,0,0,0,0,0.700002,6.25485e-05,0.554334,-0.382502,9.53392e-06,0.000120164,0.923954,0,0,0,0.703717,-0.00411574,0.525393,0.000640963,-0.000947117,0.00137095,6.13076e-05,-0.000202283,0.000201804,0.626998,-0.548563,-0.0528328,-0.285881,0.658202,0.658773,0.377288,1
2.7128,-1.66357,1.76834,0.974707,1.49414,-1.35495,-2.81607,2.7128,-1.66357,1.76835,0.974706,1.49414,-1.35495,-2.81607,2.65011,-1.60871,1.77363,1.0033,1.42832,-1.42082,-2.8538,0,0,0,0,0,0,0,0,0,0,0,0,0,0,0.700002,6.25485e-05,0.554334,-0.382502,9.53392e-06,0.000120164,0.923954,0,0,0,0.703708,-0.00412478,0.525393,-0.000939354,-0.000925629,3.04985e-05,-0.000111546,-6.7604e-05,0.0001141,0.626986,-0.548564,-0.0528551,-0.28589,0.658202,0.658767,0.377303,1
2.7128,-1.66357,1.76834,0.974707,1.49414,-1.35494,-2.81607,2.7128,-1.66357,1.76835,0.974707,1.49414,-1.35495,-2.81607,2.65011,-1.60871,1.77363,1.0033,1.42832,-1.42082,-2.8538,0,0,0,0,0,0,0,0,0,0,0,0,0,0,0.700002,6.25485e-05,0.554334,-0.382502,9.53392e-06,0.000120164,0.923954,0,0,0,0.703713,-0.00411234,0.525388,0.000598893,0.0012757,-0.000543893,-0.000106437,-0.000181531,0.000173705,0.626995,-0.548565,-0.0528604,-0.285884,0.658198,0.658776,0.377296,1
2.71281,-1.66357,1.76834,0.974709,1.49413,-1.35494,-2.81607,2.7128,-1.66357,1.76835,0.974707,1.49414,-1.35495,-2.81607,2.65011,-1.60871,1.77363,1.0033,1.42832,-1.42082,-2.8538,0,0,0,0,0,0,0,0,0,0,0,0,0,0,0.700002,6.25485e-05,0.554334,-0.382502,9.53392e-06,0.000120164,0.923954,0,0,0,0.703712,-0.00412344,0.525404,-0.000151911,-0.00108816,0.00159507,-9.19615e-05,-0.000239377,0.000184774,0.626997,-0.548565,-0.0528885,-0.285868,0.65819,0.658784,0.377292,1
2.71281,-1.66357,1.76834,0.97471,1.49413,-1.35494,-2.81607,2.7128,-1.66357,1.76834,0.974708,1.49414,-1.35494,-2.81607,2.65011,-1.60871,1.77363,1.0033,1.42832,-1.42082,-2.8538,0,0,0,0,0,0,0,0,0,0,0,0,0,0,0.700002,6.25485e-05,0.554334,-0.382502,9.53392e-06,0.000120164,0.923954,0,0,0,0.703715,-0.0041196,0.525388,0.000317423,0.000371709,-0.00156403,0.000109843,-0.000341646,0.000224369,0.627008,-0.548564,-0.0528592,-0.285863,0.658189,0.658789,0.377282,1
2.71281,-1.66357,1.76834,0.974708,1.49414,-1.35494,-2.81607,2.7128,-1.66357,1.76834,0.974708,1.49414,-1.35494,-2.81607,2.65011,-1.60871,1.77363,1.0033,1.42832,-1.42082,-2.8538,0,0,0,0,0,0,0,0,0,0,0,0,0,0,0.700002,6.25485e-05,0.554334,-0.382502,9.53392e-06,0.000120164,0.923954,0,0,0,0.703713,-0.00412445,0.525384,-0.000222654,-0.000489406,-0.000397166,3.23568e-05,-0.000218069,5.74759e-05,0.626998,-0.548565,-0.0528604,-0.285876,0.658195,0.658778,0.377291,1
2.7128,-1.66357,1.76835,0.974706,1.49414,-1.35495,-2.81607,2.71281,-1.66357,1.76834,0.974708,1.49414,-1.35494,-2.81607,2.65011,-1.60871,1.77363,1.0033,1.42832,-1.42082,-2.8538,0,0,0,0,0,0,0,0,0,0,0,0,0,0,0.700002,6.25485e-05,0.554334,-0.382502,9.53392e-06,0.000120164,0.923954,0,0,0,0.703708,-0.00411848,0.525396,-0.000515719,0.000600189,0.00113338,-5.02382e-05,-5.2979e-05,-3.83173e-05,0.626986,-0.548563,-0.0528266,-0.285902,0.658208,0.658762,0.377302,1
2.7128,-1.66357,1.76835,0.974703,1.49414,-1.35495,-2.81607,2.71281,-1.66357,1.76834,0.974708,1.49414,-1.35494,-2.81607,2.65011,-1.60871,1.77363,1.0033,1.42832,-1.42082,-2.8538,0,0,0,0,0,0,0,0,0,0,0,0,0,0,0.700002,6.25485e-05,0.554334,-0.382502,9.53392e-06,0.000120164,0.923954,0,0,0,0.703706,-0.00410802,0.525385,-0.00019795,0.000992576,-0.00102934,-5.61987e-05,0.000132072,-0.00011112,0.626976,-0.548559,-0.0527727,-0.285932,0.658222,0.658741,0.377317,1
2.7128,-1.66357,1.76836,0.974701,1.49414,-1.35495,-2.81607,2.7128,-1.66357,1.76835,0.974707,1.49414,-1.35494,-2.81607,2.65011,-1.60871,1.77363,1.0033,1.42832,-1.42082,-2.8538,0,0,0,0,0,0,0,0,0,0,0,0,0,0,0.700002,6.25485e-05,0.554334,-0.382502,9.53392e-06,0.000120164,0.923954,0,0,0,0.703715,-0.00410025,0.525387,0.000912768,0.000783144,0.000252212,-5.53472e-05,0.000243651,-0.000123893,0.626972,-0.548555,-0.052731,-0.285949,0.658235,0.658726,0.377324,1
2.7128,-1.66357,1.76837,0.974696,1.49414,-1.35495,-2.81606,2.7128,-1.66357,1.76835,0.974705,1.49414,-1.35495,-2.81607,2.65011,-1.60871,1.77363,1.0033,1.42832,-1.42082,-2.8538,0,0,0,0,0,0,0,0,0,0,0,0,0,0,0.700002,6.25485e-05,0.554334,-0.382502,9.53392e-06,0.000120164,0.923954,0,0,0,0.703721,-0.00409049,0.525391,0.000605065,0.000971366,0.000344056,6.98226e-05,0.000549939,-0.000151992,0.626955,-0.548546,-0.0526091,-0.285994,0.658262,0.65869,0.377341,1
2.7128,-1.66357,1.76837,0.974697,1.49414,-1.35495,-2.81607,2.7128,-1.66357,1.76835,0.974703,1.49414,-1.35495,-2.81607,2.65011,-1.60871,1.77363,1.0033,1.42832,-1.42082,-2.8538,0,0,0,0,0,0,0,0,0,0,0,0,0,0,0.700002,6.25485e-05,0.554334,-0.382502,9.53392e-06,0.000120164,0.923954,0,0,0,0.703717,-0.0040987,0.525372,-0.000404579,-0.000807692,-0.00182354,9.87734e-05,0.000531632,-0.000156675,0.626963,-0.548547,-0.052597,-0.285989,0.658269,0.658686,0.377335,1
2.7128,-1.66357,1.76837,0.974702,1.49414,-1.35495,-2.81607,2.7128,-1.66357,1.76836,0.974701,1.49414,-1.35495,-2.81607,2.65011,-1.60871,1.77363,1.0033,1.42832,-1.42082,-2.8538,0,0,0,0,0,0,0,0,0,0,0,0,0,0,0.700002,6.25485e-05,0.554334,-0.382502,9.53392e-06,0.000120164,0.923954,0,0,0,0.703721,-0.00411975,0.525395,0.000380797,-0.00213518,0.00232709,0.00019925,0.000254218,-3.06538e-05,0.626981,-0.548552,-0.0526485,-0.285943,0.658257,0.65871,0.377304,1
2.7128,-1.66357,1.76836,0.974703,1.49414,-1.35495,-2.81607,2.7128,-1.66357,1.76836,0.974699,1.49414,-1.35495,-2.81607,2.65011,-1.60871,1.77363,1.0033,1.42832,-1.42082,-2.8538,0,0,0,0,0,0,0,0,0,0,0,0,0,0,0.700002,6.25485e-05,0.554334,-0.382502,9.53392e-06,0.000120164,0.923954,0,0,0,0.703712,-0.00409923,0.525389,-0.0008277,0.00209611,-0.000590345,0.000160933,0.000128057,-4.68322e-05,0.626984,-0.548558,-0.0527038,-0.285929,0.658248,0.658721,0.377295,1
2.7128,-1.66357,1.76835,0.974706,1.49414,-1.35495,-2.81607,2.7128,-1.66357,1.76837,0.974699,1.49414,-1.35495,-2.81607,2.65011,-1.60871,1.77363,1.0033,1.42832,-1.42082,-2.8538,0,0,0,0,0,0,0,0,0,0,0,0,0,0,0.700002,6.25485e-05,0.554334,-0.382502,9.53392e-06,0.000120164,0.923954,0,0,0,0.703715,-0.00410895,0.525387,0.000280881,-0.00099582,-0.000201501,8.34465e-05,-0.000107115,5.87532e-05,0.626996,-0.548564,-0.0527847,-0.285895,0.658225,0.65875,0.377285,1
2.71281,-1.66357,1.76834,0.974708,1.49414,-1.35495,-2.81607,2.7128,-1.66357,1.76836,0.974701,1.49414,-1.35495,-2.81607,2.65011,-1.60871,1.77363,1.0033,1.42832,-1.42082,-2.8538,0,0,0,0,0,0,0,0,0,0,0,0,0,0,0.700002,6.25485e-05,0.554334,-0.382502,9.53392e-06,0.000120164,0.923954,0,0,0,0.703706,-0.00410927,0.525381,-0.000910016,-3.30186e-05,-0.000622964,-0.00014816,-0.000230366,-2.68221e-05,0.626997,-0.548573,-0.0528968,-0.285876,0.658206,0.658771,0.377282,1
2.71281,-1.66357,1.76834,0.974709,1.49413,-1.35494,-2.81607,2.7128,-1.66357,1.76836,0.974703,1.49414,-1.35495,-2.81607,2.65011,-1.60871,1.77363,1.0033,1.42832,-1.42082,-2.8538,0,0,0,0,0,0,0,0,0,0,0,0,0,0,0.700002,6.25485e-05,0.554334,-0.382502,9.53392e-06,0.000120164,0.923954,0,0,0,0.703717,-0.00411508,0.525407,0.00104691,-0.000551795,0.00241639,-0.000132833,-0.000300385,0.000208616,0.626998,-0.548568,-0.0529077,-0.285865,0.658189,0.658788,0.377286,1
2.71281,-1.66357,1.76834,0.974709,1.49413,-1.35494,-2.81607,2.7128,-1.66357,1.76835,0.974706,1.49414,-1.35495,-2.81607,2.65011,-1.60871,1.77363,1.0033,1.42832,-1.42082,-2.8538,0,0,0,0,0,0,0,0,0,0,0,0,0,0,0.700002,6.25485e-05,0.554334,-0.382502,9.53392e-06,0.000120164,0.923954,0,0,0,0.703715,-0.00412377,0.525392,-0.000249772,-0.000933943,-0.0016011,-6.47136e-05,-0.000271131,0.000264815,0.626998,-0.548565,-0.0528962,-0.285866,0.658184,0.65879,0.377294,1
2.7128,-1.66357,1.76835,0.974704,1.49414,-1.35495,-2.81607,2.7128,-1.66357,1.76834,0.974707,1.49414,-1.35495,-2.81607,2.65011,-1.60871,1.77363,1.0033,1.42832,-1.42082,-2.8538,0,0,0,0,0,0,0,0,0,0,0,0,0,0,0.700002,6.25485e-05,0.554334,-0.382502,9.53392e-06,0.000120164,0.923954,0,0,0,0.703703,-0.0040975,0.525378,-0.00109204,0.00248101,-0.00128905,-0.000157527,4.11811e-05,-9.45159e-05,0.626978,-0.548563,-0.0528326,-0.285921,0.658209,0.658754,0.377316,1
2.71281,-1.66357,1.76834,0.97471,1.49413,-1.35494,-2.81607,2.7128,-1.66357,1.76834,0.974708,1.49414,-1.35494,-2.81607,2.65011,-1.60871,1.77363,1.0033,1.42832,-1.42082,-2.8538,0,0,0,0,0,0,0,0,0,0,0,0,0,0,0.700002,6.25485e-05,0.554334,-0.382502,9.53392e-06,0.000120164,0.923954,0,0,0,0.703714,-0.00413621,0.525399,0.00107024,-0.00388334,0.00204481,-3.57628e-05,-0.000366366,7.10998e-05,0.627012,-0.548566,-0.0528948,-0.285857,0.658186,0.658795,0.377285,1
2.7128,-1.66357,1.76835,0.974704,1.49414,-1.35495,-2.81607,2.7128,-1.66357,1.76834,0.974708,1.49414,-1.35494,-2.81607,2.65011,-1.60871,1.77363,1.0033,1.42832,-1.42082,-2.8538,0,0,0,0,0,0,0,0,0,0,0,0,0,0,0.700002,6.25485e-05,0.554334,-0.382502,9.53392e-06,0.000120164,0.923954,0,0,0,0.703722,-0.00409581,0.525389,0.000775602,0.00404408,-0.000912823,7.83375e-05,1.10295e-05,4.3852e-05,0.626982,-0.548559,-0.0527829,-0.285916,0.658215,0.658751,0.377305,1
2.7128,-1.66357,1.76836,0.974703,1.49414,-1.35495,-2.81607,2.7128,-1.66357,1.76834,0.974707,1.49414,-1.35494,-2.81607,2.65011,-1.60871,1.77363,1.0033,1.42832,-1.42082,-2.8538,0,0,0,0,0,0,0,0,0,0,0,0,0,0,0.700002,6.25485e-05,0.554334,-0.382502,9.53392e-06,0.000120164,0.923954,0,0,0,0.703712,-0.00410852,0.525389,-0.000998394,-0.00125935,-4.13536e-05,8.9407e-05,0.000101221,-1.61784e-05,0.626983,-0.548554,-0.0527347,-0.285927,0.658223,0.658743,0.377316,1
2.7128,-1.66357,1.76835,0.974704,1.49414,-1.35495,-2.81607,2.7128,-1.66357,1.76835,0.974706,1.49414,-1.35495,-2.81607,2.65011,-1.60871,1.77363,1.0033,1.42832,-1.42082,-2.8538,0,0,0,0,0,0,0,0,0,0,0,0,0,0,0.700002,6.25485e-05,0.554334,-0.382502,9.53392e-06,0.000120164,0.923954,0,0,0,0.703716,-0.00412059,0.525382,0.000432951,-0.00121819,-0.000703545,2.89508e-05,5.5906e-05,-0.000243953,0.626987,-0.548562,-0.0527702,-0.285921,0.658229,0.65874,0.377301,1
2.7128,-1.66357,1.76836,0.974701,1.49414,-1.35495,-2.81607,2.7128,-1.66357,1.76835,0.974705,1.49414,-1.35495,-2.81607,2.65011,-1.60871,1.77363,1.0033,1.42832,-1.42082,-2.8538,0,0,0,0,0,0,0,0,0,0,0,0,0,0,0.700002,6.25485e-05,0.554334,-0.382502,9.53392e-06,0.000120164,0.923954,0,0,0,0.703717,-0.00409551,0.525381,7.02091e-05,0.00246221,-0.000128717,0.000101328,0.000236779,-0.000124744,0.626974,-0.548555,-0.0526906,-0.285952,0.658243,0.658718,0.377314,1
2.7128,-1.66357,1.76836,0.974702,1.49414,-1.35495,-2.81607,2.7128,-1.66357,1.76835,0.974704,1.49414,-1.35495,-2.81607,2.65011,-1.60871,1.77363,1.0033,1.42832,-1.42082,-2.8538,0,0,0,0,0,0,0,0,0,0,0,0,0,0,0.700002,6.25485e-05,0.554334,-0.382502,9.53392e-06,0.000120164,0.923954,0,0,0,0.703717,-0.00409745,0.525388,3.5418e-05,-0.000192309,0.000684749,0.000143903,0.000202772,-5.23669e-05,0.62698,-0.548552,-0.0526832,-0.285943,0.658243,0.658722,0.377315,1
2.7128,-1.66357,1.76836,0.974701,1.49414,-1.35495,-2.81607,2.7128,-1.66357,1.76836,0.974703,1.49414,-1.35495,-2.81607,2.65011,-1.60871,1.77363,1.0033,1.42832,-1.42082,-2.8538,0,0,0,0,0,0,0,0,0,0,0,0,0,0,0.700002,6.25485e-05,0.554334,-0.382502,9.53392e-06,0.000120164,0.923954,0,0,0,0.703704,-0.00410862,0.525387,-0.0013413,-0.0011218,-6.58673e-05,-0.000126873,0.00033043,-0.000166042,0.626965,-0.548559,-0.0527338,-0.285951,0.658247,0.658713,0.377319,1
2.7128,-1.66357,1.76835,0.974706,1.49414,-1.35495,-2.81607,2.7128,-1.66357,1.76836,0.974702,1.49414,-1.35495,-2.81607,2.65011,-1.60871,1.77363,1.0033,1.42832,-1.42082,-2.8538,0,0,0,0,0,0,0,0,0,0,0,0,0,0,0.700002,6.25485e-05,0.554334,-0.382502,9.53392e-06,0.000120164,0.923954,0,0,0,0.703718,-0.00411092,0.525397,0.00145818,-0.000243524,0.00104787,-9.96249e-05,-7.99008e-05,8.55752e-05,0.626994,-0.548564,-0.0528148,-0.285897,0.658219,0.658755,0.377294,1
2.7128,-1.66357,1.76835,0.974705,1.49414,-1.35495,-2.81607,2.7128,-1.66357,1.76836,0.974702,1.49414,-1.35495,-2.81607,2.65011,-1.60871,1.77363,1.0033,1.42832,-1.42082,-2.8538,0,0,0,0,0,0,0,0,0,0,0,0,0,0,0.700002,6.25485e-05,0.554334,-0.382502,9.53392e-06,0.000120164,0.923954,0,0,0,0.703715,-0.00410701,0.525391,-0.000250035,0.000390401,-0.000595323,-1.70299e-06,3.84736e-05,0.000149437,0.626981,-0.54856,-0.0527864,-0.285913,0.65822,0.658746,0.377303,1
2.7128,-1.66357,1.76835,0.974701,1.49414,-1.35495,-2.81607,2.7128,-1.66357,1.76836,0.974703,1.49414,-1.35495,-2.81607,2.65011,-1.60871,1.77363,1.0033,1.42832,-1.42082,-2.8538,0,0,0,0,0,0,0,0,0,0,0,0,0,0,0.700002,6.25485e-05,0.554334,-0.382502,9.53392e-06,0.000120164,0.923954,0,0,0,0.703705,-0.00408754,0.525372,-0.000979728,0.00190506,-0.00187198,-0.000129427,0.000223937,-3.83173e-06,0.62697,-0.548558,-0.0527569,-0.285945,0.65823,0.65873,0.377325,1
2.7128,-1.66357,1.76834,0.974706,1.49414,-1.35495,-2.81607,2.7128,-1.66357,1.76835,0.974704,1.49414,-1.35495,-2.81607,2.65011,-1.60871,1.77363,1.0033,1.42832,-1.42082,-2.8538,0,0,0,0,0,0,0,0,0,0,0,0,0,0,0.700002,6.25485e-05,0.554334,-0.382502,9.53392e-06,0.000120164,0.923954,0,0,0,0.7037,-0.00411071,0.525385,-0.000485867,-0.00224858,0.00128986,-0.000225646,-8.62937e-05,-5.27927e-05,0.626992,-0.548567,-0.0528614,-0.285897,0.658211,0.658761,0.377301,1
2.71281,-1.66357,1.76834,0.974708,1.49414,-1.35494,-2.81607,2.7128,-1.66357,1.76835,0.974704,1.49414,-1.35495,-2.81607,2.65011,-1.60871,1.77363,1.0033,1.42832,-1.42082,-2.8538,0,0,0,0,0,0,0,0,0,0,0,0,0,0,0.700002,6.25485e-05,0.554334,-0.382502,9.53392e-06,0.000120164,0.923954,0,0,0,0.703714,-0.00412667,0.525389,0.00143926,-0.00164032,0.000422593,-0.000103882,-0.000244522,-8.64267e-05,0.627,-0.548571,-0.0528974,-0.285876,0.6582,0.658776,0.377282,1
2.71281,-1.66357,1.76834,0.974709,1.49413,-1.35494,-2.81607,2.7128,-1.66357,1.76835,0.974705,1.49414,-1.35495,-2.81607,2.65011,-1.60871,1.77363,1.0033,1.42832,-1.42082,-2.8538,0,0,0,0,0,0,0,0,0,0,0,0,0,0,0.700002,6.25485e-05,0.554334,-0.382502,9.53392e-06,0.000120164,0.923954,0,0,0,0.703713,-0.00412433,0.525387,-0.000146553,0.000239628,-0.000250362,1.78814e-05,-0.000294132,-7.7486e-05,0.627004,-0.548568,-0.0528877,-0.285872,0.658193,0.658783,0.377284,1
2.7128,-1.66357,1.76834,0.974708,1.49414,-1.35494,-2.81607,2.7128,-1.66357,1.76835,0.974706,1.49414,-1.35495,-2.81607,2.65011,-1.60871,1.77363,1.0033,1.42832,-1.42082,-2.8538,0,0,0,0,0,0,0,0,0,0,0,0,0,0,0.700002,6.25485e-05,0.554334,-0.382502,9.53392e-06,0.000120164,0.923954,0,0,0,0.703709,-0.00410575,0.525391,-0.000370476,0.0017769,0.00045027,-8.00405e-05,-0.000208171,-2.63963e-05,0.626995,-0.548566,-0.0528835,-0.285883,0.658195,0.658778,0.377297,1
2.71281,-1.66357,1.76835,0.974707,1.49414,-1.35494,-2.81607,2.7128,-1.66357,1.76834,0.974707,1.49414,-1.35495,-2.81607,2.65011,-1.60871,1.77363,1.0033,1.42832,-1.42082,-2.8538,0,0,0,0,0,0,0,0,0,0,0,0,0,0,0.700002,6.25485e-05,0.554334,-0.382502,9.53392e-06,0.000120164,0.923954,0,0,0,0.703721,-0.00410873,0.525388,0.00123552,-0.000308881,-0.000407722,0.000130279,-0.000197224,0.000109843,0.627,-0.54856,-0.0528084,-0.28589,0.658201,0.658773,0.377295,1
2.7128,-1.66357,1.76836,0.974704,1.49414,-1.35495,-2.81607,2.71281,-1.66357,1.76834,0.974708,1.49414,-1.35494,-2.81607,2.65011,-1.60871,1.77363,1.0033,1.42832,-1.42082,-2.8538,0,0,0,0,0,0,0,0,0,0,0,0,0,0,0.700002,6.25485e-05,0.554334,-0.382502,9.53392e-06,0.000120164,0.923954,0,0,0,0.703726,-0.00409277,0.525393,0.000536192,0.0015781,0.000589222,0.00035337,3.28025e-05,0.000258854,0.626989,-0.548548,-0.0526831,-0.28592,0.658222,0.658745,0.377309,1
2.7128,-1.66357,1.76836,0.974702,1.49414,-1.35495,-2.81607,2.71281,-1.66357,1.76835,0.974707,1.49414,-1.35494,-2.81607,2.65011,-1.60871,1.77363,1.0033,1.42832,-1.42082,-2.8538,0,0,0,0,0,0,0,0,0,0,0,0,0,0,0.700002,6.25485e-05,0.554334,-0.382502,9.53392e-06,0.000120164,0.923954,0,0,0,0.703705,-0.00411518,0.525386,-0.00216067,-0.00226931,-0.000766496,0.00016519,0.000250007,4.25747e-05,0.626975,-0.548551,-0.0526792,-0.285939,0.65824,0.658723,0.377316,1
2.7128,-1.66357,1.76836,0.974703,1.49414,-1.35495,-2.81607,2.7128,-1.66357,1.76835,0.974706,1.49414,-1.35495,-2.81607,2.65011,-1.60871,1.77363,1.0033,1.42832,-1.42082,-2.8538,0,0,0,0,0,0,0,0,0,0,0,0,0,0,0.700002,6.25485e-05,0.554334,-0.382502,9.53392e-06,0.000120164,0.923954,0,0,0,0.703719,-0.00412048,0.525392,0.00144144,-0.000519385,0.000630265,6.30106e-05,0.000178069,3.44855e-05,0.62698,-0.548556,-0.0527057,-0.285931,0.65824,0.658727,0.377305,1
2.7128,-1.66357,1.76835,0.974706,1.49414,-1.35495,-2.81607,2.7128,-1.66357,1.76836,0.974705,1.49414,-1.35495,-2.81607,2.65011,-1.60871,1.77363,1.0033,1.42832,-1.42082,-2.8538,0,0,0,0,0,0,0,0,0,0,0,0,0,0,0.700002,6.25485e-05,0.554334,-0.382502,9.53392e-06,0.000120164,0.923954,0,0,0,0.703715,-0.00412061,0.525391,-0.000438584,-1.28371e-05,-0.00017914,4.76837e-05,-8.83393e-05,4.2149e-05,0.626995,-0.548563,-0.0527922,-0.285894,0.658222,0.658752,0.377287,1
2.71281,-1.66357,1.76834,0.974708,1.49414,-1.35495,-2.81607,2.7128,-1.66357,1.76836,0.974704,1.49414,-1.35495,-2.81607,2.65011,-1.60871,1.77363,1.0033,1.42832,-1.42082,-2.8538,0,0,0,0,0,0,0,0,0,0,0,0,0,0,0.700002,6.25485e-05,0.554334,-0.382502,9.53392e-06,0.000120164,0.923954,0,0,0,0.703714,-0.00411155,0.525387,-0.000103995,0.000877636,-0.000346649,-5.96046e-06,-0.000245986,-2.89508e-05,0.627001,-0.548569,-0.0528601,-0.285878,0.658208,0.658769,0.377278,1
2.7128,-1.66357,1.76834,0.974706,1.49414,-1.35495,-2.81607,2.7128,-1.66357,1.76836,0.974704,1.49414,-1.35495,-2.81607,2.65011,-1.60871,1.77363,1.0033,1.42832,-1.42082,-2.8538,0,0,0,0,0,0,0,0,0,0,0,0,0,0,0.700002,6.25485e-05,0.554334,-0.382502,9.53392e-06,0.000120164,0.923954,0,0,0,0.703702,-0.00410157,0.525385,-0.00127106,0.00100902,-0.000162647,-0.000251191,-7.68308e-05,-5.10897e-05,0.626983,-0.54857,-0.0528875,-0.285899,0.658205,0.658763,0.377302,1
2.7128,-1.66357,1.76835,0.974704,1.49414,-1.35495,-2.81607,2.7128,-1.66357,1.76835,0.974705,1.49414,-1.35495,-2.81607,2.65011,-1.60871,1.77363,1.0033,1.42832,-1.42082,-2.8538,0,0,0,0,0,0,0,0,0,0,0,0,0,0,0.700002,6.25485e-05,0.554334,-0.382502,9.53392e-06,0.000120164,0.923954,0,0,0,0.703718,-0.00410024,0.525395,0.00168592,0.000134498,0.000984965,-0.000126021,4.90075e-05,-3.83173e-06,0.626979,-0.548559,-0.0528045,-0.285924,0.658213,0.658752,0.377316,1
2.7128,-1.66357,1.76836,0.974702,1.49414,-1.35495,-2.81607,2.7128,-1.66357,1.76835,0.974706,1.49414,-1.35495,-2.81607,2.65011,-1.60871,1.77363,1.0033,1.42832,-1.42082,-2.8538,0,0,0,0,0,0,0,0,0,0,0,0,0,0,0.700002,6.25485e-05,0.554334,-0.382502,9.53392e-06,0.000120164,0.923954,0,0,0,0.703712,-0.0041159,0.525393,-0.000616126,-0.00151247,-0.000241844,1.87329e-05,0.000204851,7.28028e-05,0.626974,-0.548552,-0.0527346,-0.285936,0.658224,0.658736,0.377325,1
2.7128,-1.66357,1.76836,0.974702,1.49414,-1.35495,-2.81607,2.7128,-1.66357,1.76835,0.974706,1.49414,-1.35495,-2.81607,2.65011,-1.60871,1.77363,1.0033,1.42832,-1.42082,-2.8538,0,0,0,0,0,0,0,0,0,0,0,0,0,0,0.700002,6.25485e-05,0.554334,-0.382502,9.53392e-06,0.000120164,0.923954,0,0,0,0.703713,-0.00410255,0.525395,0.000131534,0.00133921,0.000203279,-7.83375e-05,0.000266199,6.81196e-05,0.62697,-0.548554,-0.0527305,-0.285942,0.658234,0.658727,0.377325,1
2.7128,-1.66357,1.76836,0.9747,1.49414,-1.35495,-2.81607,2.7128,-1.66357,1.76835,0.974704,1.49414,-1.35495,-2.81607,2.65011,-1.60871,1.77363,1.0033,1.42832,-1.42082,-2.8538,0,0,0,0,0,0,0,0,0,0,0,0,0,0,0.700002,6.25485e-05,0.554334,-0.382502,9.53392e-06,0.000120164,0.923954,0,0,0,0.703713,-0.00408953,0.525382,-4.87289e-05,0.00133043,-0.00129132,1.70299e-06,0.000346136,-1.19209e-05,0.626967,-0.548552,-0.0526745,-0.285964,0.658248,0.658711,0.377326,1
2.7128,-1.66357,1.76836,0.974705,1.49414,-1.35495,-2.81607,2.7128,-1.66357,1.76835,0.974703,1.49414,-1.35495,-2.81607,2.65011,-1.60871,1.77363,1.0033,1.42832,-1.42082,-2.8538,0,0,0,0,0,0,0,0,0,0,0,0,0,0,0.700002,6.25485e-05,0.554334,-0.382502,9.53392e-06,0.000120164,0.923954,0,0,0,0.703719,-0.00411758,0.525391,0.000641061,-0.00271778,0.000912501,0.000115803,1.32215e-05,2.08616e-05,0.626994,-0.548557,-0.0527403,-0.285911,0.65823,0.658742,0.377298,1
2.7128,-1.66357,1.76836,0.974703,1.49414,-1.35495,-2.81607,2.7128,-1.66357,1.76836,0.974702,1.49414,-1.35495,-2.81607,2.65011,-1.60871,1.77363,1.0033,1.42832,-1.42082,-2.8538,0,0,0,0,0,0,0,0,0,0,0,0,0,0,0.700002,6.25485e-05,0.554334,-0.382502,9.53392e-06,0.000120164,0.923954,0,0,0,0.703723,-0.00409394,0.525391,0.000364248,0.0024484,-8.0258e-05,0.000238419,5.21075e-05,-8.51495e-06,0.626987,-0.548557,-0.0527067,-0.285925,0.658238,0.658731,0.377295,1
2.71281,-1.66357,1.76835,0.974707,1.49414,-1.35495,-2.81607,2.7128,-1.66357,1.76836,0.974702,1.49414,-1.35495,-2.81607,2.65011,-1.60871,1.77363,1.0033,1.42832,-1.42082,-2.8538,0,0,0,0,0,0,0,0,0,0,0,0,0,0,0.700002,6.25485e-05,0.554334,-0.382502,9.53392e-06,0.000120164,0.923954,0,0,0,0.703715,-0.00412072,0.525391,-0.000746022,-0.0026812,4.17772e-05,6.98226e-05,-0.000116192,-6.93968e-05,0.626998,-0.548564,-0.0528032,-0.285891,0.658219,0.658756,0.377288,1
2.7128,-1.66357,1.76836,0.974703,1.49414,-1.35495,-2.81607,2.7128,-1.66357,1.76836,0.974703,1.49414,-1.35495,-2.81607,2.65011,-1.60871,1.77363,1.0033,1.42832,-1.42082,-2.8538,0,0,0,0,0,0,0,0,0,0,0,0,0,0,0.700002,6.25485e-05,0.554334,-0.382502,9.53392e-06,0.000120164,0.923954,0,0,0,0.703728,-0.00409754,0.525396,0.00126204,0.00233727,0.000474769,0.000223943,5.12128e-05,3.83173e-05,0.626984,-0.548556,-0.0527083,-0.285927,0.658233,0.658736,0.377298,1
2.71281,-1.66357,1.76835,0.974707,1.49414,-1.35495,-2.81607,2.7128,-1.66357,1.76836,0.974704,1.49414,-1.35495,-2.81607,2.65011,-1.60871,1.77363,1.0033,1.42832,-1.42082,-2.8538,0,0,0,0,0,0,0,0,0,0,0,0,0,0,0.700002,6.25485e-05,0.554334,-0.382502,9.53392e-06,0.000120164,0.923954,0,0,0,0.703717,-0.00410571,0.525395,-0.00108208,-0.000806184,-9.99747e-05,0.000135388,-0.000102253,9.87734e-05,0.626997,-0.548558,-0.0527738,-0.285894,0.658218,0.658757,0.377296,1
2.7128,-1.66357,1.76835,0.974703,1.49414,-1.35495,-2.81607,2.7128,-1.66357,1.76836,0.974705,1.49414,-1.35495,-2.81607,2.65011,-1.60871,1.77363,1.0033,1.42832,-1.42082,-2.8538,0,0,0,0,0,0,0,0,0,0,0,0,0,0,0.700002,6.25485e-05,0.554334,-0.382502,9.53392e-06,0.000120164,0.923954,0,0,0,0.703711,-0.00408769,0.525389,-0.000552705,0.00179634,-0.000558648,-1.27724e-05,9.16421e-05,0.000119209,0.626978,-0.548559,-0.0527583,-0.285924,0.658229,0.658737,0.377306,1
2.7128,-1.66357,1.76836,0.9747,1.49414,-1.35495,-2.81607,2.7128,-1.66357,1.76835,0.974705,1.49414,-1.35495,-2.81607,2.65011,-1.60871,1.77363,1.0033,1.42832,-1.42082,-2.8538,0,0,0,0,0,0,0,0,0,0,0,0,0,0,0.700002,6.25485e-05,0.554334,-0.382502,9.53392e-06,0.000120164,0.923954,0,0,0,0.703706,-0.00409259,0.525384,-0.000508057,-0.000485442,-0.000478519,-0.000217131,0.000365977,-7.40801e-05,0.626959,-0.548557,-0.0527375,-0.285961,0.65824,0.658716,0.377333,1
2.7128,-1.66357,1.76835,0.974701,1.49414,-1.35495,-2.81607,2.7128,-1.66357,1.76835,0.974704,1.49414,-1.35495,-2.81607,2.65011,-1.60871,1.77363,1.0033,1.42832,-1.42082,-2.8538,0,0,0,0,0,0,0,0,0,0,0,0,0,0,0.700002,6.25485e-05,0.554334,-0.382502,9.53392e-06,0.000120164,0.923954,0,0,0,0.703715,-0.00409327,0.525391,0.000849144,-6.92772e-05,0.000624727,-0.000212874,0.000243258,-7.40801e-05,0.626971,-0.548558,-0.0527552,-0.285948,0.658236,0.658726,0.377325,1
2.7128,-1.66357,1.76835,0.974702,1.49414,-1.35495,-2.81607,2.7128,-1.66357,1.76835,0.974703,1.49414,-1.35495,-2.81607,2.65011,-1.60871,1.77363,1.0033,1.42832,-1.42082,-2.8538,0,0,0,0,0,0,0,0,0,0,0,0,0,0,0.700002,6.25485e-05,0.554334,-0.382502,9.53392e-06,0.000120164,0.923954,0,0,0,0.70371,-0.0041077,0.525389,-0.000431204,-0.00143044,-0.000141766,-0.000187329,0.000216759,-9.74962e-05,0.626972,-0.54856,-0.0527776,-0.285938,0.658233,0.658729,0.377318,1
2.71281,-1.66357,1.76834,0.974709,1.49414,-1.35494,-2.81607,2.7128,-1.66357,1.76835,0.974702,1.49414,-1.35495,-2.81607,2.65011,-1.60871,1.77363,1.0033,1.42832,-1.42082,-2.8538,0,0,0,0,0,0,0,0,0,0,0,0,0,0,0.700002,6.25485e-05,0.554334,-0.382502,9.53392e-06,0.000120164,0.923954,0,0,0,0.703711,-0.0041217,0.525391,0.00011626,-0.0013646,0.000145325,-0.000212874,-0.000293044,-9.19615e-05,0.627006,-0.548573,-0.0529257,-0.285867,0.658198,0.658781,0.377283,1
2.7128,-1.66357,1.76834,0.974705,1.49414,-1.35495,-2.81607,2.7128,-1.66357,1.76835,0.974702,1.49414,-1.35495,-2.81607,2.65011,-1.60871,1.77363,1.0033,1.42832,-1.42082,-2.8538,0,0,0,0,0,0,0,0,0,0,0,0,0,0,0.700002,6.25485e-05,0.554334,-0.382502,9.53392e-06,0.000120164,0.923954,0,0,0,0.703708,-0.00408955,0.525373,-0.000329899,0.00329441,-0.00180223,-7.9189e-05,-0.000123809,-0.000206488,0.626989,-0.54857,-0.0528602,-0.285908,0.65821,0.658759,0.377294,1
2.71281,-1.66357,1.76835,0.974706,1.49414,-1.35495,-2.81607,2.7128,-1.66357,1.76835,0.974704,1.49414,-1.35495,-2.81607,2.65011,-1.60871,1.77363,1.0033,1.42832,-1.42082,-2.8538,0,0,0,0,0,0,0,0,0,0,0,0,0,0,0.700002,6.25485e-05,0.554334,-0.382502,9.53392e-06,0.000120164,0.923954,0,0,0,0.703711,-0.00409797,0.525383,0.000329254,-0.000845584,0.00101171,4.25747e-06,-0.000190006,-0.000147309,0.627,-0.548564,-0.0528447,-0.285895,0.658202,0.658771,0.377301,1
2.71281,-1.66357,1.76834,0.97471,1.49414,-1.35494,-2.81607,2.7128,-1.66357,1.76835,0.974705,1.49414,-1.35495,-2.81607,2.65011,-1.60871,1.77363,1.0033,1.42832,-1.42082,-2.8538,0,0,0,0,0,0,0,0,0,0,0,0,0,0,0.700002,6.25485e-05,0.554334,-0.382502,9.53392e-06,0.000120164,0.923954,0,0,0,0.703721,-0.00412927,0.525391,0.000940602,-0.00306768,0.000782861,0.00013113,-0.000361799,-3.95945e-05,0.627013,-0.548566,-0.0528697,-0.285862,0.658194,0.658787,0.377277,1
2.71281,-1.66357,1.76834,0.974708,1.49414,-1.35494,-2.81607,2.7128,-1.66357,1.76834,0.974706,1.49414,-1.35495,-2.81607,2.65011,-1.60871,1.77363,1.0033,1.42832,-1.42082,-2.8538,0,0,0,0,0,0,0,0,0,0,0,0,0,0,0.700002,6.25485e-05,0.554334,-0.382502,9.53392e-06,0.000120164,0.923954,0,0,0,0.703716,-0.00411206,0.525386,-0.00050086,0.00180779,-0.000525903,9.70704e-05,-0.000270652,-6.17334e-05,0.627003,-0.548567,-0.0528584,-0.285876,0.658199,0.658777,0.377283,1
2.71281,-1.66357,1.76835,0.974707,1.49414,-1.35494,-2.81607,2.71281,-1.66357,1.76834,0.974707,1.49414,-1.35494,-2.81607,2.65011,-1.60871,1.77363,1.0033,1.42832,-1.42082,-2.8538,0,0,0,0,0,0,0,0,0,0,0,0,0,0,0.700002,6.25485e-05,0.554334,-0.382502,9.53392e-06,0.000120164,0.923954,0,0,0,0.703715,-0.00411858,0.525389,-0.000131918,-0.000655562,0.000287821,0.000132833,-0.000189504,3.02281e-05,0.626999,-0.548562,-0.0528154,-0.285887,0.658203,0.658771,0.377291,1
2.71281,-1.66357,1.76835,0.974708,1.49414,-1.35494,-2.81607,2.71281,-1.66357,1.76834,0.974708,1.49414,-1.35494,-2.81607,2.65011,-1.60871,1.77363,1.0033,1.42832,-1.42082,-2.8538,0,0,0,0,0,0,0,0,0,0,0,0,0,0,0.700002,6.25485e-05,0.554334,-0.382502,9.53392e-06,0.000120164,0.923954,0,0,0,0.703719,-0.00411898,0.525398,0.000417817,-4.08025e-05,0.000889354,0.000149012,-0.000228547,0.00020223,0.627002,-0.54856,-0.0528159,-0.285875,0.6582,0.658776,0.377289,1
2.7128,-1.66357,1.76835,0.974706,1.49414,-1.35495,-2.81607,2.71281,-1.66357,1.76835,0.974708,1.49414,-1.35494,-2.81607,2.65011,-1.60871,1.77363,1.0033,1.42832,-1.42082,-2.8538,0,0,0,0,0,0,0,0,0,0,0,0,0,0,0.700002,6.25485e-05,0.554334,-0.382502,9.53392e-06,0.000120164,0.923954,0,0,0,0.703703,-0.00408623,0.525377,-0.00160022,0.00323279,-0.00205322,-2.38419e-05,-7.6272e-05,0.000140497,0.626988,-0.548563,-0.0528139,-0.285901,0.658211,0.658759,0.377301,1
2.7128,-1.66357,1.76835,0.974704,1.49414,-1.35495,-2.81607,2.71281,-1.66357,1.76835,0.974708,1.49414,-1.35494,-2.81607,2.65011,-1.60871,1.77363,1.0033,1.42832,-1.42082,-2.8538,0,0,0,0,0,0,0,0,0,0,0,0,0,0,0.700002,6.25485e-05,0.554334,-0.382502,9.53392e-06,0.000120164,0.923954,0,0,0,0.703708,-0.0041174,0.525392,0.000448755,-0.00300896,0.00142106,-0.000161784,7.45025e-05,3.40598e-05,0.626978,-0.548562,-0.0528111,-0.285916,0.658215,0.65875,0.377311,1
2.7128,-1.66357,1.76835,0.974701,1.49414,-1.35495,-2.81607,2.7128,-1.66357,1.76835,0.974707,1.49414,-1.35495,-2.81607,2.65011,-1.60871,1.77363,1.0033,1.42832,-1.42082,-2.8538,0,0,0,0,0,0,0,0,0,0,0,0,0,0,0.700002,6.25485e-05,0.554334,-0.382502,9.53392e-06,0.000120164,0.923954,0,0,0,0.703709,-0.00411118,0.525375,0.000130156,0.000618288,-0.00163878,-0.000235013,0.000271228,-0.00017115,0.626966,-0.548561,-0.0527814,-0.285949,0.65823,0.658729,0.377326,1
2.7128,-1.66357,1.76835,0.974706,1.49414,-1.35495,-2.81607,2.7128,-1.66357,1.76835,0.974706,1.49414,-1.35495,-2.81607,2.65011,-1.60871,1.77363,1.0033,1.42832,-1.42082,-2.8538,0,0,0,0,0,0,0,0,0,0,0,0,0,0,0.700002,6.25485e-05,0.554334,-0.382502,9.53392e-06,0.000120164,0.923954,0,0,0,0.703714,-0.00412506,0.52539,0.000541979,-0.00141894,0.00155895,-0.000105585,-8.08188e-05,-7.28028e-05,0.626995,-0.548563,-0.0528319,-0.285899,0.658211,0.658761,0.3773,1
