Afshin1997/kuka_rl_ros2/src/catch_and_throw/output_files/tm/nn_ema7.00_jvws1_realball_D23H17M38S39/recorded_data.csv
pure_target_joint_0,pure_target_joint_1,pure_target_joint_2,pure_target_joint_3,pure_target_joint_4,pure_target_joint_5,pure_target_joint_6,target_joint_0,target_joint_1,target_joint_2,target_joint_3,target_joint_4,target_joint_5,target_joint_6,pos_joint_0,pos_joint_1,pos_joint_2,pos_joint_3,pos_joint_4,pos_joint_5,pos_joint_6,vel_joint_0,vel_joint_1,vel_joint_2,vel_joint_3,vel_joint_4,vel_joint_5,vel_joint_6,vel_smooth_joint_0,vel_smooth_joint_1,vel_smooth_joint_2,vel_smooth_joint_3,vel_smooth_joint_4,vel_smooth_joint_5,vel_smooth_joint_6,ee_pos_x,ee_pos_y,ee_pos_z,ee_or_w,ee_or_x,ee_or_y,ee_or_z,ee_vel_x,ee_vel_y,ee_vel_z,ball_pos_x,ball_pos_y,ball_pos_z,ball_raw_vx,ball_raw_vy,ball_raw_vz,ball_ema_vx,ball_ema_vy,ball_ema_vz,action_0,action_1,action_2,action_3,action_4,action_5,action_6,command_published
1.81225,-1.06258,-1.81232,-1.05978,1.95245,1.18428,-0.85403,1.78824,-1.06412,-1.8145,-1.10265,1.94107,1.13373,-0.900755,1.78024,-1.06464,-1.81523,-1.11694,1.93728,1.11687,-0.91633,0,0,0,0,0,0,0,0,0,0,0,0,0,0,0.531043,-0.45448,0.694283,0.574598,0.17519,0.152611,0.784765,0,0,0,2.99144,-0.494954,0.552813,-2.69103,-0.0445992,5.12732,-2.67087,-0.096614,5.17949,0.320121,0.0205233,0.0291049,0.571607,0.151749,0.674098,0.622997,1
1.82017,-1.06384,-1.81002,-1.05786,1.9495,1.18518,-0.853762,1.80623,-1.06341,-1.81247,-1.07359,1.94792,1.16765,-0.869538,1.78024,-1.06464,-1.81523,-1.11694,1.93728,1.11687,-0.91633,-4.82655e-07,-1.37302e-06,7.61974e-07,5.38867e-08,-9.52158e-07,3.69134e-07,-6.80531e-07,-4.82655e-07,-1.37302e-06,7.61974e-07,5.38867e-08,-9.52158e-07,3.69134e-07,-6.80531e-07,0.531043,-0.45448,0.694283,0.574598,0.17519,0.152611,0.784765,-1.83011e-07,-4.26924e-07,-4.76871e-07,2.96526,-0.495355,0.602569,-2.61853,-0.0400692,4.97556,-2.66721,-0.0787948,5.08234,0.399246,0.00794886,0.0520892,0.590849,0.122245,0.683099,0.625681,1
1.7824,-1.02767,-1.80554,-1.05093,1.95339,1.18562,-0.849725,1.80875,-1.05448,-1.80947,-1.05661,1.95121,1.18507,-0.85282,1.78223,-1.06451,-1.81505,-1.11339,1.93822,1.12106,-0.912459,0.184714,0.0118411,0.0167953,0.329828,0.0875609,0.388968,0.35948,0.184714,0.0118411,0.0167953,0.329828,0.0875609,0.388968,0.35948,0.530832,-0.454508,0.695002,0.574105,0.173908,0.151665,0.785593,-0.0162747,-0.00918571,0.130733,2.93816,-0.495694,0.651383,-2.70925,-0.0338703,4.88139,-2.67724,-0.0633287,4.9745,0.00169896,0.368418,0.0950872,0.624588,0.151723,0.645643,0.627348,1
1.77536,-0.997691,-1.76553,-1.05088,1.9865,1.19131,-0.84797,1.79008,-1.02922,-1.79666,-1.05265,1.9607,1.18694,-0.850295,1.78612,-1.06432,-1.81464,-1.10685,1.93984,1.12872,-0.905395,0.617638,0.02785,0.0666674,1.02162,0.248179,1.19569,1.10129,0.617638,0.02785,0.0666674,1.02162,0.248179,1.19569,1.10129,0.530022,-0.454489,0.698071,0.571885,0.168337,0.147671,0.789179,-0.0243801,0.00216005,0.347379,2.91247,-0.496496,0.699528,-2.56958,-0.0802308,4.81452,-2.67051,-0.0548584,4.86262,-0.107546,0.666281,0.491126,0.559723,0.466616,0.625875,0.57425,1
1.80442,-0.992273,-1.76197,-1.04026,1.98766,1.20817,-0.834033,1.78439,-1.00383,-1.77464,-1.04824,1.97852,1.1941,-0.844924,1.79174,-1.06187,-1.81336,-1.09437,1.94267,1.14273,-0.892329,0.522257,0.226992,0.11927,1.15972,0.262462,1.30044,1.21347,0.522257,0.226992,0.11927,1.15972,0.262462,1.30044,1.21347,0.527849,-0.454505,0.70399,0.569397,0.159185,0.142309,0.793849,-0.124615,-0.0161699,0.510436,2.8863,-0.497223,0.746927,-2.6165,-0.072673,4.73987,-2.65291,-0.0532976,4.75639,0.126757,0.696019,0.513915,0.54104,0.449966,0.654409,0.582959,1
1.78953,-0.987264,-1.76018,-1.02715,1.99368,1.21519,-0.825925,1.79343,-0.992375,-1.76241,-1.03964,1.98888,1.20571,-0.83549,1.79348,-1.05667,-1.81069,-1.08446,1.94605,1.1535,-0.882174,-0.10446,0.843318,0.430896,0.976841,0.449777,1.02699,0.979112,-0.10446,0.843318,0.430896,0.976841,0.449777,1.02699,0.979112,0.524407,-0.454615,0.711068,0.568469,0.150632,0.138051,0.796928,-0.426222,-0.0414347,0.905494,2.86044,-0.498133,0.792715,-2.58601,-0.0910759,4.57883,-2.6314,-0.0591189,4.65254,-0.0395687,0.694099,0.505058,0.57311,0.476296,0.616869,0.562491,1
1.76613,-0.97375,-1.75083,-1.02012,2.00959,1.2188,-0.821749,1.7874,-0.985138,-1.75829,-1.02867,1.99616,1.21434,-0.826908,1.79188,-1.04647,-1.80427,-1.07596,1.95206,1.16276,-0.873536,-0.230154,1.30965,0.909984,0.851536,0.812399,0.962617,0.878781,-0.230154,1.30965,0.909984,0.851536,0.812399,0.962617,0.878781,0.522181,-0.454688,0.715141,0.568535,0.146416,0.136225,0.797981,-0.372904,-0.0309168,0.783034,2.83392,-0.498802,0.838054,-2.65174,-0.0668406,4.53389,-2.62156,-0.066532,4.55557,-0.257528,0.727216,0.534374,0.55845,0.57525,0.560382,0.517874,1
1.79558,-0.961788,-1.73868,-1.01702,2.01738,1.23342,-0.813746,1.77934,-0.974138,-1.75013,-1.0211,2.00756,1.22155,-0.820792,1.79227,-1.03303,-1.79387,-1.06694,1.96121,1.17344,-0.864081,0.0358121,1.24857,0.966121,0.838442,0.849681,0.991217,0.878133,0.0358121,1.24857,0.966121,0.838442,0.849681,0.991217,0.878133,0.513151,-0.450377,0.735992,0.566798,0.127322,0.127403,0.803926,-0.436437,0.302698,1.26499,2.80827,-0.499727,0.881979,-2.5656,-0.092563,4.39245,-2.61236,-0.0748979,4.45985,0.0331253,0.712393,0.551851,0.499121,0.561615,0.59979,0.503346,1
1.80329,-0.950874,-1.7339,-1.00247,2.01736,1.24511,-0.800575,1.79014,-0.96205,-1.74052,-1.01416,2.01543,1.23269,-0.812454,1.79106,-1.02113,-1.78502,-1.05743,1.9699,1.1836,-0.854843,-0.112313,1.10532,0.82113,0.883263,0.806464,0.943982,0.857982,-0.112313,1.10532,0.82113,0.883263,0.806464,0.943982,0.857982,0.506753,-0.448554,0.748654,0.565938,0.115315,0.121422,0.807263,-0.566284,0.172615,1.31479,2.78198,-0.50056,0.924661,-2.6293,-0.0832587,4.26824,-2.60477,-0.0808614,4.35665,0.122369,0.702517,0.511258,0.549541,0.47465,0.615086,0.542674,1
1.77843,-0.938383,-1.7258,-0.99344,2.03005,1.25024,-0.792072,1.79515,-0.95048,-1.73307,-1.00385,2.02054,1.24347,-0.801742,1.78907,-1.01072,-1.77729,-1.04927,1.97794,1.1922,-0.847086,-0.298992,1.1235,0.834283,0.865197,0.909685,0.901498,0.807581,-0.298992,1.1235,0.834283,0.865197,0.909685,0.901498,0.807581,0.50068,-0.447278,0.759556,0.565409,0.104992,0.116098,0.809822,-0.589705,0.0861931,1.13437,2.75619,-0.501163,0.966385,-2.57888,-0.0603318,4.1724,-2.60596,-0.0795394,4.24751,-0.106474,0.723348,0.514886,0.558318,0.521094,0.580395,0.550137,1
1.79213,-0.926825,-1.714,-0.989185,2.04224,1.26227,-0.786324,1.78807,-0.938616,-1.72488,-0.994635,2.02993,1.25197,-0.792761,1.78934,-0.998622,-1.76815,-1.04055,1.98726,1.20226,-0.838479,0.0246864,1.12323,0.848664,0.810364,0.865128,0.934397,0.799288,0.0246864,1.12323,0.848664,0.810364,0.865128,0.934397,0.799288,0.49477,-0.444028,0.771937,0.563397,0.0927973,0.110244,0.813523,-0.448843,0.287884,1.11295,2.73073,-0.501786,1.00766,-2.54591,-0.0622809,4.1273,-2.59708,-0.0768168,4.14336,0.0278888,0.71797,0.541511,0.51361,0.549871,0.600132,0.521549,1
1.80174,-0.918014,-1.70934,-0.976731,2.04468,1.27285,-0.778229,1.79111,-0.927512,-1.71579,-0.987135,2.0398,1.26191,-0.785737,1.79021,-0.987993,-1.7603,-1.03262,1.99494,1.21126,-0.830585,0.151772,1.15212,0.836153,0.883409,0.786223,0.989258,0.885839,0.151772,1.15212,0.836153,0.883409,0.786223,0.989258,0.885839,0.489704,-0.440746,0.782675,0.561211,0.0818597,0.105402,0.816843,-0.422334,0.359697,1.13018,2.70512,-0.502609,1.04857,-2.56119,-0.0823379,4.0908,-2.58733,-0.0744036,4.05417,0.115381,0.69979,0.509572,0.558857,0.497382,0.615893,0.523567,1
1.79432,-0.904394,-1.70135,-0.966022,2.05398,1.28171,-0.766698,1.79748,-0.916812,-1.70851,-0.977167,2.04639,1.27242,-0.77737,1.78968,-0.975722,-1.75149,-1.02318,2.00363,1.22137,-0.821185,-0.0493248,1.1396,0.817425,0.876606,0.807527,0.939515,0.872971,-0.0493248,1.1396,0.817425,0.876606,0.807527,0.939515,0.872971,0.486167,-0.43912,0.789231,0.560133,0.0751885,0.102477,0.818594,-0.587425,0.302377,1.27804,2.67883,-0.503189,1.08854,-2.62833,-0.0579834,3.99704,-2.58153,-0.0719743,3.97007,0.0464515,0.713281,0.501399,0.571548,0.503436,0.603391,0.544875,1
1.79259,-0.891693,-1.69103,-0.960985,2.06354,1.29161,-0.75787,1.79574,-0.904624,-1.70077,-0.96744,2.05404,1.28197,-0.767373,1.79003,-0.96374,-1.74262,-1.01422,2.01262,1.23145,-0.812376,0.0330587,1.11266,0.824074,0.831829,0.834795,0.93551,0.81812,0.0330587,1.11266,0.824074,0.831829,0.834795,0.93551,0.81812,0.476807,-0.433979,0.806646,0.556498,0.0570016,0.0945007,0.823487,-0.479375,0.326453,1.06498,2.65267,-0.503924,1.12698,-2.61648,-0.0734925,3.84476,-2.58628,-0.0689119,3.8891,0.025556,0.72047,0.515941,0.532344,0.509167,0.601635,0.545058,1
1.80349,-0.881125,-1.683,-0.951701,2.07047,1.30287,-0.749525,1.79575,-0.892226,-1.6916,-0.959924,2.06288,1.29195,-0.757991,1.79188,-0.952078,-1.73414,-1.00501,2.02102,1.24163,-0.803676,0.172024,1.0831,0.787273,0.855161,0.779416,0.945625,0.80792,0.172024,1.0831,0.787273,0.855161,0.779416,0.945625,0.80792,0.471103,-0.429628,0.817997,0.553263,0.0445383,0.089384,0.826998,-0.428143,0.384976,1.0294,2.62675,-0.504706,1.16426,-2.59223,-0.0781715,3.72754,-2.58793,-0.0691542,3.80311,0.116094,0.70953,0.511409,0.533108,0.494554,0.61242,0.541509,1
1.79843,-0.870008,-1.67764,-0.941255,2.07673,1.31134,-0.740366,1.7995,-0.880988,-1.68367,-0.95141,2.0703,1.30217,-0.749321,1.79304,-0.941691,-1.72674,-0.996797,2.02834,1.25055,-0.795807,0.0828995,1.13841,0.797706,0.901604,0.789364,0.964898,0.873274,0.0828995,1.13841,0.797706,0.901604,0.789364,0.964898,0.873274,0.465748,-0.425881,0.827907,0.550402,0.0335146,0.0849953,0.829886,-0.495909,0.36758,1.06018,2.57457,-0.50677,1.23617,-2.59662,-0.162303,3.54246,-2.60619,-0.0769364,3.60583,0.0538704,0.716832,0.491008,0.55542,0.483867,0.607843,0.554418,1
1.79079,-0.857707,-1.66828,-0.934006,2.08792,1.31884,-0.732349,1.79779,-0.869712,-1.67664,-0.942054,2.07796,1.3111,-0.740651,1.79372,-0.930828,-1.71907,-0.9885,2.03591,1.25969,-0.787492,0.0623955,1.18556,0.843498,0.877656,0.82852,0.990832,0.906054,0.0623955,1.18556,0.843498,0.877656,0.82852,0.990832,0.906054,0.463106,-0.424158,0.832547,0.549064,0.0283101,0.0829758,0.83117,-0.433966,0.323973,0.913741,2.54874,-0.507133,1.27037,-2.58248,-0.0363469,3.41954,-2.60637,-0.0784099,3.49444,-0.0292668,0.731211,0.507907,0.54494,0.520111,0.591506,0.551431,1
1.80126,-0.84652,-1.65849,-0.930679,2.09433,1.3284,-0.723534,1.79532,-0.857985,-1.66817,-0.934986,2.08672,1.31935,-0.732149,1.79472,-0.919739,-1.71118,-0.980265,2.0436,1.26907,-0.779006,0.146838,1.19014,0.845112,0.886191,0.820177,1.01672,0.911686,0.146838,1.19014,0.845112,0.886191,0.820177,1.01672,0.911686,0.454068,-0.417703,0.848146,0.5438,0.0104763,0.0762088,0.835682,-0.457918,0.356956,0.92959,2.54874,-0.507133,1.27037,-2.58248,-0.0363469,3.41954,-2.60637,-0.0784099,3.49444,0.0653633,0.732193,0.526922,0.495861,0.507299,0.593266,0.554716,1
1.8165,-0.836192,-1.64788,-0.923775,2.10605,1.33635,-0.714374,1.80245,-0.846735,-1.65829,-0.929785,2.09565,1.328,-0.723448,1.79568,-0.908607,-1.70341,-0.971848,2.05125,1.27848,-0.770475,0.0646841,1.19457,0.822191,0.915054,0.820236,1.00163,0.915941,0.0646841,1.19457,0.822191,0.915054,0.820236,1.00163,0.915941,0.451369,-0.415578,0.852798,0.542023,0.00500756,0.074199,0.837067,-0.440621,0.402844,0.920744,2.53237,-0.504783,1.32898,0.915384,0.284839,2.53736,-2.21344,-0.0371971,3.2083,0.208181,0.724149,0.555261,0.480737,0.547941,0.578658,0.561001,1
1.8081,-0.823452,-1.64225,-0.917315,2.11224,1.34395,-0.703294,1.81059,-0.835589,-1.64913,-0.923886,2.10467,1.33626,-0.713894,1.79587,-0.89738,-1.69563,-0.963503,2.05906,1.28769,-0.761931,-0.0171463,1.20989,0.843322,0.875807,0.849644,0.972519,0.91466,-0.0171463,1.20989,0.843322,0.875807,0.849644,0.972519,0.91466,0.441647,-0.409159,0.867987,0.536624,-0.0129162,0.0677041,0.841002,-0.481627,0.372684,0.909949,2.4706,-0.50843,1.36639,-6.17657,-0.364667,3.74037,-2.3433,-0.0403826,3.12249,0.122302,0.739282,0.533803,0.46188,0.531861,0.562602,0.586369,1
1.81117,-0.810693,-1.63232,-0.911357,2.12381,1.35277,-0.693704,1.81097,-0.823447,-1.64118,-0.91744,2.11359,1.34426,-0.703667,1.79751,-0.884793,-1.68635,-0.955123,2.06815,1.29771,-0.752367,0.151756,1.16887,0.861878,0.778205,0.844649,0.93027,0.888172,0.151756,1.16887,0.861878,0.778205,0.844649,0.93027,0.888172,0.435137,-0.403397,0.878755,0.531346,-0.0258123,0.0629283,0.84442,-0.497595,0.517036,0.990306,2.44483,-0.509159,1.39624,-2.57723,-0.0729322,2.98485,-2.46938,-0.0464584,3.03397,0.136654,0.741003,0.540248,0.437665,0.556575,0.550689,0.586633,1
1.82672,-0.800922,-1.62577,-0.906486,2.12807,1.3656,-0.684412,1.81429,-0.81144,-1.63317,-0.911629,2.12198,1.35377,-0.693779,1.79982,-0.873851,-1.67816,-0.948041,2.07619,1.30633,-0.743908,0.330745,1.17512,0.891519,0.741851,0.874668,0.919139,0.921796,0.330745,1.17512,0.891519,0.741851,0.874668,0.919139,0.921796,0.429777,-0.397849,0.887924,0.526017,-0.0369998,0.0587757,0.847634,-0.430358,0.618932,0.977693,2.41972,-0.510005,1.42591,-2.51093,-0.0845194,2.96695,-2.58924,-0.0519804,2.95612,0.269006,0.729294,0.523837,0.41555,0.518842,0.592675,0.594959,1
1.82219,-0.789061,-1.62131,-0.898759,2.13326,1.37338,-0.674393,1.8217,-0.800399,-1.62629,-0.905772,2.1283,1.36434,-0.684231,1.80255,-0.862726,-1.66988,-0.94118,2.08445,1.31484,-0.735088,0.258691,1.20634,0.88163,0.729087,0.894764,0.903554,0.96501,0.258691,1.20634,0.88163,0.729087,0.894764,0.903554,0.96501,0.424514,-0.391916,0.896986,0.520059,-0.0481472,0.0546589,0.851019,-0.468123,0.611182,0.972184,2.3942,-0.510794,1.45449,-2.55177,-0.0789046,2.85798,-2.70768,-0.0717951,2.88641,0.196433,0.73665,0.485763,0.424206,0.488035,0.585409,0.606942,1
1.80969,-0.776743,-1.61246,-0.893391,2.14339,1.37884,-0.66516,1.8202,-0.788946,-1.62021,-0.899349,2.13449,1.3728,-0.67459,1.80508,-0.851366,-1.66168,-0.934506,2.09281,1.32341,-0.725962,0.282887,1.22627,0.875808,0.70266,0.896013,0.932483,0.98849,0.282887,1.22627,0.875808,0.70266,0.896013,0.932483,0.98849,0.419094,-0.385834,0.905926,0.513805,-0.05933,0.0506948,0.85435,-0.467235,0.647794,0.957836,2.36851,-0.511216,1.48159,-2.56956,-0.042206,2.71078,-2.82618,-0.086953,2.81596,0.0460223,0.746231,0.492201,0.411149,0.505818,0.554219,0.608029,1
1.82447,-0.765961,-1.60559,-0.887356,2.14576,1.39206,-0.655907,1.81651,-0.777127,-1.61295,-0.893224,2.14145,1.38078,-0.665155,1.80836,-0.839973,-1.65368,-0.928041,2.1009,1.33237,-0.716693,0.409825,1.21547,0.841167,0.68397,0.841566,0.982,0.997044,0.409825,1.21547,0.841167,0.68397,0.841566,0.982,0.997044,0.413903,-0.379274,0.914599,0.506985,-0.0706391,0.0469632,0.857771,-0.421641,0.710299,0.922406,2.34311,-0.512161,1.50781,-2.53911,-0.0945091,2.62138,-2.93776,-0.104777,2.74689,0.161129,0.740123,0.480932,0.406851,0.448582,0.596952,0.60786,1
1.83937,-0.755464,-1.59685,-0.886048,2.15364,1.40193,-0.645417,1.8245,-0.766032,-1.60512,-0.888538,2.14714,1.39122,-0.655598,1.81147,-0.828614,-1.64606,-0.921652,2.10854,1.34144,-0.707342,0.26791,1.21833,0.794043,0.685,0.797273,0.963178,1.00594,0.26791,1.21833,0.794043,0.685,0.797273,0.963178,1.00594,0.408651,-0.372711,0.922961,0.500143,-0.0819006,0.0436074,0.860957,-0.47641,0.655624,0.896639,2.31738,-0.513165,1.53307,-2.57387,-0.100434,2.52595,-2.55112,-0.076497,2.58167,0.278964,0.731498,0.492146,0.356034,0.450997,0.604949,0.619251,1
1.80856,-0.743785,-1.59044,-0.878492,2.16559,1.40564,-0.634965,1.82794,-0.755168,-1.59743,-0.884486,2.15465,1.40039,-0.645427,1.81315,-0.817182,-1.63867,-0.915294,2.11591,1.35029,-0.697946,0.103113,1.23025,0.789927,0.677824,0.784346,0.936271,1.00715,0.103113,1.23025,0.789927,0.677824,0.784346,0.936271,1.00715,0.402866,-0.366633,0.931125,0.493819,-0.0929968,0.0406092,0.863624,-0.416572,0.571511,0.770856,2.29198,-0.513519,1.55712,-2.53923,-0.0353456,2.40498,-2.5511,-0.0741639,2.47959,-0.0459283,0.733973,0.482322,0.368012,0.496747,0.553493,0.629808,1
1.82523,-0.731035,-1.57806,-0.88188,2.1757,1.41289,-0.626435,1.82043,-0.743517,-1.58895,-0.881228,2.16513,1.40653,-0.635446,1.81505,-0.80575,-1.63124,-0.909185,2.12302,1.35926,-0.688525,0.29026,1.2199,0.80216,0.634152,0.740835,0.981692,1.01131,0.29026,1.2199,0.80216,0.634152,0.740835,0.981692,1.01131,0.397151,-0.360276,0.939063,0.487156,-0.104117,0.0378211,0.866261,-0.472926,0.703848,0.854655,2.26663,-0.514416,1.58063,-2.53575,-0.0897527,2.3515,-2.55301,-0.0736922,2.37469,0.101808,0.747159,0.531777,0.273046,0.526871,0.536261,0.620891,1
1.85095,-0.721188,-1.57409,-0.878021,2.17344,1.4316,-0.614866,1.82749,-0.73176,-1.58016,-0.880068,2.17261,1.41575,-0.625676,1.81825,-0.79318,-1.62284,-0.903047,2.13088,1.36948,-0.677814,0.297593,1.16747,0.780286,0.570067,0.730231,0.949362,0.994733,0.297593,1.16747,0.780286,0.570067,0.730231,0.949362,0.994733,0.391245,-0.352573,0.947502,0.478729,-0.116427,0.0347723,0.869514,-0.448999,0.698325,0.795326,2.24095,-0.515475,1.60332,-2.56743,-0.105858,2.26897,-2.55228,-0.0778637,2.27819,0.32699,0.719917,0.487503,0.25026,0.425578,0.621192,0.629474,1
1.80966,-0.709611,-1.57107,-0.866625,2.18844,1.43412,-0.603383,1.8342,-0.720755,-1.57433,-0.876137,2.17775,1.42755,-0.614888,1.81966,-0.782182,-1.61539,-0.898,2.13818,1.37798,-0.668436,0.0235896,1.18755,0.812245,0.515133,0.827622,0.87674,1.01326,0.0235896,1.18755,0.812245,0.515133,0.827622,0.87674,1.01326,0.385638,-0.346319,0.954685,0.471639,-0.12684,0.0321251,0.87203,-0.541546,0.613831,0.787244,2.21534,-0.51648,1.6251,-2.56069,-0.100493,2.17737,-2.55199,-0.0845385,2.18963,-0.100039,0.725712,0.44324,0.313757,0.502529,0.561384,0.650536,1
1.80601,-0.694607,-1.55467,-0.874108,2.2049,1.43474,-0.593639,1.81907,-0.708754,-1.56773,-0.871344,2.1888,1.43364,-0.603818,1.82161,-0.769651,-1.60664,-0.893544,2.14674,1.38737,-0.657809,0.180755,1.16376,0.813167,0.41388,0.79457,0.871836,0.98694,0.180755,1.16376,0.813167,0.41388,0.79457,0.871836,0.98694,0.379655,-0.338668,0.962473,0.462747,-0.138251,0.0292334,0.875156,-0.46136,0.69964,0.737944,2.18973,-0.516996,1.64616,-2.56131,-0.0516117,2.10658,-2.55444,-0.0824635,2.10472,-0.155955,0.750438,0.519642,0.194362,0.581648,0.473696,0.641698,1
1.85866,-0.685353,-1.54655,-0.891862,2.19937,1.45649,-0.585508,1.82009,-0.696044,-1.55674,-0.876675,2.1994,1.44002,-0.594042,1.82396,-0.758769,-1.59928,-0.889671,2.15385,1.39599,-0.648387,0.314365,1.16756,0.766467,0.415706,0.734096,0.969285,1.0289,0.314365,1.16756,0.766467,0.415706,0.734096,0.969285,1.0289,0.374614,-0.331705,0.968994,0.454589,-0.148329,0.0269328,0.877851,-0.42528,0.759731,0.711778,2.16452,-0.517809,1.66593,-2.52123,-0.0813782,1.9765,-2.55126,-0.0819683,2.01832,0.347003,0.734166,0.527306,-0.0219036,0.455164,0.60499,0.628792,1
1.82734,-0.677256,-1.54834,-0.874422,2.21053,1.46254,-0.572657,1.83767,-0.685642,-1.54903,-0.883063,2.20354,1.45257,-0.584328,1.82449,-0.747724,-1.5922,-0.88567,2.16126,1.40465,-0.638588,-0.166553,1.19692,0.751737,0.439987,0.845844,0.890607,1.06793,-0.166553,1.19692,0.751737,0.439987,0.845844,0.890607,1.06793,0.368891,-0.325412,0.975404,0.447006,-0.158352,0.0248395,0.880053,-0.594866,0.573974,0.715873,2.13918,-0.518481,1.68474,-2.53441,-0.0671983,1.88113,-2.54949,-0.0828458,1.92961,0.0284901,0.704685,0.438595,0.112474,0.492708,0.578974,0.659308,1
1.77743,-0.661722,-1.53873,-0.868959,2.2344,1.45164,-0.562505,1.8227,-0.675397,-1.54549,-0.877416,2.21371,1.45831,-0.573332,1.82328,-0.736347,-1.58466,-0.882819,2.16952,1.4127,-0.628646,-0.0981026,1.23786,0.857337,0.188702,0.917848,0.839068,1.0628,-0.0981026,1.23786,0.857337,0.188702,0.917848,0.839068,1.0628,0.365906,-0.322853,0.978367,0.443833,-0.162913,0.0239097,0.880852,-0.516137,0.501066,0.614584,2.11431,-0.519736,1.70236,-2.48699,-0.125462,1.76191,-2.5405,-0.0832272,1.83156,-0.458451,0.746256,0.45924,0.138603,0.648843,0.389415,0.661408,1
1.86342,-0.650447,-1.5215,-0.91124,2.22723,1.4806,-0.557177,1.81141,-0.662786,-1.53683,-0.880895,2.22664,1.46161,-0.563711,1.82483,-0.724946,-1.57669,-0.882143,2.1775,1.42116,-0.618753,0.394449,1.20718,0.84963,-0.0282757,0.800005,0.964552,1.05731,0.394449,1.20718,0.84963,-0.0282757,0.800005,0.964552,1.05731,0.358123,-0.311415,0.987431,0.429636,-0.17713,0.0210626,0.885209,-0.317678,0.947831,0.606164,2.08825,-0.520763,1.71894,-2.60551,-0.102729,1.65849,-2.53835,-0.0852321,1.72842,0.385945,0.744998,0.551961,-0.290976,0.497317,0.594377,0.615753,1
1.88402,-0.652819,-1.52991,-0.90111,2.23314,1.49609,-0.548107,1.84707,-0.653858,-1.52791,-0.898137,2.2305,1.47723,-0.556242,1.82603,-0.713814,-1.56935,-0.88162,2.18532,1.42973,-0.608734,-0.102275,1.1799,0.732637,0.129097,0.871819,0.877617,1.08727,-0.102275,1.1799,0.732637,0.129097,0.871819,0.877617,1.08727,0.35347,-0.303844,0.992767,0.420036,-0.186099,0.0195626,0.888005,-0.490993,0.679884,0.596986,2.06173,-0.521218,1.73441,-2.65207,-0.0454485,1.54682,-2.55008,-0.0845598,1.62119,0.579954,0.609954,0.394334,-0.194899,0.478179,0.663603,0.60627,1
1.76507,-0.632938,-1.54344,-0.859858,2.25908,1.48869,-0.529854,1.84913,-0.647256,-1.53119,-0.893329,2.23815,1.49037,-0.545811,1.8237,-0.702588,-1.56226,-0.881038,2.1941,1.43727,-0.598655,-0.37736,1.2224,0.781283,0.00439562,0.999459,0.747417,1.0732,-0.37736,1.2224,0.781283,0.00439562,0.999459,0.747417,1.0732,0.347871,-0.29767,0.998037,0.411895,-0.194385,0.0182237,0.89007,-0.544966,0.633498,0.589841,2.03635,-0.521949,1.74871,-2.53785,-0.0730932,1.42961,-2.55945,-0.0855633,1.51002,-0.586225,0.6965,0.188249,0.211805,0.649759,0.514188,0.688011,1
1.788,-0.619528,-1.51925,-0.904337,2.25469,1.50466,-0.52765,1.80054,-0.634556,-1.53401,-0.881291,2.25149,1.49453,-0.533866,1.82539,-0.691508,-1.55476,-0.883298,2.2027,1.4454,-0.588976,0.666,1.1563,0.824498,-0.45575,0.853788,0.977677,1.00535,0.666,1.1563,0.824498,-0.45575,0.853788,0.977677,1.00535,0.344155,-0.289316,1.00258,0.401008,-0.202208,0.0169045,0.893319,-0.129047,1.12154,0.449503,2.01115,-0.522202,1.76178,-2.52008,-0.0252903,1.30719,-2.56547,-0.0771182,1.39837,-0.373917,0.719803,0.355088,-0.210391,0.519874,0.59255,0.613258,1
1.88748,-0.628647,-1.51415,-0.899412,2.24208,1.52883,-0.525927,1.80714,-0.62516,-1.52402,-0.891986,2.25263,1.50671,-0.52777,1.83105,-0.681272,-1.54852,-0.886346,2.21063,1.45506,-0.579452,0.555308,1.04473,0.532239,-0.21448,0.845177,1.08439,1.0332,0.555308,1.04473,0.532239,-0.21448,0.845177,1.08439,1.0332,0.341929,-0.279986,1.0062,0.388554,-0.209983,0.015568,0.897045,-0.117574,0.972186,0.383966,1.98624,-0.522488,1.77426,-2.49066,-0.028646,1.24819,-2.56073,-0.0647741,1.2899,0.564244,0.526253,0.343688,-0.130664,0.314486,0.73769,0.535251,1
1.78743,-0.610153,-1.55766,-0.844384,2.25282,1.53442,-0.508121,1.83759,-0.621744,-1.5263,-0.886886,2.24792,1.52418,-0.521906,1.82908,-0.671128,-1.54459,-0.886479,2.21924,1.46439,-0.569501,-0.876427,1.12321,0.324908,0.159341,0.990515,0.925756,1.09445,-0.876427,1.12321,0.324908,0.159341,0.990515,0.925756,1.09445,0.337162,-0.274548,1.00991,0.38085,-0.217655,0.0149104,0.898531,-0.163598,0.783713,0.333383,1.96157,-0.523195,1.78608,-2.46729,-0.0707209,1.18161,-2.5457,-0.0528974,1.18987,-0.416508,0.609747,-0.130721,0.420951,0.335773,0.700351,0.613805,1
1.75864,-0.585473,-1.54615,-0.895945,2.28358,1.51496,-0.50062,1.80524,-0.608607,-1.54391,-0.871031,2.25783,1.52816,-0.510697,1.82286,-0.660788,-1.54063,-0.886613,2.22741,1.4735,-0.559834,-0.483021,1.09421,0.510097,-0.165012,0.774621,1.01984,0.984744,-0.483021,1.09421,0.510097,-0.165012,0.774621,1.01984,0.984744,0.331296,-0.270284,1.01359,0.375157,-0.225249,0.0150755,0.899051,-0.481811,0.565747,0.394948,1.93617,-0.524281,1.79713,-2.53956,-0.108528,1.10593,-2.52375,-0.0537366,1.09809,-0.642268,0.753147,-0.0551769,-0.0933168,0.561734,0.414544,0.592137,1
1.86816,-0.588336,-1.51036,-0.938795,2.26153,1.55396,-0.497331,1.79322,-0.592359,-1.54008,-0.893767,2.27038,1.52957,-0.501673,1.82301,-0.651479,-1.53681,-0.88727,2.23305,1.48408,-0.551085,0.44794,0.913236,0.322583,0.0117707,0.456535,1.23169,0.896132,0.44794,0.913236,0.322583,0.0117707,0.456535,1.23169,0.896132,0.327423,-0.26398,1.01654,0.367195,-0.233268,0.0152932,0.900289,-0.227571,0.744983,0.311608,1.91016,-0.524781,1.80666,-2.6018,-0.0500262,0.952089,-2.51661,-0.0583802,1.00677,0.451506,0.631424,0.264465,-0.51525,0.284831,0.698786,0.537538,1
1.79698,-0.598696,-1.56637,-0.876599,2.27149,1.566,-0.491213,1.82298,-0.59021,-1.53331,-0.912533,2.26953,1.54722,-0.496624,1.82233,-0.64234,-1.53654,-0.885064,2.23806,1.49458,-0.542341,-0.524738,1.03604,-0.226233,0.430971,0.606921,1.03139,0.971853,-0.524738,1.03604,-0.226233,0.430971,0.606921,1.03139,0.971853,0.323241,-0.259206,1.01935,0.361728,-0.241186,0.01636,0.900397,-0.517574,0.267079,0.359638,1.88504,-0.526376,1.81562,-2.51145,-0.159538,0.896692,-2.52136,-0.0722621,0.919227,-0.253462,0.436446,-0.29828,0.084644,0.33425,0.714269,0.511279,1
1.7502,-0.558244,-1.5762,-0.923677,2.30337,1.55662,-0.47546,1.80308,-0.585993,-1.55482,-0.903917,2.27697,1.56065,-0.488804,1.81509,-0.629919,-1.53742,-0.887227,2.2461,1.50327,-0.532234,-0.671902,1.15354,-0.0817035,-0.20087,0.745854,0.807728,0.938601,-0.671902,1.15354,-0.0817035,-0.20087,0.745854,0.807728,0.938601,0.318487,-0.254013,1.02233,0.356963,-0.247255,0.0195272,0.900589,-0.401241,0.453993,0.296887,1.85997,-0.526932,1.8232,-2.50741,-0.0555575,0.757873,-2.52629,-0.0841149,0.827066,-0.648969,0.716744,-0.387804,-0.3645,0.572751,0.533459,0.567737,1
1.86489,-0.556666,-1.54566,-0.953188,2.29003,1.58351,-0.476072,1.79057,-0.567962,-1.56611,-0.919285,2.29206,1.56569,-0.479551,1.81705,-0.62005,-1.5364,-0.893516,2.25192,1.5142,-0.523384,0.18215,0.916449,0.0948646,-0.584069,0.540975,1.01424,0.821873,0.18215,0.916449,0.0948646,-0.584069,0.540975,1.01424,0.821873,0.317145,-0.245861,1.02363,0.347132,-0.253062,0.0215107,0.902772,-0.0832389,0.744671,0.140097,1.83493,-0.527426,1.8299,-2.5041,-0.0493705,0.670147,-2.5296,-0.0870752,0.727394,0.478372,0.633847,-0.0925945,-0.596722,0.381072,0.693138,0.473118,1
1.83636,-0.572065,-1.58385,-0.917061,2.30264,1.59536,-0.473856,1.82908,-0.56091,-1.56284,-0.936778,2.29652,1.57975,-0.475365,1.81358,-0.611586,-1.54098,-0.896101,2.25815,1.52574,-0.51479,-0.32252,0.786029,-0.425264,-0.240063,0.57814,1.07207,0.798087,-0.32252,0.786029,-0.425264,-0.240063,0.57814,1.07207,0.798087,0.314551,-0.242202,1.02429,0.342952,-0.258427,0.0242582,0.902779,-0.207246,0.313162,0.0829088,1.81005,-0.528111,1.83574,-2.48767,-0.0685215,0.583756,-2.52587,-0.0828104,0.625271,0.227793,0.395215,-0.428691,-0.209599,0.444984,0.696225,0.409347,1
1.74109,-0.544092,-1.6083,-0.946006,2.31395,1.59514,-0.467185,1.81967,-0.561222,-1.58041,-0.933329,2.30232,1.59234,-0.472742,1.80786,-0.600745,-1.54722,-0.901863,2.26658,1.53567,-0.506033,-0.531179,1.00682,-0.579967,-0.535082,0.782818,0.921996,0.813296,-0.531179,1.00682,-0.579967,-0.535082,0.782818,0.921996,0.813296,0.312443,-0.237633,1.02494,0.338899,-0.262041,0.0283333,0.90315,-0.176666,0.391591,0.0738663,1.78529,-0.528977,1.84094,-2.47605,-0.0866711,0.520003,-2.51065,-0.0778556,0.528095,-0.667753,0.566525,-0.610804,-0.441435,0.473764,0.594756,0.388476,1
1.8527,-0.531477,-1.59101,-0.955348,2.31407,1.61299,-0.471724,1.79281,-0.547932,-1.59786,-0.941105,2.31116,1.59966,-0.469987,1.80869,-0.591659,-1.55148,-0.908521,2.2735,1.545,-0.498894,0.626345,0.944363,-0.34888,-0.867839,0.706831,1.06724,0.722631,0.626345,0.944363,-0.34888,-0.867839,0.706831,1.06724,0.722631,0.311609,-0.235802,1.02518,0.337274,-0.263472,0.0299804,0.903288,0.155159,0.863378,-0.00102846,1.76055,-0.529946,1.84546,-2.47406,-0.0968337,0.451589,-2.49373,-0.0781285,0.441346,0.440116,0.601818,-0.395272,-0.468263,0.405716,0.679936,0.271702,1
1.83758,-0.529845,-1.61393,-0.893837,2.3057,1.61482,-0.462308,1.82102,-0.534223,-1.60106,-0.937635,2.31195,1.60899,-0.468235,1.81251,-0.584059,-1.55664,-0.915085,2.27999,1.55531,-0.492697,0.220164,0.7014,-0.73007,-0.560352,0.685612,1.13736,0.612905,0.220164,0.7014,-0.73007,-0.560352,0.685612,1.13736,0.612905,0.312954,-0.225472,1.02456,0.324961,-0.268362,0.0329345,0.906254,0.13047,0.746934,-0.00402512,1.73507,-0.530795,1.84875,-2.54807,-0.0849605,0.329518,-2.49427,-0.0744194,0.353339,0.250768,0.542133,-0.572847,0.212474,0.257017,0.595076,0.303893,1
1.74285,-0.533946,-1.63129,-0.902833,2.33006,1.62536,-0.458552,1.81768,-0.531278,-1.61254,-0.911464,2.31388,1.617,-0.463723,1.81071,-0.576614,-1.56487,-0.920654,2.28672,1.56549,-0.487371,-0.549857,0.880941,-1.01329,-0.628135,0.750545,1.0495,0.533929,-0.549857,0.880941,-1.01329,-0.628135,0.750545,1.0495,0.533929,0.312667,-0.222176,1.02373,0.32212,-0.270849,0.0359449,0.906415,-0.0825854,0.234366,-0.0735638,1.70992,-0.531781,1.85116,-2.51495,-0.0985265,0.240803,-2.49773,-0.0825759,0.268884,-0.678571,0.426682,-0.664131,0.178214,0.433405,0.598653,0.28819,1
1.81155,-0.503465,-1.63642,-0.970255,2.28276,1.64381,-0.468547,1.78371,-0.5253,-1.62823,-0.917439,2.31214,1.62734,-0.46199,1.81327,-0.566079,-1.57387,-0.924874,2.29299,1.5763,-0.482616,0.237894,0.978414,-0.835241,-0.391926,0.582337,1.00396,0.441675,0.237894,0.978414,-0.835241,-0.391926,0.582337,1.00396,0.441675,0.312577,-0.218782,1.02381,0.319832,-0.272972,0.0379492,0.906506,0.00507573,0.644577,0.0375512,1.68514,-0.532805,1.8525,-2.47769,-0.102466,0.133789,-2.49942,-0.090347,0.180119,-0.0172093,0.626136,-0.625553,-0.453807,-0.102323,0.675128,0.140687,1
1.79405,-0.515392,-1.64885,-0.965321,2.31749,1.64612,-0.474683,1.79,-0.514067,-1.63825,-0.952166,2.30327,1.63978,-0.467582,1.81437,-0.55743,-1.58348,-0.921541,2.29818,1.58641,-0.47792,0.101735,0.803219,-0.89254,0.309521,0.482214,0.939324,0.436052,0.101735,0.803219,-0.89254,0.309521,0.482214,0.939324,0.436052,0.310334,-0.212778,1.02499,0.31707,-0.280341,0.0424785,0.905025,-0.171686,0.253849,0.130846,1.65979,-0.534302,1.8529,-2.53501,-0.149697,0.0406027,-2.50608,-0.100233,0.0868107,-0.203218,0.420383,-0.653741,-0.437792,0.193079,0.597067,0.0323777,1
1.75835,-0.513996,-1.66192,-0.970255,2.35354,1.64669,-0.475875,1.7895,-0.512061,-1.64901,-0.967788,2.31782,1.64569,-0.473447,1.80675,-0.549445,-1.5946,-0.920522,2.30165,1.59658,-0.473961,-0.707594,0.741574,-1.03294,0.0946768,0.32224,0.944498,0.367686,-0.707594,0.741574,-1.03294,0.0946768,0.32224,0.944498,0.367686,0.307401,-0.212338,1.02517,0.320681,-0.284558,0.0477198,0.902172,-0.263557,-0.0145208,0.0399832,1.65173,-0.530858,1.83575,-0.806391,0.344437,-1.71546,-2.32902,-0.0584441,-0.189055,-0.483999,0.354491,-0.673171,-0.497336,0.518876,0.501076,-0.0191353,1
1.76815,-0.484254,-1.66896,-0.975246,2.35398,1.64827,-0.446953,1.76972,-0.506909,-1.66041,-0.970269,2.34464,1.64694,-0.468346,1.80186,-0.541949,-1.60429,-0.924379,2.30308,1.60588,-0.471731,-0.364261,0.856368,-1.04288,-0.853445,0.00579792,1.04097,0.127413,-0.364261,0.856368,-1.04288,-0.853445,0.00579792,1.04097,0.127413,0.306219,-0.212152,1.02525,0.322123,-0.286249,0.0498482,0.901007,-0.228981,-0.0117229,0.0346021,1.60945,-0.53575,1.85022,-4.22782,-0.489205,1.4468,-2.39324,-0.0716397,-0.235642,-0.337117,0.576956,-0.646722,-0.508676,0.50907,0.423867,0.247777,1
1.75639,-0.488942,-1.68357,-0.979426,2.35262,1.65309,-0.471888,1.76276,-0.492861,-1.67085,-0.975044,2.35353,1.64908,-0.460417,1.79879,-0.534521,-1.6154,-0.935167,2.30674,1.61578,-0.472157,-0.285334,0.689835,-1.03216,-1.00191,0.340246,0.918704,-0.0396103,-0.285334,0.689835,-1.03216,-1.00191,0.340246,0.918704,-0.0396103,0.308109,-0.206275,1.02181,0.322588,-0.287224,0.0587973,0.89999,0.131157,0.28869,-0.234858,1.58386,-0.536582,1.84696,-2.55939,-0.08322,-0.325477,-2.4571,-0.0833975,-0.285725,-0.423989,0.455796,-0.681614,-0.442596,0.458751,0.373117,0.00269554,1
1.74623,-0.475757,-1.69399,-0.990262,2.35831,1.66821,-0.459743,1.75679,-0.484473,-1.68252,-0.98109,2.35438,1.65566,-0.462618,1.79385,-0.528254,-1.62527,-0.943604,2.31306,1.62338,-0.471799,-0.740931,0.655563,-1.07921,-0.818988,0.969752,0.723848,0.106034,-0.740931,0.655563,-1.07921,-0.818988,0.969752,0.723848,0.106034,0.308738,-0.204864,1.02076,0.322719,-0.287248,0.06091,0.899795,0.112631,0.246174,-0.205665,1.55972,-0.537346,1.84298,-2.41346,-0.0764072,-0.398409,-2.51252,-0.0917792,-0.336793,-0.476152,0.524967,-0.687157,-0.466575,0.452423,0.448358,0.120554,1
1.76033,-0.462729,-1.70072,-0.996021,2.37422,1.68061,-0.44317,1.75229,-0.475796,-1.69307,-0.988993,2.36086,1.66753,-0.458636,1.78692,-0.521079,-1.6354,-0.950867,2.32209,1.62952,-0.469885,-0.742215,0.866674,-1.08897,-0.742563,0.965517,0.600823,0.290799,-0.742215,0.866674,-1.08897,-0.742563,0.965517,0.600823,0.290799,0.308829,-0.204795,1.01907,0.324642,-0.286293,0.06328,0.899244,-0.00814355,-0.0163455,-0.160349,1.53492,-0.537872,1.83783,-2.48065,-0.052613,-0.515163,-2.56677,-0.0964769,-0.388041,-0.265997,0.583499,-0.653217,-0.451543,0.521272,0.510888,0.267151,1
1.7537,-0.460936,-1.71471,-1.00384,2.37948,1.68856,-0.451276,1.75515,-0.465538,-1.70253,-0.996536,2.37156,1.6795,-0.44934,1.77944,-0.511982,-1.64711,-0.958378,2.33012,1.63602,-0.468079,-0.69553,0.844881,-1.08767,-0.697579,0.745182,0.603475,0.167734,-0.69553,0.844881,-1.08767,-0.697579,0.745182,0.603475,0.167734,0.308515,-0.202637,1.01744,0.327597,-0.285149,0.0697031,0.89806,-0.0383481,0.102461,-0.105211,1.50961,-0.538041,1.83193,-2.53075,-0.016886,-0.589466,-2.6211,-0.0958647,-0.435713,-0.257314,0.510456,-0.676006,-0.454629,0.49365,0.525462,0.168034,1
1.73814,-0.461687,-1.7278,-1.01343,2.38058,1.6987,-0.462863,1.75147,-0.461572,-1.71448,-1.00428,2.37844,1.68911,-0.452146,1.77269,-0.502989,-1.65853,-0.965986,2.33776,1.64385,-0.465732,-0.626432,0.835187,-1.06074,-0.706611,0.709594,0.727359,0.217951,-0.626432,0.835187,-1.06074,-0.706611,0.709594,0.727359,0.217951,0.308302,-0.200864,1.01612,0.329143,-0.285077,0.0742384,0.897154,-0.0360555,0.124326,-0.11881,1.48483,-0.539078,1.82556,-2.47775,-0.103718,-0.636709,-2.67615,-0.10905,-0.472351,-0.345484,0.413019,-0.692665,-0.474402,0.428254,0.548546,0.0286879,1
1.76023,-0.459663,-1.73559,-1.01813,2.39834,1.70603,-0.47511,1.74756,-0.460993,-1.72647,-1.01221,2.38475,1.698,-0.463028,1.768,-0.494865,-1.66837,-0.972708,2.34492,1.65133,-0.462731,-0.394819,0.900752,-1.0492,-0.731846,0.818024,0.865227,0.4113,-0.394819,0.900752,-1.0492,-0.731846,0.818024,0.865227,0.4113,0.3082,-0.19887,1.01497,0.329379,-0.285335,0.0779424,0.896671,-0.00935362,0.230404,-0.11478,1.45982,-0.540138,1.81814,-2.50119,-0.105983,-0.742304,-2.48951,-0.067329,-0.735955,-0.0776789,0.352025,-0.672155,-0.454214,0.53419,0.547045,-0.123787,1
1.72767,-0.461971,-1.74689,-1.01778,2.40487,1.69482,-0.48112,1.74657,-0.460746,-1.73647,-1.01687,2.39554,1.70139,-0.473551,1.76432,-0.487049,-1.67845,-0.979661,2.35246,1.65961,-0.459777,-0.394595,0.782447,-1.10655,-0.756173,0.797997,0.906059,0.234349,-0.394595,0.782447,-1.10655,-0.756173,0.797997,0.906059,0.234349,0.308291,-0.196896,1.01357,0.329202,-0.285753,0.0812014,0.896313,-0.00884399,0.196664,-0.100693,1.43498,-0.541405,1.80963,-2.48401,-0.126696,-0.851631,-2.48759,-0.0759261,-0.821235,-0.366488,0.250778,-0.684418,-0.381212,0.524145,0.352092,-0.213431,1
1.70413,-0.474585,-1.75914,-1.02675,2.40894,1.70398,-0.481219,1.72992,-0.464547,-1.74713,-1.02011,2.40426,1.69991,-0.479642,1.7606,-0.48064,-1.689,-0.986835,2.35976,1.66812,-0.459329,-0.400722,0.603405,-1.15075,-0.779203,0.767558,0.917595,-0.113609,-0.400722,0.603405,-1.15075,-0.779203,0.767558,0.917595,-0.113609,0.308636,-0.195963,1.01166,0.330514,-0.285837,0.0837386,0.89557,0.00914065,0.120075,-0.145276,1.41061,-0.542455,1.80015,-2.43661,-0.105017,-0.947523,-2.48926,-0.0874639,-0.909559,-0.564779,0.0605519,-0.701361,-0.3992,0.491808,0.358554,-0.2189,1
1.71125,-0.479908,-1.76877,-1.0186,2.41919,1.72125,-0.482475,1.71179,-0.472762,-1.75849,-1.02247,2.41048,1.706,-0.481508,1.75712,-0.475696,-1.7008,-0.994299,2.36865,1.67639,-0.462863,-0.323892,0.459153,-1.09544,-0.69313,0.825779,0.76792,-0.328232,-0.323892,0.459153,-1.09544,-0.69313,0.825779,0.76792,-0.328232,0.309367,-0.196487,1.00922,0.33407,-0.285148,0.0846024,0.894388,0.0636301,-0.0701723,-0.263446,1.38596,-0.542985,1.78951,-2.46531,-0.0529408,-1.06447,-2.48112,-0.0946151,-1.00166,-0.458702,-0.0421229,-0.679722,-0.242995,0.505365,0.448563,-0.196112,1
1.70569,-0.482863,-1.78103,-1.0017,2.43117,1.73049,-0.490905,1.70808,-0.479316,-1.76943,-1.01641,2.41962,1.71924,-0.484268,1.75036,-0.472925,-1.71231,-1.00071,2.3775,1.68224,-0.467033,-0.62757,0.257305,-1.06928,-0.59577,0.821828,0.542807,-0.387245,-0.62757,0.257305,-1.06928,-0.59577,0.821828,0.542807,-0.387245,0.309665,-0.199663,1.00674,0.340129,-0.283117,0.0848814,0.892722,0.00020219,-0.307073,-0.240309,1.36142,-0.543635,1.77796,-2.45396,-0.0650048,-1.15486,-2.46969,-0.0961095,-1.10013,-0.446713,-0.0993762,-0.687139,-0.00985675,0.536696,0.482502,-0.238716,1
1.68763,-0.501414,-1.79385,-1.00469,2.43869,1.7331,-0.503417,1.70256,-0.486762,-1.78117,-1.00667,2.43005,1.72883,-0.491925,1.74077,-0.472885,-1.72379,-1.00612,2.3857,1.68814,-0.470631,-0.890105,0.00376251,-1.06566,-0.502183,0.761286,0.548567,-0.334072,-0.890105,0.00376251,-1.06566,-0.502183,0.761286,0.548567,-0.334072,0.309343,-0.205579,1.00378,0.34786,-0.280718,0.0846927,0.890516,-0.0664166,-0.643346,-0.3304,1.33693,-0.544411,1.76585,-2.44919,-0.0775993,-1.21107,-2.46259,-0.08775,-1.19874,-0.531468,-0.285293,-0.700618,0.0142992,0.529917,0.449565,-0.327863,1
1.68545,-0.515324,-1.80319,-1.00583,2.44037,1.7434,-0.513601,1.6916,-0.500254,-1.79298,-1.00423,2.43723,1.73502,-0.502835,1.73308,-0.473727,-1.73387,-1.00938,2.39307,1.69434,-0.473701,-0.767812,-0.17166,-1.09211,-0.216039,0.81531,0.764604,-0.324534,-0.767812,-0.17166,-1.09211,-0.216039,0.81531,0.764604,-0.324534,0.308608,-0.211334,1.00122,0.354675,-0.279471,0.0837836,0.888303,-0.127474,-0.673791,-0.27654,1.31234,-0.545778,1.7531,-2.4587,-0.136751,-1.27423,-2.45617,-0.0861108,-1.2888,-0.476219,-0.415968,-0.693173,0.0355222,0.473016,0.490554,-0.398998,1
1.68317,-0.521694,-1.81163,-0.979729,2.44751,1.75563,-0.518376,1.68542,-0.513439,-1.80296,-0.999018,2.44174,1.74388,-0.512249,1.72613,-0.476107,-1.74427,-1.00983,2.40106,1.70181,-0.477347,-0.72381,-0.327238,-1.1333,0.0969801,0.890459,0.829909,-0.447741,-0.72381,-0.327238,-1.1333,0.0969801,0.890459,0.829909,-0.447741,0.307095,-0.218316,0.998828,0.362246,-0.279496,0.0815356,0.885445,-0.115422,-0.583698,-0.240438,1.28729,-0.546885,1.73902,-2.50466,-0.110644,-1.40833,-2.45939,-0.0875384,-1.37702,-0.429629,-0.455872,-0.673651,0.301012,0.464548,0.538269,-0.410288,1
1.68506,-0.529505,-1.81854,-0.965208,2.46593,1.75605,-0.524869,1.68421,-0.522054,-1.81125,-0.982623,2.45033,1.75268,-0.518805,1.71881,-0.480551,-1.75501,-1.00872,2.40922,1.70935,-0.482422,-0.835803,-0.605111,-1.16606,0.137973,0.860235,0.788496,-0.626923,-0.835803,-0.605111,-1.16606,0.137973,0.860235,0.788496,-0.626923,0.305137,-0.226994,0.996199,0.371355,-0.279629,0.0781821,0.881924,-0.223535,-1.02171,-0.321483,1.26261,-0.547517,1.7239,-2.46825,-0.0632226,-1.51163,-2.46576,-0.0897442,-1.46629,-0.337536,-0.48954,-0.635316,0.435119,0.56712,0.467023,-0.424469,1
1.69237,-0.539904,-1.82916,-0.961202,2.47609,1.75786,-0.536143,1.68641,-0.530152,-1.81947,-0.967836,2.46387,1.7564,-0.526064,1.71051,-0.488724,-1.76693,-1.00631,2.4173,1.71793,-0.489835,-0.770566,-0.759036,-1.10672,0.223907,0.750491,0.797068,-0.688383,-0.770566,-0.759036,-1.10672,0.223907,0.750491,0.797068,-0.688383,0.302723,-0.238672,0.992569,0.383025,-0.279644,0.0733383,0.877333,-0.237374,-1.06922,-0.347727,1.23807,-0.548669,1.70784,-2.45433,-0.11524,-1.60652,-2.46758,-0.0974719,-1.55689,-0.181493,-0.5118,-0.622352,0.45107,0.587936,0.399321,-0.463085,1
1.68954,-0.551998,-1.84004,-0.964213,2.48049,1.76794,-0.544495,1.68983,-0.540328,-1.82923,-0.962956,2.47465,1.75993,-0.535413,1.70412,-0.496013,-1.77699,-1.00231,2.42452,1.72555,-0.496278,-0.611382,-0.799774,-1.05226,0.604767,0.792833,0.833174,-0.691867,-0.611382,-0.799774,-1.05226,0.604767,0.792833,0.833174,-0.691867,0.300045,-0.248761,0.989773,0.393101,-0.280517,0.068685,0.872963,-0.213056,-0.923697,-0.304742,1.2138,-0.54869,1.69075,-2.4269,-0.00207424,-1.70918,-2.46539,-0.0907928,-1.65301,-0.14574,-0.559844,-0.630513,0.381009,0.559698,0.423877,-0.482171,1
1.70475,-0.557948,-1.85043,-0.966591,2.49088,1.77837,-0.550159,1.69405,-0.550462,-1.83992,-0.964055,2.48199,1.76803,-0.543823,1.69946,-0.503563,-1.7866,-0.995452,2.43274,1.73279,-0.502843,-0.400835,-0.816609,-1.00965,0.848138,0.956144,0.72514,-0.713182,-0.400835,-0.816609,-1.00965,0.848138,0.956144,0.72514,-0.713182,0.296795,-0.258755,0.987635,0.402941,-0.282387,0.0629483,0.868293,-0.339453,-1.04049,-0.196524,1.18859,-0.551095,1.67307,-2.52115,-0.240499,-1.76767,-2.46903,-0.0987896,-1.75079,0.0528472,-0.543851,-0.638299,0.288614,0.58144,0.455844,-0.473159,1
1.71266,-0.565546,-1.86245,-0.968362,2.50104,1.78494,-0.560096,1.70293,-0.55836,-1.85084,-0.966439,2.49082,1.77741,-0.551227,1.69707,-0.5127,-1.79719,-0.987376,2.44315,1.73953,-0.510937,-0.222262,-0.848515,-0.983899,0.749994,0.96742,0.626382,-0.751698,-0.222262,-0.848515,-0.983899,0.749994,0.96742,0.626382,-0.751698,0.293787,-0.269674,0.985181,0.413218,-0.283915,0.0552129,0.863478,-0.264057,-0.981174,-0.23454,1.1644,-0.551865,1.65377,-2.41878,-0.077033,-1.9305,-2.46445,-0.0994823,-1.85383,0.155917,-0.528459,-0.652614,0.190143,0.578835,0.454086,-0.491584,1
1.70567,-0.576983,-1.87479,-0.997933,2.50457,1.79225,-0.568238,1.70894,-0.566506,-1.86253,-0.975312,2.49938,1.78513,-0.559647,1.69583,-0.520915,-1.80658,-0.981453,2.45196,1.74568,-0.518139,-0.0547543,-0.90745,-1.02397,0.534353,0.922284,0.686359,-0.788799,-0.0547543,-0.90745,-1.02397,0.534353,0.922284,0.686359,-0.788799,0.291655,-0.278883,0.982527,0.421673,-0.284857,0.048536,0.859472,-0.232445,-0.847087,-0.207613,1.14027,-0.551455,1.63355,-2.41306,0.0410676,-2.02167,-2.45349,-0.0886883,-1.95522,0.0983694,-0.560681,-0.682151,-0.164802,0.526156,0.465666,-0.500985,1
1.69538,-0.588336,-1.8856,-1.00571,2.50891,1.80043,-0.57559,1.70484,-0.576962,-1.87441,-0.992484,2.50477,1.79247,-0.56804,1.69657,-0.52931,-1.81631,-0.977447,2.4606,1.75248,-0.525508,0.195156,-0.892246,-1.06026,0.33809,0.928299,0.765506,-0.789926,0.195156,-0.892246,-1.06026,0.33809,0.928299,0.765506,-0.789926,0.290872,-0.283065,0.981093,0.425423,-0.285138,0.0454396,0.857699,-0.142425,-0.807651,-0.291219,1.11536,-0.553774,1.61272,-2.49122,-0.231904,-2.08281,-2.45271,-0.0982736,-2.05397,-0.0119321,-0.590265,-0.692867,-0.282615,0.483099,0.479436,-0.500821,1
1.68711,-0.595443,-1.89671,-1.01022,2.51575,1.80656,-0.583799,1.69588,-0.587275,-1.88568,-1.00489,2.50953,1.79991,-0.575804,1.69964,-0.538554,-1.8278,-0.976916,2.47024,1.7606,-0.533992,0.285369,-0.858514,-1.06668,0.0492748,0.895182,0.753427,-0.787951,0.285369,-0.858514,-1.06668,0.0492748,0.895182,0.753427,-0.787951,0.291093,-0.295814,0.974211,0.435708,-0.284337,0.0344308,0.853302,0.0606978,-0.738402,-0.472019,1.09086,-0.554942,1.59053,-2.44976,-0.116783,-2.21922,-2.45296,-0.104799,-2.15538,-0.125371,-0.56889,-0.689071,-0.333077,0.45517,0.459635,-0.498064,1
1.6664,-0.606313,-1.90821,-1.01229,2.51846,1.81046,-0.592592,1.684,-0.596384,-1.89681,-1.00961,2.51472,1.806,-0.583945,1.70094,-0.548099,-1.83938,-0.980785,2.47882,1.76852,-0.542454,0.120038,-0.886493,-1.07575,-0.359321,0.797134,0.735586,-0.785853,0.120038,-0.886493,-1.07575,-0.359321,0.797134,0.735586,-0.785853,0.292508,-0.304338,0.96799,0.442382,-0.281429,0.0280268,0.851064,0.125204,-0.747723,-0.599773,1.06655,-0.555648,1.56742,-2.43058,-0.0706494,-2.31102,-2.45084,-0.108841,-2.25756,-0.345386,-0.582142,-0.688284,-0.315085,0.396371,0.419452,-0.501375,1
1.65279,-0.623887,-1.91851,-1.03149,2.51218,1.81422,-0.603048,1.66817,-0.607989,-1.90791,-1.01658,2.51621,1.81042,-0.593007,1.70071,-0.556645,-1.84959,-0.985345,2.4859,1.77546,-0.549846,-0.148396,-0.940749,-1.10838,-0.600421,0.725828,0.751107,-0.797264,-0.148396,-0.940749,-1.10838,-0.600421,0.725828,0.751107,-0.797264,0.293678,-0.31209,0.962079,0.448629,-0.278304,0.022854,0.848974,0.107076,-0.645368,-0.523723,1.06508,-0.568691,1.52409,-0.146937,-1.3043,-4.33272,-2.19862,-0.228002,-2.56662,-0.47928,-0.67242,-0.689233,-0.461466,0.262785,0.387568,-0.532018,1
1.64908,-0.631837,-1.92252,-1.00832,2.53686,1.82158,-0.609691,1.65526,-0.621481,-1.91694,-1.0209,2.51992,1.81512,-0.602095,1.69793,-0.56547,-1.86004,-0.990831,2.49247,1.78235,-0.557381,-0.427973,-0.949483,-1.12931,-0.576847,0.683415,0.726499,-0.815869,-0.427973,-0.949483,-1.12931,-0.576847,0.683415,0.726499,-0.815869,0.294316,-0.320596,0.955712,0.455985,-0.274603,0.0182933,0.846366,0.00112846,-0.918987,-0.707737,1.0182,-0.5566,1.51875,-4.68861,1.20916,-0.534272,-2.27778,-0.180534,-2.59025,-0.488566,-0.663667,-0.624852,-0.174867,0.44398,0.392286,-0.523096,1
1.65056,-0.639165,-1.93342,-0.983209,2.54836,1.83418,-0.615481,1.65037,-0.631681,-1.92425,-1.00783,2.53357,1.82289,-0.609478,1.69054,-0.576037,-1.87194,-0.997229,2.49837,1.78933,-0.566235,-0.68687,-0.981374,-1.10493,-0.594201,0.548068,0.648034,-0.822279,-0.68687,-0.981374,-1.10493,-0.594201,0.548068,0.648034,-0.822279,0.293825,-0.331565,0.948174,0.466393,-0.269737,0.0142576,0.842328,-0.0845521,-0.990761,-0.728863,0.993664,-0.557651,1.49308,-2.45337,-0.105125,-2.56687,-2.35681,-0.135677,-2.61354,-0.399766,-0.631285,-0.614883,0.140206,0.499945,0.448563,-0.492457,1
1.64462,-0.65244,-1.94876,-1.03578,2.54572,1.84952,-0.623134,1.6487,-0.640652,-1.93453,-1.00263,2.54483,1.83486,-0.615947,1.68326,-0.585774,-1.88208,-1.00261,2.5033,1.79519,-0.574098,-0.859916,-1.0967,-1.07072,-0.561626,0.510615,0.611938,-0.859872,-0.859916,-1.0967,-1.07072,-0.561626,0.510615,0.611938,-0.859872,0.292943,-0.341562,0.941391,0.475897,-0.265341,0.0106672,0.838453,-0.160613,-1.09394,-0.768489,0.96986,-0.558915,1.46628,-2.38038,-0.126374,-2.67965,-2.42584,-0.0778296,-2.63886,-0.386397,-0.66666,-0.666807,-0.331669,0.424259,0.543227,-0.490355,1
1.63145,-0.665921,-1.96191,-1.05881,2.54142,1.85646,-0.634958,1.64281,-0.652492,-1.94821,-1.02839,2.54531,1.84742,-0.624177,1.67509,-0.597183,-1.89256,-1.00391,2.51082,1.80208,-0.582891,-0.759014,-1.05958,-0.973249,-0.120509,0.6987,0.639196,-0.816579,-0.759014,-1.05958,-0.973249,-0.120509,0.6987,0.639196,-0.816579,0.290183,-0.353442,0.934756,0.48715,-0.2624,0.00505872,0.83295,-0.277015,-1.07123,-0.635642,0.945468,-0.559734,1.43894,-2.43924,-0.0819802,-2.73384,-2.5035,-0.0352532,-2.65726,-0.436381,-0.687382,-0.693506,-0.548982,0.306039,0.543791,-0.52067,1
1.62325,-0.6751,-1.971,-1.06078,2.53624,1.86447,-0.642763,1.63269,-0.664845,-1.96089,-1.05354,2.5412,1.85672,-0.633953,1.66872,-0.606951,-1.9018,-1.00419,2.51797,1.80884,-0.590359,-0.614868,-1.03509,-1.00527,0.0480282,0.824837,0.79921,-0.785877,-0.614868,-1.03509,-1.00527,0.0480282,0.824837,0.79921,-0.785877,0.287478,-0.363487,0.929061,0.496638,-0.260538,-0.000112879,0.827932,-0.247189,-0.924123,-0.555284,0.921705,-0.560347,1.41048,-2.37633,-0.0612497,-2.84599,-2.57898,0.0053657,-2.67699,-0.454681,-0.681492,-0.691979,-0.565845,0.182683,0.556294,-0.524038,1
1.61074,-0.684878,-1.98093,-1.06053,2.53431,1.8672,-0.65213,1.62217,-0.67525,-1.97121,-1.06022,2.53705,1.86315,-0.643154,1.66296,-0.616902,-1.91176,-1.00723,2.52471,1.81698,-0.597814,-0.618922,-1.09308,-1.11967,-0.649914,0.632625,0.934828,-0.809694,-0.618922,-1.09308,-1.11967,-0.649914,0.632625,0.934828,-0.809694,0.285512,-0.373129,0.922288,0.50548,-0.258028,-0.00495846,0.823339,-0.142623,-0.981893,-0.852435,0.897984,-0.561083,1.38122,-2.37212,-0.0736475,-2.92649,-2.65173,0.0473044,-2.69741,-0.522222,-0.679757,-0.691748,-0.532962,0.0960205,0.50215,-0.543164,1
1.59705,-0.695526,-1.99318,-1.07628,2.51801,1.86196,-0.660768,1.61045,-0.685095,-1.98151,-1.06453,2.53072,1.86521,-0.651948,1.65661,-0.627392,-1.92251,-1.01584,2.52928,1.82578,-0.605667,-0.734524,-1.15035,-1.17905,-1.158,0.366098,0.950309,-0.868769,-0.734524,-1.15035,-1.17905,-1.158,0.366098,0.950309,-0.868769,0.284862,-0.382516,0.913634,0.513952,-0.253327,-0.00857124,0.819515,-0.060626,-0.969434,-1.03441,0.87383,-0.562034,1.35123,-2.41537,-0.0950515,-2.99852,-2.40222,-0.0878577,-2.99307,-0.595606,-0.681341,-0.706723,-0.60439,-0.112692,0.361739,-0.551012,1
1.58206,-0.699913,-2.00601,-1.09309,2.49301,1.86904,-0.665165,1.59672,-0.693961,-1.99332,-1.07654,2.51584,1.86504,-0.659708,1.64926,-0.638085,-1.93342,-1.0261,2.53169,1.83433,-0.613922,-0.832026,-1.14147,-1.1607,-1.04806,0.164667,0.885177,-0.897823,-0.832026,-1.14147,-1.1607,-1.04806,0.164667,0.885177,-0.897823,0.28431,-0.391803,0.904357,0.522743,-0.247763,-0.0110522,0.815617,-0.132129,-0.969517,-1.00708,0.849429,-0.563289,1.32028,-2.44007,-0.125539,-3.09508,-2.40089,-0.0875094,-3.07931,-0.672036,-0.61828,-0.725866,-0.669864,-0.386826,0.347119,-0.51243,1
1.57061,-0.705149,-2.0178,-1.10444,2.49042,1.8861,-0.667545,1.58294,-0.700125,-2.00575,-1.09172,2.49861,1.87153,-0.664661,1.64097,-0.648632,-1.94418,-1.03515,2.53218,1.84176,-0.622357,-0.937483,-1.11988,-1.14644,-0.902195,-0.0449118,0.71991,-0.908803,-0.937483,-1.11988,-1.14644,-0.902195,-0.0449118,0.71991,-0.908803,0.283126,-0.401036,0.89544,0.532149,-0.242226,-0.0124878,0.811165,-0.206501,-0.975076,-0.957937,0.825494,-0.564032,1.28779,-2.39349,-0.0742793,-3.24975,-2.40375,-0.0862471,-3.17165,-0.703646,-0.565171,-0.736196,-0.69288,-0.417603,0.443369,-0.451878,1
1.5622,-0.722235,-2.02952,-1.1151,2.49591,1.89148,-0.679835,1.57137,-0.708111,-2.01778,-1.10427,2.49244,1.88318,-0.670022,1.63156,-0.658874,-1.95503,-1.04405,2.52984,1.84757,-0.630744,-1.06982,-1.07759,-1.17602,-0.997857,-0.429968,0.536543,-0.889543,-1.06982,-1.07759,-1.17602,-0.997857,-0.429968,0.536543,-0.889543,0.281666,-0.410066,0.886697,0.541988,-0.236052,-0.0122281,0.806461,-0.188299,-0.839796,-0.834913,0.80161,-0.565191,1.25462,-2.38847,-0.115883,-3.31703,-2.40197,-0.0926627,-3.269,-0.693577,-0.633609,-0.744849,-0.710421,-0.339311,0.439111,-0.490909,1
1.55216,-0.735601,-2.04059,-1.12667,2.49418,1.89643,-0.689879,1.56179,-0.721305,-2.02936,-1.11533,2.4941,1.89137,-0.679274,1.62107,-0.668414,-1.9662,-1.05415,2.52406,1.85277,-0.638602,-1.17083,-0.973905,-1.21454,-1.154,-0.781675,0.576179,-0.800331,-1.17083,-0.973905,-1.21454,-1.154,-0.781675,0.576179,-0.800331,0.280204,-0.418467,0.877838,0.551696,-0.229273,-0.00974392,0.801854,-0.237631,-0.868418,-0.987228,0.777673,-0.566636,1.22022,-2.39367,-0.14447,-3.43976,-2.40421,-0.103855,-3.36948,-0.68904,-0.671861,-0.743922,-0.725256,-0.298803,0.436566,-0.512771,1
1.53915,-0.748675,-2.05306,-1.13985,2.48594,1.89944,-0.69747,1.55142,-0.735528,-2.04094,-1.12707,2.49255,1.89595,-0.689266,1.60872,-0.67828,-1.97902,-1.0666,2.5162,1.86033,-0.646411,-1.14701,-0.916189,-1.19043,-1.15669,-0.729901,0.701763,-0.725178,-1.14701,-0.916189,-1.19043,-1.15669,-0.729901,0.701763,-0.725178,0.278218,-0.427143,0.867669,0.561873,-0.222194,-0.00580034,0.796803,-0.270836,-0.811641,-0.976363,0.753833,-0.567618,1.18524,-2.38396,-0.0981987,-3.49828,-2.40209,-0.109669,-3.47019,-0.695701,-0.703947,-0.740342,-0.732426,-0.302607,0.391122,-0.510599,1
1.52822,-0.76124,-2.06524,-1.1525,2.48332,1.90625,-0.706523,1.53967,-0.748547,-2.05299,-1.13972,2.48735,1.90039,-0.697836,1.59705,-0.688973,-1.99153,-1.07871,2.51071,1.86805,-0.654578,-1.08297,-0.992994,-1.16175,-1.1245,-0.51008,0.716425,-0.758466,-1.08297,-0.992994,-1.16175,-1.1245,-0.51008,0.716425,-0.758466,0.275924,-0.436206,0.857143,0.57184,-0.215048,-0.00365617,0.791669,-0.291421,-0.832462,-1.00846,0.730033,-0.568259,1.14941,-2.38,-0.0641346,-3.58306,-2.3943,-0.106912,-3.5684,-0.688363,-0.722672,-0.73707,-0.737901,-0.273881,0.382044,-0.519448,1
1.52118,-0.772428,-2.07561,-1.16404,2.48445,1.91559,-0.715963,1.52919,-0.760896,-2.06478,-1.15222,2.48426,1.90688,-0.70662,1.58691,-0.698901,-2.00247,-1.08938,2.50638,1.87445,-0.662045,-1.09004,-1.12488,-1.1814,-1.15776,-0.424566,0.66014,-0.836003,-1.09004,-1.12488,-1.1814,-1.15776,-0.424566,0.66014,-0.836003,0.273724,-0.444375,0.847583,0.580605,-0.208374,-0.00235162,0.787066,-0.311525,-0.893765,-1.08838,0.705626,-0.569408,1.11262,-2.44077,-0.114948,-3.67819,-2.39325,-0.104421,-3.66116,-0.657266,-0.73527,-0.731337,-0.746691,-0.219329,0.41136,-0.539178,1
1.51406,-0.785045,-2.08754,-1.17791,2.4942,1.92749,-0.725733,1.52116,-0.772785,-2.076,-1.16463,2.4866,1.91623,-0.716046,1.57517,-0.711239,-2.01503,-1.10189,2.50165,1.8809,-0.67094,-1.09032,-1.14581,-1.1658,-1.16187,-0.43919,0.598688,-0.826023,-1.09032,-1.14581,-1.1658,-1.16187,-0.43919,0.598688,-0.826023,0.271031,-0.454172,0.836051,0.590768,-0.199828,-0.00145241,0.781703,-0.367526,-1.02799,-1.26872,0.681254,-0.571055,1.07472,-2.43721,-0.164622,-3.79016,-2.40118,-0.111164,-3.74998,-0.611045,-0.73806,-0.725112,-0.760267,-0.0744824,0.465882,-0.547933,1
1.49847,-0.797286,-2.09892,-1.18816,2.48772,1.91938,-0.731694,1.51195,-0.784951,-2.0874,-1.17701,2.49014,1.92248,-0.724781,1.56495,-0.722155,-2.02603,-1.11295,2.49768,1.88661,-0.678794,-1.09828,-1.18981,-1.1902,-1.20609,-0.4123,0.622714,-0.854604,-1.09828,-1.18981,-1.1902,-1.20609,-0.4123,0.622714,-0.854604,0.268445,-0.46263,0.82575,0.599511,-0.192248,-0.000892304,0.776934,-0.297739,-0.756051,-0.962424,0.657737,-0.57166,1.03525,-2.35167,-0.0605524,-3.94717,-2.40237,-0.107273,-3.84895,-0.6648,-0.751308,-0.728866,-0.752059,-0.0996025,0.327722,-0.529001,1
1.48976,-0.809757,-2.10998,-1.20051,2.47816,1.92967,-0.740459,1.50019,-0.797343,-2.09884,-1.18868,2.48695,1.92398,-0.732395,1.55407,-0.734738,-2.03845,-1.1258,2.49493,1.89397,-0.688052,-1.01064,-1.16853,-1.1532,-1.19259,-0.255722,0.683638,-0.859761,-1.01064,-1.16853,-1.1532,-1.19259,-0.255722,0.683638,-0.859761,0.265345,-0.472027,0.813726,0.609102,-0.183863,-0.00142746,0.771484,-0.359718,-0.830669,-1.14777,0.634647,-0.572329,0.995272,-2.30898,-0.0668526,-3.99781,-2.39304,-0.0998569,-3.9482,-0.643085,-0.750188,-0.715351,-0.747109,-0.167717,0.357018,-0.524074,1
1.48516,-0.822606,-2.12085,-1.21356,2.48355,1.94845,-0.748053,1.49079,-0.809851,-2.10993,-1.20068,2.4819,1.93179,-0.740166,1.5436,-0.747217,-2.05061,-1.13852,2.49374,1.90106,-0.69718,-0.972179,-1.1589,-1.12978,-1.18196,-0.110494,0.658149,-0.847698,-0.972179,-1.1589,-1.12978,-1.18196,-0.110494,0.658149,-0.847698,0.263595,-0.476976,0.807309,0.614084,-0.179349,-0.00219064,0.768589,-0.419467,-0.939572,-1.31514,0.611324,-0.572846,0.95446,-2.3323,-0.0517666,-4.08115,-2.37925,-0.0931331,-4.04988,-0.584371,-0.753886,-0.702353,-0.750384,-0.101914,0.473962,-0.50873,1
1.47093,-0.834753,-2.13309,-1.22442,2.49352,1.94339,-0.757455,1.48275,-0.82243,-2.12119,-1.21301,2.4847,1.94249,-0.748505,1.53417,-0.758245,-2.06128,-1.14964,2.49242,1.90658,-0.705053,-1.04351,-1.20082,-1.15356,-1.1991,-0.16799,0.534355,-0.83974,-1.04351,-1.20082,-1.15356,-1.1991,-0.16799,0.534355,-0.83974,0.25884,-0.489198,0.791101,0.626455,-0.167653,-0.00406715,0.761203,-0.33403,-0.687151,-0.995858,0.587469,-0.573661,0.912642,-2.38557,-0.0814617,-4.18181,-2.36751,-0.0869862,-4.15023,-0.632351,-0.765087,-0.718085,-0.747777,0.0110284,0.368133,-0.524018,1
1.46227,-0.846022,-2.14277,-1.23582,2.50896,1.94201,-0.765554,1.47232,-0.834533,-2.13245,-1.22456,2.49489,1.94431,-0.757129,1.52447,-0.769627,-2.07209,-1.16094,2.49039,1.91194,-0.712882,-1.03452,-1.23539,-1.16224,-1.22055,-0.26081,0.609595,-0.837944,-1.03452,-1.23539,-1.16224,-1.22055,-0.26081,0.609595,-0.837944,0.25544,-0.497152,0.780151,0.634498,-0.159559,-0.00506463,0.756259,-0.430899,-0.795791,-1.2152,0.563868,-0.574616,0.869799,-2.36003,-0.0954926,-4.28426,-2.35448,-0.0786475,-4.24793,-0.622035,-0.763949,-0.706834,-0.748801,0.185676,0.300629,-0.526711,1
1.45204,-0.858709,-2.15324,-1.24621,2.50606,1.9356,-0.774067,1.46188,-0.846376,-2.14297,-1.23557,2.50437,1.94075,-0.765657,1.51503,-0.781298,-2.08299,-1.17246,2.48865,1.9183,-0.720773,-0.991307,-1.26327,-1.17316,-1.24545,-0.121497,0.742943,-0.851702,-0.991307,-1.26327,-1.17316,-1.24545,-0.121497,0.742943,-0.851702,0.251834,-0.504884,0.768838,0.642314,-0.151727,-0.00641462,0.751246,-0.382476,-0.679568,-1.0569,0.540682,-0.575311,0.825951,-2.31863,-0.0695288,-4.38483,-2.34511,-0.0714758,-4.34229,-0.629871,-0.774113,-0.702497,-0.737533,0.174067,0.172954,-0.532938,1
1.45107,-0.869297,-2.16335,-1.25804,2.5053,1.95912,-0.779575,1.45436,-0.858184,-2.15315,-1.24657,2.50659,1.94308,-0.773316,1.50562,-0.793131,-2.09399,-1.18407,2.48903,1.92456,-0.728813,-1.02268,-1.27161,-1.18137,-1.24332,0.180092,0.606779,-0.869684,-1.02268,-1.27161,-1.18137,-1.24332,0.180092,0.606779,-0.869684,0.247838,-0.51272,0.757315,0.650229,-0.143689,-0.00893082,0.745973,-0.398857,-0.657251,-1.08856,0.517641,-0.576067,0.781513,-2.30414,-0.0755429,-4.44385,-2.3417,-0.0748358,-4.4304,-0.545542,-0.761657,-0.693649,-0.739672,0.162726,0.34566,-0.50762,1
1.44492,-0.882965,-2.17581,-1.27098,2.522,1.97264,-0.783959,1.44977,-0.870067,-2.16394,-1.25832,2.50966,1.95662,-0.779294,1.49475,-0.806364,-2.10616,-1.19687,2.49284,1.92858,-0.73797,-1.00961,-1.22893,-1.13059,-1.18853,0.354261,0.373806,-0.850386,-1.00961,-1.22893,-1.13059,-1.18853,0.354261,0.373806,-0.850386,0.242915,-0.521996,0.744525,0.659527,-0.133285,-0.0134729,0.739648,-0.514048,-0.774117,-1.21543,0.495061,-0.576596,0.736784,-2.25796,-0.0529826,-4.47289,-2.33183,-0.0746208,-4.51446,-0.498335,-0.766009,-0.696464,-0.741076,0.291553,0.440555,-0.459895,1
1.4323,-0.894417,-2.18673,-1.28244,2.53145,1.96517,-0.79555,1.4433,-0.882411,-2.17542,-1.27061,2.52018,1.96739,-0.785761,1.48558,-0.81788,-2.11666,-1.20795,2.496,1.93192,-0.74587,-0.958986,-1.2379,-1.12073,-1.18612,0.325293,0.342926,-0.842952,-0.958986,-1.2379,-1.12073,-1.18612,0.325293,0.342926,-0.842952,0.238594,-0.529729,0.733331,0.667342,-0.124168,-0.0174458,0.73412,-0.453771,-0.660016,-1.057,0.473559,-0.576488,0.691305,-2.15023,0.0108838,-4.54792,-2.30121,-0.0651619,-4.59096,-0.532758,-0.765371,-0.700641,-0.744903,0.354451,0.332526,-0.496801,1
1.4211,-0.906782,-2.19707,-1.29317,2.52937,1.97011,-0.804812,1.43266,-0.894645,-2.18658,-1.28226,2.52856,1.96827,-0.794968,1.47721,-0.829478,-2.12717,-1.21912,2.49904,1.93649,-0.753487,-0.842663,-1.24663,-1.12935,-1.20409,0.326173,0.618161,-0.792637,-0.842663,-1.24663,-1.12935,-1.20409,0.326173,0.618161,-0.792637,0.234385,-0.5369,0.721934,0.674585,-0.115583,-0.0214879,0.728776,-0.479111,-0.659078,-1.25143,0.448097,-0.579507,0.644672,-2.54613,-0.301963,-4.66329,-2.30126,-0.0805983,-4.66453,-0.561068,-0.773033,-0.699061,-0.740553,0.303237,0.336217,-0.513249,1
1.41256,-0.919838,-2.20852,-1.30542,2.53174,1.97559,-0.811027,1.42177,-0.906954,-2.19735,-1.29355,2.53048,1.97025,-0.80405,1.46878,-0.842633,-2.13916,-1.23191,2.5043,1.94417,-0.761508,-0.782637,-1.22172,-1.11376,-1.18857,0.487953,0.713148,-0.744908,-0.782637,-1.22172,-1.11376,-1.18857,0.487953,0.713148,-0.744908,0.229508,-0.544413,0.708751,0.682145,-0.106958,-0.0270228,0.722847,-0.48595,-0.609643,-1.24106,0.424301,-0.580094,0.596632,-2.37966,-0.0587046,-4.80396,-2.31412,-0.0901716,-4.74382,-0.562251,-0.772043,-0.693643,-0.735101,0.274484,0.314235,-0.495196,1
1.41023,-0.930952,-2.21866,-1.31677,2.54158,1.98557,-0.814857,1.41411,-0.919352,-2.2082,-1.3052,2.53361,1.97672,-0.810431,1.46103,-0.854148,-2.14966,-1.24308,2.50936,1.95006,-0.768761,-0.87154,-1.24383,-1.13413,-1.20332,0.589809,0.559373,-0.804917,-0.87154,-1.24383,-1.13413,-1.20332,0.589809,0.559373,-0.804917,0.22491,-0.550953,0.697172,0.688968,-0.0989812,-0.0321176,0.717283,-0.545553,-0.632407,-1.26384,0.40088,-0.581224,0.547511,-2.3421,-0.112933,-4.91208,-2.33232,-0.102512,-4.83283,-0.508031,-0.768044,-0.69,-0.736849,0.322203,0.355112,-0.460961,1
1.40023,-0.944096,-2.23044,-1.32916,2.55094,1.98896,-0.820132,1.40831,-0.931459,-2.21907,-1.31703,2.54146,1.98392,-0.815218,1.45127,-0.867271,-2.16151,-1.25562,2.51461,1.95508,-0.777531,-0.906291,-1.21882,-1.10076,-1.1649,0.487476,0.46597,-0.814505,-0.906291,-1.21882,-1.10076,-1.1649,0.487476,0.46597,-0.814505,0.219195,-0.558431,0.684027,0.697136,-0.0891365,-0.0377095,0.710376,-0.56815,-0.598176,-1.23583,0.37772,-0.581016,0.49742,-2.31601,0.0207543,-5.00913,-2.3478,-0.0989624,-4.93391,-0.510407,-0.768246,-0.689294,-0.735328,0.363311,0.338843,-0.426008,1
1.38864,-0.955546,-2.24056,-1.34038,2.5554,1.98388,-0.831448,1.39984,-0.943673,-2.23003,-1.32887,2.54972,1.98684,-0.821642,1.44292,-0.878784,-2.17186,-1.2666,2.51897,1.95971,-0.784971,-0.884863,-1.24601,-1.11596,-1.18541,0.449618,0.522451,-0.781965,-0.884863,-1.24601,-1.11596,-1.18541,0.449618,0.522451,-0.781965,0.214128,-0.5646,0.672438,0.703989,-0.0806204,-0.0425473,0.704336,-0.49851,-0.506849,-1.0734,0.353947,-0.583547,0.445949,-2.37731,-0.253111,-5.14716,-2.36514,-0.112948,-5.04798,-0.542785,-0.767624,-0.687021,-0.737842,0.364311,0.241745,-0.464767,1
1.38126,-0.967502,-2.25076,-1.35142,2.55981,1.99417,-0.837548,1.3897,-0.955673,-2.24058,-1.34034,2.55539,1.98772,-0.830144,1.43499,-0.890478,-2.18234,-1.27777,2.52365,1.96489,-0.791936,-0.819361,-1.2587,-1.12816,-1.20585,0.546953,0.584457,-0.715095,-0.819361,-1.2587,-1.12816,-1.20585,0.546953,0.584457,-0.715095,0.209068,-0.570438,0.660591,0.710446,-0.072193,-0.0476285,0.698417,-0.560285,-0.523647,-1.28716,0.332294,-0.583034,0.394215,-2.16526,0.0512898,-5.17331,-2.35242,-0.102291,-5.15688,-0.537279,-0.770238,-0.684213,-0.736536,0.361587,0.292739,-0.45612,1
1.37555,-0.979455,-2.26092,-1.36268,2.56893,2.00125,-0.841781,1.38168,-0.967501,-2.25075,-1.35148,2.56099,1.99337,-0.837081,1.42723,-0.902288,-2.19293,-1.2891,2.52918,1.97001,-0.798577,-0.841447,-1.27106,-1.13947,-1.22136,0.630787,0.516939,-0.708412,-0.841447,-1.27106,-1.13947,-1.22136,0.630787,0.516939,-0.708412,0.203897,-0.576095,0.648544,0.716706,-0.0635768,-0.0531698,0.692433,-0.586611,-0.512738,-1.30463,0.308458,-0.584661,0.341743,-2.38363,-0.162643,-5.24722,-2.32095,-0.0845143,-5.25422,-0.51678,-0.771667,-0.679903,-0.735745,0.397569,0.312421,-0.432039,1
1.36741,-0.992236,-2.27262,-1.37567,2.5779,2.00522,-0.84784,1.37495,-0.979662,-2.2613,-1.36311,2.5689,2.00047,-0.842237,1.4179,-0.915556,-2.20477,-1.30183,2.53569,1.97441,-0.806422,-0.866352,-1.23214,-1.09993,-1.18257,0.604963,0.408782,-0.72858,-0.866352,-1.23214,-1.09993,-1.18257,0.604963,0.408782,-0.72858,0.197698,-0.582418,0.634977,0.723973,-0.0532228,-0.059587,0.685186,-0.603325,-0.479893,-1.26611,0.285579,-0.58579,0.289085,-2.28788,-0.112879,-5.26578,-2.3087,-0.0927793,-5.3335,-0.504924,-0.766802,-0.678517,-0.73835,0.422079,0.308041,-0.414176,1
1.3591,-1.00411,-2.28252,-1.38646,2.58386,2.00854,-0.854767,1.36737,-0.992009,-2.27217,-1.37512,2.57715,2.00506,-0.848057,1.40983,-0.9271,-2.21502,-1.31289,2.54133,1.97847,-0.813241,-0.864454,-1.24086,-1.0973,-1.18524,0.603754,0.457493,-0.732218,-0.864454,-1.24086,-1.0973,-1.18524,0.603754,0.457493,-0.732218,0.192167,-0.587574,0.62313,0.730145,-0.0443368,-0.065201,0.678728,-0.617318,-0.445206,-1.27468,0.262483,-0.586913,0.234694,-2.30959,-0.112301,-5.43918,-2.30343,-0.0990255,-5.41189,-0.507266,-0.77008,-0.674976,-0.735695,0.425268,0.300627,-0.415261,1
1.35139,-1.01577,-2.29251,-1.39762,2.58962,2.00974,-0.86451,1.35925,-1.00406,-2.28254,-1.38655,2.58381,2.00801,-0.855471,1.40194,-0.93876,-2.22531,-1.32403,2.54727,1.98312,-0.819852,-0.828907,-1.2562,-1.10553,-1.20039,0.664154,0.532954,-0.687499,-0.828907,-1.2562,-1.10553,-1.20039,0.664154,0.532954,-0.687499,0.186532,-0.592389,0.61113,0.736094,-0.0356493,-0.0710231,0.672199,-0.539588,-0.373321,-1.10603,0.239634,-0.587282,0.178792,-2.28487,-0.0369966,-5.59012,-2.29964,-0.101019,-5.4983,-0.505497,-0.770124,-0.672018,-0.735933,0.423461,0.26615,-0.44658,1
1.34471,-1.02798,-2.30266,-1.40856,2.59665,2.0187,-0.869067,1.35164,-1.01591,-2.29255,-1.39756,2.58994,2.00966,-0.863214,1.39422,-0.950568,-2.2357,-1.33534,2.55374,1.98804,-0.82619,-0.824619,-1.27273,-1.12009,-1.22174,0.718825,0.52251,-0.671577,-0.824619,-1.27273,-1.12009,-1.22174,0.718825,0.52251,-0.671577,0.180807,-0.596929,0.598922,0.741829,-0.0269377,-0.0771613,0.66559,-0.628709,-0.380364,-1.31425,0.216921,-0.587712,0.122041,-2.27133,-0.0429571,-5.6751,-2.29418,-0.0830101,-5.59149,-0.4951,-0.774136,-0.669605,-0.732278,0.429102,0.306608,-0.428771,1
