Afshin1997/kuka_rl_ros2/src/catch_and_throw/output_files/ft/idealpd_12/ft_received_joint_pos_np.csv
joint_0,joint_1,joint_2,joint_3,joint_4,joint_5,joint_6
0.78666,0.00328673,1.32638,1.22183,1.60574,-0.907402,1.57077
0.78666,0.00328673,1.32638,1.22183,1.60574,-0.907401,1.57077
0.78666,0.00328673,1.32638,1.22183,1.60574,-0.907401,1.57077
0.78666,0.00328661,1.32639,1.22182,1.60574,-0.907408,1.57077
0.786657,0.00327421,1.32629,1.22189,1.60568,-0.907503,1.57083
0.78666,0.0032358,1.32582,1.22223,1.60543,-0.908094,1.57089
0.786765,0.0032237,1.32504,1.22262,1.60515,-0.909169,1.57051
0.787075,0.00330537,1.32427,1.22276,1.60541,-0.909937,1.56931
0.787556,0.00353367,1.32384,1.22254,1.60666,-0.909389,1.5671
0.788103,0.00387102,1.32407,1.22181,1.60905,-0.906916,1.56407
0.788667,0.00410148,1.32518,1.22031,1.6125,-0.902512,1.56061
0.78929,0.00402119,1.32754,1.21783,1.61675,-0.896539,1.557
0.789934,0.00340436,1.331,1.21431,1.62147,-0.889735,1.55345
0.790604,0.00197099,1.33538,1.20994,1.62637,-0.882764,1.55004
0.791427,-0.000248373,1.34066,1.2048,1.63134,-0.875914,1.54684
0.79246,-0.00297472,1.34678,1.19921,1.63622,-0.869423,1.5439
0.793653,-0.00606869,1.35342,1.19354,1.64102,-0.8633,1.54124
0.795139,-0.00928676,1.3605,1.18761,1.64566,-0.857606,1.53884
0.797032,-0.012525,1.36792,1.18148,1.65013,-0.852455,1.5367
0.799261,-0.0158597,1.37535,1.17553,1.65442,-0.847885,1.53479
0.801821,-0.0193092,1.38267,1.16947,1.6585,-0.843832,1.53312
0.804603,-0.0228998,1.38967,1.16323,1.66242,-0.840211,1.53165
0.807578,-0.0266123,1.39634,1.15713,1.66615,-0.837092,1.53035
0.810802,-0.0302373,1.40285,1.15122,1.66965,-0.834451,1.52923
0.814225,-0.033838,1.40917,1.14532,1.67295,-0.832179,1.52827
0.817813,-0.0374382,1.4153,1.13967,1.67608,-0.830272,1.52747
0.821521,-0.0410356,1.42124,1.13426,1.679,-0.828693,1.52683
0.82522,-0.0448231,1.4269,1.12886,1.68177,-0.827287,1.52633
0.828902,-0.0487599,1.43235,1.12349,1.68438,-0.826096,1.52595
0.832703,-0.0527357,1.43787,1.11826,1.68686,-0.825137,1.52567
0.836568,-0.0567708,1.44342,1.1131,1.68919,-0.824404,1.52547
0.840295,-0.0609204,1.44869,1.10784,1.69145,-0.823717,1.52537
0.843858,-0.0652312,1.45373,1.10262,1.69366,-0.823117,1.52531
0.847334,-0.0695247,1.45872,1.09743,1.69577,-0.822601,1.52528
0.850783,-0.0738515,1.46378,1.09224,1.69783,-0.822146,1.52526
0.854154,-0.0782601,1.46882,1.08701,1.69982,-0.821718,1.52525
0.857387,-0.0827766,1.47375,1.08186,1.70176,-0.821325,1.52523
0.860441,-0.0874368,1.47852,1.07687,1.70366,-0.820925,1.5252
0.863289,-0.0921555,1.48311,1.07187,1.70553,-0.820419,1.52514
0.866041,-0.0969973,1.48769,1.06697,1.70739,-0.819859,1.52505
0.868779,-0.101873,1.49236,1.06224,1.70922,-0.819294,1.52493
0.871421,-0.106858,1.49697,1.05773,1.71105,-0.8187,1.52478
0.87388,-0.11191,1.5014,1.05324,1.71288,-0.817943,1.52463
0.876229,-0.117038,1.50578,1.0488,1.71473,-0.817123,1.52446
0.878528,-0.122195,1.51017,1.04453,1.7166,-0.816295,1.52424
0.880724,-0.127393,1.51447,1.0404,1.71846,-0.815347,1.52397
0.882754,-0.13254,1.51865,1.03633,1.72031,-0.814326,1.5237
0.884697,-0.137704,1.52285,1.0322,1.72218,-0.813317,1.52344
0.886526,-0.142916,1.52707,1.02812,1.72408,-0.812309,1.52324
0.888171,-0.148178,1.53122,1.02403,1.72599,-0.811238,1.52309
0.889609,-0.153394,1.53534,1.02,1.72789,-0.810127,1.52293
0.89089,-0.158571,1.53954,1.01584,1.72983,-0.808996,1.52275
0.891944,-0.163795,1.54371,1.01154,1.73179,-0.807817,1.52254
0.892753,-0.168984,1.54776,1.00717,1.73378,-0.806553,1.52226
0.893491,-0.174065,1.55188,1.00286,1.73579,-0.805272,1.52188
0.894236,-0.179101,1.55611,0.998565,1.7378,-0.803992,1.52139
0.894888,-0.184159,1.56019,0.994135,1.73986,-0.802598,1.52083
0.89542,-0.189229,1.56411,0.989647,1.74197,-0.80113,1.52017
0.895983,-0.194372,1.56805,0.985244,1.7441,-0.799678,1.51941
0.896574,-0.199541,1.57197,0.980906,1.74626,-0.798159,1.51855
0.897154,-0.204685,1.57584,0.976612,1.74844,-0.796593,1.51764
0.89769,-0.209826,1.57967,0.972233,1.75064,-0.794998,1.51665
0.89809,-0.215001,1.58341,0.967845,1.75286,-0.793338,1.51561
0.898395,-0.220219,1.5871,0.963547,1.75512,-0.791651,1.51453
0.898677,-0.22528,1.59086,0.959374,1.75735,-0.789958,1.51345
0.898972,-0.230285,1.59472,0.955128,1.75959,-0.78828,1.51234
0.899143,-0.235317,1.59847,0.950832,1.76186,-0.78657,1.51123
0.899159,-0.240339,1.60198,0.946627,1.76413,-0.784791,1.51014
0.899196,-0.245186,1.60556,0.942596,1.76637,-0.783024,1.50908
0.899329,-0.249959,1.6093,0.938574,1.76861,-0.781325,1.50805
0.899398,-0.25473,1.61292,0.934469,1.77084,-0.779625,1.50704
0.899343,-0.25952,1.61635,0.930363,1.77309,-0.777881,1.50605
0.899298,-0.26414,1.61978,0.926332,1.7753,-0.776144,1.50505
0.899342,-0.268645,1.62329,0.92234,1.77751,-0.774445,1.50405
0.899402,-0.273137,1.62676,0.918339,1.77973,-0.772742,1.50304
0.899428,-0.277616,1.63012,0.914203,1.78196,-0.77101,1.50202
0.899488,-0.281985,1.63348,0.910054,1.78416,-0.769276,1.50098
0.899651,-0.286244,1.63691,0.905908,1.78638,-0.767592,1.49992
0.899832,-0.290516,1.64024,0.901826,1.7886,-0.765894,1.49884
0.899986,-0.294806,1.64342,0.897663,1.79084,-0.764172,1.49777
0.900196,-0.298997,1.64662,0.893404,1.79308,-0.762488,1.49669
0.90054,-0.303012,1.64994,0.889181,1.79529,-0.760835,1.49562
0.900958,-0.306962,1.65325,0.885039,1.7975,-0.759219,1.49456
0.901308,-0.310858,1.65638,0.880957,1.79973,-0.757581,1.4935
0.901628,-0.314704,1.65945,0.876835,1.80196,-0.755906,1.49246
0.901986,-0.31842,1.66261,0.872737,1.80418,-0.754235,1.49142
0.902415,-0.32202,1.66588,0.868772,1.8064,-0.752586,1.4904
0.902815,-0.325529,1.66913,0.864973,1.80862,-0.750945,1.48936
0.903124,-0.328961,1.67226,0.861271,1.81087,-0.749236,1.4883
0.903402,-0.33231,1.67542,0.857579,1.81312,-0.747566,1.48721
0.90368,-0.335582,1.67867,0.85392,1.81535,-0.745909,1.4861
0.903941,-0.338763,1.68194,0.850434,1.81761,-0.744258,1.48497
0.904184,-0.341862,1.68524,0.847144,1.81986,-0.742654,1.48379
0.904356,-0.344837,1.68855,0.843991,1.82211,-0.741072,1.48261
0.90446,-0.347712,1.6919,0.840924,1.82439,-0.739497,1.4814
0.9045,-0.350488,1.69534,0.837924,1.82667,-0.737936,1.48017
0.904467,-0.353296,1.69882,0.835073,1.82895,-0.736366,1.47892
0.904344,-0.356102,1.7023,0.832484,1.83126,-0.734775,1.47768
0.904183,-0.358817,1.70584,0.83011,1.83356,-0.733195,1.47644
0.903985,-0.361381,1.70949,0.827961,1.83587,-0.731622,1.47521
0.903725,-0.363826,1.7132,0.826186,1.83819,-0.73006,1.47401
0.903372,-0.36625,1.71691,0.825022,1.84052,-0.728499,1.47286
0.902859,-0.368694,1.72062,0.824499,1.84289,-0.726878,1.47192
0.902181,-0.371219,1.7244,0.824762,1.84529,-0.72525,1.47134
0.901273,-0.373783,1.72824,0.825883,1.84769,-0.723613,1.471
0.900062,-0.376315,1.73211,0.827818,1.8501,-0.721968,1.47066
0.898462,-0.378778,1.73604,0.830431,1.85251,-0.720362,1.47028
0.896435,-0.381142,1.74007,0.83363,1.85491,-0.718767,1.46986
0.894011,-0.383433,1.74426,0.837253,1.85728,-0.717254,1.4694
0.891178,-0.385709,1.74858,0.84113,1.8596,-0.715719,1.46889
0.887918,-0.388007,1.75293,0.845024,1.8619,-0.714165,1.46834
0.884314,-0.390378,1.75731,0.848676,1.86418,-0.712569,1.46779
0.880506,-0.392733,1.7617,0.852274,1.86646,-0.710965,1.46725
0.876703,-0.394977,1.76608,0.855994,1.86872,-0.709341,1.46671
0.87297,-0.397134,1.77035,0.859746,1.87095,-0.707681,1.46619
0.869329,-0.39926,1.77437,0.863502,1.87319,-0.705902,1.46568
0.865872,-0.401339,1.77821,0.867385,1.87544,-0.704054,1.46518
0.862711,-0.40336,1.782,0.871494,1.87768,-0.702202,1.46469
0.85981,-0.405343,1.78569,0.875937,1.87991,-0.700301,1.46424
0.857052,-0.407362,1.78923,0.880627,1.88212,-0.698348,1.46383
0.854301,-0.409422,1.79264,0.885371,1.88432,-0.696365,1.46344
0.851529,-0.411493,1.79602,0.889988,1.88655,-0.694377,1.46304
0.84872,-0.413511,1.79949,0.894695,1.88874,-0.692435,1.46262
0.845942,-0.415507,1.80307,0.899453,1.89091,-0.690577,1.46221
0.843146,-0.417508,1.80673,0.904222,1.89306,-0.688764,1.46184
0.840288,-0.419578,1.81036,0.908785,1.89522,-0.686944,1.46149
0.837316,-0.42169,1.81392,0.913413,1.89736,-0.685141,1.46113
0.834242,-0.423868,1.81737,0.918223,1.89952,-0.683333,1.46076
0.831093,-0.426022,1.82086,0.923061,1.90165,-0.681557,1.4604
0.827934,-0.428143,1.82454,0.927611,1.9038,-0.67986,1.46009
0.824715,-0.430243,1.82832,0.932021,1.90595,-0.678235,1.45981
0.821391,-0.432299,1.83207,0.936447,1.90809,-0.67662,1.45955
0.81802,-0.434305,1.83582,0.940836,1.91022,-0.674971,1.45928
0.81462,-0.436219,1.83958,0.945153,1.91236,-0.673338,1.459
0.81123,-0.438052,1.84338,0.949291,1.91449,-0.671719,1.45872
0.807875,-0.439794,1.84725,0.953474,1.91661,-0.670124,1.45843
0.804628,-0.441515,1.85118,0.957662,1.91875,-0.668544,1.45817
0.801419,-0.443248,1.85504,0.961969,1.92084,-0.666967,1.45794
0.798219,-0.445069,1.85877,0.966159,1.92296,-0.665352,1.45776
0.795024,-0.446937,1.86242,0.970271,1.92508,-0.663705,1.4576
0.791934,-0.448845,1.86611,0.974431,1.9272,-0.662076,1.45743
0.788952,-0.450753,1.86982,0.978701,1.92931,-0.660436,1.45725
0.786048,-0.452672,1.87353,0.982984,1.93144,-0.658773,1.45712
0.78319,-0.454609,1.87722,0.987169,1.93357,-0.657083,1.45702
0.780365,-0.456516,1.88093,0.991329,1.93571,-0.655366,1.45698
0.777617,-0.458417,1.88466,0.995576,1.93786,-0.65363,1.45698
0.774901,-0.460299,1.88835,0.999904,1.93999,-0.651862,1.45699
0.772185,-0.462236,1.89207,1.00419,1.94215,-0.650102,1.45701
0.769409,-0.464215,1.89579,1.00835,1.94431,-0.648331,1.45703
0.766621,-0.466236,1.89957,1.01253,1.94647,-0.646599,1.45705
0.763864,-0.468277,1.90345,1.01678,1.94863,-0.644927,1.45707
0.761104,-0.470327,1.90736,1.02101,1.95078,-0.643294,1.45709
0.758276,-0.472376,1.91124,1.02508,1.95292,-0.641651,1.45718
0.755339,-0.474382,1.91504,1.02904,1.95508,-0.639992,1.45738
0.752409,-0.476337,1.91891,1.03307,1.95723,-0.638339,1.45776
0.749555,-0.478217,1.92289,1.03714,1.95936,-0.636738,1.45837
0.746761,-0.480059,1.92695,1.04119,1.96151,-0.635142,1.45922
0.743928,-0.481899,1.93095,1.04507,1.96365,-0.633556,1.46034
0.741021,-0.483785,1.93482,1.04879,1.96579,-0.631922,1.46175
0.738104,-0.485691,1.93858,1.05256,1.96795,-0.630288,1.46345
0.73522,-0.487559,1.9423,1.05637,1.9701,-0.628626,1.46538
0.732367,-0.489384,1.94602,1.0601,1.97225,-0.626982,1.46744
0.729486,-0.491119,1.94966,1.06365,1.97441,-0.625348,1.46954
0.726566,-0.492787,1.95315,1.06707,1.97655,-0.623734,1.47165
0.723636,-0.494351,1.95651,1.07052,1.97866,-0.622129,1.47375
0.720708,-0.49581,1.95974,1.0739,1.98077,-0.62055,1.47579
0.717705,-0.497177,1.96283,1.07708,1.98283,-0.619001,1.47778
0.7146,-0.498434,1.96578,1.07983,1.98486,-0.617489,1.47971
0.7114,-0.49959,1.96865,1.08212,1.98684,-0.616057,1.48154
0.708184,-0.500596,1.97144,1.08412,1.98874,-0.614671,1.48318
0.704995,-0.501409,1.97414,1.08593,1.99056,-0.613339,1.48459
0.701801,-0.502121,1.97674,1.08734,1.99234,-0.612026,1.48575
0.698577,-0.502739,1.97917,1.0884,1.99408,-0.610715,1.48667
0.695347,-0.503269,1.98146,1.08933,1.99576,-0.609355,1.48733
0.692173,-0.503745,1.98374,1.09013,1.99739,-0.607987,1.48782
0.689001,-0.50419,1.98605,1.09081,1.99898,-0.606628,1.48816
0.685782,-0.504664,1.98842,1.09128,2.0005,-0.605278,1.48843
0.682481,-0.505161,1.99082,1.09162,2.00193,-0.603912,1.48871
0.679119,-0.505703,1.9932,1.09204,2.00329,-0.602528,1.48908
0.675654,-0.506317,1.99554,1.09255,2.00463,-0.601106,1.48966
0.672106,-0.506997,1.99789,1.09307,2.00602,-0.59969,1.49051
0.668521,-0.507708,2.0003,1.09372,2.00746,-0.598277,1.49165
0.664923,-0.508446,2.00273,1.09468,2.00899,-0.596926,1.49303
0.661241,-0.509174,2.00509,1.09592,2.01061,-0.595566,1.4946
0.657351,-0.50987,2.00734,1.09727,2.01233,-0.59418,1.49633
0.65324,-0.510551,2.0096,1.0986,2.01411,-0.592797,1.49815
0.648991,-0.511211,2.01205,1.09995,2.01592,-0.591445,1.50002
0.6447,-0.511891,2.01473,1.10138,2.01779,-0.590134,1.50188
0.640284,-0.51269,2.01755,1.10247,2.01969,-0.588842,1.50372
0.63561,-0.513688,2.02027,1.10307,2.02161,-0.587497,1.50552
0.630839,-0.514839,2.02298,1.1032,2.02357,-0.586158,1.5071
0.626239,-0.516065,2.02596,1.10287,2.0256,-0.584877,1.50783
0.621873,-0.517337,2.029,1.10195,2.02772,-0.583659,1.50734
0.617645,-0.51874,2.03179,1.10029,2.02999,-0.582545,1.50547
0.613646,-0.520262,2.03449,1.09787,2.03238,-0.581567,1.50215
0.610111,-0.52184,2.03738,1.09483,2.03484,-0.580771,1.49752
0.607097,-0.523475,2.04047,1.09126,2.03736,-0.580113,1.49185
0.604524,-0.525188,2.04362,1.08713,2.03989,-0.579575,1.48552
0.602324,-0.527034,2.0468,1.0826,2.04243,-0.579171,1.4789
0.600435,-0.529108,2.04994,1.0778,2.04498,-0.578886,1.47228
0.598828,-0.531351,2.0531,1.07273,2.04751,-0.578743,1.46591
0.597541,-0.533671,2.05646,1.06751,2.05002,-0.578768,1.45995
0.596523,-0.536097,2.06003,1.06234,2.05247,-0.578913,1.45452
0.595684,-0.538696,2.06374,1.05729,2.05488,-0.579161,1.44967
0.594944,-0.541535,2.06756,1.05223,2.05725,-0.579538,1.44543
0.594252,-0.544614,2.07143,1.04722,2.05958,-0.580134,1.44182
0.593662,-0.547915,2.07537,1.04257,2.06186,-0.580995,1.43883
0.593211,-0.551501,2.07945,1.03825,2.0641,-0.582256,1.4364
0.592856,-0.555266,2.08371,1.03402,2.06628,-0.584035,1.43445
0.592527,-0.559178,2.08814,1.02985,2.06841,-0.586497,1.43294
0.592213,-0.563296,2.09268,1.02591,2.07049,-0.589837,1.43178
0.592002,-0.567562,2.0973,1.02234,2.07252,-0.594273,1.43091
0.591985,-0.571933,2.10204,1.0193,2.07451,-0.600021,1.43034
0.592153,-0.576319,2.10685,1.01648,2.0765,-0.607091,1.43008
0.592453,-0.58082,2.11162,1.01409,2.07844,-0.615342,1.43008
0.592964,-0.585555,2.11634,1.01221,2.08038,-0.624661,1.43022
0.593808,-0.590406,2.12105,1.01095,2.08229,-0.634568,1.43044
0.594984,-0.595251,2.12571,1.01015,2.08418,-0.644806,1.43068
0.596451,-0.600116,2.13029,1.00977,2.08606,-0.654785,1.43088
0.598208,-0.605253,2.13485,1.00968,2.08795,-0.664364,1.43102
0.600289,-0.610605,2.1394,1.00983,2.08985,-0.673091,1.43108
0.602684,-0.615899,2.14389,1.0102,2.09173,-0.680931,1.43108
0.605448,-0.621123,2.14835,1.01069,2.09364,-0.687797,1.43106
0.608533,-0.626528,2.15275,1.01123,2.09556,-0.69378,1.43103
0.611936,-0.632054,2.15703,1.01183,2.09749,-0.698924,1.431
0.615787,-0.637382,2.1613,1.01258,2.09944,-0.703242,1.43098
0.620117,-0.64259,2.16563,1.01345,2.10138,-0.706818,1.43097
0.624778,-0.647977,2.1698,1.01443,2.10335,-0.709673,1.43097
0.629641,-0.653433,2.17369,1.01544,2.10534,-0.711771,1.43096
0.634869,-0.658705,2.17761,1.01656,2.10735,-0.71323,1.43092
0.640592,-0.663933,2.18179,1.01783,2.10935,-0.714246,1.43086
0.64657,-0.669235,2.18594,1.01919,2.11134,-0.714839,1.43076
0.652583,-0.674533,2.18975,1.02045,2.11338,-0.714984,1.4306
0.658927,-0.6797,2.19363,1.02172,2.1154,-0.714939,1.43039
0.665777,-0.684846,2.19786,1.02319,2.1174,-0.714913,1.43013
0.672744,-0.690051,2.2019,1.02461,2.11942,-0.71484,1.42981
0.679793,-0.695217,2.20566,1.02585,2.12145,-0.71474,1.42944
0.687215,-0.700254,2.20956,1.02725,2.12346,-0.714739,1.42904
0.694829,-0.705358,2.21341,1.02872,2.12548,-0.714778,1.42863
0.702602,-0.710508,2.21711,1.03014,2.12752,-0.714822,1.4282
0.710553,-0.715433,2.22076,1.03166,2.12951,-0.714832,1.42773
0.718608,-0.720299,2.22428,1.03318,2.13154,-0.714853,1.42721
0.726806,-0.725264,2.22779,1.03481,2.13356,-0.714935,1.42667
0.73496,-0.730173,2.23109,1.03653,2.13554,-0.714981,1.42612
0.743265,-0.734949,2.23434,1.03823,2.13758,-0.715089,1.42552
0.7516,-0.739521,2.2376,1.04018,2.13955,-0.715218,1.4249
0.759916,-0.744149,2.24074,1.04196,2.14155,-0.715409,1.42428
0.768284,-0.748761,2.24385,1.04382,2.14356,-0.71563,1.42365
0.776509,-0.7531,2.24671,1.04575,2.14553,-0.715704,1.42299
0.784853,-0.757323,2.24961,1.04771,2.14751,-0.715789,1.42233
0.7931,-0.76151,2.25247,1.04985,2.14946,-0.715811,1.42166
0.801304,-0.76576,2.25519,1.05178,2.15148,-0.715812,1.42095
0.80946,-0.769858,2.25789,1.05387,2.15345,-0.715738,1.42027
0.817477,-0.773706,2.26051,1.05586,2.15541,-0.715558,1.41959
0.825555,-0.777516,2.26324,1.05787,2.1574,-0.715384,1.4189
0.833352,-0.781289,2.26578,1.05997,2.15933,-0.715059,1.41822
0.841112,-0.78508,2.26826,1.06189,2.16133,-0.71462,1.41755
0.848805,-0.788672,2.27081,1.06407,2.16328,-0.71397,1.41687
0.856376,-0.792156,2.27329,1.06605,2.16523,-0.713203,1.41621
0.863923,-0.795627,2.27586,1.06812,2.16719,-0.712436,1.41555
0.871201,-0.798994,2.27833,1.07026,2.16911,-0.711555,1.41486
0.878429,-0.802313,2.2808,1.07218,2.17108,-0.710678,1.41417
0.885603,-0.805433,2.28343,1.07432,2.17298,-0.709761,1.41348
0.892628,-0.808534,2.28591,1.07624,2.17491,-0.708834,1.41277
0.899616,-0.811561,2.28838,1.07812,2.17685,-0.707932,1.41206
0.906525,-0.814404,2.2909,1.08008,2.17873,-0.707083,1.41134
0.91331,-0.817227,2.2933,1.08186,2.18067,-0.706306,1.41059
0.920059,-0.819917,2.29578,1.08371,2.18257,-0.705613,1.40983
0.926783,-0.822537,2.29832,1.0855,2.18446,-0.705066,1.40905
0.933309,-0.825205,2.30069,1.08718,2.18636,-0.70458,1.40827
0.939786,-0.827797,2.30316,1.08884,2.18825,-0.704171,1.40746
0.946223,-0.830257,2.30565,1.09046,2.19012,-0.703832,1.40665
0.952452,-0.832612,2.30799,1.092,2.19198,-0.703553,1.40582
0.958717,-0.834845,2.31049,1.09352,2.19384,-0.703416,1.40499
0.96496,-0.836985,2.31301,1.09509,2.19566,-0.703355,1.40415
0.971011,-0.839149,2.31534,1.09651,2.1975,-0.703321,1.40331
0.977058,-0.841261,2.31781,1.09781,2.19932,-0.703346,1.40246
0.983099,-0.843315,2.32035,1.09912,2.20112,-0.703349,1.40159
0.988912,-0.845383,2.32266,1.10031,2.20292,-0.703344,1.40071
0.994676,-0.847297,2.32499,1.10142,2.2047,-0.703379,1.39984
1.00057,-0.849048,2.32752,1.10259,2.20648,-0.70345,1.39896
1.00628,-0.850725,2.32989,1.10371,2.20823,-0.703493,1.39807
1.01187,-0.85235,2.33219,1.10466,2.20999,-0.703565,1.39716
1.01759,-0.853899,2.33472,1.10564,2.21174,-0.703706,1.39627
1.02323,-0.85544,2.33718,1.10667,2.21348,-0.703853,1.39536
1.02861,-0.857019,2.33943,1.10746,2.21521,-0.703997,1.39445
1.03403,-0.858519,2.34187,1.10813,2.21695,-0.704254,1.39354
1.03954,-0.859969,2.34442,1.10892,2.21868,-0.704649,1.39264
1.04483,-0.86137,2.34669,1.10962,2.22041,-0.705127,1.39175
1.05004,-0.862692,2.34893,1.11012,2.22214,-0.705825,1.39085
1.05547,-0.863918,2.35142,1.11068,2.22385,-0.70676,1.38996
1.06085,-0.865052,2.35382,1.11131,2.22555,-0.707744,1.38906
1.066,-0.866143,2.35597,1.1117,2.22724,-0.708726,1.38817
1.0712,-0.867157,2.35827,1.11195,2.22894,-0.709752,1.38728
1.07652,-0.868069,2.36073,1.11232,2.23061,-0.710845,1.38639
1.08167,-0.868912,2.36297,1.11267,2.2323,-0.711933,1.38551
1.08663,-0.869678,2.36504,1.1128,2.23397,-0.713073,1.38465
1.09174,-0.870332,2.36731,1.1129,2.23563,-0.714241,1.38379
1.09692,-0.8709,2.36954,1.11311,2.2373,-0.715194,1.38295
1.1019,-0.871426,2.37143,1.11314,2.23896,-0.715955,1.38209
1.10676,-0.871932,2.37327,1.11291,2.24063,-0.716734,1.38122
1.11174,-0.87242,2.37536,1.1127,2.24227,-0.717764,1.38034
1.11667,-0.872842,2.37739,1.11262,2.24392,-0.71908,1.37943
1.12137,-0.873189,2.37915,1.11235,2.24554,-0.720721,1.37851
1.12604,-0.873448,2.38091,1.112,2.24714,-0.722789,1.37758
1.13087,-0.873595,2.38282,1.11177,2.24871,-0.725163,1.37666
1.1357,-0.873659,2.38457,1.11168,2.2503,-0.727657,1.37574
1.14035,-0.87372,2.38603,1.11141,2.25186,-0.730163,1.37481
1.14494,-0.873801,2.38748,1.11099,2.25343,-0.732681,1.3739
1.14965,-0.873846,2.38909,1.11063,2.25497,-0.735213,1.37298
1.15437,-0.873826,2.39061,1.11035,2.25651,-0.737685,1.37207
1.15891,-0.873786,2.39192,1.10998,2.25802,-0.740078,1.37114
1.16338,-0.873733,2.39323,1.10954,2.2595,-0.742493,1.37019
1.16793,-0.873634,2.39473,1.10923,2.26098,-0.745063,1.36921
1.17245,-0.873495,2.39626,1.10911,2.26248,-0.747759,1.36822
1.17679,-0.873419,2.39765,1.10899,2.26399,-0.750514,1.36722
1.18095,-0.873429,2.399,1.10889,2.26549,-0.753322,1.36622
1.18511,-0.873471,2.4005,1.10887,2.26701,-0.756217,1.36525
1.18929,-0.873515,2.40208,1.10895,2.26857,-0.759107,1.36429
1.19339,-0.873552,2.40349,1.10915,2.27015,-0.76185,1.36334
1.1974,-0.873627,2.40474,1.10924,2.27173,-0.764444,1.36241
1.20133,-0.873705,2.40598,1.10924,2.27333,-0.766885,1.36149
1.20531,-0.873716,2.40721,1.10929,2.27495,-0.76918,1.3606
1.20932,-0.873669,2.40836,1.10937,2.27656,-0.771332,1.35973
1.21322,-0.87362,2.40932,1.10933,2.27815,-0.773296,1.35887
1.21698,-0.873557,2.41002,1.10917,2.27971,-0.775051,1.35803
1.22065,-0.873395,2.41062,1.10894,2.28125,-0.776714,1.35723
1.22429,-0.873137,2.4112,1.10871,2.28276,-0.778265,1.35645
1.22783,-0.872822,2.41169,1.1085,2.28422,-0.779719,1.35569
1.2312,-0.87249,2.41206,1.10819,2.28563,-0.781109,1.35499
1.23443,-0.872164,2.4123,1.1078,2.28701,-0.782497,1.35432
1.23752,-0.871861,2.41248,1.10744,2.28839,-0.783842,1.35372
1.2405,-0.871553,2.41268,1.10714,2.28974,-0.785184,1.35316
1.24339,-0.871217,2.41297,1.10691,2.29108,-0.786528,1.35263
1.24616,-0.870903,2.41329,1.10677,2.29242,-0.78787,1.35214
1.24881,-0.870615,2.4136,1.10672,2.2938,-0.789228,1.35169
1.25137,-0.870348,2.41389,1.10678,2.29518,-0.790597,1.35125
1.25382,-0.870094,2.41418,1.10691,2.29657,-0.791968,1.35081
1.25615,-0.869842,2.41443,1.10715,2.29798,-0.793361,1.35038
1.25835,-0.869606,2.41468,1.10746,2.29939,-0.794763,1.34997
1.26047,-0.869379,2.41496,1.10789,2.30084,-0.796199,1.34957
1.26244,-0.86916,2.41523,1.10843,2.30228,-0.797616,1.34916
1.26426,-0.868952,2.41546,1.10902,2.30373,-0.799066,1.34872
1.26595,-0.868745,2.41566,1.10971,2.30519,-0.800491,1.34828
1.26751,-0.868524,2.4158,1.1105,2.30667,-0.801921,1.34783
1.26892,-0.868276,2.41589,1.11135,2.30816,-0.80332,1.34736
1.27014,-0.868002,2.41596,1.11223,2.30965,-0.804719,1.34685
1.27118,-0.86771,2.41599,1.11314,2.31113,-0.806113,1.34632
1.27204,-0.867383,2.41599,1.11407,2.31264,-0.807493,1.3458
1.2727,-0.867031,2.41595,1.11502,2.31413,-0.808865,1.34527
1.27313,-0.866647,2.41589,1.11592,2.3156,-0.810247,1.34471
1.27334,-0.866235,2.41576,1.11681,2.31705,-0.811612,1.34415
1.27339,-0.865771,2.41554,1.11766,2.31847,-0.812996,1.34363
1.27329,-0.865247,2.41517,1.11845,2.31988,-0.814385,1.3431
1.27308,-0.864651,2.41462,1.1192,2.32122,-0.815785,1.34256
1.27275,-0.863994,2.41392,1.11982,2.32251,-0.817196,1.34208
1.27231,-0.863241,2.41305,1.12046,2.32371,-0.818637,1.34164
1.27174,-0.86242,2.41206,1.12092,2.3248,-0.820111,1.34122
1.271,-0.861528,2.4109,1.12139,2.32573,-0.821615,1.3408
1.27013,-0.860552,2.40957,1.12185,2.32645,-0.823155,1.34041
1.26911,-0.859508,2.4081,1.12234,2.32694,-0.824751,1.34007
1.26789,-0.858414,2.40647,1.12286,2.32719,-0.826389,1.33978
1.26646,-0.857311,2.40467,1.12346,2.32721,-0.828057,1.3395
1.2648,-0.856218,2.40274,1.12417,2.32702,-0.829728,1.33923
1.26291,-0.855143,2.40071,1.12493,2.32661,-0.831388,1.33901
1.26079,-0.854076,2.39856,1.12579,2.32593,-0.833036,1.33883
1.25848,-0.852999,2.39628,1.12675,2.325,-0.834624,1.33872
1.25601,-0.851925,2.39387,1.12777,2.32388,-0.836187,1.33867
1.25336,-0.850822,2.39133,1.12895,2.32266,-0.83766,1.33868
1.25056,-0.849688,2.38867,1.1302,2.32144,-0.839103,1.33868
1.2476,-0.84854,2.38592,1.13153,2.32025,-0.840503,1.33868
1.24447,-0.847393,2.38311,1.13292,2.3191,-0.841893,1.33868
1.24119,-0.846277,2.38031,1.13442,2.31802,-0.843254,1.33868
1.2378,-0.845219,2.37752,1.13602,2.31699,-0.844615,1.33868
1.23431,-0.844199,2.37472,1.13769,2.316,-0.84597,1.33868
1.23075,-0.84321,2.37191,1.13944,2.31505,-0.847327,1.33868
1.22708,-0.84225,2.36908,1.14126,2.31415,-0.848637,1.33868
1.22332,-0.841329,2.36625,1.14308,2.31329,-0.84998,1.33868
1.21949,-0.840439,2.36354,1.14498,2.31249,-0.851329,1.33869
1.21562,-0.839611,2.36095,1.14695,2.31175,-0.852713,1.33869
1.2117,-0.838889,2.35836,1.14896,2.31107,-0.854112,1.33869
1.20764,-0.838267,2.35573,1.15097,2.31041,-0.855511,1.3387
1.20343,-0.83773,2.35304,1.15292,2.30981,-0.8569,1.33869
1.19921,-0.83724,2.35047,1.15493,2.30927,-0.858309,1.33869
1.19505,-0.836767,2.34809,1.15703,2.30881,-0.859758,1.33869
1.19086,-0.836361,2.34577,1.15912,2.3084,-0.861226,1.33868
1.1865,-0.836052,2.34335,1.16115,2.30804,-0.862656,1.33868
1.18205,-0.83583,2.34094,1.16305,2.30772,-0.864098,1.33868
1.17765,-0.83566,2.3387,1.16503,2.30742,-0.865577,1.33868
1.1733,-0.835535,2.33658,1.16713,2.30713,-0.867074,1.33868
1.16888,-0.835498,2.33437,1.16916,2.30686,-0.868527,1.33869
1.16432,-0.83554,2.33203,1.17106,2.30658,-0.869994,1.33869
1.15979,-0.835628,2.32976,1.17292,2.30629,-0.871466,1.33869
1.15537,-0.835723,2.32766,1.17492,2.30599,-0.872986,1.3387
1.15096,-0.835849,2.32556,1.17692,2.30567,-0.874483,1.33871
1.14638,-0.836058,2.32328,1.17875,2.30535,-0.875981,1.33872
1.14171,-0.836342,2.32098,1.18045,2.30501,-0.877476,1.33872
1.13714,-0.836652,2.31883,1.18218,2.30465,-0.879039,1.33872
1.13264,-0.836967,2.31671,1.184,2.30425,-0.880591,1.33872
1.12802,-0.837356,2.3144,1.18576,2.30385,-0.882108,1.33873
1.12329,-0.837819,2.31195,1.18731,2.30343,-0.883631,1.33874
1.11863,-0.8383,2.3096,1.18887,2.30298,-0.885199,1.33875
1.11411,-0.838726,2.30739,1.19053,2.30251,-0.886787,1.3388
1.10951,-0.839156,2.30507,1.19218,2.30202,-0.888318,1.33889
1.10474,-0.839657,2.30256,1.19363,2.30149,-0.889871,1.33904
1.09998,-0.840201,2.3001,1.19499,2.30092,-0.891434,1.33928
1.09535,-0.840726,2.29777,1.19646,2.3003,-0.893027,1.33962
1.09071,-0.841251,2.29533,1.19794,2.29964,-0.894576,1.34007
1.08593,-0.841841,2.29275,1.19926,2.29894,-0.896117,1.34065
1.08111,-0.842501,2.29021,1.20042,2.29821,-0.897661,1.34132
1.07645,-0.843146,2.28781,1.20168,2.2974,-0.899254,1.34207
1.07185,-0.843759,2.28539,1.20299,2.29652,-0.900844,1.3429
1.06711,-0.844408,2.28276,1.20413,2.29559,-0.902395,1.34378
1.06229,-0.8451,2.28004,1.2051,2.29459,-0.903959,1.34475
1.0576,-0.845732,2.27742,1.20606,2.29353,-0.905546,1.34581
1.05299,-0.846266,2.27479,1.20713,2.29241,-0.907135,1.34697
1.04827,-0.846769,2.27193,1.20802,2.29121,-0.908674,1.3482
1.04343,-0.84726,2.26894,1.20868,2.28996,-0.910241,1.34951
1.03873,-0.847702,2.26607,1.20927,2.28865,-0.911831,1.35089
1.03411,-0.848077,2.2632,1.20994,2.28726,-0.913443,1.35232
1.02935,-0.848443,2.2601,1.21046,2.28582,-0.914997,1.35379
1.02443,-0.848838,2.25682,1.2107,2.2843,-0.916562,1.35527
1.01958,-0.849193,2.25364,1.21082,2.28269,-0.918165,1.35673
1.01488,-0.849438,2.25056,1.21096,2.28102,-0.919788,1.35813
1.01013,-0.849634,2.24732,1.21098,2.27932,-0.92138,1.35947
1.00521,-0.849837,2.24389,1.21073,2.27759,-0.922968,1.36072
1.00035,-0.849996,2.24055,1.21038,2.27588,-0.924605,1.36187
0.995654,-0.850049,2.23731,1.21011,2.27417,-0.92623,1.36292
0.99091,-0.850074,2.23391,1.20981,2.27249,-0.927792,1.36385
0.986022,-0.85014,2.23041,1.20925,2.27084,-0.929345,1.36468
0.981208,-0.850222,2.22703,1.2086,2.26922,-0.930931,1.36541
0.976581,-0.850242,2.22378,1.20811,2.26763,-0.932539,1.36606
0.971911,-0.850243,2.2204,1.20764,2.26608,-0.934089,1.36662
0.967022,-0.850276,2.21679,1.20696,2.26456,-0.935629,1.36706
0.962142,-0.850299,2.21329,1.20619,2.2631,-0.9372,1.3674
0.957451,-0.850244,2.21003,1.20549,2.26167,-0.938818,1.36768
0.952758,-0.850143,2.20671,1.2048,2.26028,-0.940422,1.36791
0.947858,-0.850075,2.20314,1.20393,2.25892,-0.941991,1.36807
0.942917,-0.850021,2.19958,1.20288,2.2576,-0.943578,1.3682
0.938141,-0.849875,2.19617,1.20192,2.25627,-0.945174,1.36833
0.933424,-0.849653,2.19267,1.20102,2.25497,-0.946774,1.36847
0.928568,-0.849439,2.18894,1.19992,2.25367,-0.948306,1.36863
0.923703,-0.84924,2.18521,1.19863,2.25237,-0.949895,1.36881
0.918988,-0.848968,2.18162,1.19742,2.25105,-0.95149,1.36903
0.914294,-0.848621,2.17792,1.19626,2.24972,-0.953065,1.3693
0.909431,-0.848289,2.17397,1.19494,2.24839,-0.954572,1.36964
0.904542,-0.847972,2.17005,1.19341,2.24705,-0.956149,1.37004
0.899828,-0.847581,2.16634,1.19193,2.24567,-0.957776,1.37048
0.89517,-0.847112,2.16259,1.19057,2.24425,-0.959398,1.37094
0.890334,-0.846696,2.15855,1.18912,2.24283,-0.96094,1.37144
0.885413,-0.846339,2.15442,1.18755,2.24142,-0.962502,1.37197
0.880665,-0.845933,2.15055,1.18603,2.23997,-0.964166,1.37252
0.876068,-0.845434,2.14677,1.18464,2.23849,-0.965814,1.37305
0.871327,-0.844961,2.14277,1.18325,2.237,-0.967409,1.37356
0.866442,-0.844609,2.13866,1.18173,2.23553,-0.969003,1.37405
0.861643,-0.844273,2.13472,1.1803,2.23403,-0.970655,1.37449
0.857012,-0.84387,2.13099,1.179,2.2325,-0.972341,1.37488
0.85232,-0.843465,2.12718,1.1777,2.23094,-0.973987,1.37524
0.847474,-0.843162,2.12325,1.17624,2.22941,-0.975643,1.37557
0.842682,-0.842922,2.11943,1.17485,2.22787,-0.97734,1.37586
0.838051,-0.842647,2.11574,1.17365,2.22631,-0.979058,1.3761
0.833421,-0.842394,2.112,1.17244,2.22474,-0.980741,1.37631
0.82869,-0.842238,2.1082,1.17109,2.22319,-0.98244,1.3765
0.824014,-0.842146,2.10452,1.16976,2.22164,-0.984202,1.37666
0.819484,-0.842032,2.10098,1.16865,2.22007,-0.985946,1.3768
0.814939,-0.84195,2.09734,1.1676,2.2185,-0.987659,1.37695
0.810265,-0.841983,2.0936,1.16641,2.21694,-0.989389,1.37712
0.805639,-0.842078,2.09001,1.16516,2.21539,-0.991131,1.37733
0.801184,-0.842149,2.08661,1.16411,2.2138,-0.992939,1.37755
0.796759,-0.842249,2.08319,1.16316,2.21221,-0.994691,1.37777
0.792173,-0.842483,2.07958,1.16219,2.21061,-0.996422,1.37799
0.787547,-0.842841,2.07602,1.16112,2.20902,-0.998179,1.37821
0.783088,-0.843233,2.07272,1.16017,2.2074,-0.99997,1.37844
0.778766,-0.843622,2.06954,1.15939,2.20575,-1.00178,1.37868
0.774352,-0.844112,2.06624,1.15861,2.2041,-1.00356,1.37895
0.769824,-0.844769,2.06289,1.15771,2.20243,-1.00531,1.37925
0.765365,-0.845481,2.05968,1.1569,2.20073,-1.00712,1.37961
0.761087,-0.846168,2.05666,1.15624,2.199,-1.00889,1.38
0.756858,-0.84691,2.05363,1.15562,2.19726,-1.01066,1.3804
0.75254,-0.847784,2.05051,1.15489,2.19549,-1.01244,1.38083
0.748217,-0.848748,2.04743,1.15411,2.19369,-1.01421,1.38131
0.744016,-0.849711,2.04452,1.15345,2.19186,-1.01602,1.38185
0.739908,-0.850673,2.04164,1.15286,2.18999,-1.0178,1.3824
0.735747,-0.851738,2.03863,1.15212,2.18808,-1.01957,1.38295
0.731534,-0.852907,2.03553,1.15119,2.18616,-1.02136,1.38354
0.727428,-0.854092,2.0325,1.15022,2.18423,-1.02318,1.38417
0.723489,-0.855206,2.02955,1.14928,2.18223,-1.02499,1.38481
0.719623,-0.856336,2.02652,1.14826,2.1802,-1.02682,1.38547
0.715689,-0.857518,2.0233,1.14704,2.17818,-1.02859,1.38614
0.711736,-0.858732,2.01992,1.14566,2.17613,-1.03037,1.38678
0.707897,-0.859893,2.01658,1.14423,2.17405,-1.03217,1.38742
0.704233,-0.861001,2.0133,1.14275,2.17197,-1.03396,1.38806
0.700627,-0.862108,2.00993,1.14118,2.16985,-1.03579,1.3887
0.69695,-0.863254,2.00635,1.13946,2.16773,-1.03758,1.38934
0.693244,-0.864385,2.00264,1.13758,2.16563,-1.03935,1.39
0.689598,-0.865442,1.99894,1.13564,2.16349,-1.04116,1.39066
0.686084,-0.866429,1.99531,1.13361,2.16132,-1.04298,1.39134
0.682661,-0.867393,1.99165,1.13149,2.15915,-1.0448,1.39206
0.679225,-0.868341,1.98783,1.12927,2.15696,-1.04665,1.3928
0.675755,-0.869258,1.98386,1.127,2.15476,-1.04845,1.39358
0.672309,-0.870101,1.97984,1.12465,2.15254,-1.05026,1.39437
0.668934,-0.870894,1.97586,1.12222,2.1503,-1.05212,1.39518
0.665653,-0.871649,1.97191,1.11974,2.14805,-1.05399,1.39602
0.66241,-0.872359,1.96787,1.11719,2.14579,-1.0559,1.39685
0.659152,-0.873074,1.96367,1.11456,2.14351,-1.05778,1.39771
0.655862,-0.873793,1.95934,1.11185,2.14124,-1.05964,1.39857
0.65261,-0.874483,1.95505,1.10906,2.13897,-1.06155,1.39942
0.649458,-0.875134,1.95088,1.10627,2.13667,-1.0635,1.40027
0.646372,-0.875746,1.9467,1.10349,2.13439,-1.06544,1.40112
0.643281,-0.876364,1.94242,1.10071,2.1321,-1.06736,1.40197
0.640189,-0.876998,1.93804,1.09785,2.12982,-1.06929,1.40277
0.637136,-0.87762,1.9337,1.09487,2.12757,-1.07118,1.40356
0.634156,-0.878182,1.92945,1.09185,2.12531,-1.07313,1.40433
0.631196,-0.878712,1.92523,1.0889,2.12305,-1.07507,1.40507
0.628263,-0.879295,1.92097,1.08598,2.12081,-1.07696,1.40581
0.625377,-0.879889,1.91673,1.08301,2.11858,-1.0789,1.4065
0.622574,-0.880455,1.91254,1.08,2.11636,-1.08086,1.40719
0.619825,-0.880984,1.90834,1.07697,2.11416,-1.08278,1.40787
0.617067,-0.881535,1.90408,1.07387,2.11197,-1.0847,1.40853
0.614305,-0.882143,1.89981,1.07075,2.1098,-1.08664,1.4092
0.611567,-0.882759,1.89565,1.06764,2.10764,-1.08856,1.40988
0.608917,-0.883352,1.89159,1.06449,2.10549,-1.09052,1.41056
0.606305,-0.883925,1.88752,1.0614,2.10335,-1.0925,1.41126
0.603721,-0.884542,1.88338,1.05831,2.10123,-1.09441,1.41198
0.60115,-0.885173,1.87919,1.05516,2.09911,-1.09634,1.41271
0.598619,-0.8858,1.87506,1.05189,2.09702,-1.09829,1.41346
0.596147,-0.886438,1.87102,1.0487,2.09491,-1.10026,1.41421
0.593688,-0.887076,1.86699,1.04559,2.09279,-1.10222,1.41499
0.591224,-0.887768,1.86294,1.04247,2.09069,-1.1042,1.41577
0.588762,-0.888491,1.85891,1.03934,2.08857,-1.1062,1.41656
0.586378,-0.889205,1.85495,1.03614,2.08646,-1.10818,1.41738
0.584049,-0.889899,1.85103,1.03295,2.08434,-1.11019,1.41821
0.581727,-0.890637,1.84705,1.0298,2.08223,-1.11219,1.41906
0.579385,-0.89145,1.84302,1.02675,2.0801,-1.11414,1.41992
0.577056,-0.892293,1.83903,1.0236,2.07799,-1.11616,1.42081
0.574748,-0.893145,1.83512,1.02041,2.07586,-1.11821,1.42171
0.57247,-0.893989,1.83124,1.01717,2.07373,-1.12023,1.42261
0.570224,-0.894875,1.82736,1.01389,2.0716,-1.1223,1.42353
0.568003,-0.895828,1.82341,1.01062,2.06945,-1.12433,1.42445
0.565828,-0.896821,1.81945,1.0074,2.0673,-1.12637,1.42539
0.563742,-0.897827,1.81554,1.00413,2.06516,-1.1284,1.42631
0.561688,-0.898822,1.81164,1.00091,2.06299,-1.13045,1.42723
0.559626,-0.899877,1.80772,0.99762,2.06083,-1.1325,1.42816
0.557524,-0.90097,1.8038,0.994288,2.05867,-1.13451,1.42909
0.555402,-0.902116,1.7999,0.990871,2.05649,-1.13657,1.43001
0.553309,-0.903295,1.79606,0.987521,2.0543,-1.13865,1.43093
0.551269,-0.904466,1.79224,0.984197,2.05213,-1.14073,1.43186
0.549264,-0.905646,1.78842,0.980903,2.04992,-1.14283,1.4328
0.547268,-0.906841,1.78454,0.977545,2.04771,-1.14488,1.43373
0.545296,-0.908041,1.78068,0.974109,2.04552,-1.14696,1.43466
0.543386,-0.909255,1.77687,0.970649,2.04332,-1.14905,1.43558
0.541498,-0.910505,1.77305,0.967288,2.0411,-1.1511,1.4365
0.539602,-0.911813,1.76924,0.963893,2.03888,-1.15318,1.43743
0.537645,-0.913171,1.76538,0.960504,2.03667,-1.15527,1.43835
0.535655,-0.914562,1.7615,0.956955,2.03446,-1.15734,1.43928
0.533688,-0.915946,1.75769,0.953334,2.03222,-1.15945,1.4402
0.531791,-0.917337,1.7539,0.949768,2.02998,-1.16155,1.44113
0.529956,-0.91878,1.7501,0.946296,2.02775,-1.16367,1.44205
0.528127,-0.920276,1.74622,0.9428,2.02549,-1.16576,1.44298
0.526316,-0.921833,1.74232,0.939228,2.02324,-1.1678,1.44391
0.524552,-0.923379,1.73845,0.935523,2.021,-1.16989,1.44486
0.522824,-0.924905,1.73461,0.931803,2.01875,-1.17198,1.4458
0.521107,-0.926467,1.73076,0.92818,2.01648,-1.17403,1.44675
0.519362,-0.928036,1.7269,0.92456,2.01422,-1.17609,1.4477
0.517556,-0.929609,1.72302,0.920878,2.01196,-1.17819,1.44867
0.51573,-0.931157,1.7192,0.917016,2.0097,-1.1803,1.44964
0.513922,-0.932702,1.71543,0.913109,2.00743,-1.18244,1.45062
0.512167,-0.93429,1.71163,0.909293,2.00515,-1.18455,1.45162
0.510479,-0.935958,1.70776,0.905525,2.00288,-1.18669,1.45263
0.508821,-0.937693,1.70384,0.901746,2.0006,-1.1888,1.45364
0.507224,-0.939463,1.69996,0.897795,1.99833,-1.19085,1.45466
0.505664,-0.94122,1.69611,0.893791,1.99606,-1.19297,1.45567
0.504111,-0.942999,1.69225,0.889849,1.99377,-1.19508,1.45671
0.502554,-0.944818,1.68838,0.885941,1.99147,-1.19714,1.45772
0.500962,-0.946651,1.68452,0.881971,1.98917,-1.19923,1.45875
0.499364,-0.948451,1.68074,0.877825,1.98687,-1.20133,1.45977
0.497748,-0.9502,1.67699,0.873614,1.98457,-1.20345,1.46082
0.496152,-0.951965,1.67326,0.869472,1.98227,-1.20556,1.46184
0.494616,-0.953813,1.66952,0.865419,1.97995,-1.20762,1.46287
0.493092,-0.955723,1.66572,0.861364,1.97765,-1.20972,1.46389
0.491607,-0.957681,1.66196,0.85713,1.97537,-1.21181,1.46492
0.490148,-0.959647,1.65824,0.852867,1.97308,-1.21385,1.46592
0.488739,-0.961647,1.6545,0.848708,1.9708,-1.21592,1.46693
0.487392,-0.963693,1.65078,0.844641,1.96852,-1.21799,1.46792
0.486022,-0.965734,1.64704,0.840539,1.96622,-1.22003,1.46891
0.484618,-0.967739,1.64334,0.836215,1.96395,-1.22208,1.46989
0.483172,-0.969706,1.6397,0.8319,1.96167,-1.22413,1.47087
0.481752,-0.971683,1.63606,0.827684,1.9594,-1.22624,1.47186
0.48035,-0.973717,1.63243,0.823575,1.95714,-1.22831,1.47285
0.478916,-0.97579,1.62876,0.819357,1.95488,-1.23033,1.47382
0.477444,-0.977895,1.6251,0.814996,1.95265,-1.23243,1.47478
0.475992,-0.980025,1.62146,0.810667,1.95043,-1.23448,1.47573
0.474644,-0.982209,1.61781,0.806487,1.94821,-1.2365,1.4767
0.473366,-0.984402,1.61417,0.802367,1.94599,-1.23856,1.47764
0.472099,-0.986557,1.61057,0.798131,1.94379,-1.24058,1.4786
0.470786,-0.988677,1.60697,0.793817,1.94157,-1.24262,1.47955
0.469474,-0.99081,1.6034,0.789532,1.93936,-1.24464,1.48051
0.468216,-0.993003,1.59985,0.785379,1.93717,-1.24667,1.48144
0.466958,-0.995233,1.59628,0.781229,1.93497,-1.24873,1.48238
0.465667,-0.99748,1.59274,0.776932,1.93279,-1.25075,1.48331
0.464337,-0.999744,1.58919,0.77263,1.9306,-1.25277,1.48426
0.463038,-1.00206,1.58563,0.768374,1.92842,-1.25481,1.48518
0.461805,-1.00439,1.58211,0.764199,1.92626,-1.25685,1.48611
0.460607,-1.00666,1.57863,0.759951,1.92408,-1.25886,1.48703
0.459382,-1.00888,1.57522,0.755607,1.92191,-1.2609,1.48795
0.458117,-1.0111,1.57182,0.75131,1.91975,-1.26296,1.48887
0.456874,-1.01343,1.56838,0.747091,1.91759,-1.26499,1.48979
0.455649,-1.01583,1.56494,0.742885,1.91542,-1.26702,1.49072
0.454439,-1.01826,1.56155,0.73856,1.9133,-1.26909,1.49164
0.453213,-1.0207,1.55817,0.734244,1.91116,-1.27115,1.49256
0.452033,-1.02318,1.55478,0.730006,1.90902,-1.27319,1.49346
0.45093,-1.02564,1.55141,0.725877,1.90688,-1.27525,1.49436
0.449845,-1.02804,1.54807,0.721667,1.90472,-1.27733,1.49523
0.448749,-1.03038,1.5448,0.717328,1.90256,-1.27941,1.49611
0.447623,-1.03273,1.54154,0.713053,1.90041,-1.28149,1.49696
0.446535,-1.03518,1.53827,0.708873,1.89825,-1.28359,1.49782
0.445463,-1.03771,1.53502,0.704737,1.89609,-1.28574,1.49866
0.444363,-1.0403,1.53178,0.700485,1.89395,-1.28779,1.49951
0.443205,-1.04291,1.52853,0.69613,1.89179,-1.28986,1.50035
0.442071,-1.04547,1.52532,0.691834,1.88965,-1.29199,1.50117
0.441018,-1.048,1.52218,0.687661,1.8875,-1.29406,1.50202
0.439976,-1.0505,1.51907,0.683488,1.88533,-1.29617,1.50285
0.438881,-1.05301,1.51601,0.679191,1.8832,-1.2983,1.50368
0.437733,-1.05555,1.51295,0.674908,1.88105,-1.30042,1.50451
0.436628,-1.05817,1.50989,0.670679,1.8789,-1.30256,1.50533
0.4356,-1.06088,1.50687,0.666542,1.87677,-1.30466,1.50615
0.434593,-1.06362,1.50384,0.66233,1.87463,-1.30675,1.50697
0.433574,-1.06629,1.50088,0.658014,1.87248,-1.30889,1.5078
0.432567,-1.06888,1.49799,0.653764,1.87034,-1.31097,1.50862
0.431634,-1.07148,1.49515,0.649595,1.86817,-1.31305,1.50944
0.430707,-1.07414,1.49232,0.645492,1.86601,-1.31519,1.51029
0.429769,-1.07686,1.48952,0.641239,1.8639,-1.31729,1.51114
0.428818,-1.07962,1.48676,0.636927,1.86174,-1.3194,1.512
0.427879,-1.08243,1.48402,0.632737,1.85961,-1.32149,1.51285
0.427002,-1.08527,1.48132,0.628616,1.85749,-1.32357,1.51371
0.426136,-1.08805,1.4787,0.624459,1.85534,-1.32573,1.51456
0.425225,-1.09076,1.47619,0.620225,1.85322,-1.3278,1.51543
0.424257,-1.09348,1.47369,0.61597,1.8511,-1.32988,1.51629
0.423324,-1.09625,1.47121,0.611793,1.84897,-1.33202,1.51715
0.422457,-1.09911,1.4688,0.607703,1.84687,-1.33412,1.51801
0.421597,-1.10204,1.46638,0.603514,1.84475,-1.3362,1.51887
0.420707,-1.10496,1.46401,0.599231,1.84264,-1.33829,1.51974
0.419822,-1.10782,1.46168,0.595032,1.84053,-1.34037,1.52057
0.419008,-1.11067,1.45944,0.590912,1.8384,-1.3425,1.5214
0.41822,-1.11354,1.45724,0.586887,1.83629,-1.34461,1.52222
0.417398,-1.11644,1.45506,0.582738,1.83417,-1.34667,1.52303
0.41656,-1.11937,1.45294,0.57852,1.83208,-1.34881,1.52384
0.415761,-1.12233,1.45085,0.574415,1.82999,-1.35086,1.5246
0.415043,-1.12533,1.44879,0.57038,1.82788,-1.35289,1.52537
0.414352,-1.12829,1.44682,0.56638,1.8258,-1.35498,1.52612
0.413619,-1.13124,1.44492,0.562276,1.82374,-1.35706,1.52685
0.412817,-1.13418,1.44305,0.558183,1.82167,-1.35916,1.52758
0.412049,-1.13715,1.44128,0.55421,1.81963,-1.36125,1.52828
0.411361,-1.1402,1.43958,0.550302,1.81759,-1.36334,1.52897
0.410698,-1.14327,1.43794,0.546375,1.81554,-1.36544,1.52966
0.410049,-1.14632,1.43642,0.542381,1.81354,-1.36744,1.53034
0.409383,-1.14934,1.43498,0.53838,1.81149,-1.36946,1.53101
0.408725,-1.15241,1.43365,0.53452,1.80946,-1.37155,1.53167
0.408074,-1.15553,1.4324,0.530746,1.80745,-1.3736,1.53231
0.407411,-1.15867,1.43122,0.5269,1.80541,-1.37569,1.53294
0.406724,-1.1618,1.43014,0.522972,1.80341,-1.37775,1.53354
0.40605,-1.16491,1.42909,0.519057,1.8014,-1.37982,1.53411
0.405456,-1.16802,1.42814,0.515274,1.79937,-1.38192,1.53469
0.404887,-1.17117,1.42727,0.511594,1.79737,-1.38398,1.53524
0.404267,-1.17435,1.42644,0.507872,1.79537,-1.38608,1.53576
0.403618,-1.17753,1.42571,0.504067,1.79341,-1.3882,1.53624
0.402973,-1.18072,1.42507,0.500284,1.79144,-1.39023,1.5367
0.402409,-1.18392,1.42451,0.496608,1.78948,-1.39227,1.53714
0.401928,-1.1871,1.4241,0.493031,1.78755,-1.39434,1.53754
0.401436,-1.1903,1.42379,0.489471,1.78559,-1.39639,1.5379
0.400888,-1.19355,1.42359,0.485858,1.78369,-1.39844,1.53825
0.400268,-1.19679,1.4235,0.482262,1.78179,-1.4005,1.5386
0.399663,-1.20007,1.42351,0.47876,1.7799,-1.40256,1.53895
0.399124,-1.20334,1.42359,0.475404,1.77802,-1.40457,1.53926
0.398641,-1.20659,1.42371,0.472075,1.77615,-1.40653,1.53953
0.398134,-1.20984,1.42382,0.468788,1.77428,-1.40854,1.53978
0.397586,-1.21311,1.42388,0.465524,1.77243,-1.41053,1.54004
0.397003,-1.21637,1.42386,0.462299,1.77059,-1.41249,1.54034
0.396431,-1.21963,1.42383,0.459185,1.76876,-1.41446,1.54066
0.395897,-1.22287,1.42376,0.456105,1.76692,-1.4164,1.54098
0.395411,-1.22607,1.42371,0.453023,1.76507,-1.41835,1.54128
0.394963,-1.22927,1.42366,0.449979,1.76324,-1.42025,1.54156
0.394523,-1.23251,1.42359,0.446901,1.76142,-1.4222,1.54183
0.39406,-1.23572,1.42349,0.443824,1.7596,-1.42412,1.54211
0.393595,-1.23895,1.42336,0.440784,1.75781,-1.42597,1.54242
0.393166,-1.24216,1.42319,0.437769,1.756,-1.42786,1.54272
0.392787,-1.24535,1.42301,0.434712,1.7542,-1.42969,1.54302
0.392432,-1.24854,1.42279,0.431685,1.75239,-1.43152,1.5433
0.392097,-1.25176,1.42258,0.428624,1.75061,-1.43336,1.54355
0.391742,-1.25496,1.42238,0.425549,1.74881,-1.4352,1.5438
0.391394,-1.25816,1.42218,0.422468,1.74702,-1.43697,1.54404
0.391079,-1.26139,1.42198,0.419457,1.74525,-1.43876,1.5443
0.390822,-1.2646,1.42179,0.416394,1.74347,-1.44049,1.54458
0.390585,-1.2678,1.4216,0.41338,1.7417,-1.44221,1.54484
0.390358,-1.27103,1.42141,0.410345,1.73996,-1.44393,1.54508
0.390113,-1.27422,1.42123,0.407299,1.73824,-1.44561,1.54531
0.389865,-1.2774,1.42104,0.404219,1.73653,-1.44725,1.54552
0.389626,-1.28057,1.42083,0.401219,1.73483,-1.44887,1.54572
0.389447,-1.28372,1.4206,0.398218,1.73315,-1.45043,1.54591
0.389317,-1.28685,1.42039,0.395245,1.73149,-1.45197,1.54611
0.389187,-1.29001,1.42016,0.392297,1.72983,-1.45348,1.54632
0.389044,-1.29317,1.41996,0.389285,1.7282,-1.45499,1.54654
0.388897,-1.2963,1.41976,0.386288,1.7266,-1.45644,1.54675
0.388777,-1.29944,1.41956,0.383298,1.72501,-1.45784,1.54694
0.388697,-1.30255,1.41936,0.380392,1.72343,-1.45919,1.54711
0.38867,-1.30563,1.41917,0.377459,1.72186,-1.46052,1.54727
0.38863,-1.30871,1.41895,0.37459,1.72032,-1.4618,1.54743
0.388584,-1.31178,1.41872,0.37168,1.7188,-1.46302,1.54757
0.388531,-1.31483,1.41848,0.368758,1.7173,-1.46421,1.54769
0.388493,-1.31786,1.41821,0.365843,1.71583,-1.46528,1.54779
0.388473,-1.3209,1.41795,0.362972,1.71438,-1.46632,1.54786
0.388497,-1.32388,1.41774,0.360156,1.71296,-1.46727,1.54791
0.388536,-1.32682,1.41758,0.357379,1.71155,-1.46815,1.54794
0.388532,-1.32978,1.4174,0.354635,1.71019,-1.46889,1.54795
0.388513,-1.33272,1.41717,0.351886,1.70886,-1.46946,1.54797
0.388483,-1.33565,1.41683,0.349163,1.70758,-1.46976,1.54799
0.388424,-1.33857,1.41629,0.34649,1.70633,-1.46976,1.54799
0.388326,-1.34147,1.41558,0.343924,1.70513,-1.46957,1.54796
0.388184,-1.34425,1.41466,0.341547,1.70397,-1.4693,1.54789
0.387997,-1.34694,1.41357,0.33929,1.7029,-1.46902,1.54784
0.387716,-1.34959,1.41235,0.337196,1.70185,-1.46871,1.54784
0.387363,-1.35222,1.41111,0.335188,1.70079,-1.46829,1.54786
0.386992,-1.35489,1.40989,0.33331,1.69973,-1.46779,1.54785
0.386634,-1.35762,1.40872,0.331513,1.6987,-1.46724,1.54785
0.386288,-1.36034,1.4076,0.329788,1.69768,-1.46672,1.54785
0.385941,-1.36295,1.40652,0.328076,1.6967,-1.46624,1.54785
0.385581,-1.36547,1.40546,0.326348,1.69573,-1.46582,1.54785
0.385221,-1.36799,1.40442,0.324665,1.69476,-1.4655,1.54784
0.38488,-1.37053,1.40338,0.322945,1.69378,-1.46527,1.54784
0.384555,-1.3731,1.40233,0.321152,1.69281,-1.46515,1.54782
0.384233,-1.37571,1.40125,0.319306,1.69185,-1.46509,1.54779
0.383967,-1.37831,1.40015,0.317419,1.69089,-1.46508,1.54772
0.383756,-1.38083,1.39908,0.315493,1.68994,-1.46509,1.54759
0.383523,-1.38324,1.39801,0.313503,1.689,-1.46513,1.54742
0.383246,-1.3856,1.39696,0.311451,1.68806,-1.46522,1.54722
0.382956,-1.38797,1.39592,0.309412,1.68709,-1.46535,1.54692
0.382747,-1.39034,1.39498,0.307375,1.68614,-1.46551,1.54654
0.382632,-1.39271,1.39414,0.305386,1.68517,-1.46563,1.54616
0.382517,-1.39511,1.39333,0.303422,1.68418,-1.46574,1.54582
0.38232,-1.39746,1.39264,0.301433,1.68319,-1.46589,1.54544
0.382101,-1.39968,1.39223,0.299482,1.68219,-1.46611,1.54504
0.381949,-1.40178,1.39206,0.297593,1.68115,-1.46625,1.54461
0.381893,-1.40385,1.39192,0.29578,1.68009,-1.46636,1.54426
0.381935,-1.40591,1.39165,0.294019,1.67905,-1.46651,1.54396
0.381942,-1.40782,1.39143,0.29228,1.67805,-1.46675,1.54366
0.381846,-1.40956,1.39141,0.290511,1.67706,-1.46711,1.54323
0.381773,-1.41125,1.39165,0.288841,1.67631,-1.46722,1.54259
0.381855,-1.41292,1.39196,0.287405,1.67585,-1.46671,1.54151
0.382126,-1.41454,1.39198,0.286427,1.67585,-1.46537,1.53996
0.382391,-1.41598,1.39129,0.285924,1.67632,-1.46322,1.53821
0.382327,-1.41708,1.38969,0.285597,1.67687,-1.46044,1.5363
0.381824,-1.41784,1.38714,0.285185,1.67731,-1.45719,1.53409
0.380994,-1.41831,1.38381,0.284336,1.67789,-1.4537,1.53169
0.380261,-1.41857,1.38014,0.283213,1.67909,-1.45009,1.52918
0.380013,-1.41873,1.37655,0.281887,1.68095,-1.44645,1.52665
0.380291,-1.41886,1.37305,0.280709,1.68306,-1.44278,1.52424
0.380968,-1.41909,1.36973,0.279914,1.68482,-1.43918,1.52207
0.38159,-1.41933,1.36646,0.279747,1.68565,-1.4357,1.5202
0.381708,-1.4195,1.36302,0.280003,1.68551,-1.43236,1.51862
0.381176,-1.41948,1.35938,0.280555,1.68452,-1.42921,1.51722
0.380129,-1.41917,1.35548,0.281075,1.68275,-1.42629,1.51591
0.378875,-1.41863,1.35134,0.28132,1.68045,-1.42376,1.5147
0.377819,-1.41802,1.34699,0.281519,1.6778,-1.42153,1.51374
0.377202,-1.41734,1.34252,0.281788,1.67486,-1.41959,1.51294
0.376937,-1.41664,1.33805,0.282369,1.67166,-1.41802,1.51241
0.376742,-1.416,1.33368,0.283539,1.6682,-1.41674,1.51212
0.376242,-1.41537,1.32953,0.285258,1.6646,-1.41591,1.51196
0.375268,-1.41464,1.32562,0.287564,1.66093,-1.41561,1.51189
0.373939,-1.41372,1.32208,0.290527,1.65729,-1.41599,1.51198
0.372461,-1.41256,1.319,0.294033,1.65379,-1.41716,1.51238
0.370934,-1.41125,1.31618,0.298003,1.65041,-1.4189,1.51332
0.369382,-1.40992,1.31347,0.302274,1.6471,-1.42056,1.51486
0.367818,-1.40855,1.31074,0.306847,1.64376,-1.42203,1.51686
0.366313,-1.40712,1.30795,0.311658,1.6404,-1.42364,1.51909
0.364909,-1.40563,1.30508,0.316489,1.63702,-1.4255,1.52141
0.363596,-1.40404,1.30216,0.321166,1.63373,-1.42761,1.52372
0.362369,-1.40237,1.29915,0.325769,1.63049,-1.42996,1.52594
0.361334,-1.40062,1.29611,0.330322,1.62737,-1.43256,1.52804
0.360551,-1.39877,1.29306,0.334759,1.62436,-1.4355,1.53003
0.360001,-1.39671,1.29005,0.338956,1.62151,-1.43869,1.53194
0.359618,-1.39444,1.28706,0.343025,1.61882,-1.44218,1.53379
0.359503,-1.39196,1.28414,0.346931,1.6163,-1.44601,1.53559
0.359703,-1.38928,1.28133,0.350815,1.61396,-1.4501,1.53738
0.360239,-1.38644,1.27863,0.35453,1.61177,-1.45443,1.53918
0.361008,-1.38347,1.27618,0.358094,1.60974,-1.45899,1.54098
0.361947,-1.38037,1.27411,0.361465,1.60782,-1.46361,1.54277
0.363057,-1.37717,1.27257,0.364758,1.60598,-1.46825,1.54452
0.364369,-1.3738,1.27161,0.368021,1.60418,-1.4727,1.54624
0.365955,-1.37017,1.27124,0.37122,1.60237,-1.47699,1.54793
0.367807,-1.36634,1.27157,0.37429,1.60058,-1.48112,1.54963
0.369829,-1.36246,1.27258,0.377258,1.59873,-1.48504,1.55136
0.37196,-1.35858,1.27437,0.380146,1.59682,-1.48876,1.55316
0.374206,-1.35458,1.27692,0.383049,1.59481,-1.49243,1.55503
0.376623,-1.35031,1.28023,0.385899,1.59267,-1.49602,1.55697
0.379252,-1.34582,1.28423,0.388755,1.59041,-1.49957,1.55896
0.38214,-1.34134,1.28876,0.391643,1.58809,-1.50303,1.56094
0.38522,-1.33685,1.29366,0.394541,1.5857,-1.50644,1.56288
0.388428,-1.3321,1.29879,0.397489,1.58325,-1.50963,1.56475
0.391706,-1.32705,1.3041,0.400402,1.58076,-1.51264,1.56652
0.395008,-1.32191,1.30947,0.403329,1.57827,-1.51554,1.56819
0.398374,-1.31684,1.31473,0.406336,1.57582,-1.51828,1.56975
0.401941,-1.31154,1.31979,0.409497,1.57335,-1.52075,1.5712
0.405827,-1.30586,1.32471,0.412662,1.57089,-1.52301,1.57253
0.409872,-1.30008,1.32951,0.415868,1.56849,-1.52512,1.57376
0.413838,-1.29434,1.33405,0.419105,1.56613,-1.52701,1.57489
0.417716,-1.28833,1.33837,0.422393,1.5638,-1.52871,1.57593
0.421745,-1.28212,1.34262,0.425682,1.56151,-1.53029,1.57691
0.425952,-1.27602,1.34674,0.429156,1.55924,-1.53176,1.57783
0.43023,-1.2698,1.35058,0.432637,1.557,-1.53302,1.57872
0.434518,-1.26339,1.35433,0.435983,1.55478,-1.53419,1.57955
0.438841,-1.25709,1.35811,0.439414,1.55263,-1.5353,1.58037
0.443205,-1.25069,1.36174,0.44306,1.55048,-1.53633,1.58117
0.447658,-1.24405,1.36528,0.446642,1.54833,-1.53724,1.58196
0.452158,-1.23763,1.36885,0.45025,1.54623,-1.53816,1.58276
0.456577,-1.23117,1.37228,0.453859,1.54416,-1.539,1.58353
0.461062,-1.22444,1.3757,0.457369,1.54208,-1.53976,1.58432
0.465742,-1.21784,1.37926,0.461064,1.54004,-1.54056,1.58512
0.470397,-1.21124,1.38266,0.464901,1.53797,-1.5413,1.58594
0.474942,-1.20451,1.38602,0.468517,1.5359,-1.54198,1.58677
0.479593,-1.19798,1.38956,0.472146,1.53387,-1.54272,1.58761
0.484361,-1.19134,1.39303,0.476024,1.53181,-1.54345,1.58848
0.489183,-1.1845,1.3965,0.479718,1.52973,-1.54411,1.58936
0.493946,-1.17794,1.40004,0.483407,1.52765,-1.54486,1.59026
0.498588,-1.17141,1.40351,0.487185,1.52557,-1.54558,1.59116
0.503345,-1.1647,1.40708,0.490927,1.52347,-1.54632,1.59208
0.508292,-1.15813,1.41077,0.494704,1.52137,-1.54708,1.59298
0.513114,-1.15152,1.4143,0.498522,1.51926,-1.54779,1.5939
0.517852,-1.14489,1.41787,0.502082,1.51715,-1.54852,1.59483
0.522748,-1.13846,1.42163,0.505842,1.51505,-1.5493,1.59576
0.527706,-1.13192,1.42524,0.509864,1.5129,-1.55007,1.59671
0.532623,-1.12531,1.42894,0.513521,1.51077,-1.55083,1.59765
0.537471,-1.11888,1.43275,0.517111,1.50865,-1.55161,1.59861
0.54234,-1.11242,1.43645,0.520899,1.50653,-1.55239,1.59958
0.547345,-1.10588,1.44021,0.52467,1.50438,-1.55316,1.60056
0.552375,-1.09956,1.44404,0.528507,1.50221,-1.55396,1.60154
0.557274,-1.09325,1.44775,0.532274,1.50005,-1.55472,1.60254
0.562211,-1.08677,1.45159,0.535845,1.4979,-1.55547,1.60355
0.56731,-1.08045,1.45553,0.53962,1.49572,-1.55627,1.60457
0.572316,-1.0742,1.45926,0.543498,1.49352,-1.55701,1.6056
0.577217,-1.0679,1.46303,0.547108,1.49131,-1.55772,1.60665
0.58229,-1.06172,1.46703,0.55081,1.48913,-1.55849,1.60771
0.587417,-1.05551,1.47091,0.554669,1.48692,-1.55918,1.60879
0.592413,-1.04919,1.47471,0.558215,1.48469,-1.55976,1.60989
0.597412,-1.04311,1.47867,0.561757,1.4825,-1.56037,1.61098
0.602498,-1.03709,1.48259,0.565567,1.4803,-1.56089,1.61208
0.607637,-1.03089,1.48643,0.569266,1.47804,-1.56121,1.61317
0.612784,-1.02479,1.49041,0.572774,1.47585,-1.56144,1.61427
0.617879,-1.01886,1.49436,0.576319,1.47367,-1.56153,1.61537
0.622989,-1.01278,1.49824,0.579888,1.47146,-1.56137,1.61649
0.62821,-1.00672,1.5022,0.583498,1.46926,-1.56103,1.61764
0.633386,-1.00092,1.50615,0.58727,1.46704,-1.56036,1.61879
0.638506,-0.99502,1.51002,0.590933,1.46484,-1.55894,1.61995
0.643739,-0.988962,1.51401,0.594674,1.46263,-1.55679,1.6211
0.649018,-0.983088,1.51804,0.598709,1.46045,-1.55395,1.62223
0.654046,-0.977301,1.52184,0.602834,1.45828,-1.55045,1.62333
0.659017,-0.971387,1.52568,0.607011,1.45617,-1.54663,1.62441
0.664174,-0.965494,1.52977,0.611486,1.4541,-1.54277,1.62547
0.669197,-0.959675,1.5337,0.616009,1.45207,-1.53888,1.62651
0.673949,-0.953826,1.53742,0.620373,1.45009,-1.53501,1.62753
0.678812,-0.948048,1.54136,0.624916,1.44815,-1.53143,1.62853
0.683871,-0.942374,1.54538,0.6298,1.44622,-1.52812,1.62951
0.688849,-0.936616,1.54915,0.634496,1.44434,-1.52495,1.63046
0.693702,-0.930844,1.55297,0.639032,1.44252,-1.52206,1.63139
0.698716,-0.925247,1.55699,0.643739,1.44077,-1.51953,1.63228
0.70382,-0.919646,1.56087,0.648694,1.43902,-1.51725,1.63315
0.708867,-0.913933,1.5646,0.653392,1.43737,-1.51507,1.63399
0.713906,-0.908313,1.56856,0.657997,1.43582,-1.51329,1.63481
0.719039,-0.902784,1.57257,0.662778,1.43437,-1.5118,1.6356
0.724198,-0.897153,1.57641,0.667655,1.43299,-1.51046,1.63637
0.729341,-0.891496,1.58028,0.672243,1.43179,-1.50934,1.63715
0.734451,-0.886026,1.58429,0.676782,1.43083,-1.50856,1.63789
0.739598,-0.880565,1.58822,0.681435,1.43008,-1.50799,1.6386
0.74485,-0.874948,1.59211,0.686113,1.42958,-1.50757,1.63931
0.750138,-0.869442,1.59614,0.69063,1.42948,-1.50735,1.63999
0.755335,-0.864081,1.60013,0.694991,1.42985,-1.50729,1.64065
0.760509,-0.858618,1.604,0.699435,1.43079,-1.50739,1.64131
0.765862,-0.853061,1.60797,0.703951,1.43255,-1.50786,1.64194
0.771247,-0.847627,1.612,0.708475,1.43523,-1.50919,1.64253
0.776551,-0.842256,1.6159,0.712783,1.43891,-1.51154,1.64317
0.781816,-0.836707,1.61973,0.717101,1.44348,-1.51506,1.64384
0.787179,-0.831168,1.62366,0.721422,1.44881,-1.51979,1.64453
0.792541,-0.825785,1.62758,0.725743,1.45468,-1.52551,1.64529
0.797933,-0.820381,1.63141,0.729871,1.46083,-1.53172,1.6461
0.803388,-0.814821,1.63531,0.73391,1.46704,-1.53829,1.64698
0.808815,-0.809338,1.63922,0.737821,1.47317,-1.54496,1.6479
0.814172,-0.804034,1.643,0.741667,1.47907,-1.55145,1.64883
0.819628,-0.798617,1.64679,0.745509,1.48451,-1.55764,1.64972
0.825207,-0.793088,1.65075,0.749165,1.48932,-1.56344,1.65052
0.830606,-0.787688,1.65468,0.752393,1.49345,-1.56871,1.65115
0.835797,-0.782369,1.65848,0.754995,1.49678,-1.57331,1.65154
0.841031,-0.77694,1.66235,0.756998,1.49907,-1.57725,1.6516
0.846402,-0.771578,1.66627,0.758158,1.5001,-1.58056,1.65124
0.851794,-0.766425,1.66975,0.758162,1.4997,-1.58338,1.65033
0.857323,-0.761331,1.67233,0.757108,1.49786,-1.58563,1.64866
0.863232,-0.756143,1.67393,0.7553,1.49485,-1.58689,1.64604
0.869438,-0.750941,1.67431,0.753078,1.49138,-1.5867,1.64249
0.875835,-0.745637,1.6735,0.750964,1.48791,-1.58493,1.63835
0.882255,-0.739917,1.67186,0.749249,1.4844,-1.58138,1.634
0.888331,-0.733801,1.6699,0.747819,1.48082,-1.57617,1.62973
0.893859,-0.727671,1.66813,0.74686,1.47752,-1.56993,1.62564
0.898683,-0.72168,1.66638,0.746327,1.47469,-1.56331,1.6218
