Afshin1997/kuka_rl_ros2/src/catch_and_throw/output_files/ft/idealpd_10/ft_received_joint_pos_np.csv
joint_0,joint_1,joint_2,joint_3,joint_4,joint_5,joint_6
0.786837,0.00399997,1.32638,1.22184,1.60575,-0.907434,1.57077
0.786837,0.00399985,1.32638,1.22184,1.60575,-0.907434,1.57077
0.786837,0.00399985,1.32638,1.22184,1.60575,-0.907434,1.57077
0.786838,0.00400003,1.32639,1.22183,1.60575,-0.907438,1.57077
0.786838,0.00399728,1.32635,1.22188,1.6057,-0.907512,1.57081
0.786844,0.0039844,1.32609,1.22216,1.60549,-0.907977,1.57085
0.786925,0.0039977,1.32567,1.22248,1.60527,-0.908825,1.57052
0.78716,0.00407703,1.32539,1.22258,1.6055,-0.909392,1.56953
0.787511,0.00424961,1.32552,1.22238,1.60657,-0.908854,1.56772
0.787901,0.00444705,1.32626,1.22177,1.60859,-0.906743,1.5652
0.788327,0.004528,1.32786,1.22046,1.61153,-0.903046,1.56226
0.788808,0.00432169,1.3305,1.21831,1.61517,-0.897996,1.55915
0.789293,0.00361199,1.33404,1.21527,1.61927,-0.892179,1.55601
0.789836,0.00222223,1.33836,1.21143,1.62358,-0.886117,1.5529
0.790518,0.000175149,1.34342,1.2069,1.62798,-0.880032,1.54989
0.791336,-0.00235017,1.349,1.20192,1.63241,-0.87406,1.54704
0.79238,-0.00522039,1.35499,1.19676,1.63682,-0.868326,1.54436
0.793799,-0.00816527,1.36138,1.19143,1.64116,-0.862893,1.54188
0.795585,-0.0111088,1.36797,1.18581,1.64541,-0.857788,1.5396
0.797666,-0.0141524,1.37455,1.18018,1.64957,-0.853096,1.53751
0.800034,-0.0172406,1.38104,1.17451,1.6536,-0.848799,1.53559
0.802644,-0.0203396,1.3874,1.1687,1.65749,-0.844826,1.53384
0.805469,-0.0235939,1.39363,1.16283,1.66128,-0.841242,1.53226
0.808497,-0.0268699,1.39974,1.15708,1.66491,-0.838015,1.53086
0.81171,-0.030184,1.40574,1.15146,1.66839,-0.835127,1.52964
0.815096,-0.0336249,1.41168,1.14584,1.67173,-0.83256,1.52855
0.81866,-0.0371169,1.41758,1.14032,1.6749,-0.830287,1.52762
0.822316,-0.0407662,1.42337,1.13498,1.67791,-0.828306,1.52682
0.825925,-0.0446451,1.4289,1.1296,1.68082,-0.826531,1.52618
0.829558,-0.0486897,1.43436,1.12417,1.6836,-0.824966,1.52566
0.833334,-0.0527839,1.43998,1.11881,1.68624,-0.823691,1.52525
0.83713,-0.0568823,1.44557,1.11349,1.68875,-0.822622,1.52494
0.84081,-0.061117,1.45094,1.10802,1.69122,-0.821644,1.52471
0.844379,-0.0654861,1.45617,1.10249,1.69361,-0.820818,1.52455
0.84785,-0.0698654,1.46132,1.09703,1.6959,-0.820089,1.52445
0.851282,-0.0743108,1.46649,1.0916,1.69813,-0.819432,1.52436
0.854703,-0.078834,1.47172,1.08611,1.70031,-0.818882,1.52427
0.858049,-0.0834706,1.47688,1.08078,1.70243,-0.818395,1.5242
0.86118,-0.0882034,1.48178,1.07563,1.70449,-0.817839,1.52411
0.864125,-0.0930145,1.48649,1.07047,1.70652,-0.817204,1.52401
0.867073,-0.09789,1.49132,1.06546,1.70851,-0.816646,1.52389
0.870043,-0.102776,1.49625,1.0606,1.71047,-0.816095,1.52376
0.872861,-0.107785,1.50101,1.05596,1.7124,-0.815478,1.52361
0.875475,-0.112858,1.50555,1.05128,1.71432,-0.814742,1.52346
0.878037,-0.11792,1.51012,1.04673,1.71624,-0.813992,1.52329
0.880586,-0.122957,1.51474,1.04229,1.71814,-0.813224,1.52314
0.882957,-0.128017,1.51919,1.03795,1.72003,-0.812382,1.52299
0.885133,-0.13309,1.52348,1.03353,1.72193,-0.811442,1.52286
0.887242,-0.138177,1.52787,1.02913,1.72383,-0.810552,1.52275
0.889262,-0.143296,1.53233,1.02472,1.72573,-0.809641,1.52265
0.891042,-0.148461,1.53666,1.02035,1.72764,-0.808701,1.52257
0.892554,-0.153621,1.54089,1.01598,1.72957,-0.807766,1.52246
0.893903,-0.158749,1.54516,1.01149,1.7315,-0.806846,1.5223
0.895125,-0.163886,1.54947,1.00698,1.73346,-0.805877,1.52206
0.896194,-0.16893,1.5537,1.00249,1.73544,-0.804854,1.52173
0.897156,-0.173895,1.55789,0.998102,1.73741,-0.80377,1.52131
0.898067,-0.178875,1.56209,0.993578,1.73942,-0.802627,1.52084
0.898862,-0.183869,1.56616,0.989,1.74148,-0.801397,1.52028
0.899626,-0.188825,1.57019,0.984508,1.74354,-0.800125,1.51962
0.900406,-0.193824,1.57426,0.980177,1.74562,-0.798849,1.51886
0.901117,-0.198937,1.57822,0.975795,1.74774,-0.797452,1.51806
0.901682,-0.204062,1.58202,0.971365,1.74988,-0.795983,1.51717
0.902185,-0.20916,1.58584,0.967002,1.75203,-0.794485,1.51623
0.902653,-0.214235,1.58972,0.962717,1.75423,-0.792967,1.51524
0.903018,-0.219347,1.59355,0.958542,1.75642,-0.791406,1.51422
0.903251,-0.224362,1.59728,0.954325,1.75861,-0.789766,1.51317
0.90342,-0.229281,1.60103,0.950088,1.76082,-0.788095,1.5121
0.903559,-0.234211,1.60477,0.94592,1.76305,-0.786452,1.51104
0.903622,-0.239103,1.60837,0.941901,1.76528,-0.784752,1.50999
0.903679,-0.243866,1.61197,0.937935,1.76749,-0.783033,1.50897
0.903755,-0.248525,1.61565,0.93386,1.76969,-0.781348,1.50795
0.903764,-0.253203,1.61923,0.929756,1.77191,-0.779645,1.50694
0.903679,-0.257921,1.62262,0.925749,1.77414,-0.777914,1.50593
0.903624,-0.262525,1.62601,0.921823,1.77633,-0.776185,1.50492
0.90369,-0.267018,1.62954,0.91783,1.77852,-0.774479,1.50389
0.903753,-0.271501,1.63303,0.913709,1.78074,-0.772786,1.50284
0.90372,-0.276016,1.63631,0.90957,1.78296,-0.771048,1.50178
0.903687,-0.280458,1.63952,0.905498,1.78519,-0.769262,1.5007
0.903766,-0.284753,1.64283,0.901461,1.78741,-0.767501,1.4996
0.90394,-0.289035,1.64619,0.897348,1.78964,-0.765814,1.4985
0.904068,-0.293293,1.64939,0.893116,1.7919,-0.764086,1.49739
0.904188,-0.297526,1.65251,0.888938,1.79415,-0.762337,1.49629
0.904393,-0.301583,1.65567,0.884829,1.79638,-0.760623,1.49519
0.904691,-0.305557,1.6589,0.880821,1.79861,-0.758963,1.4941
0.904953,-0.309497,1.66202,0.876752,1.80086,-0.757255,1.49301
0.905162,-0.313358,1.66505,0.872651,1.80311,-0.755533,1.49195
0.905434,-0.317179,1.66816,0.868718,1.80536,-0.753832,1.49088
0.905743,-0.320855,1.67131,0.864927,1.8076,-0.752112,1.48981
0.90603,-0.324473,1.67446,0.861251,1.80985,-0.750387,1.48873
0.906217,-0.327981,1.67752,0.857512,1.81212,-0.748657,1.48762
0.906353,-0.331409,1.6806,0.853792,1.81439,-0.746922,1.4865
0.906533,-0.334802,1.68377,0.850291,1.81666,-0.745244,1.48536
0.906703,-0.338084,1.68697,0.846932,1.81894,-0.74359,1.48419
0.906833,-0.341324,1.69021,0.84374,1.82121,-0.741988,1.48301
0.906867,-0.344442,1.69344,0.840549,1.82351,-0.740375,1.4818
0.906821,-0.347463,1.69672,0.837427,1.82581,-0.738782,1.48059
0.906728,-0.350406,1.70006,0.83446,1.82811,-0.737213,1.47935
0.90659,-0.353356,1.70348,0.831759,1.83043,-0.735664,1.47811
0.906398,-0.356307,1.70694,0.829221,1.83275,-0.734107,1.47687
0.906122,-0.359171,1.71043,0.826881,1.83509,-0.732536,1.47563
0.905774,-0.361909,1.71397,0.824896,1.83743,-0.730965,1.47442
0.905372,-0.364526,1.71757,0.823434,1.83977,-0.729381,1.47324
0.904855,-0.36714,1.7212,0.822578,1.84216,-0.727766,1.47224
0.904176,-0.369773,1.72488,0.822454,1.84457,-0.726128,1.47155
0.9033,-0.372481,1.72862,0.823105,1.84698,-0.724495,1.47107
0.902131,-0.375218,1.73237,0.824513,1.84941,-0.72283,1.47061
0.900602,-0.3779,1.73616,0.826576,1.85184,-0.721191,1.47012
0.898703,-0.380486,1.74008,0.829185,1.85426,-0.719623,1.46963
0.896434,-0.382953,1.74417,0.832207,1.85667,-0.71818,1.46911
0.893771,-0.38539,1.74836,0.835567,1.85905,-0.716795,1.46855
0.890678,-0.387823,1.75259,0.839026,1.86141,-0.715445,1.46798
0.887212,-0.390313,1.75684,0.842436,1.86376,-0.714106,1.46743
0.883527,-0.392826,1.76112,0.84583,1.8661,-0.712764,1.46689
0.879785,-0.395235,1.76546,0.849269,1.86843,-0.711418,1.46635
0.876094,-0.397553,1.76981,0.852799,1.87074,-0.710013,1.46583
0.872397,-0.3998,1.7739,0.856473,1.87304,-0.708449,1.46534
0.868774,-0.402011,1.77775,0.860353,1.87533,-0.706767,1.46484
0.865389,-0.404174,1.78157,0.864528,1.87761,-0.705022,1.46436
0.862282,-0.406258,1.78539,0.868861,1.87989,-0.703205,1.46393
0.859328,-0.408369,1.78911,0.873441,1.88216,-0.701338,1.46353
0.856371,-0.410549,1.79263,0.878246,1.8844,-0.699386,1.46314
0.853367,-0.412768,1.79601,0.883166,1.88664,-0.69738,1.46272
0.850389,-0.414936,1.79947,0.888005,1.88887,-0.695349,1.46231
0.847443,-0.417014,1.80306,0.892806,1.89107,-0.693365,1.46192
0.844499,-0.419099,1.8067,0.89778,1.89327,-0.691414,1.46156
0.841482,-0.421217,1.8103,0.90284,1.89544,-0.689423,1.46121
0.838365,-0.423391,1.81387,0.907778,1.89761,-0.687478,1.46084
0.835108,-0.425588,1.81738,0.91262,1.89978,-0.68554,1.46047
0.831752,-0.427788,1.82088,0.917543,1.90192,-0.683615,1.46014
0.828393,-0.43,1.82453,0.922417,1.90407,-0.681765,1.45986
0.825015,-0.43218,1.82828,0.92713,1.90622,-0.680008,1.45959
0.82158,-0.434292,1.83204,0.931681,1.90836,-0.678273,1.45933
0.81806,-0.436279,1.83576,0.93633,1.91049,-0.676521,1.45905
0.814539,-0.438161,1.83947,0.940948,1.91262,-0.67476,1.45877
0.811069,-0.43995,1.84324,0.945487,1.91473,-0.673015,1.45849
0.807679,-0.44172,1.84709,0.949869,1.91685,-0.671315,1.45822
0.804328,-0.443511,1.85093,0.95438,1.91897,-0.669594,1.45798
0.801022,-0.445355,1.85469,0.958864,1.92107,-0.667844,1.45778
0.797755,-0.447259,1.85837,0.963378,1.92316,-0.666095,1.4576
0.79454,-0.449212,1.86195,0.967725,1.92528,-0.66433,1.45742
0.791392,-0.451178,1.86555,0.97211,1.92739,-0.662581,1.45722
0.788371,-0.453128,1.86921,0.976583,1.9295,-0.660862,1.45705
0.785467,-0.455048,1.8729,0.981132,1.9316,-0.659127,1.45691
0.782613,-0.456948,1.87656,0.985599,1.93371,-0.657348,1.45681
0.779782,-0.458852,1.8802,0.989942,1.93583,-0.655556,1.45675
0.77697,-0.460724,1.88383,0.99439,1.93796,-0.653765,1.45672
0.77422,-0.462617,1.88747,0.998862,1.94009,-0.651955,1.45674
0.771471,-0.464528,1.89116,1.00333,1.9422,-0.650156,1.45675
0.768694,-0.466509,1.89486,1.00759,1.94434,-0.648374,1.45677
0.765864,-0.468534,1.89859,1.01189,1.94648,-0.646606,1.45678
0.763055,-0.470576,1.90239,1.01617,1.94863,-0.644891,1.4568
0.760275,-0.472585,1.90628,1.02047,1.95076,-0.643245,1.45682
0.757465,-0.474556,1.91014,1.02463,1.95289,-0.64157,1.45688
0.754557,-0.476505,1.91395,1.02867,1.95503,-0.639901,1.45704
0.751624,-0.478403,1.91779,1.03274,1.95716,-0.638231,1.45735
0.748774,-0.480243,1.92174,1.03684,1.95929,-0.636608,1.45784
0.74601,-0.482086,1.92578,1.04097,1.96143,-0.635016,1.45858
0.743226,-0.483961,1.92974,1.04492,1.96356,-0.633409,1.45954
0.740348,-0.485869,1.93357,1.04872,1.9657,-0.631768,1.46078
0.737449,-0.487798,1.93728,1.05255,1.96786,-0.630098,1.46225
0.734599,-0.489677,1.94093,1.05643,1.97001,-0.628426,1.46395
0.731817,-0.491472,1.9446,1.06027,1.97214,-0.62678,1.46578
0.729045,-0.493173,1.94823,1.06392,1.97429,-0.625167,1.46769
0.726218,-0.494787,1.95174,1.06742,1.97642,-0.623569,1.46963
0.723351,-0.496329,1.95511,1.07093,1.97853,-0.621974,1.47159
0.720461,-0.497769,1.95835,1.07441,1.98064,-0.620392,1.47354
0.717523,-0.499124,1.96149,1.07772,1.98272,-0.61883,1.47548
0.714507,-0.50042,1.96455,1.08062,1.98476,-0.61733,1.47739
0.711378,-0.501627,1.96754,1.08308,1.98676,-0.615864,1.47923
0.708226,-0.502721,1.97045,1.08527,1.98871,-0.614443,1.48094
0.705097,-0.503643,1.97327,1.08734,1.99057,-0.613063,1.48244
0.701974,-0.504453,1.97599,1.08903,1.9924,-0.611723,1.48375
0.698818,-0.505166,1.97855,1.09038,1.99419,-0.610377,1.48485
0.695649,-0.505793,1.98097,1.09153,1.99592,-0.609001,1.48572
0.692526,-0.506366,1.98335,1.09256,1.9976,-0.607631,1.48641
0.68942,-0.5069,1.98573,1.09346,1.99925,-0.606281,1.48695
0.68628,-0.507431,1.98814,1.09413,2.00082,-0.604933,1.48742
0.683066,-0.507966,1.99054,1.09469,2.00231,-0.603573,1.4879
0.679802,-0.508519,1.99292,1.09526,2.00373,-0.602193,1.48841
0.676443,-0.509096,1.99524,1.09586,2.00514,-0.600786,1.48905
0.673015,-0.509692,1.99756,1.09647,2.00656,-0.59937,1.4899
0.669539,-0.510303,1.99993,1.09718,2.00801,-0.597979,1.49098
0.666056,-0.510942,2.00233,1.09806,2.00954,-0.596626,1.49227
0.662492,-0.511562,2.00469,1.09918,2.01115,-0.595276,1.49371
0.658746,-0.512148,2.00696,1.1004,2.01283,-0.593927,1.49529
0.654778,-0.512721,2.00919,1.10158,2.01454,-0.592557,1.49698
0.650653,-0.513292,2.01152,1.10276,2.0163,-0.591221,1.4987
0.646473,-0.513876,2.01408,1.10399,2.01811,-0.589918,1.50044
0.6422,-0.514543,2.01681,1.10497,2.01994,-0.588651,1.50219
0.637716,-0.515383,2.0195,1.10554,2.02178,-0.587353,1.50392
0.633073,-0.516402,2.0221,1.10572,2.02368,-0.586025,1.50547
0.628501,-0.517497,2.02485,1.10544,2.02563,-0.584736,1.50632
0.624152,-0.518617,2.02772,1.10464,2.02767,-0.583539,1.5061
0.62,-0.519789,2.03052,1.10325,2.02983,-0.582454,1.50477
0.615995,-0.521063,2.03318,1.10121,2.03211,-0.58144,1.50222
0.612289,-0.522441,2.03588,1.09859,2.03446,-0.580547,1.49853
0.60905,-0.523864,2.03883,1.09544,2.03687,-0.579784,1.49388
0.606276,-0.525351,2.04194,1.09179,2.03929,-0.579163,1.48854
0.60387,-0.526987,2.04508,1.08766,2.04173,-0.578645,1.48282
0.601753,-0.528829,2.04817,1.08325,2.0442,-0.578218,1.47696
0.599898,-0.530836,2.05121,1.07867,2.04666,-0.577901,1.47114
0.598341,-0.532946,2.05438,1.0739,2.04911,-0.57775,1.46554
0.597074,-0.535145,2.05779,1.06892,2.05154,-0.577806,1.46026
0.596001,-0.537502,2.06138,1.06402,2.05392,-0.577978,1.45537
0.595061,-0.540054,2.0651,1.0592,2.05629,-0.578257,1.45091
0.594199,-0.542828,2.06892,1.05438,2.05861,-0.578662,1.44694
0.593412,-0.545831,2.07282,1.04955,2.0609,-0.579263,1.44348
0.592721,-0.549126,2.07687,1.04494,2.06316,-0.580205,1.44051
0.592155,-0.552652,2.08111,1.04047,2.06538,-0.581615,1.43799
0.591716,-0.556274,2.08554,1.03618,2.06754,-0.583642,1.43583
0.591374,-0.560034,2.09007,1.03195,2.06968,-0.586447,1.43401
0.591082,-0.563956,2.09464,1.02804,2.07176,-0.590222,1.43249
0.590979,-0.567986,2.09933,1.02455,2.0738,-0.595177,1.4313
0.591113,-0.572146,2.10421,1.02138,2.0758,-0.601373,1.43046
0.591419,-0.576372,2.10909,1.01856,2.07775,-0.608679,1.42995
0.591912,-0.580765,2.11389,1.01617,2.07968,-0.616951,1.4297
0.592638,-0.585387,2.11868,1.01422,2.08161,-0.626033,1.42968
0.593683,-0.590116,2.12351,1.01272,2.08351,-0.635445,1.42975
0.595019,-0.594862,2.12826,1.01171,2.08539,-0.64493,1.42982
0.596661,-0.59969,2.13297,1.01098,2.08728,-0.654051,1.42984
0.598631,-0.604788,2.13769,1.01055,2.08917,-0.662796,1.42982
0.600915,-0.610048,2.14237,1.01036,2.09107,-0.670831,1.4298
0.60347,-0.615257,2.14693,1.01037,2.09297,-0.678135,1.4298
0.606353,-0.620425,2.15145,1.0105,2.09487,-0.684704,1.42979
0.609568,-0.625782,2.156,1.01075,2.09679,-0.690602,1.42978
0.61308,-0.631216,2.16051,1.01111,2.09871,-0.695858,1.42978
0.616944,-0.636469,2.16499,1.01159,2.10064,-0.700377,1.42977
0.621217,-0.641639,2.16953,1.01225,2.10257,-0.704257,1.42977
0.625785,-0.646995,2.17397,1.01298,2.10451,-0.707515,1.42977
0.630549,-0.652432,2.17822,1.01376,2.1065,-0.710152,1.42977
0.635653,-0.657665,2.18247,1.01469,2.10847,-0.71221,1.42977
0.641219,-0.662856,2.18692,1.01577,2.11044,-0.713824,1.42976
0.647034,-0.668222,2.19128,1.01695,2.11243,-0.715031,1.42973
0.652937,-0.67365,2.19532,1.01807,2.11443,-0.715824,1.42967
0.659211,-0.678896,2.19946,1.01919,2.11642,-0.716342,1.42959
0.66599,-0.684131,2.20389,1.02048,2.11842,-0.716802,1.42947
0.672836,-0.689517,2.20798,1.02177,2.1204,-0.717084,1.4293
0.679773,-0.694905,2.21176,1.02295,2.12242,-0.71722,1.42908
0.687164,-0.700105,2.21578,1.02428,2.12443,-0.717407,1.42882
0.694759,-0.705336,2.21977,1.02572,2.12643,-0.717578,1.42854
0.702459,-0.710671,2.22353,1.02712,2.12846,-0.717728,1.42822
0.710271,-0.715795,2.22713,1.02864,2.13046,-0.717811,1.42784
0.718209,-0.72085,2.23062,1.0302,2.13247,-0.71791,1.42739
0.726358,-0.725974,2.23421,1.03195,2.13449,-0.718118,1.42692
0.734489,-0.73101,2.2376,1.03373,2.13648,-0.718283,1.42641
0.742707,-0.735904,2.24087,1.03543,2.13851,-0.718477,1.42586
0.750954,-0.740662,2.24415,1.03738,2.14048,-0.718674,1.42527
0.759163,-0.745486,2.24728,1.0392,2.14248,-0.718882,1.42466
0.767454,-0.750307,2.25039,1.04111,2.1445,-0.719115,1.42404
0.775645,-0.754821,2.2533,1.04309,2.14647,-0.719202,1.42338
0.783967,-0.759298,2.25624,1.04499,2.14847,-0.719299,1.4227
0.792207,-0.763772,2.25913,1.04704,2.15045,-0.719322,1.42202
0.800376,-0.768275,2.26182,1.04892,2.15246,-0.719293,1.4213
0.808544,-0.772566,2.26447,1.05099,2.15444,-0.719218,1.42058
0.816575,-0.77662,2.26701,1.05303,2.15641,-0.719069,1.41987
0.824701,-0.780765,2.26962,1.05502,2.15842,-0.718892,1.41914
0.832619,-0.784831,2.27209,1.05725,2.16036,-0.71845,1.41842
0.84053,-0.788862,2.27447,1.05924,2.1624,-0.717831,1.41771
0.84839,-0.792623,2.27694,1.06145,2.16438,-0.717066,1.41698
0.856087,-0.796317,2.27935,1.06351,2.1664,-0.716209,1.41625
0.863758,-0.800094,2.2818,1.06554,2.16846,-0.715355,1.41552
0.871148,-0.803713,2.28414,1.06772,2.17046,-0.714389,1.41477
0.878558,-0.807281,2.28645,1.06967,2.17252,-0.713414,1.41403
0.885932,-0.810621,2.28888,1.07188,2.17449,-0.712411,1.41328
0.89315,-0.813926,2.29122,1.07381,2.17649,-0.711406,1.41252
0.900342,-0.817183,2.29353,1.07573,2.17849,-0.71047,1.41176
0.907409,-0.820238,2.29585,1.07782,2.18043,-0.709542,1.41098
0.914443,-0.823292,2.29812,1.07966,2.18244,-0.708714,1.4102
0.921421,-0.82627,2.30048,1.0816,2.18438,-0.707952,1.40939
0.92827,-0.82918,2.30275,1.08337,2.1863,-0.707249,1.40858
0.934983,-0.832028,2.30492,1.08502,2.18827,-0.70663,1.40776
0.941684,-0.834703,2.30723,1.08685,2.19017,-0.706092,1.40693
0.948307,-0.83729,2.30946,1.08858,2.19207,-0.705612,1.40609
0.95478,-0.839804,2.31161,1.09023,2.19398,-0.705224,1.40524
0.961301,-0.842249,2.3139,1.09186,2.19585,-0.704969,1.4044
0.967696,-0.84469,2.31613,1.09342,2.1977,-0.704744,1.40355
0.973934,-0.847105,2.31827,1.09483,2.19956,-0.704549,1.40269
0.980223,-0.849323,2.32055,1.09624,2.2014,-0.704426,1.40183
0.986384,-0.8514,2.32279,1.09769,2.20321,-0.704334,1.40094
0.992381,-0.853415,2.32494,1.09897,2.20501,-0.704282,1.40007
0.998438,-0.855297,2.32726,1.10024,2.20682,-0.704287,1.39917
1.00445,-0.85716,2.32952,1.10155,2.20859,-0.704293,1.39828
1.01027,-0.859039,2.33161,1.10266,2.21036,-0.704306,1.39738
1.01611,-0.860873,2.33387,1.10366,2.21214,-0.704367,1.39648
1.02199,-0.862649,2.33622,1.10473,2.2139,-0.704416,1.39557
1.02761,-0.864376,2.33835,1.1057,2.21565,-0.704419,1.39465
1.03319,-0.865979,2.34056,1.10652,2.21741,-0.704503,1.39374
1.0389,-0.867435,2.34299,1.10739,2.21916,-0.704742,1.39282
1.04444,-0.868852,2.34525,1.10824,2.22088,-0.705093,1.39192
1.04982,-0.87019,2.34738,1.10889,2.2226,-0.705615,1.39102
1.05536,-0.8714,2.34974,1.10953,2.22431,-0.706375,1.39012
1.06092,-0.872558,2.35208,1.11029,2.22602,-0.707206,1.38921
1.06621,-0.873691,2.35415,1.11085,2.22771,-0.708033,1.38831
1.07152,-0.874757,2.35635,1.11117,2.2294,-0.708927,1.38741
1.07697,-0.875735,2.35873,1.11159,2.23108,-0.709905,1.38652
1.08226,-0.876642,2.36088,1.11204,2.23276,-0.710877,1.38562
1.08735,-0.877477,2.36288,1.11222,2.23443,-0.711894,1.38476
1.09256,-0.878187,2.36509,1.11235,2.23609,-0.712958,1.3839
1.09783,-0.878789,2.36727,1.11261,2.23776,-0.713867,1.38305
1.10287,-0.879356,2.36915,1.11269,2.23941,-0.714598,1.38218
1.1078,-0.879905,2.37101,1.11252,2.24108,-0.715371,1.3813
1.11286,-0.880415,2.37309,1.1124,2.24272,-0.716373,1.38042
1.11786,-0.88083,2.37511,1.1124,2.24436,-0.717622,1.37951
1.12263,-0.881139,2.37687,1.1122,2.24598,-0.719134,1.3786
1.1274,-0.881353,2.37867,1.11192,2.24758,-0.721029,1.37768
1.13234,-0.881469,2.38063,1.11178,2.24916,-0.723214,1.37676
1.13722,-0.881513,2.38238,1.11172,2.25074,-0.725493,1.37584
1.14189,-0.881543,2.38383,1.11144,2.2523,-0.727822,1.37493
1.14655,-0.881575,2.38535,1.11104,2.25387,-0.730214,1.37402
1.15134,-0.881562,2.38702,1.11076,2.2554,-0.732651,1.37311
1.15606,-0.881503,2.38854,1.11052,2.25694,-0.735028,1.3722
1.16058,-0.881399,2.38985,1.11011,2.25844,-0.737353,1.37128
1.16506,-0.881271,2.39125,1.10967,2.25993,-0.739777,1.37035
1.16966,-0.881077,2.39285,1.10939,2.2614,-0.742364,1.36939
1.1742,-0.880811,2.39439,1.10925,2.26289,-0.74502,1.36841
1.17852,-0.880589,2.39576,1.10904,2.26438,-0.747735,1.36743
1.18273,-0.880455,2.39713,1.10884,2.26587,-0.750548,1.36644
1.18699,-0.880355,2.39867,1.10878,2.26738,-0.753481,1.36547
1.19124,-0.880255,2.40024,1.10883,2.26892,-0.756373,1.36451
1.19535,-0.880163,2.4016,1.10891,2.27047,-0.759144,1.36357
1.19935,-0.880106,2.40287,1.10888,2.27202,-0.761803,1.36263
1.20333,-0.880039,2.40421,1.10886,2.27358,-0.764362,1.36169
1.20737,-0.879896,2.40553,1.10891,2.27517,-0.766814,1.3608
1.21136,-0.879694,2.40672,1.10895,2.27675,-0.769123,1.3599
1.21524,-0.879482,2.40772,1.10887,2.27832,-0.771258,1.35903
1.219,-0.879255,2.40851,1.1087,2.27986,-0.773237,1.35817
1.22272,-0.878931,2.40924,1.10851,2.28139,-0.775133,1.35734
1.22642,-0.878495,2.40993,1.10836,2.28289,-0.776886,1.35654
1.22999,-0.878037,2.41045,1.10817,2.28435,-0.778526,1.35575
1.23341,-0.877578,2.41086,1.10785,2.28576,-0.780058,1.35502
1.23667,-0.877113,2.41118,1.10747,2.28716,-0.781505,1.35432
1.2398,-0.876663,2.41147,1.10712,2.28855,-0.782919,1.35368
1.24284,-0.876194,2.41181,1.10686,2.2899,-0.784306,1.35309
1.24579,-0.875713,2.41219,1.10664,2.29126,-0.785684,1.35253
1.24861,-0.875251,2.41253,1.10647,2.2926,-0.787057,1.352
1.25132,-0.874797,2.41281,1.10639,2.29397,-0.788447,1.35152
1.25393,-0.87435,2.41309,1.10643,2.29536,-0.789811,1.35104
1.25642,-0.873923,2.41338,1.10654,2.29673,-0.791205,1.35058
1.25878,-0.873509,2.41368,1.10672,2.29813,-0.792598,1.35014
1.26108,-0.873107,2.41399,1.10701,2.29953,-0.794006,1.34974
1.26327,-0.872721,2.41426,1.10739,2.30096,-0.795409,1.34933
1.26535,-0.872351,2.41449,1.10785,2.30238,-0.79683,1.3489
1.26729,-0.87198,2.41469,1.10841,2.30382,-0.798254,1.34849
1.26909,-0.87161,2.41485,1.10904,2.30526,-0.799652,1.34807
1.27074,-0.871232,2.41497,1.10973,2.30672,-0.801059,1.34765
1.27223,-0.870851,2.41508,1.11052,2.30819,-0.80246,1.3472
1.27354,-0.870473,2.41518,1.11133,2.30966,-0.803862,1.34672
1.27464,-0.87008,2.41524,1.11217,2.31112,-0.805261,1.34623
1.27558,-0.869647,2.41527,1.11306,2.3126,-0.806647,1.34574
1.27633,-0.869189,2.41526,1.11397,2.31408,-0.80804,1.34524
1.27688,-0.868706,2.41523,1.1149,2.31554,-0.809427,1.34472
1.27724,-0.868201,2.41512,1.11581,2.31698,-0.810818,1.34419
1.27742,-0.867659,2.41493,1.11671,2.31839,-0.812194,1.34369
1.27745,-0.867076,2.41461,1.11754,2.31981,-0.81358,1.34319
1.27735,-0.866442,2.41413,1.11836,2.32116,-0.814985,1.34267
1.27713,-0.865745,2.41351,1.11907,2.32246,-0.816394,1.34218
1.27678,-0.864949,2.41274,1.11979,2.32368,-0.81783,1.34174
1.27631,-0.864093,2.41178,1.1204,2.32482,-0.819277,1.34132
1.27571,-0.863153,2.41072,1.12099,2.32581,-0.820771,1.3409
1.27496,-0.862125,2.40951,1.12157,2.32661,-0.822288,1.34051
1.27406,-0.861039,2.40812,1.12218,2.32722,-0.82384,1.34015
1.27299,-0.859905,2.4066,1.12283,2.32761,-0.825431,1.33984
1.27169,-0.858768,2.40492,1.12352,2.3278,-0.827041,1.33955
1.27017,-0.857617,2.40311,1.12431,2.32776,-0.828694,1.33926
1.26841,-0.856489,2.40118,1.12512,2.32754,-0.830326,1.33901
1.26642,-0.855373,2.39911,1.12603,2.32708,-0.831971,1.3388
1.2642,-0.854248,2.39692,1.12699,2.32637,-0.83355,1.33865
1.26178,-0.853079,2.3946,1.12802,2.32546,-0.835106,1.33857
1.25919,-0.851882,2.39218,1.12917,2.32443,-0.836606,1.33855
1.25647,-0.850647,2.38967,1.13041,2.3234,-0.838093,1.33856
1.2536,-0.849419,2.38706,1.13175,2.32238,-0.839534,1.33856
1.2506,-0.848209,2.38437,1.13316,2.32137,-0.84097,1.33856
1.24743,-0.847013,2.38157,1.13464,2.32039,-0.842352,1.33856
1.24409,-0.845882,2.3787,1.13616,2.31942,-0.843735,1.33855
1.24062,-0.844781,2.37584,1.13776,2.31849,-0.845113,1.33855
1.23705,-0.843686,2.37303,1.13946,2.31758,-0.846479,1.33856
1.23343,-0.842609,2.37028,1.14124,2.31668,-0.847867,1.33856
1.22972,-0.841555,2.36753,1.14307,2.31579,-0.849246,1.33856
1.22587,-0.840527,2.36473,1.14492,2.31494,-0.850596,1.33856
1.2219,-0.839571,2.36193,1.14681,2.31412,-0.851969,1.33856
1.2179,-0.838692,2.35925,1.14877,2.31333,-0.85335,1.33857
1.21386,-0.837892,2.35667,1.15081,2.31259,-0.854753,1.33857
1.20974,-0.83719,2.35408,1.15288,2.3119,-0.856138,1.33857
1.20545,-0.836552,2.3514,1.15492,2.31127,-0.857516,1.33857
1.2011,-0.835982,2.34877,1.15692,2.31071,-0.858892,1.33856
1.19679,-0.835464,2.34633,1.15899,2.31018,-0.86032,1.33856
1.19247,-0.834977,2.34401,1.16114,2.30966,-0.861749,1.33856
1.18804,-0.834563,2.34165,1.16321,2.30919,-0.863184,1.33856
1.18343,-0.834244,2.33921,1.16518,2.30876,-0.864601,1.33856
1.17882,-0.834004,2.33685,1.16718,2.30835,-0.866044,1.33856
1.17432,-0.833806,2.33465,1.16928,2.30794,-0.867508,1.33856
1.16981,-0.833671,2.33247,1.17141,2.30754,-0.868968,1.33857
1.16514,-0.833633,2.33011,1.1734,2.30714,-0.870389,1.33857
1.16045,-0.833645,2.32775,1.17531,2.30674,-0.871854,1.33858
1.15589,-0.833665,2.32561,1.1773,2.30632,-0.873333,1.33859
1.15136,-0.833709,2.32349,1.17937,2.3059,-0.874834,1.33859
1.14666,-0.833835,2.32121,1.18129,2.30549,-0.876287,1.33859
1.14184,-0.834026,2.31885,1.18301,2.30508,-0.877763,1.33859
1.13712,-0.834247,2.31665,1.18479,2.30465,-0.879272,1.3386
1.1325,-0.83447,2.31451,1.18672,2.3042,-0.880822,1.33861
1.12777,-0.83475,2.3122,1.18853,2.30374,-0.882321,1.33861
1.12289,-0.835112,2.30972,1.19012,2.30327,-0.883809,1.33862
1.11811,-0.835498,2.30739,1.19169,2.30278,-0.88539,1.33864
1.11348,-0.835859,2.3052,1.19343,2.30226,-0.886964,1.3387
1.10876,-0.836247,2.30285,1.19513,2.30173,-0.888504,1.33881
1.10385,-0.836693,2.30031,1.19659,2.30115,-0.890014,1.33898
1.09898,-0.837161,2.29786,1.19794,2.30054,-0.891582,1.33924
1.09427,-0.837627,2.29554,1.19947,2.2999,-0.893153,1.33961
1.08955,-0.838124,2.29306,1.20099,2.29921,-0.894725,1.34008
1.08464,-0.83869,2.29037,1.20225,2.2985,-0.896252,1.34067
1.07976,-0.83928,2.28774,1.20343,2.29772,-0.897837,1.34132
1.07506,-0.839829,2.28531,1.20472,2.29688,-0.899442,1.34205
1.07035,-0.840372,2.28278,1.20605,2.29598,-0.901048,1.34286
1.06543,-0.840978,2.27999,1.20713,2.29502,-0.902617,1.34372
1.06049,-0.84162,2.27721,1.20805,2.29401,-0.904184,1.34466
1.05575,-0.842213,2.27459,1.20905,2.29294,-0.9058,1.3457
1.05107,-0.842737,2.27188,1.21007,2.29181,-0.907383,1.34683
1.0462,-0.843245,2.2689,1.21088,2.29062,-0.908945,1.34804
1.04132,-0.843756,2.26592,1.21144,2.28938,-0.910522,1.34932
1.0366,-0.844202,2.26309,1.21207,2.28806,-0.912139,1.35067
1.03193,-0.844594,2.26017,1.21273,2.28668,-0.913717,1.35205
1.02704,-0.845004,2.25696,1.21315,2.28523,-0.915248,1.35347
1.02209,-0.845435,2.25371,1.21328,2.2837,-0.916819,1.35489
1.01732,-0.845796,2.25064,1.21339,2.2821,-0.918436,1.3563
1.01264,-0.846059,2.24757,1.21353,2.28045,-0.920048,1.35764
1.00779,-0.846305,2.24424,1.21345,2.27879,-0.921599,1.35893
1.00285,-0.846566,2.24084,1.21313,2.27711,-0.923185,1.36014
0.99806,-0.846757,2.23761,1.21282,2.27543,-0.924821,1.36126
0.993375,-0.846856,2.23435,1.2126,2.27376,-0.926418,1.3623
0.988551,-0.846966,2.23085,1.21222,2.2721,-0.927979,1.36323
0.983671,-0.847122,2.22734,1.2116,2.27046,-0.929552,1.36407
0.978932,-0.84724,2.22402,1.21101,2.26884,-0.931185,1.36483
0.974266,-0.847289,2.22072,1.21056,2.26724,-0.932777,1.36549
0.969416,-0.847354,2.21717,1.21,2.26568,-0.934325,1.36608
0.964448,-0.84746,2.21356,1.2092,2.26416,-0.935871,1.36657
0.959628,-0.847515,2.21018,1.20838,2.26265,-0.937493,1.36694
0.954965,-0.847479,2.20691,1.20768,2.26119,-0.939106,1.36724
0.950155,-0.847459,2.2034,1.20685,2.25976,-0.940665,1.3675
0.945186,-0.84747,2.19972,1.20582,2.25837,-0.942227,1.36774
0.940331,-0.847432,2.19617,1.20475,2.25699,-0.943812,1.36796
0.935653,-0.847314,2.19271,1.2038,2.25561,-0.945407,1.36815
0.930913,-0.84718,2.18907,1.20273,2.25425,-0.94694,1.36834
0.926029,-0.847084,2.18527,1.20145,2.2529,-0.948504,1.36856
0.921229,-0.846946,2.18158,1.20013,2.25155,-0.950082,1.36879
0.91656,-0.846708,2.17796,1.19895,2.25016,-0.951668,1.36904
0.911804,-0.84645,2.17412,1.1977,2.24879,-0.953182,1.36933
0.906911,-0.846217,2.17016,1.19617,2.24742,-0.954722,1.36967
0.902107,-0.84596,2.16637,1.19458,2.24602,-0.95632,1.37007
0.89745,-0.84561,2.16267,1.19314,2.2446,-0.957948,1.3705
0.892704,-0.845242,2.15875,1.19174,2.24316,-0.95951,1.37094
0.887774,-0.844941,2.15461,1.19014,2.24174,-0.961052,1.3714
0.882922,-0.84465,2.15063,1.18847,2.2403,-0.962671,1.37189
0.878286,-0.844272,2.14687,1.18697,2.23882,-0.964317,1.37238
0.873629,-0.843858,2.14299,1.18557,2.23733,-0.965928,1.37285
0.868757,-0.843537,2.13884,1.18403,2.23586,-0.967512,1.37331
0.86387,-0.843285,2.13477,1.18243,2.23438,-0.969121,1.37375
0.859182,-0.842979,2.13099,1.18097,2.23287,-0.970782,1.37415
0.854567,-0.84262,2.12724,1.17963,2.23133,-0.972428,1.37453
0.849764,-0.842335,2.12328,1.17819,2.2298,-0.974065,1.37485
0.844897,-0.842154,2.11931,1.17664,2.22829,-0.975707,1.37515
0.840186,-0.841953,2.11554,1.17526,2.22675,-0.977401,1.37544
0.835603,-0.84171,2.11185,1.174,2.2252,-0.979093,1.3757
0.830918,-0.841525,2.10805,1.17265,2.22365,-0.980776,1.37592
0.826153,-0.841451,2.10423,1.17119,2.22213,-0.982484,1.37612
0.8215,-0.8414,2.10056,1.16987,2.22058,-0.984213,1.37629
0.816941,-0.841334,2.09694,1.16875,2.21903,-0.985953,1.37647
0.812302,-0.841344,2.09322,1.16755,2.21747,-0.987679,1.37662
0.807605,-0.841441,2.08953,1.16622,2.21594,-0.989413,1.37677
0.803021,-0.841537,2.08602,1.16496,2.21438,-0.991219,1.37694
0.798553,-0.84162,2.08259,1.16394,2.2128,-0.992984,1.37714
0.794,-0.841807,2.079,1.16293,2.21122,-0.994736,1.37738
0.789334,-0.842143,2.07535,1.16181,2.20965,-0.996484,1.37763
0.784774,-0.842566,2.07194,1.16071,2.20805,-0.998296,1.37788
0.780389,-0.842963,2.06872,1.15981,2.20641,-1.00011,1.37813
0.77599,-0.843398,2.06545,1.159,2.20477,-1.0019,1.37839
0.771435,-0.843978,2.06206,1.1581,2.20313,-1.00368,1.37866
0.766873,-0.844653,2.05876,1.15717,2.20146,-1.00549,1.37896
0.762501,-0.845332,2.05569,1.15638,2.19975,-1.0073,1.3793
0.758257,-0.84602,2.0527,1.15571,2.19802,-1.00911,1.3797
0.753925,-0.84683,2.0496,1.15499,2.19627,-1.01092,1.38011
0.749512,-0.84777,2.04646,1.15416,2.1945,-1.01269,1.38053
0.745195,-0.848708,2.04348,1.15339,2.19269,-1.01451,1.381
0.741023,-0.849642,2.04062,1.15275,2.19086,-1.01631,1.38151
0.736852,-0.850643,2.03767,1.15204,2.18899,-1.01812,1.38206
0.732605,-0.851757,2.03459,1.15114,2.18709,-1.01991,1.3826
0.728413,-0.852896,2.03156,1.15015,2.18517,-1.02174,1.38315
0.724381,-0.853988,2.02864,1.14921,2.18321,-1.02356,1.38374
0.720457,-0.855061,2.0257,1.14826,2.18122,-1.02541,1.38436
0.716484,-0.856206,2.02256,1.14715,2.17921,-1.02722,1.38497
0.712463,-0.857402,2.01925,1.14583,2.17719,-1.029,1.3856
0.70854,-0.858586,2.01597,1.14446,2.17513,-1.03082,1.38624
0.704799,-0.859697,2.01277,1.14305,2.17306,-1.03264,1.38685
0.701137,-0.8608,2.00952,1.1416,2.17097,-1.03448,1.38748
0.697417,-0.861939,2.00606,1.13999,2.16886,-1.03629,1.38812
0.693648,-0.863097,2.00245,1.13821,2.16675,-1.03807,1.38876
0.689936,-0.8642,1.99883,1.13635,2.16462,-1.03987,1.38942
0.686365,-0.865245,1.99528,1.13442,2.16247,-1.0417,1.39011
0.6829,-0.866255,1.99172,1.13241,2.1603,-1.04354,1.3908
0.679423,-0.867249,1.988,1.13027,2.15811,-1.0454,1.39153
0.675912,-0.86821,1.98412,1.12806,2.1559,-1.0472,1.39229
0.672428,-0.869106,1.98018,1.1258,2.15368,-1.04901,1.39307
0.669031,-0.869932,1.97627,1.12345,2.15144,-1.05089,1.39388
0.665745,-0.870733,1.97241,1.12104,2.14918,-1.05275,1.3947
0.662489,-0.871511,1.96843,1.11858,2.14691,-1.05463,1.39554
0.659218,-0.87227,1.9643,1.11599,2.14463,-1.05651,1.39638
0.655916,-0.873025,1.96003,1.11334,2.14233,-1.05838,1.39722
0.652657,-0.873764,1.95579,1.11059,2.14006,-1.06026,1.39808
0.649494,-0.874462,1.95165,1.1078,2.13774,-1.06222,1.39891
0.646402,-0.875145,1.94749,1.10504,2.13544,-1.06415,1.39976
0.643311,-0.875831,1.94322,1.10225,2.13314,-1.06607,1.40059
0.640219,-0.876509,1.93884,1.09943,2.13084,-1.06801,1.40141
0.637169,-0.877173,1.93449,1.09647,2.12856,-1.06991,1.40222
0.634188,-0.877791,1.93022,1.09344,2.12627,-1.07186,1.40298
0.63124,-0.878368,1.92598,1.09042,2.12398,-1.07379,1.40375
0.628309,-0.878984,1.92169,1.08746,2.12172,-1.07569,1.40449
0.625428,-0.87963,1.91739,1.08447,2.11946,-1.07765,1.40522
0.62263,-0.880256,1.91315,1.08142,2.11721,-1.0796,1.40595
0.619883,-0.880836,1.90889,1.07837,2.11499,-1.08153,1.40664
0.617139,-0.881417,1.90458,1.07523,2.11276,-1.08346,1.40733
0.614386,-0.882062,1.90026,1.07207,2.11055,-1.08542,1.40803
0.611654,-0.882722,1.89601,1.06888,2.10837,-1.08733,1.40871
0.609005,-0.883359,1.89188,1.06571,2.10618,-1.0893,1.40941
0.606405,-0.883967,1.88776,1.06254,2.10401,-1.0913,1.41011
0.603818,-0.884613,1.88357,1.05943,2.10186,-1.09319,1.41082
0.601246,-0.885274,1.87931,1.05624,2.09972,-1.09512,1.41155
0.598717,-0.885931,1.87513,1.05293,2.09759,-1.0971,1.41228
0.596245,-0.886585,1.87103,1.04966,2.09548,-1.09904,1.41304
0.593784,-0.887244,1.86695,1.04648,2.09333,-1.10101,1.41381
0.591318,-0.887961,1.86284,1.04329,2.0912,-1.10298,1.41459
0.588861,-0.888709,1.85875,1.04013,2.08909,-1.10498,1.41539
0.586477,-0.889442,1.85475,1.03686,2.08696,-1.10695,1.41619
0.584157,-0.890146,1.85079,1.03356,2.08483,-1.10897,1.41702
0.581847,-0.890888,1.84677,1.03029,2.08272,-1.11097,1.41785
0.579523,-0.891708,1.84268,1.02712,2.08059,-1.1129,1.41869
0.577218,-0.892565,1.83865,1.02389,2.07846,-1.11493,1.41956
0.574943,-0.893428,1.83471,1.02065,2.07634,-1.11697,1.42043
0.572678,-0.894279,1.8308,1.01739,2.07421,-1.11896,1.42133
0.570422,-0.895177,1.82688,1.01407,2.07208,-1.12102,1.42222
0.568169,-0.896124,1.82292,1.01079,2.06994,-1.12305,1.42312
0.565967,-0.897114,1.81897,1.00755,2.06781,-1.12509,1.42403
0.56386,-0.898115,1.81508,1.00428,2.06567,-1.12713,1.42495
0.561782,-0.89911,1.81118,1.00105,2.06351,-1.12917,1.42588
0.559698,-0.900172,1.80725,0.997752,2.06136,-1.13121,1.4268
0.557578,-0.90128,1.80331,0.994414,2.05921,-1.13322,1.42772
0.555446,-0.90243,1.79941,0.990996,2.05705,-1.13529,1.42864
0.553348,-0.903585,1.79557,0.987657,2.05488,-1.13737,1.42957
0.551301,-0.904735,1.79177,0.984339,2.05272,-1.13944,1.43049
0.549282,-0.905892,1.78795,0.981057,2.05053,-1.14154,1.43143
0.547274,-0.907066,1.78409,0.977703,2.04833,-1.14359,1.43237
0.545309,-0.908241,1.78026,0.97427,2.04616,-1.14567,1.43331
0.543403,-0.909431,1.77646,0.970812,2.04396,-1.14777,1.43425
0.541505,-0.910674,1.77266,0.967451,2.04174,-1.14982,1.4352
0.539592,-0.911977,1.76884,0.964059,2.03955,-1.15189,1.43613
0.537625,-0.913326,1.765,0.960669,2.03734,-1.15399,1.43707
0.535636,-0.914695,1.76115,0.957126,2.03514,-1.15605,1.43799
0.533673,-0.916049,1.75737,0.953506,2.03292,-1.15814,1.43892
0.531776,-0.917411,1.7536,0.949946,2.03069,-1.16025,1.43984
0.529944,-0.918829,1.74982,0.946472,2.02847,-1.16236,1.44078
0.528122,-0.920294,1.74596,0.942988,2.02623,-1.16445,1.44171
0.526329,-0.921827,1.74208,0.939427,2.02398,-1.16651,1.44263
0.524583,-0.92337,1.73823,0.93574,2.02175,-1.16861,1.44357
0.522851,-0.924888,1.7344,0.932034,2.01951,-1.17069,1.4445
0.521133,-0.92644,1.73057,0.928402,2.01725,-1.17275,1.44545
0.519389,-0.927979,1.72673,0.924789,2.01499,-1.17483,1.44639
0.517601,-0.929523,1.72288,0.921122,2.01273,-1.17693,1.44735
0.515792,-0.93104,1.71908,0.917303,2.01047,-1.17904,1.44832
0.513991,-0.932544,1.71532,0.913407,2.0082,-1.18117,1.44929
0.512238,-0.934106,1.71155,0.909588,2.00593,-1.18331,1.45027
0.510546,-0.935745,1.70771,0.905827,2.00365,-1.18544,1.45126
0.508895,-0.937464,1.70381,0.902052,2.00138,-1.18755,1.45227
0.507308,-0.939221,1.69994,0.898125,1.9991,-1.18962,1.45328
0.505762,-0.940967,1.6961,0.894139,1.99682,-1.19173,1.4543
0.50423,-0.942727,1.69225,0.890191,1.99454,-1.19384,1.45533
0.502694,-0.944532,1.6884,0.88629,1.99225,-1.19589,1.45635
0.501127,-0.946358,1.68453,0.882352,1.98994,-1.19799,1.45738
0.499549,-0.948144,1.68074,0.878249,1.98765,-1.2001,1.4584
0.497946,-0.94987,1.67701,0.874055,1.98535,-1.20223,1.45943
0.496346,-0.951603,1.67329,0.869905,1.98304,-1.20435,1.46047
0.494794,-0.953419,1.66956,0.865832,1.98073,-1.20643,1.4615
0.493267,-0.955304,1.66577,0.86179,1.97841,-1.20854,1.46253
0.491791,-0.957232,1.66201,0.857579,1.97613,-1.21063,1.46354
0.490351,-0.95918,1.65829,0.853314,1.97384,-1.21269,1.46457
0.488956,-0.96116,1.65455,0.849137,1.97155,-1.21476,1.46558
0.487625,-0.963205,1.65082,0.845053,1.96927,-1.21682,1.46658
0.486286,-0.965255,1.64706,0.840959,1.96696,-1.21888,1.46758
0.484918,-0.967265,1.64336,0.83666,1.96469,-1.22092,1.46857
0.483501,-0.969227,1.63971,0.832325,1.9624,-1.22298,1.46955
0.482089,-0.971184,1.63607,0.828083,1.96012,-1.22508,1.47054
0.480697,-0.973198,1.63245,0.823941,1.95785,-1.22715,1.47153
0.479274,-0.975257,1.62878,0.819737,1.95558,-1.22918,1.47251
0.477812,-0.977348,1.62512,0.815364,1.95333,-1.23127,1.47349
0.476361,-0.97946,1.6215,0.81101,1.9511,-1.23334,1.47447
0.475008,-0.981625,1.61786,0.806777,1.94886,-1.23536,1.47543
0.473734,-0.983832,1.61422,0.802637,1.94662,-1.23743,1.47641
0.472482,-0.986012,1.6106,0.798392,1.94441,-1.23945,1.47736
0.471193,-0.988153,1.607,0.794054,1.94218,-1.2415,1.47832
0.469907,-0.990289,1.60344,0.789746,1.93996,-1.24354,1.47927
0.468663,-0.992474,1.59989,0.785554,1.93775,-1.24556,1.48023
0.467424,-0.994707,1.59632,0.781388,1.93554,-1.24765,1.48116
0.466148,-0.99695,1.59279,0.777106,1.93335,-1.24967,1.4821
0.464821,-0.999193,1.58925,0.77278,1.93115,-1.25168,1.48303
0.463519,-1.00148,1.5857,0.768498,1.92896,-1.25373,1.48396
0.462278,-1.00381,1.58217,0.764303,1.9268,-1.25576,1.4849
0.461087,-1.00611,1.57868,0.760043,1.92462,-1.25778,1.48582
0.459867,-1.00836,1.57525,0.755686,1.92244,-1.25981,1.48674
0.458612,-1.01059,1.57185,0.751358,1.92028,-1.26187,1.48766
0.457367,-1.01292,1.56841,0.7471,1.91811,-1.26392,1.48858
0.456135,-1.01534,1.56496,0.742877,1.91594,-1.26596,1.48949
0.454924,-1.01776,1.56157,0.738557,1.91382,-1.26803,1.49042
0.453688,-1.02019,1.55819,0.734227,1.91167,-1.27011,1.49133
0.452494,-1.02266,1.55481,0.72997,1.90952,-1.27215,1.49225
0.451374,-1.02513,1.55144,0.725813,1.90739,-1.2742,1.49315
0.450295,-1.02755,1.54809,0.721596,1.90523,-1.27629,1.49405
0.449204,-1.02991,1.54482,0.71726,1.90307,-1.27837,1.49492
0.44809,-1.03226,1.54157,0.712971,1.90093,-1.28044,1.49579
0.446998,-1.03472,1.5383,0.708765,1.89878,-1.28253,1.49665
0.445918,-1.03727,1.53504,0.704611,1.89662,-1.28467,1.4975
0.444809,-1.03986,1.5318,0.700346,1.89449,-1.28672,1.49834
0.443636,-1.04248,1.52856,0.695997,1.89234,-1.28878,1.49917
0.442483,-1.04507,1.52535,0.691685,1.89021,-1.29091,1.50002
0.441415,-1.0476,1.5222,0.687494,1.88807,-1.29298,1.50084
0.440369,-1.05011,1.51909,0.683302,1.8859,-1.29507,1.50167
0.439285,-1.05263,1.51602,0.678998,1.88377,-1.29719,1.5025
0.438139,-1.05517,1.51296,0.674715,1.88164,-1.2993,1.50332
0.437023,-1.05779,1.5099,0.670478,1.87949,-1.30144,1.50415
0.435974,-1.06052,1.50688,0.666316,1.87737,-1.30355,1.50496
0.434944,-1.06327,1.50385,0.662108,1.87523,-1.30563,1.50578
0.433898,-1.06597,1.50087,0.65778,1.87309,-1.30776,1.50659
0.432873,-1.06859,1.49797,0.653523,1.87095,-1.30984,1.50742
0.431929,-1.0712,1.49513,0.649334,1.86879,-1.31192,1.50824
0.431001,-1.07387,1.49228,0.645216,1.86663,-1.31405,1.50907
0.430046,-1.07661,1.48946,0.640966,1.86452,-1.31615,1.50991
0.429072,-1.07938,1.4867,0.636664,1.86237,-1.31826,1.51075
0.42811,-1.0822,1.48395,0.632461,1.86024,-1.32036,1.51161
0.427214,-1.08504,1.48124,0.62833,1.85813,-1.32246,1.51246
0.426344,-1.08784,1.4786,0.624157,1.85598,-1.32459,1.51333
0.425434,-1.09056,1.47606,0.619915,1.85386,-1.32667,1.51418
0.42447,-1.09328,1.47354,0.615646,1.85174,-1.32875,1.51504
0.423528,-1.09607,1.47106,0.611464,1.84962,-1.33089,1.5159
0.422642,-1.09896,1.46863,0.607356,1.84752,-1.33298,1.51675
0.421749,-1.10191,1.4662,0.603158,1.84541,-1.33506,1.5176
0.420825,-1.10485,1.46381,0.598868,1.84331,-1.33716,1.51844
0.419914,-1.10772,1.46148,0.594666,1.8412,-1.33924,1.51929
0.419073,-1.11058,1.45922,0.590531,1.83909,-1.34138,1.52013
0.418272,-1.11347,1.45701,0.586476,1.83698,-1.34349,1.52094
0.417442,-1.11637,1.45483,0.582329,1.83486,-1.34556,1.52175
0.416587,-1.11932,1.4527,0.578103,1.83277,-1.3477,1.52254
0.415756,-1.12231,1.4506,0.573992,1.83069,-1.34978,1.52332
0.415004,-1.12532,1.44854,0.569936,1.82858,-1.35181,1.52408
0.414292,-1.12829,1.44655,0.565905,1.8265,-1.35391,1.52481
0.41355,-1.13125,1.44465,0.561785,1.82444,-1.35601,1.52554
0.412739,-1.1342,1.44277,0.55769,1.82236,-1.35809,1.52625
0.411967,-1.1372,1.44097,0.553685,1.82032,-1.36019,1.52696
0.41126,-1.14027,1.43926,0.549777,1.81828,-1.36229,1.52766
0.410578,-1.14336,1.4376,0.545818,1.81623,-1.36438,1.52833
0.409896,-1.14643,1.43605,0.541801,1.81421,-1.36642,1.529
0.409192,-1.14946,1.43459,0.537799,1.81215,-1.36843,1.52967
0.40851,-1.15254,1.43323,0.533911,1.81011,-1.37053,1.53032
0.407843,-1.15565,1.43194,0.530118,1.80809,-1.37261,1.53098
0.407168,-1.1588,1.43074,0.526247,1.80605,-1.37468,1.53162
0.40645,-1.16195,1.42962,0.522307,1.80404,-1.37675,1.53223
0.405739,-1.16508,1.42856,0.518384,1.80202,-1.3788,1.53284
0.405107,-1.16821,1.42758,0.514576,1.8,-1.3809,1.53342
0.404502,-1.17137,1.4267,0.510875,1.79799,-1.38296,1.53396
0.403871,-1.17456,1.42584,0.507116,1.79599,-1.38504,1.53449
0.40321,-1.17775,1.4251,0.503286,1.79402,-1.38714,1.535
0.402551,-1.18096,1.42442,0.499502,1.79205,-1.38917,1.53548
0.401963,-1.18419,1.42384,0.495821,1.79007,-1.3912,1.53591
0.401444,-1.18738,1.42342,0.492223,1.78813,-1.39324,1.53631
0.400907,-1.19059,1.42309,0.48863,1.78617,-1.3953,1.53671
0.400309,-1.19383,1.42287,0.484976,1.78425,-1.39733,1.53708
0.399668,-1.19708,1.42274,0.481359,1.78236,-1.39937,1.53742
0.399063,-1.20038,1.4227,0.477863,1.78045,-1.40143,1.53772
0.398519,-1.20368,1.42275,0.474473,1.77856,-1.40343,1.53803
0.397983,-1.20695,1.42284,0.471124,1.77667,-1.40539,1.53834
0.397444,-1.21021,1.42293,0.467766,1.7748,-1.40742,1.53866
0.396869,-1.21347,1.42298,0.464464,1.77295,-1.40943,1.53899
0.396276,-1.21675,1.42299,0.461196,1.7711,-1.41138,1.53928
0.395687,-1.22004,1.42298,0.458066,1.76925,-1.41336,1.53953
0.395154,-1.2233,1.42295,0.454949,1.76741,-1.41531,1.53977
0.394659,-1.22653,1.42293,0.451853,1.76555,-1.41726,1.54003
0.394191,-1.22975,1.42292,0.448749,1.76374,-1.41918,1.5403
0.393701,-1.23298,1.4229,0.445658,1.76191,-1.42115,1.5406
0.393206,-1.2362,1.42287,0.442562,1.76009,-1.42307,1.54089
0.392717,-1.23945,1.42282,0.439565,1.75828,-1.42495,1.54118
0.392272,-1.2427,1.42273,0.436516,1.75647,-1.42683,1.54144
0.391851,-1.24592,1.42263,0.433485,1.75467,-1.42871,1.54169
0.391452,-1.24914,1.42252,0.430445,1.75286,-1.43054,1.54192
0.391077,-1.25237,1.42242,0.427408,1.75108,-1.4324,1.54219
0.390703,-1.25557,1.4223,0.424341,1.74929,-1.43424,1.54247
0.390337,-1.25881,1.42219,0.4213,1.7475,-1.43605,1.54274
0.389989,-1.26205,1.42206,0.418299,1.74572,-1.43783,1.543
0.38969,-1.26528,1.42195,0.415253,1.74395,-1.4396,1.54325
0.389394,-1.26849,1.42181,0.41227,1.74217,-1.44134,1.54348
0.389133,-1.27173,1.42168,0.409231,1.74043,-1.44309,1.54368
0.388853,-1.27493,1.42153,0.406209,1.7387,-1.44478,1.54389
0.388586,-1.27812,1.42139,0.403148,1.73699,-1.44644,1.54409
0.388335,-1.28131,1.42123,0.400193,1.73528,-1.44806,1.54431
0.388136,-1.28447,1.42105,0.397194,1.73359,-1.44963,1.54455
0.38795,-1.28762,1.42088,0.394233,1.73192,-1.4512,1.54476
0.387774,-1.2908,1.42067,0.391263,1.73026,-1.45274,1.54496
0.387596,-1.29396,1.42047,0.388271,1.72863,-1.45426,1.54515
0.387435,-1.29711,1.42026,0.385276,1.72702,-1.45572,1.54534
0.387293,-1.30026,1.42006,0.382335,1.72542,-1.45716,1.5455
0.387199,-1.30339,1.41987,0.379422,1.72383,-1.45854,1.54566
0.38714,-1.30648,1.41969,0.37651,1.72225,-1.45989,1.54582
0.387071,-1.30958,1.41949,0.373635,1.72069,-1.46119,1.54598
0.387004,-1.31266,1.41928,0.370709,1.71917,-1.46245,1.54615
0.386938,-1.31573,1.41906,0.367788,1.71765,-1.46365,1.5463
0.386884,-1.31881,1.41879,0.364875,1.71616,-1.46476,1.54646
0.38684,-1.32187,1.41853,0.362023,1.7147,-1.46583,1.54658
0.386844,-1.32486,1.41831,0.359196,1.71327,-1.46682,1.54666
0.386859,-1.32782,1.41813,0.356413,1.71184,-1.46776,1.54671
0.386852,-1.33079,1.41794,0.353656,1.71046,-1.46856,1.54674
0.386842,-1.33376,1.41771,0.350872,1.70911,-1.46919,1.54675
0.386814,-1.33674,1.41737,0.348142,1.70781,-1.46959,1.54675
0.386754,-1.33973,1.41685,0.345449,1.70654,-1.46971,1.54675
0.386656,-1.34264,1.41618,0.342875,1.70531,-1.46964,1.54673
0.386528,-1.34542,1.41534,0.340436,1.70413,-1.46947,1.54668
0.386356,-1.34815,1.41434,0.338125,1.70302,-1.46928,1.54667
0.386112,-1.35085,1.41321,0.335947,1.70196,-1.46908,1.5467
0.385827,-1.35356,1.41205,0.333868,1.70091,-1.46885,1.5467
0.385516,-1.35631,1.41088,0.331887,1.69984,-1.46854,1.54669
0.385184,-1.35908,1.40975,0.330019,1.69877,-1.46811,1.54669
0.38486,-1.36179,1.40866,0.328201,1.69769,-1.46762,1.54669
0.384531,-1.36439,1.40758,0.326433,1.69662,-1.46721,1.54669
0.384195,-1.36695,1.40652,0.324667,1.6956,-1.46685,1.54669
0.383864,-1.36952,1.40544,0.322979,1.69457,-1.46653,1.54668
0.383559,-1.37213,1.40438,0.321234,1.69356,-1.46623,1.54667
0.383245,-1.37477,1.40329,0.319455,1.69253,-1.46597,1.54666
0.382919,-1.37743,1.40216,0.317638,1.69152,-1.46577,1.54663
0.382661,-1.38004,1.40105,0.315801,1.6905,-1.46566,1.54656
0.382465,-1.38252,1.39995,0.313933,1.68951,-1.4656,1.54646
0.382229,-1.38491,1.39886,0.311982,1.68853,-1.46561,1.54631
0.38194,-1.38732,1.39776,0.31002,1.68756,-1.46565,1.54612
0.381656,-1.38976,1.39668,0.308035,1.68659,-1.4657,1.54585
0.381437,-1.3922,1.3957,0.306085,1.68564,-1.46574,1.54548
0.381299,-1.39466,1.39482,0.304185,1.68466,-1.46573,1.54507
0.381163,-1.39711,1.39397,0.302281,1.6837,-1.46574,1.54469
0.380981,-1.39946,1.39323,0.30035,1.68274,-1.46579,1.54432
0.380784,-1.40167,1.39271,0.29846,1.68175,-1.46591,1.54394
0.380638,-1.40377,1.39242,0.296615,1.68075,-1.46595,1.54353
0.38058,-1.40592,1.39216,0.294842,1.67973,-1.46598,1.54318
0.380601,-1.40807,1.39182,0.293092,1.67874,-1.46604,1.54289
0.380583,-1.41009,1.39152,0.291371,1.67777,-1.46618,1.54266
0.380484,-1.41197,1.39142,0.289607,1.67683,-1.46641,1.54235
0.380382,-1.41379,1.39154,0.287953,1.67608,-1.46646,1.54183
0.380422,-1.41559,1.39173,0.286475,1.67559,-1.46597,1.54094
0.380657,-1.41729,1.39169,0.285428,1.67549,-1.46486,1.53966
0.380921,-1.41877,1.39108,0.284778,1.6758,-1.4631,1.53818
0.380905,-1.41997,1.38972,0.2843,1.67618,-1.46077,1.53655
0.380488,-1.42091,1.38752,0.283755,1.67649,-1.45803,1.53464
0.379774,-1.42161,1.38462,0.282872,1.67693,-1.45505,1.53253
0.379101,-1.4221,1.38136,0.281743,1.67793,-1.45187,1.53029
0.378798,-1.42251,1.37811,0.280476,1.67953,-1.4486,1.52799
0.378944,-1.42292,1.37489,0.279305,1.6814,-1.44524,1.52574
0.379485,-1.42337,1.37175,0.278548,1.68294,-1.44188,1.52367
0.380062,-1.42378,1.36859,0.278293,1.68375,-1.43855,1.52181
0.380195,-1.42408,1.36525,0.278433,1.68379,-1.43528,1.52019
0.379746,-1.42421,1.36169,0.278788,1.68312,-1.43213,1.51868
0.378846,-1.42409,1.35788,0.279172,1.68178,-1.42913,1.51726
0.377754,-1.42377,1.35382,0.279369,1.67994,-1.42642,1.51596
0.376799,-1.42337,1.34956,0.279531,1.6778,-1.42399,1.51488
0.376155,-1.42291,1.34515,0.279727,1.67538,-1.4218,1.51396
0.375804,-1.42245,1.34068,0.280223,1.6727,-1.41988,1.51324
0.375594,-1.42201,1.33629,0.281283,1.66977,-1.41821,1.51274
0.37519,-1.42147,1.33204,0.282902,1.66665,-1.41696,1.51241
0.374367,-1.42079,1.32801,0.284982,1.66342,-1.41617,1.5122
0.37316,-1.41997,1.32427,0.287636,1.66018,-1.4161,1.51218
0.371763,-1.41898,1.32089,0.290817,1.657,-1.41681,1.51248
0.370341,-1.41789,1.31776,0.294509,1.65386,-1.41799,1.51322
0.368911,-1.41673,1.31473,0.298558,1.65074,-1.41911,1.5144
0.367403,-1.41549,1.31172,0.302749,1.64757,-1.42006,1.51596
0.365868,-1.41415,1.30866,0.307206,1.64433,-1.42117,1.51775
0.364403,-1.41273,1.30557,0.311853,1.64106,-1.42253,1.51965
0.363079,-1.41117,1.30245,0.316526,1.63777,-1.42416,1.52159
0.361866,-1.40943,1.29932,0.321069,1.63456,-1.4261,1.52352
0.360721,-1.40755,1.29614,0.325603,1.63139,-1.42831,1.52538
0.359753,-1.40558,1.29298,0.33007,1.62832,-1.43082,1.52721
0.359035,-1.40347,1.28986,0.334542,1.62535,-1.43372,1.52901
0.358542,-1.40119,1.28679,0.33881,1.62252,-1.43687,1.53078
0.358221,-1.39877,1.28378,0.342975,1.61981,-1.44038,1.53256
0.35815,-1.39619,1.28085,0.34702,1.61727,-1.4442,1.53435
0.358331,-1.3934,1.27805,0.351065,1.61485,-1.44834,1.53617
0.358754,-1.39037,1.27548,0.354939,1.61256,-1.45264,1.53799
0.359356,-1.38708,1.27327,0.358621,1.61037,-1.45711,1.53981
0.36012,-1.38369,1.2715,0.362151,1.60826,-1.46164,1.54161
0.361095,-1.38033,1.27025,0.365636,1.60623,-1.46611,1.54339
0.362302,-1.37693,1.26955,0.369115,1.60421,-1.47046,1.54514
0.363764,-1.37333,1.26948,0.372498,1.60219,-1.4747,1.5469
0.365422,-1.3695,1.27008,0.375714,1.60016,-1.47878,1.54868
0.367238,-1.36552,1.27139,0.378803,1.59806,-1.48275,1.55053
0.36921,-1.36151,1.27346,0.381882,1.59591,-1.48671,1.55244
0.37133,-1.35747,1.27622,0.384954,1.59368,-1.4906,1.55441
0.37359,-1.35324,1.27966,0.388008,1.59136,-1.4944,1.55641
0.376029,-1.34874,1.28368,0.390976,1.58895,-1.49818,1.55841
0.378682,-1.34414,1.28817,0.393856,1.58651,-1.50183,1.56038
0.381529,-1.33959,1.29296,0.396799,1.58405,-1.50539,1.56229
0.384562,-1.33502,1.29793,0.39984,1.58156,-1.50873,1.56411
0.387718,-1.33014,1.30301,0.402911,1.57905,-1.51192,1.56583
0.390963,-1.32499,1.30817,0.405866,1.57654,-1.5149,1.56747
0.394242,-1.31983,1.31331,0.408886,1.57408,-1.51775,1.569
0.39762,-1.3147,1.31831,0.411967,1.57165,-1.52039,1.57044
0.401159,-1.30927,1.32316,0.415085,1.56924,-1.52279,1.57179
0.404916,-1.30357,1.32795,0.418158,1.56685,-1.52497,1.57305
0.408785,-1.29791,1.33265,0.421349,1.56451,-1.52703,1.57421
0.412625,-1.29225,1.3371,0.424631,1.56222,-1.52888,1.5753
0.416464,-1.28633,1.3414,0.427884,1.55991,-1.53053,1.57632
0.420444,-1.28029,1.34573,0.431142,1.55766,-1.53211,1.57728
0.424582,-1.27427,1.34994,0.434488,1.55546,-1.53358,1.5782
0.428811,-1.26803,1.35391,0.437844,1.55325,-1.53482,1.57908
0.433086,-1.26175,1.35785,0.441201,1.55109,-1.536,1.57992
0.437331,-1.25565,1.36175,0.44461,1.54897,-1.53713,1.58076
0.441577,-1.24933,1.36551,0.448105,1.54684,-1.53814,1.58156
0.446012,-1.24283,1.36928,0.451605,1.54474,-1.53907,1.58236
0.450572,-1.23648,1.37306,0.455113,1.54269,-1.53998,1.58315
0.455017,-1.23,1.37661,0.458624,1.54063,-1.54076,1.58393
0.459499,-1.22341,1.38019,0.462062,1.53859,-1.54148,1.58473
0.464165,-1.21695,1.3839,0.465714,1.53656,-1.54225,1.58553
0.468858,-1.21036,1.38747,0.469529,1.53451,-1.54295,1.58636
0.473523,-1.20367,1.39101,0.473027,1.53247,-1.54358,1.58718
0.47818,-1.19718,1.39464,0.476557,1.53046,-1.5443,1.58802
0.482906,-1.19058,1.39818,0.480267,1.52842,-1.54494,1.58888
0.487786,-1.1838,1.40175,0.483952,1.52634,-1.54554,1.58975
0.49268,-1.17725,1.40538,0.487689,1.52429,-1.54621,1.59063
0.497431,-1.17067,1.40893,0.49141,1.52221,-1.54686,1.59151
0.502262,-1.16393,1.41257,0.494938,1.52016,-1.54746,1.5924
0.507264,-1.15735,1.41627,0.49868,1.51809,-1.54814,1.59328
0.512221,-1.15072,1.41982,0.502509,1.516,-1.54877,1.59419
0.517109,-1.14406,1.42343,0.50609,1.5139,-1.54937,1.59509
0.522124,-1.13756,1.4272,0.509817,1.51183,-1.55006,1.59601
0.527231,-1.13089,1.43089,0.513716,1.5097,-1.55073,1.59693
0.532316,-1.12415,1.43462,0.517333,1.50759,-1.55135,1.59787
0.537328,-1.1177,1.43839,0.520998,1.50551,-1.55205,1.59881
0.542346,-1.11116,1.44207,0.524756,1.50337,-1.55271,1.59976
0.547529,-1.10453,1.44587,0.52854,1.50123,-1.55337,1.60073
0.552765,-1.09811,1.44972,0.532357,1.49908,-1.55407,1.60171
0.557836,-1.09159,1.45344,0.536064,1.49692,-1.55472,1.6027
0.562969,-1.08503,1.45731,0.53965,1.49477,-1.55536,1.6037
0.568238,-1.07867,1.46121,0.543488,1.49259,-1.55606,1.60472
0.573397,-1.07224,1.46492,0.547358,1.49037,-1.55667,1.60576
0.578589,-1.06581,1.46881,0.550921,1.48819,-1.55728,1.60681
0.583922,-1.05948,1.47283,0.554688,1.486,-1.55794,1.60788
0.589223,-1.05305,1.47665,0.558482,1.48378,-1.55845,1.60896
0.59443,-1.04665,1.48049,0.562021,1.48157,-1.55889,1.61006
0.599699,-1.04048,1.48448,0.565678,1.47938,-1.55928,1.61115
0.605088,-1.0342,1.4884,0.569533,1.47715,-1.55954,1.61225
0.61051,-1.0278,1.49232,0.573126,1.47493,-1.5596,1.61335
0.615869,-1.02166,1.49632,0.576669,1.47275,-1.55953,1.61447
0.621185,-1.01553,1.50023,0.580321,1.47055,-1.55925,1.61559
0.626595,-1.00925,1.50415,0.584004,1.46832,-1.55864,1.61672
0.63208,-1.00316,1.50817,0.58786,1.46609,-1.55756,1.61788
0.637482,-0.997146,1.51212,0.59177,1.46387,-1.55577,1.61902
0.642875,-0.990918,1.51605,0.595601,1.46166,-1.55328,1.62015
0.648314,-0.984795,1.52008,0.599698,1.45947,-1.55032,1.62126
0.653586,-0.978852,1.52396,0.603994,1.45731,-1.54704,1.62235
0.658788,-0.972753,1.52782,0.608314,1.4552,-1.54352,1.62341
0.664159,-0.966615,1.53191,0.612766,1.45313,-1.53997,1.62446
0.669436,-0.960648,1.53591,0.617387,1.45108,-1.53651,1.6255
0.674449,-0.954665,1.53966,0.621829,1.44908,-1.53302,1.62651
0.679557,-0.948694,1.5436,0.626376,1.44712,-1.5297,1.6275
0.684924,-0.942846,1.54768,0.631248,1.44518,-1.52664,1.62848
0.690174,-0.936932,1.55153,0.636029,1.44329,-1.52366,1.62944
0.69528,-0.931006,1.55535,0.640568,1.44145,-1.52084,1.63037
0.70055,-0.925247,1.5594,0.645328,1.43968,-1.51832,1.63128
0.705908,-0.919485,1.56331,0.650332,1.43795,-1.516,1.63214
0.711176,-0.91361,1.5671,0.655042,1.43629,-1.51377,1.63299
0.716436,-0.907811,1.57112,0.65973,1.43473,-1.51187,1.63381
0.721817,-0.902105,1.57518,0.664617,1.43329,-1.51025,1.63461
0.727156,-0.896315,1.57902,0.669485,1.43193,-1.50878,1.63539
0.732436,-0.890558,1.5829,0.674048,1.43082,-1.50751,1.63615
0.737775,-0.884947,1.58699,0.678735,1.42992,-1.50659,1.6369
0.743209,-0.879297,1.59096,0.683519,1.42926,-1.50583,1.63763
0.748629,-0.873569,1.59484,0.688248,1.42891,-1.50523,1.63832
0.75403,-0.86799,1.59886,0.692715,1.42905,-1.50486,1.63899
0.759423,-0.862466,1.60289,0.697271,1.4297,-1.5048,1.63966
0.764873,-0.856806,1.60677,0.701888,1.43101,-1.50509,1.64029
0.770361,-0.851156,1.61073,0.706525,1.43317,-1.50602,1.64092
0.775869,-0.845653,1.61478,0.711005,1.43623,-1.50784,1.64156
0.781335,-0.840082,1.6187,0.715446,1.4401,-1.51067,1.64219
0.786768,-0.834392,1.6225,0.719877,1.44467,-1.51448,1.64287
0.792255,-0.82886,1.62645,0.724264,1.4498,-1.51928,1.6436
0.797839,-0.82339,1.63042,0.728608,1.45525,-1.52473,1.64436
0.803458,-0.817777,1.63427,0.732835,1.46084,-1.53047,1.6452
0.808985,-0.812159,1.63812,0.736921,1.46646,-1.5364,1.64607
0.814491,-0.806727,1.642,0.740877,1.47199,-1.54242,1.64696
0.820092,-0.801283,1.64587,0.744937,1.47722,-1.54834,1.64783
0.825763,-0.795671,1.64972,0.748788,1.48199,-1.55391,1.64864
0.831311,-0.790156,1.65364,0.752238,1.48625,-1.55924,1.64931
0.836724,-0.784766,1.65757,0.755142,1.48987,-1.56414,1.64978
0.842117,-0.779289,1.6614,0.757518,1.49263,-1.56841,1.64998
0.847581,-0.773827,1.66521,0.759089,1.49432,-1.57218,1.6498
0.853146,-0.768566,1.66883,0.759668,1.4948,-1.5756,1.64916
0.858853,-0.763398,1.67165,0.759328,1.49402,-1.57856,1.64789
0.864788,-0.758165,1.67341,0.758224,1.49217,-1.58064,1.6458
0.871008,-0.75286,1.67422,0.756585,1.48986,-1.58136,1.6429
0.877527,-0.747443,1.67406,0.755111,1.48747,-1.58069,1.63943
0.884052,-0.741726,1.67301,0.753893,1.48495,-1.5785,1.6357
0.890236,-0.735644,1.67154,0.752718,1.48228,-1.57478,1.63195
0.896057,-0.729467,1.6703,0.751953,1.47974,-1.57009,1.62826
0.901323,-0.723432,1.66898,0.751515,1.47749,-1.56489,1.6247
