Afshin1997/kuka_rl_ros2/src/catch_and_throw/input_files/idealpd/restitution_param/10.csv
pure_target_joint_0,pure_target_joint_1,pure_target_joint_2,pure_target_joint_3,pure_target_joint_4,pure_target_joint_5,pure_target_joint_6,target_joint_0,target_joint_1,target_joint_2,target_joint_3,target_joint_4,target_joint_5,target_joint_6,pos_joint_0,pos_joint_1,pos_joint_2,pos_joint_3,pos_joint_4,pos_joint_5,pos_joint_6,vel_joint_0,vel_joint_1,vel_joint_2,vel_joint_3,vel_joint_4,vel_joint_5,vel_joint_6,vel_smooth_joint_0,vel_smooth_joint_1,vel_smooth_joint_2,vel_smooth_joint_3,vel_smooth_joint_4,vel_smooth_joint_5,vel_smooth_joint_6,ee_pos_x,ee_pos_y,ee_pos_z,ee_or_w,ee_or_x,ee_or_y,ee_or_z,ee_vel_x,ee_vel_y,ee_vel_z,ball_pos_x,ball_pos_y,ball_pos_z,ball_raw_vx,ball_raw_vy,ball_raw_vz,ball_ema_vx,ball_ema_vy,ball_ema_vz,action_0,action_1,action_2,action_3,action_4,action_5,action_6,command_published
2.69726,-1.68303,1.69774,0.954483,1.38252,-1.35561,-2.80606,-63.7312,-19.7166,-6.70125,1.11442,-18.5803,13.8985,-1.75346,2.65011,-1.60872,1.77354,1.00332,1.42838,-1.42066,-2.85375,0,0,0,0,0,0,0,0,0,0,0,0,0,0,0.700038,9.73E-05,0.564304,-0.382542,0.000127281,0.000123005,0.923938,0,0,0,2.24578,-0.490018,0.301369,0.0635565,0.0243282,-0.0910043,0.057213,0.0254904,-0.0711711,0.471565,-0.743134,-0.758043,-0.48835,-0.458614,0.650471,0.47691,1
2.62902,-1.6898,1.69295,0.941015,1.41013,-1.36234,-2.84094,-64.411,-20.5873,-7.2237,1.08187,-17.5859,13.6095,-2.41293,2.65011,-1.60872,1.77354,1.00332,1.42838,-1.42066,-2.85375,0,0,0,0,0,0,0,0,0,0,0,0,0,0,0.700038,9.73E-05,0.564304,-0.382542,0.000127281,0.000123005,0.923938,0,0,0,2.24794,-0.489312,0.293006,1.1848,0.541108,-6.30591,1.04408,0.432886,-5.2649,-0.210887,-0.810833,-0.805896,-0.623027,-0.182502,0.583221,0.128133,1
2.67696,-1.68675,1.69497,0.945878,1.39265,-1.35873,-2.8146,-63.5957,-20.0865,-6.93276,1.10064,-17.9307,13.5924,-2.14975,2.65011,-1.60872,1.77354,1.00332,1.42838,-1.42066,-2.85375,0,0,0,0,0,0,0,0,0,0,0,0,0,0,0.700038,9.73E-05,0.564304,-0.382542,0.000127281,0.000123005,0.923938,0,0,0,2.24954,-0.489327,0.287632,0.220409,-0.00194178,-0.741884,0.467511,0.128507,-2.09879,0.268471,-0.780349,-0.785779,-0.574402,-0.35736,0.619311,0.391551,1
2.68963,-1.68502,1.69637,0.948371,1.3886,-1.35728,-2.80907,-63.4536,-19.9414,-6.82941,1.1068,-18.1268,13.65,-2.02322,2.65011,-1.60872,1.77354,1.00332,1.42838,-1.42066,-2.85375,0,0,0,0,0,0,0,0,0,0,0,0,0,0,0.700038,9.73E-05,0.564304,-0.382542,0.000127281,0.000123005,0.923938,0,0,0,2.25039,-0.489261,0.28196,0.0743462,0.00569236,-0.494435,0.192296,0.0425366,-0.975741,0.395259,-0.762991,-0.771779,-0.549466,-0.397871,0.633788,0.446771,1
2.69021,-1.68487,1.6963,0.948327,1.38774,-1.35725,-2.80825,-63.3958,-19.9294,-6.82728,1.10691,-18.1166,13.6302,-2.02563,2.65011,-1.60872,1.77354,1.00332,1.42838,-1.42066,-2.85375,0,0,0,0,0,0,0,0,0,0,0,0,0,0,0.700038,9.73E-05,0.564304,-0.382542,0.000127281,0.000123005,0.923938,0,0,0,2.25038,-0.488904,0.275143,-0.00178097,0.0416719,-0.795655,0.0564421,0.0419313,-0.84968,0.40106,-0.761509,-0.772412,-0.549906,-0.406425,0.634059,0.454982,1
2.68993,-1.68467,1.69629,0.949227,1.38751,-1.35684,-2.80798,-63.4021,-19.916,-6.81727,1.10728,-18.1646,13.654,-1.99605,2.65011,-1.60872,1.77354,1.00332,1.42838,-1.42066,-2.85375,0,0,0,0,0,0,0,0,0,0,0,0,0,0,0.700038,9.73E-05,0.564304,-0.382542,0.000127281,0.000123005,0.923938,0,0,0,2.25139,-0.489285,0.267534,0.12473,-0.0468764,-0.937052,0.104243,-0.0202341,-0.91084,0.398181,-0.759555,-0.772546,-0.540912,-0.408746,0.638229,0.457695,1
2.68774,-1.68518,1.69604,0.947927,1.38846,-1.35749,-2.80906,-63.4056,-19.956,-6.84654,1.10567,-18.0789,13.6168,-2.04856,2.65011,-1.60872,1.77354,1.00332,1.42838,-1.42066,-2.85375,0,0,0,0,0,0,0,0,0,0,0,0,0,0,0.700038,9.73E-05,0.564304,-0.382542,0.000127281,0.000123005,0.923938,0,0,0,2.25262,-0.489018,0.258273,0.147348,0.0320953,-1.11293,0.134417,0.0163965,-1.0523,0.376321,-0.764599,-0.775083,-0.553906,-0.399208,0.631657,0.446932,1
2.68792,-1.68503,1.69601,0.94824,1.38789,-1.35735,-2.80854,-63.3823,-19.9437,-6.84162,1.10588,-18.0926,13.6168,-2.03815,2.65011,-1.60872,1.77354,1.00332,1.42838,-1.42066,-2.85375,0,0,0,0,0,0,0,0,0,0,0,0,0,0,0.700038,9.73E-05,0.564304,-0.382542,0.000127281,0.000123005,0.923938,0,0,0,2.2532,-0.489096,0.249459,0.0632498,-0.0085134,-0.960273,0.0845998,-0.00104043,-0.987882,0.37809,-0.763133,-0.775339,-0.550783,-0.404881,0.633066,0.45211,1
2.68715,-1.68514,1.69583,0.947817,1.38777,-1.35756,-2.80842,-63.3414,-19.9534,-6.85267,1.10525,-18.053,13.5892,-2.05935,2.65011,-1.60872,1.77354,1.00332,1.42838,-1.42066,-2.85375,0,0,0,0,0,0,0,0,0,0,0,0,0,0,0.700038,9.73E-05,0.564304,-0.382542,0.000127281,0.000123005,0.923938,0,0,0,2.25301,-0.489109,0.239114,-0.0177109,-0.00122194,-0.997972,0.0129823,-0.00116749,-0.994945,0.370404,-0.764186,-0.777089,-0.555007,-0.406127,0.631022,0.453301,1
2.68508,-1.68548,1.69561,0.947034,1.38844,-1.35802,-2.80914,-63.3341,-19.9832,-6.87532,1.10396,-17.9915,13.561,-2.09579,2.65011,-1.60872,1.77354,1.00332,1.42838,-1.42066,-2.85375,0,0,0,0,0,0,0,0,0,0,0,0,0,0,0.700038,9.73E-05,0.564304,-0.382542,0.000127281,0.000123005,0.923938,0,0,0,2.25338,-0.488959,0.227684,0.0378265,0.0153877,-1.17377,0.0303732,0.0104211,-1.12012,0.349729,-0.767617,-0.779297,-0.562841,-0.399409,0.626411,0.446114,1
2.6822,-1.68582,1.69534,0.946284,1.38899,-1.35841,-2.81,-63.3402,-20.0107,-6.89897,1.10235,-17.9389,13.5392,-2.12722,2.65011,-1.60872,1.77354,1.00332,1.42838,-1.42066,-2.85375,0,0,0,0,0,0,0,0,0,0,0,0,0,0,0.700038,9.73E-05,0.564304,-0.382542,0.000127281,0.000123005,0.923938,0,0,0,2.2539,-0.488872,0.215293,0.0582967,0.00975394,-1.38789,0.0499196,0.0099541,-1.30756,0.32095,-0.771003,-0.782019,-0.57034,-0.393923,0.622526,0.437507,1
2.68093,-1.68589,1.69523,0.946196,1.38893,-1.35854,-2.81017,-63.3415,-20.0152,-6.90648,1.10179,-17.9278,13.5343,-2.13284,2.65011,-1.60872,1.77354,1.00332,1.42838,-1.42066,-2.85375,0,0,0,0,0,0,0,0,0,0,0,0,0,0,0.700038,9.73E-05,0.564304,-0.382542,0.000127281,0.000123005,0.923938,0,0,0,2.25438,-0.488741,0.201877,0.046651,0.0128514,-1.32445,0.0476316,0.0119822,-1.31939,0.308214,-0.771746,-0.783085,-0.571215,-0.39452,0.621163,0.435833,1
2.67867,-1.68605,1.69503,0.945944,1.38899,-1.35873,-2.81055,-63.3406,-20.0273,-6.92065,1.10072,-17.9038,13.5234,-2.14587,2.65011,-1.60872,1.77354,1.00332,1.42838,-1.42066,-2.85375,0,0,0,0,0,0,0,0,0,0,0,0,0,0,0.700038,9.73E-05,0.564304,-0.382542,0.000127281,0.000123005,0.923938,0,0,0,2.25479,-0.488697,0.187519,0.0417774,0.00452648,-1.45096,0.0435336,0.0067632,-1.41149,0.285647,-0.77331,-0.785095,-0.573738,-0.393888,0.619331,0.43201,1
2.68086,-1.6857,1.69527,0.946747,1.38829,-1.35854,-2.80951,-63.3163,-20.0001,-6.90154,1.10204,-17.9455,13.5374,-2.11825,2.65011,-1.60872,1.77354,1.00332,1.42838,-1.42066,-2.85375,0,0,0,0,0,0,0,0,0,0,0,0,0,0,0.700038,9.73E-05,0.564304,-0.382542,0.000127281,0.000123005,0.923938,0,0,0,2.25523,-0.488658,0.172193,0.0290564,0.00253023,-1.0118,0.0333996,0.00380012,-1.1317,0.307524,-0.769838,-0.782727,-0.565708,-0.400885,0.62115,0.44241,1
2.67779,-1.68594,1.69502,0.946291,1.38853,-1.35883,-2.81014,-63.3183,-20.0196,-6.92181,1.10051,-17.9087,13.5219,-2.13897,2.65011,-1.60872,1.77354,1.00332,1.42838,-1.42066,-2.85375,0,0,0,0,0,0,0,0,0,0,0,0,0,0,0.700038,9.73E-05,0.564304,-0.382542,0.000127281,0.000123005,0.923938,0,0,0,2.25572,-0.48861,0.155956,0.0403597,0.00393872,-1.32467,0.0382717,0.00389714,-1.26678,0.276825,-0.772191,-0.785232,-0.570271,-0.398487,0.618258,0.436093,1
2.66576,-1.68684,1.69413,0.944542,1.39028,-1.35963,-2.81289,-63.2965,-20.1149,-7.00295,1.09448,-17.7554,13.4538,-2.22586,2.65011,-1.60872,1.77354,1.00332,1.42838,-1.42066,-2.85375,0,0,0,0,0,0,0,0,0,0,0,0,0,0,0.700038,9.73E-05,0.564304,-0.382542,0.000127281,0.000123005,0.923938,0,0,0,2.25595,-0.488577,0.138664,0.0295305,0.00433877,-2.29063,0.0321529,0.00420628,-1.98348,0.156538,-0.781227,-0.794177,-0.587755,-0.380997,0.610299,0.408648,1
2.66566,-1.68674,1.69417,0.944867,1.38985,-1.35967,-2.81251,-63.2888,-20.1045,-7.00002,1.09462,-17.7677,13.458,-2.2162,2.65011,-1.60872,1.77354,1.00332,1.42838,-1.42066,-2.85375,0,0,0,0,0,0,0,0,0,0,0,0,0,0,0.700038,9.73E-05,0.564304,-0.382542,0.000127281,0.000123005,0.923938,0,0,0,2.2564,-0.488485,0.12038,0.0447296,0.00908425,-1.79032,0.0409566,0.00762086,-1.84826,0.155522,-0.780208,-0.793773,-0.58451,-0.385348,0.609854,0.412426,1
2.66539,-1.68664,1.69419,0.945179,1.38944,-1.3597,-2.81214,-63.2769,-20.0955,-6.998,1.09467,-17.7782,13.4608,-2.20742,2.65011,-1.60872,1.77354,1.00332,1.42838,-1.42066,-2.85375,0,0,0,0,0,0,0,0,0,0,0,0,0,0,0.700038,9.73E-05,0.564304,-0.382542,0.000127281,0.000123005,0.923938,0,0,0,2.25694,-0.488449,0.101088,0.0469655,0.00310267,-1.67928,0.0451628,0.00445812,-1.72998,0.152777,-0.779206,-0.793496,-0.581392,-0.389437,0.609551,0.416162,1
2.65552,-1.68711,1.69371,0.944386,1.39126,-1.36005,-2.81408,-63.2146,-20.1774,-7.05898,1.08995,-17.6694,13.4091,-2.2651,2.65011,-1.60872,1.77354,1.00332,1.42838,-1.42066,-2.85375,0,0,0,0,0,0,0,0,0,0,0,0,0,0,0.700038,9.73E-05,0.564304,-0.382542,0.000127281,0.000123005,0.923938,0,0,0,2.25756,-0.488432,0.0808337,0.0719239,0.00201331,-2.35915,0.0638956,0.00274676,-2.1704,0.0541111,-0.783917,-0.798314,-0.589323,-0.371228,0.606071,0.396688,1
2.65723,-1.68691,1.69382,0.944806,1.39033,-1.36007,-2.81318,-63.2069,-20.1501,-7.04534,1.0909,-17.6973,13.4181,-2.24662,2.65011,-1.60872,1.77354,1.00332,1.42838,-1.42066,-2.85375,0,0,0,0,0,0,0,0,0,0,0,0,0,0,0.700038,9.73E-05,0.564304,-0.382542,0.000127281,0.000123005,0.923938,0,0,0,2.25792,-0.488364,0.0596521,0.0303814,0.00574851,-1.80304,0.0404356,0.00484798,-1.91325,0.0712637,-0.781924,-0.797223,-0.585122,-0.380546,0.605914,0.405745,1
2.65031,-1.68714,1.69355,0.94444,1.39121,-1.36031,-2.81416,-63.1404,-20.2015,-7.08686,1.08768,-17.623,13.3782,-2.2831,2.65011,-1.60872,1.77354,1.00332,1.42838,-1.42066,-2.85375,0,0,0,0,0,0,0,0,0,0,0,0,0,0,0.700038,9.73E-05,0.564304,-0.382542,0.000127281,0.000123005,0.923938,0,0,0,2.25835,-0.488331,0.037482,0.0431089,0.00329632,-2.1953,0.0423069,0.00376182,-2.11068,0.00202851,-0.784196,-0.799899,-0.588779,-0.371724,0.603442,0.395937,1
2.64268,-1.6874,1.69327,0.943967,1.39248,-1.36067,-2.81542,-63.0511,-20.2691,-7.13714,1.08412,-17.5227,13.3227,-2.33372,2.65011,-1.60872,1.77354,1.00332,1.42838,-1.42066,-2.85375,0,0,0,0,0,0,0,0,0,0,0,0,0,0,0.700038,9.73E-05,0.564304,-0.382542,0.000127281,0.000123005,0.923938,0,0,0,2.25882,-0.488272,0.0143033,0.0500121,0.00624519,-2.45685,0.0477005,0.00550018,-2.353,-0.0743082,-0.786819,-0.80275,-0.593509,-0.358982,0.599931,0.383336,1
2.6396,-1.68745,1.69317,0.94395,1.39274,-1.36083,-2.81565,-63.0003,-20.2921,-7.15666,1.08278,-17.4837,13.2981,-2.35132,2.65011,-1.60872,1.77354,1.00332,1.42838,-1.42066,-2.85375,0,0,0,0,0,0,0,0,0,0,0,0,0,0,0.700038,9.73E-05,0.564304,-0.382542,0.000127281,0.000123005,0.923938,0,0,0,2.25926,-0.488276,-0.00976987,0.0427509,-0.000412653,-2.38089,0.0442358,0.0013612,-2.37252,-0.105097,-0.787302,-0.803728,-0.593677,-0.356395,0.598252,0.381055,1
2.63094,-1.68785,1.69282,0.943272,1.39486,-1.36122,-2.81774,-62.8984,-20.3901,-7.22089,1.07882,-17.3457,13.2227,-2.42476,2.65011,-1.60872,1.77354,1.00332,1.42838,-1.42066,-2.85375,0,0,0,0,0,0,0,0,0,0,0,0,0,0,0.700038,9.73E-05,0.564304,-0.382542,0.000127281,0.000123005,0.923938,0,0,0,2.2597,-0.488302,-0.0348473,0.0513902,-0.00306043,-2.92973,0.0492439,-0.00173394,-2.76257,-0.191679,-0.791303,-0.807223,-0.60046,-0.335189,0.594412,0.36014,1
2.6303,-1.68777,1.69281,0.943493,1.39435,-1.36132,-2.81722,-62.8635,-20.3848,-7.22332,1.07863,-17.3405,13.2139,-2.42336,2.65011,-1.60872,1.77354,1.00332,1.42838,-1.42066,-2.85375,0,0,0,0,0,0,0,0,0,0,0,0,0,0,0.700038,9.73E-05,0.564304,-0.382542,0.000127281,0.000123005,0.923938,0,0,0,2.26001,-0.488364,-0.0610583,0.030261,-0.00605979,-2.57094,0.0359558,-0.00476204,-2.62843,-0.198078,-0.790499,-0.807301,-0.598246,-0.340304,0.593392,0.365321,1
2.63069,-1.68761,1.69288,0.943949,1.39356,-1.36139,-2.81645,-62.8514,-20.3643,-7.21599,1.07901,-17.3619,13.2212,-2.4073,2.65011,-1.60872,1.77354,1.00332,1.42838,-1.42066,-2.85375,0,0,0,0,0,0,0,0,0,0,0,0,0,0,0.700038,9.73E-05,0.564304,-0.382542,0.000127281,0.000123005,0.923938,0,0,0,2.26057,-0.488371,-0.0877748,0.0493245,-0.000625343,-2.3165,0.0453139,-0.00186635,-2.41008,-0.19421,-0.788943,-0.80666,-0.593688,-0.348279,0.592714,0.373059,1
2.62468,-1.68791,1.6926,0.94343,1.3952,-1.36173,-2.81809,-62.7729,-20.4402,-7.26432,1.07631,-17.2516,13.1598,-2.46678,2.65011,-1.60872,1.77354,1.00332,1.42838,-1.42066,-2.85375,0,0,0,0,0,0,0,0,0,0,0,0,0,0,0.700038,9.73E-05,0.564304,-0.382542,0.000127281,0.000123005,0.923938,0,0,0,2.26099,-0.488462,-0.115749,0.0420031,-0.00921533,-2.83234,0.0429963,-0.00701063,-2.70566,-0.254288,-0.791917,-0.809412,-0.598883,-0.331808,0.589287,0.356585,1
2.61783,-1.68835,1.69226,0.942477,1.3981,-1.36215,-2.82137,-62.7432,-20.5462,-7.32327,1.07328,-17.1193,13.096,-2.54551,2.65011,-1.60872,1.77354,1.00332,1.42838,-1.42066,-2.85375,0,0,0,0,0,0,0,0,0,0,0,0,0,0,0.700038,9.73E-05,0.564304,-0.382542,0.000127281,0.000123005,0.923938,0,0,0,2.26136,-0.488493,-0.144639,0.0434397,-0.00364235,-3.42473,0.0433067,-0.00465284,-3.20901,-0.322754,-0.79632,-0.812878,-0.608409,-0.302845,0.585042,0.323797,1
2.61732,-1.68827,1.69225,0.94273,1.3975,-1.36227,-2.82085,-62.7164,-20.5382,-7.32453,1.07319,-17.1183,13.0904,-2.5419,2.65011,-1.60872,1.77354,1.00332,1.42838,-1.42066,-2.85375,0,0,0,0,0,0,0,0,0,0,0,0,0,0,0.700038,9.73E-05,0.564304,-0.382542,0.000127281,0.000123005,0.923938,0,0,0,2.26179,-0.48851,-0.174569,0.0438031,-0.00174986,-2.98358,0.0436542,-0.00262076,-3.05121,-0.327924,-0.795495,-0.81289,-0.605875,-0.308818,0.583878,0.329024,1
2.61794,-1.68807,1.69232,0.94325,1.39617,-1.3623,-2.81949,-62.6845,-20.5071,-7.3144,1.07361,-17.1441,13.0957,-2.52109,2.65011,-1.60872,1.77354,1.00332,1.42838,-1.42066,-2.85375,0,0,0,0,0,0,0,0,0,0,0,0,0,0,0.700038,9.73E-05,0.564304,-0.382542,0.000127281,0.000123005,0.923938,0,0,0,2.26224,-0.488616,-0.205395,0.0378248,-0.00903775,-2.63925,0.0395736,-0.00711265,-2.76284,-0.321667,-0.793516,-0.812213,-0.60068,-0.322093,0.583625,0.34257,1
2.61063,-1.6887,1.6919,0.942002,1.40057,-1.36293,-2.82505,-62.7608,-20.6434,-7.38107,1.07079,-17.0048,13.0457,-2.61424,2.65011,-1.60872,1.77354,1.00332,1.42838,-1.42066,-2.85375,0,0,0,0,0,0,0,0,0,0,0,0,0,0,0.700038,9.73E-05,0.564304,-0.382542,0.000127281,0.000123005,0.923938,0,0,0,2.26261,-0.488681,-0.237171,0.045975,-0.00797932,-3.92789,0.0440546,-0.00771932,-3.57837,-0.394812,-0.79986,-0.816446,-0.613155,-0.278086,0.577312,0.287064,1
2.61037,-1.68856,1.69191,0.942285,1.39972,-1.36296,-2.82377,-62.6794,-20.6321,-7.38173,1.07058,-16.9942,13.0267,-2.61246,2.65011,-1.60872,1.77354,1.00332,1.42838,-1.42066,-2.85375,0,0,0,0,0,0,0,0,0,0,0,0,0,0,0.700038,9.73E-05,0.564304,-0.382542,0.000127281,0.000123005,0.923938,0,0,0,2.26305,-0.488806,-0.269957,0.0440078,-0.0123964,-3.25014,0.0440219,-0.0109933,-3.34861,-0.397419,-0.798406,-0.816354,-0.610324,-0.286662,0.576968,0.299774,1
2.60887,-1.6886,1.69184,0.942233,1.39999,-1.36317,-2.82427,-62.6672,-20.6491,-7.39386,1.07006,-16.9673,13.0116,-2.62688,2.65011,-1.60872,1.77354,1.00332,1.42838,-1.42066,-2.85375,0,0,0,0,0,0,0,0,0,0,0,0,0,0,0.700038,9.73E-05,0.564304,-0.382542,0.000127281,0.000123005,0.923938,0,0,0,2.26344,-0.488873,-0.303627,0.0385078,-0.00672165,-3.35277,0.040162,-0.00800314,-3.35152,-0.412339,-0.798797,-0.817065,-0.610847,-0.28391,0.574888,0.294821,1
2.60964,-1.68835,1.69191,0.942842,1.39817,-1.36323,-2.8222,-62.5991,-20.6096,-7.38283,1.07043,-16.9891,13.0091,-2.60464,2.65011,-1.60872,1.77354,1.00332,1.42838,-1.42066,-2.85375,0,0,0,0,0,0,0,0,0,0,0,0,0,0,0.700038,9.73E-05,0.564304,-0.382542,0.000127281,0.000123005,0.923938,0,0,0,2.26381,-0.48892,-0.338311,0.0293575,-0.00376714,-2.76607,0.0325989,-0.00503794,-2.9417,-0.404718,-0.796266,-0.816314,-0.604763,-0.302156,0.574286,0.315505,1
2.603,-1.68922,1.69154,0.940583,1.404,-1.36386,-2.83058,-62.8425,-20.7668,-7.44869,1.06802,-16.8617,12.9894,-2.70875,2.65011,-1.60872,1.77354,1.00332,1.42838,-1.42066,-2.85375,0,0,0,0,0,0,0,0,0,0,0,0,0,0,0.700038,9.73E-05,0.564304,-0.382542,0.000127281,0.000123005,0.923938,0,0,0,2.26405,-0.488943,-0.373843,0.032825,-0.00304464,-4.72655,0.0327572,-0.00364263,-4.1911,-0.471047,-0.805047,-0.820036,-0.627345,-0.243823,0.568002,0.231755,1
2.6046,-1.68874,1.69165,0.941657,1.401,-1.36367,-2.82575,-62.6071,-20.7063,-7.43236,1.06821,-16.8696,12.9545,-2.68053,2.65011,-1.60872,1.77354,1.00332,1.42838,-1.42066,-2.85375,0,0,0,0,0,0,0,0,0,0,0,0,0,0,0.700038,9.73E-05,0.564304,-0.382542,0.000127281,0.000123005,0.923938,0,0,0,2.26503,-0.489176,-0.410371,0.0852902,-0.0202681,-3.18321,0.0695303,-0.0152805,-3.48558,-0.455097,-0.800247,-0.81897,-0.616604,-0.273865,0.569848,0.28005,1
2.60202,-1.68911,1.69149,0.940017,1.40352,-1.36411,-2.82991,-62.7383,-20.7738,-7.46179,1.06702,-16.8037,12.9427,-2.73581,2.65011,-1.60872,1.77354,1.00332,1.42838,-1.42066,-2.85375,0,0,0,0,0,0,0,0,0,0,0,0,0,0,0.700038,9.73E-05,0.564304,-0.382542,0.000127281,0.000123005,0.923938,0,0,0,2.26546,-0.489351,-0.447931,0.0492406,-0.0203647,-4.36043,0.0553275,-0.0188394,-4.09798,-0.480852,-0.803889,-0.820539,-0.633012,-0.248646,0.56545,0.238448,1
2.60154,-1.68905,1.69146,0.939786,1.40313,-1.3643,-2.82934,-62.6718,-20.776,-7.46913,1.06652,-16.7698,12.9146,-2.75068,2.65011,-1.60872,1.77354,1.00332,1.42838,-1.42066,-2.85375,0,0,0,0,0,0,0,0,0,0,0,0,0,0,0.700038,9.73E-05,0.564304,-0.382542,0.000127281,0.000123005,0.923938,0,0,0,2.26591,-0.489436,-0.486413,0.0464658,-0.00860309,-3.91845,0.0491243,-0.011674,-3.97231,-0.485649,-0.803266,-0.820816,-0.635322,-0.252482,0.563568,0.244113,1
2.60157,-1.68886,1.69146,0.939907,1.40196,-1.3644,-2.82743,-62.5422,-20.7616,-7.47127,1.06613,-16.7409,12.8787,-2.75624,2.65011,-1.60872,1.77354,1.00332,1.42838,-1.42066,-2.85375,0,0,0,0,0,0,0,0,0,0,0,0,0,0,0.700038,9.73E-05,0.564304,-0.382542,0.000127281,0.000123005,0.923938,0,0,0,2.2663,-0.489559,-0.52588,0.0346555,-0.0109822,-3.50869,0.0389961,-0.0111897,-3.64778,-0.485406,-0.801439,-0.820857,-0.63411,-0.264233,0.562578,0.26325,1
2.60061,-1.68891,1.69141,0.93928,1.40259,-1.36473,-2.82825,-62.5288,-20.785,-7.48507,1.06547,-16.6942,12.8537,-2.78472,2.65011,-1.60872,1.77354,1.00332,1.42838,-1.42066,-2.85375,0,0,0,0,0,0,0,0,0,0,0,0,0,0,0.700038,9.73E-05,0.564304,-0.382542,0.000127281,0.000123005,0.923938,0,0,0,2.26659,-0.489828,-0.566269,0.0282489,-0.0260315,-3.91295,0.0314731,-0.021579,-3.8334,-0.49495,-0.801921,-0.82135,-0.640374,-0.257884,0.559272,0.255015,1
2.59986,-1.68896,1.69138,0.938704,1.40324,-1.36549,-2.82882,-62.492,-20.8107,-7.50256,1.06492,-16.6256,12.8156,-2.82319,2.65011,-1.60872,1.77354,1.00332,1.42838,-1.42066,-2.85375,0,0,0,0,0,0,0,0,0,0,0,0,0,0,0.700038,9.73E-05,0.564304,-0.382542,0.000127281,0.000123005,0.923938,0,0,0,2.26692,-0.489659,-0.607096,0.0325456,0.0170378,-4.10996,0.0322238,0.0054528,-4.02699,-0.502473,-0.802459,-0.821652,-0.646134,-0.251425,0.551664,0.249335,1
2.59914,-1.68908,1.69138,0.937933,1.40475,-1.36651,-2.83049,-62.5112,-20.8492,-7.52217,1.06451,-16.554,12.7865,-2.86871,2.65011,-1.60872,1.77354,1.00332,1.42838,-1.42066,-2.85375,0,0,0,0,0,0,0,0,0,0,0,0,0,0,0.700038,9.73E-05,0.564304,-0.382542,0.000127281,0.000123005,0.923938,0,0,0,2.26762,-0.489891,-0.64949,0.0825617,-0.0273252,-4.99166,0.0674604,-0.0174918,-4.70226,-0.509732,-0.803651,-0.821681,-0.653847,-0.236305,0.541463,0.232628,1
2.59881,-1.68893,1.69135,0.937884,1.40383,-1.36646,-2.82905,-62.4004,-20.8409,-7.52581,1.06394,-16.5269,12.754,-2.87577,2.65011,-1.60872,1.77354,1.00332,1.42838,-1.42066,-2.85375,0,0,0,0,0,0,0,0,0,0,0,0,0,0,0.700038,9.73E-05,0.564304,-0.382542,0.000127281,0.000123005,0.923938,0,0,0,2.26805,-0.490068,-0.692923,0.0412074,-0.0171093,-4.19843,0.0490833,-0.017224,-4.34958,-0.512987,-0.802153,-0.821977,-0.654336,-0.245574,0.541976,0.24698,1
2.60916,-1.68708,1.6922,0.944616,1.39119,-1.36435,-2.8155,-62.3326,-20.4742,-7.36128,1.07043,-17.0274,12.9739,-2.54463,2.65011,-1.60872,1.77354,1.00332,1.42838,-1.42066,-2.85375,0,0,0,0,0,0,0,0,0,0,0,0,0,0,0.700038,9.73E-05,0.564304,-0.382542,0.000127281,0.000123005,0.923938,0,0,0,2.26567,-0.491361,-0.691071,-0.241858,-0.131525,0.188415,-0.154575,-0.0972345,-1.17298,-0.409482,-0.783654,-0.813434,-0.587023,-0.371895,0.563117,0.382518,1
2.62944,-1.68416,1.69406,0.956722,1.37659,-1.3608,-2.80662,-63.2077,-19.8913,-7.03656,1.08709,-18.1632,13.6376,-1.89475,2.65011,-1.60872,1.77354,1.00332,1.42838,-1.42066,-2.85375,0,0,0,0,0,0,0,0,0,0,0,0,0,0,0.700038,9.73E-05,0.564304,-0.382542,0.000127281,0.000123005,0.923938,0,0,0,2.26182,-0.493117,-0.66591,-0.326785,-0.149272,2.13838,-0.275122,-0.133661,1.14497,-0.206671,-0.754454,-0.794796,-0.465953,-0.517971,0.598618,0.471335,1
2.64936,-1.68236,1.69514,0.964941,1.3713,-1.35849,-2.80418,-63.8384,-19.5834,-6.82342,1.10165,-18.8449,14.0461,-1.52037,2.65011,-1.60872,1.77354,1.00332,1.42838,-1.42066,-2.85375,0,0,0,0,0,0,0,0,0,0,0,0,0,0,0.700038,9.73E-05,0.564304,-0.382542,0.000127281,0.000123005,0.923938,0,0,0,2.25804,-0.494871,-0.641977,-0.364412,-0.168838,2.30421,-0.337625,-0.158285,1.95644,-0.00751949,-0.736464,-0.784051,-0.383768,-0.570842,0.621677,0.495715,1
2.66095,-1.68107,1.69584,0.971136,1.36921,-1.35686,-2.80321,-64.1673,-19.4262,-6.70076,1.11106,-19.2459,14.2809,-1.29497,2.65011,-1.60872,1.77354,1.00332,1.42838,-1.42066,-2.85375,0,0,0,0,0,0,0,0,0,0,0,0,0,0,0.700038,9.73E-05,0.564304,-0.382542,0.000127281,0.000123005,0.923938,0,0,0,2.25427,-0.496553,-0.619017,-0.401382,-0.179192,2.44602,-0.382255,-0.17292,2.29915,0.108379,-0.723549,-0.77704,-0.321821,-0.591741,0.637986,0.505444,1
2.66182,-1.68109,1.69586,0.970636,1.36929,-1.35679,-2.80313,-64.1498,-19.4288,-6.70024,1.11105,-19.2298,14.2692,-1.30579,2.65011,-1.60872,1.77354,1.00332,1.42838,-1.42066,-2.85375,0,0,0,0,0,0,0,0,0,0,0,0,0,0,0.700038,9.73E-05,0.564304,-0.382542,0.000127281,0.000123005,0.923938,0,0,0,2.25044,-0.498133,-0.59693,-0.389657,-0.160916,2.24969,-0.387436,-0.164517,2.26453,0.117077,-0.723756,-0.776858,-0.326822,-0.590916,0.638668,0.506178,1
2.66645,-1.68024,1.69625,0.974698,1.36841,-1.35591,-2.80248,-64.2808,-19.3532,-6.63947,1.11577,-19.4442,14.3901,-1.17939,2.65011,-1.60872,1.77354,1.00332,1.42838,-1.42066,-2.85375,0,0,0,0,0,0,0,0,0,0,0,0,0,0,0.700038,9.73E-05,0.564304,-0.382542,0.000127281,0.000123005,0.923938,0,0,0,2.24685,-0.499944,-0.576165,-0.415623,-0.209615,2.40301,-0.407167,-0.196086,2.36146,0.163429,-0.715214,-0.772952,-0.286198,-0.599706,0.647525,0.512736,1
2.6625,-1.68115,1.69587,0.969769,1.36968,-1.35666,-2.8031,-64.111,-19.4403,-6.70288,1.11062,-19.1974,14.2473,-1.32657,2.65011,-1.60872,1.77354,1.00332,1.42838,-1.42066,-2.85375,0,0,0,0,0,0,0,0,0,0,0,0,0,0,0.700038,9.73E-05,0.564304,-0.382542,0.000127281,0.000123005,0.923938,0,0,0,2.24339,-0.501426,-0.555951,-0.348565,-0.148948,2.03169,-0.366146,-0.163089,2.13062,0.123931,-0.724333,-0.776746,-0.335492,-0.587053,0.639973,0.506554,1
2.66194,-1.6813,1.6958,0.968739,1.37004,-1.3567,-2.80317,-64.0662,-19.4589,-6.71404,1.10958,-19.148,14.217,-1.35613,2.65011,-1.60872,1.77354,1.00332,1.42838,-1.42066,-2.85375,0,0,0,0,0,0,0,0,0,0,0,0,0,0,0.700038,9.73E-05,0.564304,-0.382542,0.000127281,0.000123005,0.923938,0,0,0,2.23995,-0.503009,-0.536475,-0.349338,-0.160757,1.97807,-0.35438,-0.161457,2.02384,0.118292,-0.725822,-0.777417,-0.345791,-0.583426,0.639618,0.50579,1
2.65979,-1.68152,1.69563,0.967163,1.3705,-1.35668,-2.80331,-63.9902,-19.4887,-6.73476,1.1074,-19.0738,14.1705,-1.39956,2.65011,-1.60872,1.77354,1.00332,1.42838,-1.42066,-2.85375,0,0,0,0,0,0,0,0,0,0,0,0,0,0,0.700038,9.73E-05,0.564304,-0.382542,0.000127281,0.000123005,0.923938,0,0,0,2.2363,-0.504857,-0.518558,-0.358762,-0.181891,1.76305,-0.357447,-0.175761,1.84129,0.0968379,-0.727979,-0.779109,-0.361551,-0.578869,0.639816,0.504427,1
2.65943,-1.68152,1.69558,0.966649,1.37059,-1.35652,-2.80324,-63.9588,-19.4947,-6.73784,1.10676,-19.0569,14.157,-1.40972,2.65011,-1.60872,1.77354,1.00332,1.42838,-1.42066,-2.85375,0,0,0,0,0,0,0,0,0,0,0,0,0,0,0.700038,9.73E-05,0.564304,-0.382542,0.000127281,0.000123005,0.923938,0,0,0,2.23253,-0.506689,-0.501653,-0.383726,-0.186594,1.72187,-0.375843,-0.183344,1.7577,0.0932403,-0.727984,-0.779608,-0.36669,-0.577947,0.641415,0.505101,1
2.6586,-1.68169,1.69551,0.965577,1.37095,-1.35658,-2.80339,-63.9164,-19.5148,-6.75085,1.10561,-19.0047,14.1259,-1.44093,2.65011,-1.60872,1.77354,1.00332,1.42838,-1.42066,-2.85375,0,0,0,0,0,0,0,0,0,0,0,0,0,0,0.700038,9.73E-05,0.564304,-0.382542,0.000127281,0.000123005,0.923938,0,0,0,2.22892,-0.508476,-0.485438,-0.358285,-0.177257,1.60802,-0.363552,-0.179083,1.65292,0.0849384,-0.729733,-0.78035,-0.377404,-0.574328,0.640807,0.503653,1
2.65692,-1.68187,1.69534,0.964138,1.37121,-1.35662,-2.80339,-63.8363,-19.5406,-6.77026,1.10374,-18.9307,14.0774,-1.48342,2.65011,-1.60872,1.77354,1.00332,1.42838,-1.42066,-2.85375,0,0,0,0,0,0,0,0,0,0,0,0,0,0,0.700038,9.73E-05,0.564304,-0.382542,0.000127281,0.000123005,0.923938,0,0,0,2.22466,-0.510267,-0.47043,-0.424688,-0.178385,1.49541,-0.406347,-0.178594,1.54266,0.0681143,-0.731523,-0.781996,-0.391798,-0.571697,0.640429,0.503656,1
2.6528,-1.68246,1.6951,0.961423,1.37228,-1.35719,-2.80393,-63.7077,-19.6088,-6.81976,1.10005,-18.7621,13.9803,-1.5798,2.65011,-1.60872,1.77354,1.00332,1.42838,-1.42066,-2.85375,0,0,0,0,0,0,0,0,0,0,0,0,0,0,0.700038,9.73E-05,0.564304,-0.382542,0.000127281,0.000123005,0.923938,0,0,0,2.22046,-0.51204,-0.456288,-0.365634,-0.154648,1.23337,-0.377848,-0.161832,1.32616,0.0269313,-0.737438,-0.784441,-0.418946,-0.56102,0.634734,0.498188,1
2.65378,-1.68233,1.69516,0.961858,1.37221,-1.35692,-2.80385,-63.7315,-19.5962,-6.80793,1.10072,-18.7991,14.0015,-1.55953,2.65011,-1.60872,1.77354,1.00332,1.42838,-1.42066,-2.85375,0,0,0,0,0,0,0,0,0,0,0,0,0,0,0.700038,9.73E-05,0.564304,-0.382542,0.000127281,0.000123005,0.923938,0,0,0,2.2168,-0.513849,-0.443115,-0.355838,-0.175684,1.27939,-0.362441,-0.171529,1.29342,0.036722,-0.73614,-0.783813,-0.414598,-0.561682,0.637418,0.499008,1
2.65845,-1.68164,1.69545,0.964638,1.37122,-1.35607,-2.80321,-63.8568,-19.5236,-6.75176,1.10457,-18.9837,14.1055,-1.45463,2.65011,-1.60872,1.77354,1.00332,1.42838,-1.42066,-2.85375,0,0,0,0,0,0,0,0,0,0,0,0,0,0,0.700038,9.73E-05,0.564304,-0.382542,0.000127281,0.000123005,0.923938,0,0,0,2.21348,-0.515582,-0.430628,-0.392882,-0.205221,1.47847,-0.38375,-0.195113,1.42296,0.0833746,-0.729194,-0.780934,-0.386803,-0.571669,0.645846,0.505382,1
2.65287,-1.68262,1.69503,0.960525,1.37283,-1.35704,-2.80417,-63.6781,-19.6273,-6.82688,1.09939,-18.724,13.9576,-1.60444,2.65011,-1.60872,1.77354,1.00332,1.42838,-1.42066,-2.85375,0,0,0,0,0,0,0,0,0,0,0,0,0,0,0.700038,9.73E-05,0.564304,-0.382542,0.000127281,0.000123005,0.923938,0,0,0,2.20974,-0.517325,-0.419294,-0.332016,-0.154467,1.0044,-0.347536,-0.166661,1.12997,0.0276594,-0.738977,-0.785098,-0.427924,-0.555552,0.636169,0.495858,1
2.65462,-1.68215,1.69508,0.96181,1.372,-1.35635,-2.80338,-63.6927,-19.5875,-6.79859,1.10078,-18.8147,13.999,-1.55082,2.65011,-1.60872,1.77354,1.00332,1.42838,-1.42066,-2.85375,0,0,0,0,0,0,0,0,0,0,0,0,0,0,0.700038,9.73E-05,0.564304,-0.382542,0.000127281,0.000123005,0.923938,0,0,0,2.20552,-0.519068,-0.408797,-0.491149,-0.202956,1.22282,-0.448065,-0.192067,1.19497,0.0451131,-0.734319,-0.78462,-0.415082,-0.563865,0.643082,0.503733,1
2.65275,-1.68263,1.69492,0.960104,1.37284,-1.35681,-2.80397,-63.634,-19.6337,-6.83007,1.09891,-18.7039,13.9388,-1.6159,2.65011,-1.60872,1.77354,1.00332,1.42838,-1.42066,-2.85375,0,0,0,0,0,0,0,0,0,0,0,0,0,0,0.700038,9.73E-05,0.564304,-0.382542,0.000127281,0.000123005,0.923938,0,0,0,2.20171,-0.520751,-0.39922,-0.387972,-0.171454,0.975229,-0.406,-0.177638,1.04115,0.0263836,-0.739087,-0.786271,-0.432136,-0.555476,0.638462,0.497819,1
2.64859,-1.68332,1.69464,0.957633,1.37419,-1.35762,-2.80482,-63.5133,-19.7119,-6.8852,1.09552,-18.5211,13.8366,-1.71991,2.65011,-1.60872,1.77354,1.00332,1.42838,-1.42066,-2.85375,0,0,0,0,0,0,0,0,0,0,0,0,0,0,0.700038,9.73E-05,0.564304,-0.382542,0.000127281,0.000123005,0.923938,0,0,0,2.19769,-0.522519,-0.390612,-0.329084,-0.144877,0.705426,-0.352159,-0.154705,0.806144,-0.0151763,-0.745972,-0.789076,-0.456846,-0.541954,0.630433,0.489346,1
2.64986,-1.68309,1.69466,0.958309,1.37369,-1.35715,-2.80445,-63.5384,-19.687,-6.86705,1.09643,-18.5795,13.8658,-1.68694,2.65011,-1.60872,1.77354,1.00332,1.42838,-1.42066,-2.85375,0,0,0,0,0,0,0,0,0,0,0,0,0,0,0.700038,9.73E-05,0.564304,-0.382542,0.000127281,0.000123005,0.923938,0,0,0,2.19377,-0.524282,-0.382993,-0.422769,-0.190089,0.821647,-0.401586,-0.179474,0.816996,-0.00246215,-0.743709,-0.788812,-0.45009,-0.546945,0.635064,0.493028,1
2.64734,-1.68347,1.6945,0.957018,1.37445,-1.35758,-2.8049,-63.4657,-19.7319,-6.89874,1.09451,-18.4769,13.8076,-1.7447,2.65011,-1.60872,1.77354,1.00332,1.42838,-1.42066,-2.85375,0,0,0,0,0,0,0,0,0,0,0,0,0,0,0.700038,9.73E-05,0.564304,-0.382542,0.000127281,0.000123005,0.923938,0,0,0,2.18983,-0.526094,-0.376501,-0.361944,-0.166139,0.595081,-0.373837,-0.170139,0.661656,-0.0276511,-0.747512,-0.790482,-0.463,-0.539316,0.630753,0.488467,1
2.64708,-1.68344,1.69445,0.957061,1.37432,-1.35739,-2.80479,-63.4552,-19.7301,-6.89781,1.09436,-18.4825,13.8077,-1.74101,2.65011,-1.60872,1.77354,1.00332,1.42838,-1.42066,-2.85375,0,0,0,0,0,0,0,0,0,0,0,0,0,0,0.700038,9.73E-05,0.564304,-0.382542,0.000127281,0.000123005,0.923938,0,0,0,2.18598,-0.527904,-0.371032,-0.417182,-0.196186,0.592862,-0.404179,-0.188372,0.6135,-0.0302451,-0.747184,-0.790967,-0.462563,-0.540619,0.63265,0.489665,1
2.64558,-1.68375,1.69432,0.956117,1.37507,-1.35776,-2.80522,-63.4038,-19.7669,-6.92165,1.09313,-18.4016,13.7628,-1.78716,2.65011,-1.60872,1.77354,1.00332,1.42838,-1.42066,-2.85375,0,0,0,0,0,0,0,0,0,0,0,0,0,0,0.700038,9.73E-05,0.564304,-0.382542,0.000127281,0.000123005,0.923938,0,0,0,2.18217,-0.529765,-0.366631,-0.367713,-0.179994,0.425624,-0.378653,-0.182508,0.481987,-0.0452715,-0.750359,-0.792266,-0.472011,-0.533156,0.62899,0.485346,1
2.64488,-1.68363,1.69425,0.956365,1.37458,-1.35738,-2.80489,-63.3889,-19.757,-6.91776,1.09287,-18.4243,13.7692,-1.77246,2.65011,-1.60872,1.77354,1.00332,1.42838,-1.42066,-2.85375,0,0,0,0,0,0,0,0,0,0,0,0,0,0,0.700038,9.73E-05,0.564304,-0.382542,0.000127281,0.000123005,0.923938,0,0,0,2.1783,-0.531696,-0.363302,-0.47465,-0.23642,0.407532,-0.445851,-0.220246,0.429869,-0.0522758,-0.749102,-0.792973,-0.469525,-0.538007,0.632816,0.488665,1
2.64368,-1.6837,1.69414,0.956094,1.3747,-1.35732,-2.80493,-63.3561,-19.7696,-6.92704,1.09211,-18.3997,13.7522,-1.78543,2.65011,-1.60872,1.77354,1.00332,1.42838,-1.42066,-2.85375,0,0,0,0,0,0,0,0,0,0,0,0,0,0,0.700038,9.73E-05,0.564304,-0.382542,0.000127281,0.000123005,0.923938,0,0,0,2.17459,-0.533614,-0.36102,-0.482423,-0.249283,0.29665,-0.471452,-0.240572,0.336616,-0.0642823,-0.74985,-0.794,-0.472241,-0.536849,0.633387,0.488263,1
2.64187,-1.68422,1.694,0.954639,1.37628,-1.35807,-2.8058,-63.2821,-19.8332,-6.96483,1.09048,-18.2652,13.6807,-1.86277,2.65011,-1.60872,1.77354,1.00332,1.42838,-1.42066,-2.85375,0,0,0,0,0,0,0,0,0,0,0,0,0,0,0.700038,9.73E-05,0.564304,-0.382542,0.000127281,0.000123005,0.923938,0,0,0,2.17077,-0.535556,-0.359729,-0.37319,-0.189996,0.126285,-0.402669,-0.205169,0.189384,-0.0824204,-0.755018,-0.795479,-0.486786,-0.521047,0.625854,0.479493,1
2.64051,-1.68445,1.6939,0.954024,1.37705,-1.35836,-2.80618,-63.2342,-19.866,-6.98458,1.0895,-18.1998,13.6442,-1.89938,2.65011,-1.60872,1.77354,1.00332,1.42838,-1.42066,-2.85375,0,0,0,0,0,0,0,0,0,0,0,0,0,0,0.700038,9.73E-05,0.564304,-0.382542,0.000127281,0.000123005,0.923938,0,0,0,2.16711,-0.537585,-0.35951,-0.370189,-0.205193,0.0221771,-0.379933,-0.205186,0.0723392,-0.0959581,-0.757314,-0.796476,-0.492943,-0.513304,0.622966,0.475703,1
