Afshin1997/kuka_rl_ros2/src/catch_and_throw/input_files/idealpd/restitution_param/13.csv
pure_target_joint_0,pure_target_joint_1,pure_target_joint_2,pure_target_joint_3,pure_target_joint_4,pure_target_joint_5,pure_target_joint_6,target_joint_0,target_joint_1,target_joint_2,target_joint_3,target_joint_4,target_joint_5,target_joint_6,pos_joint_0,pos_joint_1,pos_joint_2,pos_joint_3,pos_joint_4,pos_joint_5,pos_joint_6,vel_joint_0,vel_joint_1,vel_joint_2,vel_joint_3,vel_joint_4,vel_joint_5,vel_joint_6,vel_smooth_joint_0,vel_smooth_joint_1,vel_smooth_joint_2,vel_smooth_joint_3,vel_smooth_joint_4,vel_smooth_joint_5,vel_smooth_joint_6,ee_pos_x,ee_pos_y,ee_pos_z,ee_or_w,ee_or_x,ee_or_y,ee_or_z,ee_vel_x,ee_vel_y,ee_vel_z,ball_pos_x,ball_pos_y,ball_pos_z,ball_raw_vx,ball_raw_vy,ball_raw_vz,ball_ema_vx,ball_ema_vy,ball_ema_vz,action_0,action_1,action_2,action_3,action_4,action_5,action_6,command_published
2.628,-1.6856,1.69369,0.951204,1.38437,-1.36239,-2.81012,-62.9185,-20.1249,-7.14078,1.08258,-17.7169,13.3957,-2.16072,2.65011,-1.60872,1.77354,1.00329,1.42838,-1.42066,-2.85375,0,0,0,0,0,0,0,0,0,0,0,0,0,0,0.700043,8.92E-05,0.564303,-0.382531,0.000128416,0.000121879,0.923943,0,0,0,2.29657,-0.502212,-0.526553,0.0553469,-0.0667877,-0.0555157,0.0531636,-0.0645144,-0.0139097,-0.221093,-0.768821,-0.798554,-0.520906,-0.440138,0.582678,0.436292,1
2.62682,-1.68572,1.6936,0.950951,1.38485,-1.36242,-2.81043,-62.8883,-20.1461,-7.15294,1.08191,-17.6827,13.3754,-2.17965,2.65011,-1.60872,1.77354,1.00329,1.42838,-1.42066,-2.85375,0,0,0,0,0,0,0,0,0,0,0,0,0,0,0.700043,8.92E-05,0.564303,-0.382531,0.000128416,0.000121879,0.923943,0,0,0,2.29715,-0.502944,-0.528098,0.062291,-0.0795,-0.167653,0.0595528,-0.0750043,-0.12153,-0.232909,-0.770013,-0.799458,-0.52344,-0.435345,0.582375,0.433263,1
2.62575,-1.68587,1.69349,0.95048,1.3853,-1.36262,-2.81081,-62.8572,-20.1695,-7.16798,1.0812,-17.6345,13.3476,-2.207,2.65011,-1.60872,1.77354,1.00329,1.42838,-1.42066,-2.85375,0,0,0,0,0,0,0,0,0,0,0,0,0,0,0.700043,8.92E-05,0.564303,-0.382531,0.000128416,0.000121879,0.923943,0,0,0,2.29759,-0.503583,-0.530528,0.0376477,-0.0541564,-0.206092,0.0442192,-0.0604108,-0.180723,-0.243618,-0.771561,-0.800572,-0.528148,-0.430829,0.580348,0.429461,1
2.62414,-1.68604,1.69337,0.950037,1.38595,-1.36275,-2.81123,-62.8109,-20.1997,-7.18609,1.08023,-17.5803,13.3153,-2.23696,2.65011,-1.60872,1.77354,1.00329,1.42838,-1.42066,-2.85375,0,0,0,0,0,0,0,0,0,0,0,0,0,0,0.700043,8.92E-05,0.564303,-0.382531,0.000128416,0.000121879,0.923943,0,0,0,2.29805,-0.504231,-0.534035,0.0462729,-0.065854,-0.356325,0.0456568,-0.0642211,-0.303645,-0.25968,-0.773206,-0.801765,-0.532581,-0.42435,0.579135,0.425264,1
2.62299,-1.68614,1.6933,0.949825,1.38638,-1.36282,-2.8115,-62.7816,-20.2193,-7.19772,1.07961,-17.5476,13.296,-2.25468,2.65011,-1.60872,1.77354,1.00329,1.42838,-1.42066,-2.85375,0,0,0,0,0,0,0,0,0,0,0,0,0,0,0.700043,8.92E-05,0.564303,-0.382531,0.000128416,0.000121879,0.923943,0,0,0,2.2987,-0.504976,-0.538466,0.0620611,-0.0702688,-0.418192,0.0571398,-0.0684544,-0.383828,-0.271151,-0.774171,-0.802457,-0.534696,-0.420044,0.578423,0.42252,1
2.62142,-1.68631,1.69317,0.949321,1.38706,-1.363,-2.81197,-62.7332,-20.2515,-7.21717,1.07863,-17.4874,13.2602,-2.28824,2.65011,-1.60872,1.77354,1.00329,1.42838,-1.42066,-2.85375,0,0,0,0,0,0,0,0,0,0,0,0,0,0,0.700043,8.92E-05,0.564303,-0.382531,0.000128416,0.000121879,0.923943,0,0,0,2.29914,-0.505623,-0.543804,0.0448139,-0.0664259,-0.547747,0.0485117,-0.0670344,-0.498572,-0.286899,-0.77592,-0.803762,-0.539737,-0.413179,0.57662,0.417822,1
2.61978,-1.68644,1.69306,0.948956,1.38759,-1.36309,-2.81246,-62.701,-20.2776,-7.23334,1.07774,-17.4436,13.2347,-2.31268,2.65011,-1.60872,1.77354,1.00329,1.42838,-1.42066,-2.85375,0,0,0,0,0,0,0,0,0,0,0,0,0,0,0.700043,8.92E-05,0.564303,-0.382531,0.000128416,0.000121879,0.923943,0,0,0,2.29966,-0.506266,-0.550149,0.0534655,-0.0661023,-0.652647,0.0519794,-0.0663819,-0.606425,-0.303326,-0.777242,-0.804844,-0.543392,-0.407917,0.575734,0.412937,1
2.61848,-1.68653,1.69299,0.948742,1.38797,-1.36316,-2.81285,-62.6812,-20.2965,-7.24518,1.07711,-17.4136,13.2178,-2.32929,2.65011,-1.60872,1.77354,1.00329,1.42838,-1.42066,-2.85375,0,0,0,0,0,0,0,0,0,0,0,0,0,0,0.700043,8.92E-05,0.564303,-0.382531,0.000128416,0.000121879,0.923943,0,0,0,2.30035,-0.506897,-0.557371,0.0681437,-0.0619483,-0.708816,0.0632944,-0.0632784,-0.678098,-0.316247,-0.77815,-0.805585,-0.545527,-0.404122,0.574955,0.409022,1
2.61701,-1.68664,1.69289,0.94842,1.38843,-1.36324,-2.8133,-62.6522,-20.3197,-7.25963,1.07632,-17.3745,13.1948,-2.35108,2.65011,-1.60872,1.77354,1.00329,1.42838,-1.42066,-2.85375,0,0,0,0,0,0,0,0,0,0,0,0,0,0,0.700043,8.92E-05,0.564303,-0.382531,0.000128416,0.000121879,0.923943,0,0,0,2.30098,-0.507548,-0.565525,0.0622898,-0.0653195,-0.817548,0.0625912,-0.0647071,-0.775713,-0.330987,-0.779245,-0.806567,-0.548746,-0.399548,0.574173,0.404561,1
2.61563,-1.68678,1.69275,0.947732,1.38899,-1.3634,-2.8139,-62.617,-20.3477,-7.27721,1.07534,-17.3187,13.1619,-2.38362,2.65011,-1.60872,1.77354,1.00329,1.42838,-1.42066,-2.85375,0,0,0,0,0,0,0,0,0,0,0,0,0,0,0.700043,8.92E-05,0.564303,-0.382531,0.000128416,0.000121879,0.923943,0,0,0,2.30133,-0.508154,-0.575203,0.0347577,-0.0591837,-0.945623,0.0431078,-0.0608407,-0.89465,-0.344779,-0.780584,-0.807901,-0.555627,-0.393878,0.572623,0.398488,1
2.6151,-1.68678,1.69272,0.947322,1.38941,-1.36336,-2.81417,-62.5924,-20.3613,-7.28366,1.07477,-17.2948,13.1469,-2.39789,2.65011,-1.60872,1.77354,1.00329,1.42838,-1.42066,-2.85375,0,0,0,0,0,0,0,0,0,0,0,0,0,0,0.700043,8.92E-05,0.564303,-0.382531,0.000128416,0.000121879,0.923943,0,0,0,2.30231,-0.509066,-0.585629,0.0995692,-0.093089,-1.06428,0.0826308,-0.0834145,-1.01339,-0.350131,-0.780636,-0.808242,-0.559734,-0.389754,0.572958,0.395831,1
2.61409,-1.68687,1.69262,0.946826,1.3898,-1.36352,-2.81461,-62.5666,-20.3814,-7.29671,1.07408,-17.253,13.1222,-2.42214,2.65011,-1.60872,1.77354,1.00329,1.42838,-1.42066,-2.85375,0,0,0,0,0,0,0,0,0,0,0,0,0,0,0.700043,8.92E-05,0.564303,-0.382531,0.000128416,0.000121879,0.923943,0,0,0,2.30287,-0.509845,-0.596961,0.0557245,-0.0768563,-1.11756,0.0637964,-0.0788238,-1.08631,-0.36016,-0.781536,-0.809218,-0.564693,-0.385857,0.571409,0.39139,1
2.61316,-1.68695,1.69253,0.946356,1.39018,-1.36366,-2.81502,-62.54,-20.4006,-7.30899,1.07342,-17.2131,13.0984,-2.44519,2.65011,-1.60872,1.77354,1.00329,1.42838,-1.42066,-2.85375,0,0,0,0,0,0,0,0,0,0,0,0,0,0,0.700043,8.92E-05,0.564303,-0.382531,0.000128416,0.000121879,0.923943,0,0,0,2.30326,-0.510624,-0.60913,0.0384547,-0.0761291,-1.18887,0.0460572,-0.0769375,-1.1581,-0.369513,-0.782321,-0.810122,-0.56939,-0.382042,0.570003,0.387314,1
2.612,-1.68705,1.69242,0.945664,1.39093,-1.36376,-2.8157,-62.5063,-20.4295,-7.32469,1.0725,-17.1609,13.0681,-2.47632,2.65011,-1.60872,1.77354,1.00329,1.42838,-1.42066,-2.85375,0,0,0,0,0,0,0,0,0,0,0,0,0,0,0.700043,8.92E-05,0.564303,-0.382531,0.000128416,0.000121879,0.923943,0,0,0,2.30391,-0.51143,-0.622349,0.0677369,-0.0844899,-1.38586,0.061233,-0.0822242,-1.31753,-0.381085,-0.783346,-0.811203,-0.57631,-0.374496,0.568993,0.380547,1
2.61151,-1.68708,1.69238,0.945403,1.39108,-1.36391,-2.81589,-62.4908,-20.4386,-7.33148,1.07215,-17.1378,13.0541,-2.48941,2.65011,-1.60872,1.77354,1.00329,1.42838,-1.42066,-2.85375,0,0,0,0,0,0,0,0,0,0,0,0,0,0,0.700043,8.92E-05,0.564303,-0.382531,0.000128416,0.000121879,0.923943,0,0,0,2.3044,-0.512202,-0.63665,0.0448669,-0.0709845,-1.31537,0.0497768,-0.0743564,-1.31602,-0.385965,-0.78361,-0.811636,-0.578918,-0.373059,0.567538,0.378657,1
2.61045,-1.68716,1.69229,0.944807,1.39157,-1.36402,-2.81632,-62.4518,-20.462,-7.34573,1.07132,-17.0894,13.0243,-2.51723,2.65011,-1.60872,1.77354,1.00329,1.42838,-1.42066,-2.85375,0,0,0,0,0,0,0,0,0,0,0,0,0,0,0.700043,8.92E-05,0.564303,-0.382531,0.000128416,0.000121879,0.923943,0,0,0,2.3049,-0.513032,-0.651627,0.0493185,-0.0815219,-1.47171,0.049456,-0.0793723,-1.425,-0.396577,-0.7844,-0.812552,-0.584881,-0.368156,0.566362,0.374308,1
2.60899,-1.68729,1.69216,0.943979,1.39238,-1.36418,-2.81706,-62.4034,-20.497,-7.36589,1.07019,-17.0218,12.9838,-2.55666,2.65011,-1.60872,1.77354,1.00329,1.42838,-1.42066,-2.85375,0,0,0,0,0,0,0,0,0,0,0,0,0,0,0.700043,8.92E-05,0.564303,-0.382531,0.000128416,0.000121879,0.923943,0,0,0,2.30542,-0.513864,-0.667718,0.0541517,-0.0872374,-1.68659,0.0527429,-0.0848779,-1.60811,-0.411214,-0.785708,-0.813885,-0.59316,-0.360064,0.564828,0.366966,1
2.60782,-1.6874,1.69206,0.94332,1.39297,-1.36432,-2.81765,-62.368,-20.5239,-7.38193,1.06932,-16.9686,12.9522,-2.58775,2.65011,-1.60872,1.77354,1.00329,1.42838,-1.42066,-2.85375,0,0,0,0,0,0,0,0,0,0,0,0,0,0,0.700043,8.92E-05,0.564303,-0.382531,0.000128416,0.000121879,0.923943,0,0,0,2.30592,-0.51463,-0.684743,0.0522117,-0.0802161,-1.78383,0.052371,-0.0816146,-1.73111,-0.422853,-0.786805,-0.814843,-0.599746,-0.354126,0.563395,0.361066,1
2.60703,-1.68745,1.692,0.942869,1.3933,-1.36441,-2.81796,-62.3382,-20.5408,-7.39251,1.0687,-16.9324,12.9298,-2.60843,2.65011,-1.60872,1.77354,1.00329,1.42838,-1.42066,-2.85375,0,0,0,0,0,0,0,0,0,0,0,0,0,0,0.700043,8.92E-05,0.564303,-0.382531,0.000128416,0.000121879,0.923943,0,0,0,2.30641,-0.515479,-0.702804,0.0503085,-0.0864215,-1.83673,0.0509273,-0.0849795,-1.80505,-0.430749,-0.787347,-0.815421,-0.60426,-0.350804,0.562514,0.35797,1
2.61576,-1.6863,1.69288,0.947742,1.38755,-1.36399,-2.81244,-62.5385,-20.3159,-7.27265,1.0751,-17.3119,13.1435,-2.37913,2.65011,-1.60872,1.77354,1.00329,1.42838,-1.42066,-2.85375,0,0,0,0,0,0,0,0,0,0,0,0,0,0,0.700043,8.92E-05,0.564303,-0.382531,0.000128416,0.000121879,0.923943,0,0,0,2.30637,-0.516481,-0.70107,-0.00373012,-0.0890726,0.154175,0.0126671,-0.0878447,-0.433592,-0.343457,-0.775818,-0.806648,-0.555526,-0.408352,0.566702,0.413107,1
2.63285,-1.68366,1.69455,0.960236,1.37582,-1.36031,-2.80635,-63.4353,-19.8111,-6.97722,1.0911,-18.3961,13.7906,-1.76268,2.65011,-1.60872,1.77354,1.00329,1.42838,-1.42066,-2.85375,0,0,0,0,0,0,0,0,0,0,0,0,0,0,0.700043,8.92E-05,0.564303,-0.382531,0.000128416,0.000121879,0.923943,0,0,0,2.30617,-0.517613,-0.689739,-0.0345858,-0.200655,2.00946,-0.0204099,-0.166812,1.27655,-0.172591,-0.749423,-0.789966,-0.430588,-0.525603,0.603507,0.47404,1
2.62849,-1.68422,1.69426,0.956833,1.3781,-1.36126,-2.8074,-63.2156,-19.9199,-7.04608,1.08678,-18.14,13.6374,-1.90761,2.65011,-1.60872,1.77354,1.00329,1.42838,-1.42066,-2.85375,0,0,0,0,0,0,0,0,0,0,0,0,0,0,0.700043,8.92E-05,0.564303,-0.382531,0.000128416,0.000121879,0.923943,0,0,0,2.30596,-0.518728,-0.679333,-0.0181488,-0.096551,0.901173,-0.0188271,-0.117629,1.01379,-0.216148,-0.75506,-0.792821,-0.464624,-0.502853,0.594039,0.463509,1
2.63127,-1.68396,1.6944,0.958193,1.37692,-1.36075,-2.8069,-63.3302,-19.8634,-7.00999,1.08897,-18.2645,13.7118,-1.83913,2.65011,-1.60872,1.77354,1.00329,1.42838,-1.42066,-2.85375,0,0,0,0,0,0,0,0,0,0,0,0,0,0,0.700043,8.92E-05,0.564303,-0.382531,0.000128416,0.000121879,0.923943,0,0,0,2.30563,-0.519889,-0.669933,-0.0411298,-0.143388,1.16078,-0.034439,-0.13566,1.11668,-0.188351,-0.752437,-0.791453,-0.45102,-0.514663,0.599136,0.468527,1
2.62925,-1.6842,1.69428,0.956791,1.37796,-1.36109,-2.80735,-63.2311,-19.9118,-7.03971,1.08705,-18.1557,13.6463,-1.90031,2.65011,-1.60872,1.77354,1.00329,1.42838,-1.42066,-2.85375,0,0,0,0,0,0,0,0,0,0,0,0,0,0,0.700043,8.92E-05,0.564303,-0.382531,0.000128416,0.000121879,0.923943,0,0,0,2.30539,-0.520969,-0.661512,-0.0253511,-0.115799,0.902559,-0.0280775,-0.121757,0.966795,-0.208601,-0.754807,-0.79267,-0.465043,-0.504191,0.595729,0.46405,1
2.62765,-1.68441,1.69417,0.955722,1.37884,-1.36134,-2.80773,-63.1529,-19.9517,-7.06375,1.08559,-18.0686,13.594,-1.94936,2.65011,-1.60872,1.77354,1.00329,1.42838,-1.42066,-2.85375,0,0,0,0,0,0,0,0,0,0,0,0,0,0,0.700043,8.92E-05,0.564303,-0.382531,0.000128416,0.000121879,0.923943,0,0,0,2.30513,-0.522113,-0.65401,-0.0269379,-0.115388,0.756798,-0.0272798,-0.117299,0.819797,-0.224541,-0.756924,-0.793754,-0.475733,-0.495444,0.593216,0.460195,1
2.62648,-1.68458,1.69409,0.95494,1.37958,-1.36154,-2.80804,-63.0918,-19.9837,-7.08235,1.08451,-18.0008,13.5533,-1.98748,2.65011,-1.60872,1.77354,1.00329,1.42838,-1.42066,-2.85375,0,0,0,0,0,0,0,0,0,0,0,0,0,0,0.700043,8.92E-05,0.564303,-0.382531,0.000128416,0.000121879,0.923943,0,0,0,2.30492,-0.523263,-0.647581,-0.0204675,-0.114954,0.642534,-0.0225112,-0.115657,0.695713,-0.236244,-0.758605,-0.794567,-0.483551,-0.488012,0.591203,0.457104,1
2.62541,-1.6848,1.69397,0.954013,1.38048,-1.3618,-2.80843,-63.0232,-20.0215,-7.10387,1.08339,-17.9192,13.5047,-2.03384,2.65011,-1.60872,1.77354,1.00329,1.42838,-1.42066,-2.85375,0,0,0,0,0,0,0,0,0,0,0,0,0,0,0.700043,8.92E-05,0.564303,-0.382531,0.000128416,0.000121879,0.923943,0,0,0,2.30462,-0.524449,-0.64204,-0.0272734,-0.108283,0.505918,-0.0258447,-0.110495,0.562857,-0.246971,-0.760814,-0.795727,-0.49282,-0.479014,0.58856,0.453197,1
2.62429,-1.68511,1.69383,0.952816,1.38185,-1.36229,-2.80903,-62.935,-20.074,-7.1328,1.08209,-17.8061,13.4389,-2.09835,2.65011,-1.60872,1.77354,1.00329,1.42838,-1.42066,-2.85375,0,0,0,0,0,0,0,0,0,0,0,0,0,0,0.700043,8.92E-05,0.564303,-0.382531,0.000128416,0.000121879,0.923943,0,0,0,2.30434,-0.525606,-0.637416,-0.0207022,-0.0856016,0.342247,-0.0222449,-0.0930697,0.40843,-0.258224,-0.763872,-0.797161,-0.504788,-0.465318,0.583676,0.447243,1
2.62437,-1.68507,1.69383,0.953028,1.38159,-1.36204,-2.80892,-62.95,-20.0652,-7.12721,1.08226,-17.8301,13.452,-2.08494,2.65011,-1.60872,1.77354,1.00329,1.42838,-1.42066,-2.85375,0,0,0,0,0,0,0,0,0,0,0,0,0,0,0.700043,8.92E-05,0.564303,-0.382531,0.000128416,0.000121879,0.923943,0,0,0,2.30407,-0.526772,-0.633828,-0.0274325,-0.118706,0.365314,-0.0258763,-0.111015,0.378249,-0.25735,-0.763501,-0.797138,-0.502666,-0.467889,0.58614,0.448301,1
2.62386,-1.68517,1.69378,0.952704,1.38202,-1.3621,-2.8091,-62.9209,-20.082,-7.13608,1.0818,-17.798,13.4328,-2.10309,2.65011,-1.60872,1.77354,1.00329,1.42838,-1.42066,-2.85375,0,0,0,0,0,0,0,0,0,0,0,0,0,0,0.700043,8.92E-05,0.564303,-0.382531,0.000128416,0.000121879,0.923943,0,0,0,2.30385,-0.527957,-0.631199,-0.0219516,-0.118451,0.262859,-0.023129,-0.116221,0.297476,-0.26245,-0.764475,-0.797666,-0.505911,-0.463595,0.585582,0.446537,1
2.62315,-1.68529,1.69371,0.952275,1.38259,-1.3622,-2.80933,-62.8811,-20.1046,-7.14826,1.08118,-17.7541,13.4065,-2.12777,2.65011,-1.60872,1.77354,1.00329,1.42838,-1.42066,-2.85375,0,0,0,0,0,0,0,0,0,0,0,0,0,0,0.700043,8.92E-05,0.564303,-0.382531,0.000128416,0.000121879,0.923943,0,0,0,2.30364,-0.529195,-0.629576,-0.0211657,-0.12282,0.161001,-0.0217547,-0.12084,0.201943,-0.269566,-0.765722,-0.798358,-0.510202,-0.457935,0.584543,0.444186,1
2.62239,-1.68543,1.69363,0.951743,1.38327,-1.3624,-2.8096,-62.8318,-20.1317,-7.16315,1.08046,-17.6985,13.3732,-2.15896,2.65011,-1.60872,1.77354,1.00329,1.42838,-1.42066,-2.85375,0,0,0,0,0,0,0,0,0,0,0,0,0,0,0.700043,8.92E-05,0.564303,-0.382531,0.000128416,0.000121879,0.923943,0,0,0,2.30338,-0.530445,-0.628893,-0.0253334,-0.121856,0.0665524,-0.0242598,-0.121551,0.10717,-0.277212,-0.767153,-0.799144,-0.515522,-0.451098,0.582607,0.441472,1
