Afshin1997/kuka_rl_ros2/src/catch_and_throw/output_files/tm/nn_ema2.00_jvws1_realball_D24H16M18S49/recorded_data.csv
pure_target_joint_0,pure_target_joint_1,pure_target_joint_2,pure_target_joint_3,pure_target_joint_4,pure_target_joint_5,pure_target_joint_6,target_joint_0,target_joint_1,target_joint_2,target_joint_3,target_joint_4,target_joint_5,target_joint_6,pos_joint_0,pos_joint_1,pos_joint_2,pos_joint_3,pos_joint_4,pos_joint_5,pos_joint_6,vel_joint_0,vel_joint_1,vel_joint_2,vel_joint_3,vel_joint_4,vel_joint_5,vel_joint_6,vel_smooth_joint_0,vel_smooth_joint_1,vel_smooth_joint_2,vel_smooth_joint_3,vel_smooth_joint_4,vel_smooth_joint_5,vel_smooth_joint_6,ee_pos_x,ee_pos_y,ee_pos_z,ee_or_w,ee_or_x,ee_or_y,ee_or_z,ee_vel_x,ee_vel_y,ee_vel_z,ball_pos_x,ball_pos_y,ball_pos_z,ball_raw_vx,ball_raw_vy,ball_raw_vz,ball_ema_vx,ball_ema_vy,ball_ema_vz,action_0,action_1,action_2,action_3,action_4,action_5,action_6,command_published
1.71064,-1.00603,-1.8119,-1.1331,2.01381,1.11473,-0.887585,1.71064,-1.00603,-1.8119,-1.1331,2.01381,1.11473,-0.887585,1.78069,-1.07142,-1.81509,-1.11951,1.93718,1.11689,-0.916251,1.19994e-05,0,0,0,-1.91991e-05,1.19776e-05,-1.19776e-05,1.19994e-05,0,0,0,-1.91991e-05,1.19776e-05,-1.19776e-05,0.532188,-0.455594,0.689924,0.572699,0.178002,0.150874,0.785855,4.84918e-06,8.70738e-06,2.27029e-07,2.99965,-0.500806,0.256481,-3.20714,0.0992835,5.64791,-3.20714,0.0992835,5.64791,-0.700494,0.653937,0.0319347,-0.135928,0.76627,-0.0215916,0.286657,1
1.7022,-1.00254,-1.84323,-1.15204,1.99693,1.149,-0.940755,1.7022,-1.00254,-1.84323,-1.15204,1.99693,1.149,-0.940755,1.78069,-1.07142,-1.81509,-1.11951,1.93718,1.11689,-0.916251,0,-2.39771e-05,-1.19776e-05,2.39771e-05,0,1.19776e-05,3.59547e-05,0,-2.39771e-05,-1.19776e-05,2.39771e-05,0,1.19776e-05,3.59547e-05,0.532188,-0.455594,0.689924,0.572699,0.178002,0.150874,0.785855,-2.90697e-06,-1.76007e-05,-1.12221e-05,2.96772,-0.500485,0.311424,-3.19278,0.0321507,5.49431,-3.19278,0.0321507,5.49431,-0.784893,0.688865,-0.281372,-0.325354,0.597484,0.321117,-0.245039,1
1.71742,-1.01912,-1.80451,-1.11192,1.99017,1.18869,-0.939298,1.71742,-1.01912,-1.80451,-1.11192,1.99017,1.18869,-0.939298,1.78074,-1.07135,-1.81509,-1.11965,1.93718,1.11689,-0.916251,0.00920411,0.0122722,0.00109057,-0.027073,0.000115055,-8.3887e-05,4.79323e-05,0.00920411,0.0122722,0.00109057,-0.027073,0.000115055,-8.3887e-05,4.79323e-05,0.532229,-0.455489,0.689929,0.57263,0.177997,0.150923,0.785897,0.00761253,0.0183157,0.000748048,2.9354,-0.499974,0.365319,-3.23191,0.0510782,5.38946,-3.23191,0.0510782,5.38946,-0.633147,0.522289,0.105741,0.0773515,0.529907,0.718021,-0.230475,1
1.71181,-1.01307,-1.78232,-1.13687,2.01001,1.18097,-0.928151,1.71181,-1.01307,-1.78232,-1.13687,2.01001,1.18097,-0.928151,1.78082,-1.07091,-1.81496,-1.12046,1.93811,1.11685,-0.915279,0.00412266,0.0540981,0.013135,-0.122326,0.168397,-0.00464998,0.16891,0.00412266,0.0540981,0.013135,-0.122326,0.168397,-0.00464998,0.16891,0.532331,-0.455108,0.690044,0.571867,0.178168,0.150665,0.786463,0.011843,0.0466774,0.00877955,2.90272,-0.499092,0.418146,-3.26762,0.0881702,5.28272,-3.26762,0.0881702,5.28272,-0.690169,0.578392,0.32649,-0.164113,0.719034,0.641227,-0.128717,1
1.71086,-1.01359,-1.77266,-1.13552,2.0179,1.18151,-0.933205,1.71086,-1.01359,-1.77266,-1.13552,2.0179,1.18151,-0.933205,1.78019,-1.07016,-1.8157,-1.12237,1.94507,1.11734,-0.912901,-0.0897641,0.0847186,-0.112163,-0.22163,0.878859,0.0807397,0.196187,-0.0897641,0.0847186,-0.112163,-0.22163,0.878859,0.0807397,0.196187,0.532005,-0.455593,0.689941,0.570148,0.179553,0.147901,0.787919,-0.0439444,-0.052398,-0.0239888,2.87043,-0.498334,0.469452,-3.22893,0.0758052,5.13061,-3.22893,0.0758052,5.13061,-0.693323,0.565636,0.430452,-0.131548,0.728282,0.641712,-0.203049,1
1.71232,-1.00946,-1.77734,-1.10457,2.02492,1.18896,-0.934147,1.71232,-1.00946,-1.77734,-1.10457,2.02492,1.18896,-0.934147,1.77909,-1.0686,-1.81774,-1.12545,1.95693,1.1203,-0.913981,-0.117844,0.193262,-0.217699,-0.315013,1.24647,0.39332,-0.201316,-0.117844,0.193262,-0.217699,-0.315013,1.24647,0.39332,-0.201316,0.531145,-0.456434,0.689806,0.569514,0.180661,0.143624,0.788915,-0.0896944,-0.0472343,-0.00143712,2.83817,-0.497828,0.51935,-3.22649,0.0506461,4.98974,-3.22649,0.0506461,4.98974,-0.667773,0.59133,0.404019,0.208778,0.679944,0.686601,-0.201665,1
1.7076,-1.00172,-1.788,-1.1043,2.03886,1.19132,-0.936739,1.7076,-1.00172,-1.788,-1.1043,2.03886,1.19132,-0.936739,1.77714,-1.06554,-1.81897,-1.12769,1.96917,1.12756,-0.917563,-0.218658,0.329227,-0.0777316,-0.201664,1.19701,0.826453,-0.377177,-0.218658,0.329227,-0.0777316,-0.201664,1.19701,0.826453,-0.377177,0.528939,-0.457194,0.691307,0.570671,0.178772,0.138837,0.789366,-0.213825,-0.0482618,0.170492,2.80592,-0.497225,0.569036,-3.22511,0.0602335,4.96867,-3.22511,0.0602335,4.96867,-0.69541,0.638194,0.309696,0.233902,0.696874,0.637608,-0.191756,1
1.70572,-0.995673,-1.79266,-1.11236,2.05135,1.19831,-0.933834,1.70572,-0.995673,-1.79266,-1.11236,2.05135,1.19831,-0.933834,1.77489,-1.06269,-1.8184,-1.13006,1.98054,1.13722,-0.920996,-0.21994,0.265733,0.113517,-0.249973,1.12407,0.996082,-0.337544,-0.21994,0.265733,0.113517,-0.249973,1.12407,0.996082,-0.337544,0.526178,-0.457531,0.693445,0.571695,0.175196,0.133526,0.790343,-0.227792,-0.000359131,0.196385,2.77379,-0.496375,0.617732,-3.21281,0.0850588,4.86957,-3.21281,0.0850588,4.86957,-0.691732,0.670134,0.257407,0.176976,0.708078,0.610961,-0.128382,1
1.70356,-0.99102,-1.79305,-1.12363,2.06227,1.20742,-0.939786,1.70356,-0.99102,-1.79305,-1.12363,2.06227,1.20742,-0.939786,1.77243,-1.06032,-1.81524,-1.13271,1.99154,1.14723,-0.924274,-0.270981,0.229792,0.376332,-0.258182,1.09426,0.991876,-0.322536,-0.270981,0.229792,0.376332,-0.258182,1.09426,0.991876,-0.322536,0.523148,-0.457485,0.696184,0.572241,0.170826,0.127456,0.791905,-0.259108,0.0184571,0.26338,2.74154,-0.495397,0.665109,-3.22518,0.0977367,4.73771,-3.22518,0.0977367,4.73771,-0.688656,0.692964,0.221944,0.0907313,0.707333,0.60188,-0.155113,1
1.70026,-0.987311,-1.7878,-1.14282,2.07299,1.21667,-0.944828,1.70026,-0.987311,-1.7878,-1.14282,2.07299,1.21667,-0.944828,1.76854,-1.05802,-1.81055,-1.13469,2.00206,1.15662,-0.927266,-0.424292,0.233855,0.485662,-0.156582,1.0367,0.923699,-0.292564,-0.424292,0.233855,0.485662,-0.156582,1.0367,0.923699,-0.292564,0.51933,-0.458121,0.699515,0.573254,0.166209,0.120981,0.79317,-0.342995,-0.0681129,0.32064,2.70993,-0.494486,0.711618,-3.16057,0.0911802,4.65086,-3.16057,0.0911802,4.65086,-0.682848,0.707065,0.22751,-0.0813615,0.709286,0.600494,-0.175622,1
1.69624,-0.982045,-1.78196,-1.15193,2.08352,1.22441,-0.952351,1.69624,-0.982045,-1.78196,-1.15193,2.08352,1.22441,-0.952351,1.76397,-1.05518,-1.80594,-1.13486,2.01202,1.16545,-0.92981,-0.449925,0.31048,0.437618,0.0405417,0.990392,0.873342,-0.235808,-0.449925,0.31048,0.437618,0.0405417,0.990392,0.873342,-0.235808,0.514923,-0.459519,0.703467,0.575113,0.161311,0.114653,0.793775,-0.384101,-0.129594,0.38618,2.67797,-0.493849,0.757098,-3.19591,0.0636876,4.54807,-3.19591,0.0636876,4.54807,-0.677365,0.731362,0.23986,-0.17073,0.714979,0.589639,-0.225407,1
1.69298,-0.975689,-1.77453,-1.15802,2.093,1.23129,-0.959296,1.69298,-0.975689,-1.77453,-1.15802,2.093,1.23129,-0.959296,1.76006,-1.05087,-1.80217,-1.13353,2.02199,1.17376,-0.931765,-0.375577,0.470706,0.345342,0.137803,1.00548,0.81691,-0.191372,-0.375577,0.470706,0.345342,0.137803,1.00548,0.81691,-0.191372,0.51056,-0.460746,0.708215,0.577263,0.156081,0.10888,0.794073,-0.367731,-0.0933606,0.458801,2.6459,-0.493305,0.801235,-3.20735,0.0543267,4.41363,-3.20735,0.0543267,4.41363,-0.670803,0.751844,0.27644,-0.244811,0.710091,0.575318,-0.275307,1
1.68742,-0.969601,-1.77339,-1.16188,2.10333,1.23658,-0.962604,1.68742,-0.969601,-1.77339,-1.16188,2.10333,1.23658,-0.962604,1.75608,-1.04552,-1.79982,-1.13284,2.03247,1.18164,-0.933773,-0.415352,0.552125,0.218312,0.0390077,1.06452,0.783798,-0.208916,-0.415352,0.552125,0.218312,0.0390077,1.06452,0.783798,-0.208916,0.50635,-0.461742,0.712812,0.579466,0.151323,0.103769,0.794073,-0.367752,-0.0808403,0.431764,2.61376,-0.492573,0.844202,-3.21395,0.0732273,4.29668,-3.21395,0.0732273,4.29668,-0.686608,0.759215,0.264301,-0.290353,0.708559,0.549388,-0.28831,1
1.6825,-0.963272,-1.77445,-1.16166,2.11426,1.24492,-0.964518,1.6825,-0.963272,-1.77445,-1.16166,2.11426,1.24492,-0.964518,1.75104,-1.03954,-1.79781,-1.13388,2.04352,1.18949,-0.936275,-0.539146,0.610391,0.207574,-0.153994,1.11639,0.791935,-0.26765,-0.539146,0.610391,0.207574,-0.153994,1.11639,0.791935,-0.26765,0.501938,-0.462542,0.717167,0.581687,0.146919,0.098956,0.793891,-0.398005,-0.0596401,0.410923,2.58201,-0.491789,0.88631,-3.17488,0.0784546,4.21085,-3.17488,0.0784546,4.21085,-0.685418,0.762677,0.233544,-0.277821,0.707451,0.554294,-0.282425,1
1.67559,-0.956163,-1.78499,-1.15288,2.12442,1.25486,-0.967411,1.67559,-0.956163,-1.78499,-1.15288,2.12442,1.25486,-0.967411,1.7445,-1.03293,-1.79524,-1.13677,2.05485,1.19769,-0.939591,-0.69302,0.676063,0.276889,-0.334712,1.13608,0.83014,-0.354581,-0.69302,0.676063,0.276889,-0.334712,1.13608,0.83014,-0.354581,0.497036,-0.463085,0.721576,0.584065,0.14241,0.0942759,0.793536,-0.449632,-0.033368,0.423826,2.55016,-0.491031,0.927653,-3.18491,0.0757098,4.13433,-3.18491,0.0757098,4.13433,-0.689141,0.767709,0.102472,-0.16111,0.69567,0.571719,-0.278204,1
1.66837,-0.94872,-1.80163,-1.13116,2.13355,1.26605,-0.973263,1.66837,-0.94872,-1.80163,-1.13116,2.13355,1.26605,-0.973263,1.73661,-1.02601,-1.7921,-1.1411,2.06619,1.20612,-0.943749,-0.816191,0.691654,0.317647,-0.463312,1.12743,0.844868,-0.433208,-0.816191,0.691654,0.317647,-0.463312,1.12743,0.844868,-0.433208,0.491699,-0.463504,0.72595,0.586699,0.137841,0.0897302,0.792926,-0.486973,-0.0286982,0.410053,2.48666,-0.49028,1.00777,-3.19309,0.0308812,3.91664,-3.19309,0.0308812,3.91664,-0.682427,0.772936,-0.0952412,0.0994074,0.673616,0.599253,-0.295147,1
1.65833,-0.941875,-1.81368,-1.12119,2.14264,1.27443,-0.974802,1.65833,-0.941875,-1.81368,-1.12119,2.14264,1.27443,-0.974802,1.72799,-1.0192,-1.78898,-1.14623,2.07738,1.21439,-0.948307,-0.867914,0.684367,0.312386,-0.522332,1.1134,0.820313,-0.460136,-0.867914,0.684367,0.312386,-0.522332,1.1134,0.820313,-0.460136,0.486236,-0.463981,0.72999,0.589473,0.133572,0.0853631,0.792082,-0.494702,-0.030581,0.383436,2.48666,-0.49028,1.00777,-3.19309,0.0308812,3.91664,-3.19309,0.0308812,3.91664,-0.696648,0.773258,-0.247046,0.25046,0.652574,0.600363,-0.264945,1
1.64931,-0.934258,-1.82006,-1.12498,2.15163,1.27859,-0.979176,1.64931,-0.934258,-1.82006,-1.12498,2.15163,1.27859,-0.979176,1.71954,-1.0122,-1.78617,-1.1513,2.08832,1.22264,-0.952819,-0.842855,0.695405,0.242519,-0.482066,1.08979,0.83195,-0.447001,-0.842855,0.695405,0.242519,-0.482066,1.08979,0.83195,-0.447001,0.480889,-0.464287,0.733972,0.592255,0.129314,0.0812807,0.791142,-0.486053,-0.0332858,0.370408,2.45466,-0.489487,1.04622,-3.1997,0.079295,3.84462,-3.1997,0.079295,3.84462,-0.702333,0.779396,-0.338913,0.26319,0.633118,0.559514,-0.263567,1
1.64097,-0.926753,-1.82254,-1.13244,2.1614,1.28258,-0.983695,1.64097,-0.926753,-1.82254,-1.13244,2.1614,1.28258,-0.983695,1.71091,-1.00531,-1.78531,-1.15453,2.09907,1.23124,-0.957157,-0.863132,0.689173,0.0344179,-0.25364,1.06667,0.873462,-0.431207,-0.863132,0.689173,0.0344179,-0.25364,1.06667,0.873462,-0.431207,0.475219,-0.465621,0.737642,0.596058,0.12514,0.0774113,0.789343,-0.529724,-0.151223,0.350592,2.4225,-0.488751,1.0835,-3.21612,0.073576,3.72781,-3.21612,0.073576,3.72781,-0.699352,0.785541,-0.372304,0.220931,0.623309,0.513411,-0.26538,1
1.63456,-0.919178,-1.82474,-1.12338,2.17035,1.29333,-0.990414,1.63456,-0.919178,-1.82474,-1.12338,2.17035,1.29333,-0.990414,1.70327,-0.998003,-1.7863,-1.15561,2.10935,1.24031,-0.961373,-0.720655,0.751286,-0.143963,-0.0528732,1.01486,0.918666,-0.416035,-0.720655,0.751286,-0.143963,-0.0528732,1.01486,0.918666,-0.416035,0.469645,-0.467246,0.741413,0.600587,0.120594,0.0740361,0.786938,-0.498844,-0.150739,0.371534,2.39075,-0.4883,1.11919,-3.17464,0.0450999,3.56936,-3.17464,0.0450999,3.56936,-0.687119,0.788258,-0.38441,0.322305,0.609957,0.530217,-0.290406,1
1.62625,-0.911402,-1.83216,-1.11434,2.17958,1.30102,-0.995857,1.62625,-0.911402,-1.83216,-1.11434,2.17958,1.30102,-0.995857,1.69693,-0.990081,-1.78949,-1.15441,2.11915,1.24976,-0.965263,-0.611912,0.795591,-0.385991,0.171874,0.972656,0.947919,-0.380718,-0.611912,0.795591,-0.385991,0.171874,0.972656,0.947919,-0.380718,0.464294,-0.469039,0.745328,0.605754,0.115683,0.0713241,0.783959,-0.485094,-0.194087,0.370292,2.35861,-0.487623,1.15418,-3.21474,0.0677288,3.49854,-3.21474,0.0677288,3.49854,-0.706826,0.786793,-0.426661,0.400711,0.604339,0.512526,-0.305946,1
1.61986,-0.90333,-1.84074,-1.1074,2.18672,1.30926,-1.00201,1.61986,-0.90333,-1.84074,-1.1074,2.18672,1.30926,-1.00201,1.69149,-0.981993,-1.79485,-1.15197,2.12863,1.25887,-0.969017,-0.519517,0.814456,-0.569481,0.241596,0.939471,0.897701,-0.37611,-0.519517,0.814456,-0.569481,0.241596,0.939471,0.897701,-0.37611,0.4593,-0.471096,0.748897,0.611359,0.111149,0.0692938,0.780438,-0.444196,-0.197665,0.336629,2.32636,-0.486961,1.1884,-3.22454,0.0661731,3.42203,-3.22454,0.0661731,3.42203,-0.716275,0.786625,-0.458868,0.445709,0.580959,0.503943,-0.329927,1
1.61426,-0.894767,-1.84874,-1.10249,2.19388,1.31726,-1.00766,1.61426,-0.894767,-1.84874,-1.10249,2.19388,1.31726,-1.00766,1.6864,-0.973313,-1.80075,-1.14919,2.13798,1.26749,-0.972884,-0.525809,0.889036,-0.591652,0.308134,0.935656,0.853118,-0.393656,-0.525809,0.889036,-0.591652,0.308134,0.935656,0.853118,-0.393656,0.454453,-0.472904,0.752668,0.617096,0.106634,0.0677208,0.776682,-0.460842,-0.192668,0.385009,2.2939,-0.486133,1.22137,-3.24614,0.082776,3.29692,-3.24614,0.082776,3.29692,-0.72144,0.78546,-0.479902,0.46696,0.558932,0.497674,-0.347706,1
1.60707,-0.886029,-1.85546,-1.09888,2.204,1.32212,-1.00936,1.60707,-0.886029,-1.85546,-1.09888,2.204,1.32212,-1.00936,1.68049,-0.964596,-1.80703,-1.1458,2.14727,1.27579,-0.977124,-0.603972,0.85651,-0.644492,0.34682,0.92369,0.818291,-0.433744,-0.603972,0.85651,-0.644492,0.34682,0.92369,0.818291,-0.433744,0.44912,-0.475256,0.756492,0.62354,0.102172,0.0662309,0.772251,-0.502,-0.254048,0.361969,2.26249,-0.485256,1.25316,-3.14143,0.087741,3.17956,-3.14143,0.087741,3.17956,-0.73422,0.785663,-0.484308,0.469136,0.567341,0.463291,-0.322313,1
1.60021,-0.877951,-1.86332,-1.09327,2.21157,1.3298,-1.01395,1.60021,-0.877951,-1.86332,-1.09327,2.21157,1.3298,-1.01395,1.67417,-0.956311,-1.81362,-1.14141,2.15643,1.28375,-0.981752,-0.639506,0.824583,-0.65819,0.482665,0.916116,0.793543,-0.473257,-0.639506,0.824583,-0.65819,0.482665,0.916116,0.793543,-0.473257,0.443411,-0.478241,0.760257,0.630626,0.0977895,0.0646351,0.767184,-0.547185,-0.314983,0.378082,2.2313,-0.484675,1.2842,-3.1184,0.0580639,3.10361,-3.1184,0.0580639,3.10361,-0.739626,0.783598,-0.496983,0.481401,0.551411,0.460515,-0.321961,1
1.59389,-0.87062,-1.87182,-1.08471,2.2174,1.34069,-1.02044,1.59389,-0.87062,-1.87182,-1.08471,2.2174,1.34069,-1.02044,1.668,-0.948485,-1.82031,-1.13598,2.16545,1.29145,-0.986751,-0.601863,0.765284,-0.676766,0.556046,0.895752,0.76001,-0.507257,-0.601863,0.765284,-0.676766,0.556046,0.895752,0.76001,-0.507257,0.437539,-0.481557,0.764049,0.638086,0.093335,0.0628844,0.761696,-0.543256,-0.335063,0.362801,2.19947,-0.484253,1.31411,-3.18291,0.0422865,2.99156,-3.18291,0.0422865,2.99156,-0.74105,0.778647,-0.515089,0.512676,0.519528,0.492441,-0.336885,1
1.58786,-0.863678,-1.87956,-1.07719,2.22386,1.34832,-1.02733,1.58786,-0.863678,-1.87956,-1.07719,2.22386,1.34832,-1.02733,1.66232,-0.941263,-1.82761,-1.13025,2.17412,1.29875,-0.991986,-0.561391,0.71574,-0.748829,0.584557,0.858322,0.71405,-0.524934,-0.561391,0.71574,-0.748829,0.584557,0.858322,0.71405,-0.524934,0.431918,-0.484987,0.767422,0.645584,0.0892438,0.0613079,0.755975,-0.525883,-0.348633,0.324714,2.16742,-0.483582,1.34287,-3.20561,0.0670612,2.87536,-3.20561,0.0670612,2.87536,-0.744653,0.775843,-0.519463,0.530563,0.497382,0.495668,-0.353404,1
1.58224,-0.856559,-1.88703,-1.07062,2.23171,1.35495,-1.03396,1.58224,-0.856559,-1.88703,-1.07062,2.23171,1.35495,-1.03396,1.65663,-0.933996,-1.83524,-1.12405,2.18266,1.30575,-0.997116,-0.572908,0.726897,-0.764984,0.630374,0.85324,0.692526,-0.507425,-0.572908,0.726897,-0.764984,0.630374,0.85324,0.692526,-0.507425,0.426172,-0.488493,0.770872,0.653206,0.0851534,0.0598745,0.749991,-0.545909,-0.355286,0.341444,2.13562,-0.483113,1.37033,-3.17926,0.0469059,2.74627,-3.17926,0.0469059,2.74627,-0.743941,0.774377,-0.51786,0.53429,0.490471,0.492049,-0.368473,1
1.57557,-0.849378,-1.89456,-1.06513,2.24122,1.35801,-1.039,1.57557,-0.849378,-1.89456,-1.06513,2.24122,1.35801,-1.039,1.65075,-0.926929,-1.84287,-1.11785,2.19114,1.31268,-1.00207,-0.595175,0.699573,-0.761988,0.608358,0.842215,0.693964,-0.493127,-0.595175,0.699573,-0.761988,0.608358,0.842215,0.693964,-0.493127,0.420272,-0.492048,0.774256,0.660766,0.0810816,0.0584091,0.74391,-0.557902,-0.356349,0.326307,2.10414,-0.482366,1.39708,-3.14875,0.0746429,2.67512,-3.14875,0.0746429,2.67512,-0.751744,0.775517,-0.516854,0.527205,0.5008,0.45333,-0.369369,1
1.5693,-0.842456,-1.90308,-1.05847,2.24678,1.36606,-1.04536,1.5693,-0.842456,-1.90308,-1.05847,2.24678,1.36606,-1.04536,1.64454,-0.919864,-1.8506,-1.11172,2.19928,1.3198,-1.00705,-0.630302,0.715009,-0.777556,0.617011,0.804574,0.716734,-0.502667,-0.630302,0.715009,-0.777556,0.617011,0.804574,0.716734,-0.502667,0.414163,-0.49555,0.777628,0.668404,0.07685,0.0571202,0.73761,-0.585009,-0.353604,0.336426,2.07291,-0.4821,1.4233,-3.12269,0.026685,2.62154,-3.12269,0.026685,2.62154,-0.752443,0.774084,-0.524752,0.532473,0.475007,0.462614,-0.383068,1
1.56205,-0.835289,-1.91159,-1.05121,2.25183,1.37212,-1.05204,1.56205,-0.835289,-1.91159,-1.05121,2.25183,1.37212,-1.05204,1.63811,-0.912556,-1.85844,-1.10538,2.207,1.32715,-1.01229,-0.648842,0.730636,-0.787347,0.630937,0.762407,0.739649,-0.533083,-0.648842,0.730636,-0.787347,0.630937,0.762407,0.739649,-0.533083,0.407811,-0.498903,0.781193,0.676258,0.0722503,0.0561054,0.730963,-0.604923,-0.342431,0.349821,2.04096,-0.481569,1.44878,-3.19519,0.0530452,2.54874,-3.19519,0.0530452,2.54874,-0.760554,0.772673,-0.531451,0.541752,0.448298,0.449722,-0.397452,1
1.5549,-0.828169,-1.91952,-1.04579,2.25843,1.37741,-1.05797,1.5549,-0.828169,-1.91952,-1.04579,2.25843,1.37741,-1.05797,1.6313,-0.90543,-1.86637,-1.09885,2.2144,1.33454,-1.01788,-0.693568,0.705876,-0.790931,0.653612,0.73748,0.742166,-0.56561,-0.693568,0.705876,-0.790931,0.653612,0.73748,0.742166,-0.56561,0.401172,-0.502369,0.78473,0.684377,0.0675378,0.0551872,0.723893,-0.637885,-0.360488,0.345993,2.00892,-0.480952,1.4727,-3.20375,0.0617564,2.39183,-3.20375,0.0617564,2.39183,-0.764009,0.772606,-0.531554,0.530523,0.440251,0.428745,-0.400945,1
1.54784,-0.821057,-1.92756,-1.03919,2.26327,1.38512,-1.06495,1.54784,-0.821057,-1.92756,-1.03919,2.26327,1.38512,-1.06495,1.62418,-0.898205,-1.87427,-1.09209,2.22181,1.34173,-1.02366,-0.715164,0.731715,-0.788606,0.676071,0.741717,0.716099,-0.580722,-0.715164,0.731715,-0.788606,0.676071,0.741717,0.716099,-0.580722,0.394275,-0.505825,0.788421,0.692639,0.0627344,0.0543102,0.716496,-0.659303,-0.351336,0.370112,1.97696,-0.480477,1.49569,-3.19605,0.0474155,2.29889,-3.19605,0.0474155,2.29889,-0.763418,0.771486,-0.532956,0.528954,0.414637,0.433967,-0.41297,1
1.5406,-0.813948,-1.93562,-1.03191,2.26862,1.39356,-1.07189,1.5406,-0.813948,-1.93562,-1.03191,2.26862,1.39356,-1.07189,1.61699,-0.890832,-1.88229,-1.08512,2.22922,1.34876,-1.02956,-0.722512,0.733382,-0.814226,0.700222,0.739151,0.697106,-0.59402,-0.722512,0.733382,-0.814226,0.700222,0.739151,0.697106,-0.59402,0.387233,-0.509175,0.792248,0.700958,0.0578369,0.053532,0.708835,-0.673919,-0.350922,0.374507,1.94493,-0.480156,1.51763,-3.20282,0.032109,2.19433,-3.20282,0.032109,2.19433,-0.763834,0.768849,-0.533254,0.532144,0.393993,0.447923,-0.4233,1
1.53299,-0.806618,-1.9433,-1.02728,2.27906,1.39473,-1.07709,1.53299,-0.806618,-1.9433,-1.02728,2.27906,1.39473,-1.07709,1.6098,-0.883745,-1.89061,-1.07801,2.23638,1.35551,-1.03565,-0.713393,0.704465,-0.82863,0.705639,0.707935,0.667518,-0.614369,-0.713393,0.704465,-0.82863,0.705639,0.707935,0.667518,-0.614369,0.380162,-0.512574,0.795914,0.709331,0.0530975,0.0529019,0.700879,-0.672288,-0.34744,0.360529,1.9132,-0.479314,1.53852,-3.1729,0.0841826,2.08902,-3.1729,0.0841826,2.08902,-0.768092,0.771269,-0.526886,0.507294,0.42681,0.392197,-0.414383,1
1.52644,-0.799678,-1.95168,-1.01898,2.28137,1.40438,-1.08553,1.52644,-0.799678,-1.95168,-1.01898,2.28137,1.40438,-1.08553,1.60288,-0.876583,-1.89874,-1.07097,2.2432,1.36202,-1.04186,-0.689581,0.720679,-0.808234,0.699419,0.672348,0.645863,-0.62398,-0.689581,0.720679,-0.808234,0.699419,0.672348,0.645863,-0.62398,0.373235,-0.515588,0.799682,0.71749,0.0482787,0.0524785,0.692909,-0.660571,-0.308993,0.376481,1.88107,-0.478704,1.5585,-3.21277,0.0610501,1.99709,-3.21277,0.0610501,1.99709,-0.764416,0.76905,-0.529482,0.519869,0.381778,0.423616,-0.436638,1
1.51864,-0.792772,-1.95991,-1.01299,2.28971,1.40935,-1.09106,1.51864,-0.792772,-1.95991,-1.01299,2.28971,1.40935,-1.09106,1.59563,-0.869495,-1.90715,-1.06387,2.2497,1.36843,-1.04817,-0.740524,0.703194,-0.855558,0.715861,0.639061,0.638876,-0.633867,-0.740524,0.703194,-0.855558,0.715861,0.639061,0.638876,-0.633867,0.366107,-0.518639,0.803385,0.725764,0.0434783,0.05228,0.684575,-0.695036,-0.330686,0.363241,1.84895,-0.478001,1.57718,-3.21269,0.0702769,1.86833,-3.21269,0.0702769,1.86833,-0.769859,0.767229,-0.527558,0.508799,0.400124,0.409196,-0.428906,1
1.51195,-0.785945,-1.96823,-1.0062,2.29379,1.41925,-1.09814,1.51195,-0.785945,-1.96823,-1.0062,2.29379,1.41925,-1.09814,1.58817,-0.862547,-1.9155,-1.05667,2.25592,1.37483,-1.05462,-0.740836,0.698485,-0.823729,0.714783,0.615093,0.634047,-0.648188,-0.740836,0.698485,-0.823729,0.714783,0.615093,0.634047,-0.648188,0.358808,-0.521629,0.807094,0.734054,0.0385736,0.0521656,0.675985,-0.698612,-0.307589,0.372811,1.81753,-0.477935,1.59456,-3.14152,0.00664592,1.73839,-3.14152,0.00664592,1.73839,-0.762133,0.766028,-0.527268,0.504702,0.378671,0.444121,-0.435123,1
1.50434,-0.778772,-1.97619,-0.999883,2.30138,1.42399,-1.10412,1.50434,-0.778772,-1.97619,-0.999883,2.30138,1.42399,-1.10412,1.58087,-0.855432,-1.92362,-1.04979,2.26213,1.38114,-1.06113,-0.73488,0.711343,-0.817222,0.684571,0.621248,0.629121,-0.651843,-0.73488,0.711343,-0.817222,0.684571,0.621248,0.629121,-0.651843,0.351635,-0.524208,0.810898,0.74205,0.0336009,0.0521281,0.667469,-0.69313,-0.278335,0.376572,1.7863,-0.4776,1.61152,-3.12349,0.0335187,1.69561,-3.12349,0.0335187,1.69561,-0.765282,0.766607,-0.525755,0.499096,0.392575,0.428501,-0.42993,1
1.49646,-0.771692,-1.98469,-0.993047,2.30891,1.42842,-1.11045,1.49646,-0.771692,-1.98469,-0.993047,2.30891,1.42842,-1.11045,1.57314,-0.848416,-1.93214,-1.04284,2.26831,1.38744,-1.06773,-0.778226,0.696783,-0.853305,0.703865,0.617336,0.629397,-0.663731,-0.778226,0.696783,-0.853305,0.703865,0.617336,0.629397,-0.663731,0.344175,-0.526916,0.814599,0.750191,0.0286859,0.0521889,0.658534,-0.72723,-0.294566,0.369253,1.75501,-0.477203,1.62762,-3.12864,0.0396878,1.60991,-3.12864,0.0396878,1.60991,-0.766847,0.767238,-0.525523,0.497957,0.406002,0.409812,-0.427181,1
1.48957,-0.76511,-1.99302,-0.984077,2.30873,1.44071,-1.11901,1.48957,-0.76511,-1.99302,-0.984077,2.30873,1.44071,-1.11901,1.56565,-0.84138,-1.94023,-1.03601,2.27446,1.39377,-1.07441,-0.738367,0.710397,-0.798371,0.679514,0.610549,0.633699,-0.668417,-0.738367,0.710397,-0.798371,0.679514,0.610549,0.633699,-0.668417,0.336818,-0.529235,0.818422,0.758027,0.0235808,0.0521953,0.649704,-0.703073,-0.241818,0.38686,1.72329,-0.477295,1.64236,-3.17192,-0.00925958,1.47462,-3.17192,-0.00925958,1.47462,-0.760772,0.762698,-0.527955,0.51934,0.342655,0.46935,-0.446068,1
1.4812,-0.758033,-2.00154,-0.978705,2.31879,1.44376,-1.12436,1.4812,-0.758033,-2.00154,-0.978705,2.31879,1.44376,-1.12436,1.55805,-0.834253,-1.94853,-1.02928,2.28054,1.40028,-1.0811,-0.776296,0.708192,-0.848548,0.680736,0.608344,0.657919,-0.669531,-0.776296,0.708192,-0.848548,0.680736,0.608344,0.657919,-0.669531,0.329375,-0.53138,0.822241,0.765788,0.0183672,0.052341,0.640697,-0.731929,-0.248388,0.377373,1.69168,-0.476971,1.65605,-3.16156,0.0324547,1.36834,-3.16156,0.0324547,1.36834,-0.768502,0.762196,-0.530071,0.505743,0.38253,0.434835,-0.432621,1
1.47372,-0.750368,-2.0094,-0.974596,2.32805,1.44489,-1.12989,1.47372,-0.750368,-2.0094,-0.974596,2.32805,1.44489,-1.12989,1.55028,-0.827249,-1.95693,-1.02239,2.28666,1.40686,-1.08775,-0.762898,0.697766,-0.82102,0.694698,0.617164,0.658362,-0.663336,-0.762898,0.697766,-0.82102,0.694698,0.617164,0.658362,-0.663336,0.321745,-0.533503,0.826052,0.773499,0.013068,0.0524451,0.631488,-0.7328,-0.228889,0.386323,1.66074,-0.47639,1.66864,-3.09341,0.0581205,1.25942,-3.09341,0.0581205,1.25942,-0.765635,0.768815,-0.524686,0.477901,0.413908,0.380339,-0.42141,1
1.46613,-0.743224,-2.01777,-0.967961,2.33265,1.44948,-1.13664,1.46613,-0.743224,-2.01777,-0.967961,2.33265,1.44948,-1.13664,1.54287,-0.820229,-1.96499,-1.01559,2.29283,1.41332,-1.09439,-0.744803,0.702379,-0.816718,0.682582,0.615342,0.648464,-0.665864,-0.744803,0.702379,-0.816718,0.682582,0.615342,0.648464,-0.665864,0.314305,-0.535258,0.829953,0.780868,0.00769137,0.0524937,0.622439,-0.722259,-0.202663,0.389394,1.62979,-0.475696,1.68097,-3.09545,0.0693232,1.23312,-3.09545,0.0693232,1.23312,-0.767413,0.770047,-0.527817,0.476289,0.398228,0.361624,-0.422481,1
1.45819,-0.736963,-2.02685,-0.95747,2.33309,1.46218,-1.1453,1.45819,-0.736963,-2.02685,-0.95747,2.33309,1.46218,-1.1453,1.53503,-0.813302,-1.97359,-1.00864,2.29873,1.42001,-1.10111,-0.789215,0.691642,-0.865481,0.700162,0.583149,0.675655,-0.671988,-0.789215,0.691642,-0.865481,0.700162,0.583149,0.675655,-0.671988,0.306557,-0.537092,0.833747,0.788387,0.00223057,0.0527723,0.612908,-0.756957,-0.211962,0.380501,1.59789,-0.475586,1.69255,-3.18968,0.0109971,1.15813,-3.18968,0.0109971,1.15813,-0.768409,0.763394,-0.532635,0.511701,0.343561,0.42167,-0.441899,1
1.45122,-0.730196,-2.03481,-0.950894,2.33748,1.47032,-1.15232,1.45122,-0.730196,-2.03481,-0.950894,2.33748,1.47032,-1.15232,1.52758,-0.806428,-1.98175,-1.0017,2.30454,1.42672,-1.10776,-0.728768,0.684523,-0.801079,0.692097,0.584874,0.662641,-0.663731,-0.728768,0.684523,-0.801079,0.692097,0.584874,0.662641,-0.663731,0.299006,-0.538536,0.837639,0.795531,-0.00341333,0.0529844,0.603582,-0.721246,-0.166382,0.392304,1.56585,-0.4753,1.70261,-3.20385,0.0286162,1.00541,-3.20385,0.0286162,1.00541,-0.763606,0.762315,-0.53065,0.508098,0.329416,0.43602,-0.445569,1
1.44373,-0.723113,-2.04285,-0.945775,2.34606,1.47347,-1.15796,1.44373,-0.723113,-2.04285,-0.945775,2.34606,1.47347,-1.15796,1.52001,-0.799576,-1.99019,-0.994896,2.31069,1.43289,-1.11437,-0.773002,0.685898,-0.863017,0.680961,0.628794,0.606872,-0.659448,-0.773002,0.685898,-0.863017,0.680961,0.628794,0.606872,-0.659448,0.291427,-0.540005,0.841443,0.802575,-0.00870406,0.0531951,0.594111,-0.746655,-0.182851,0.379226,1.5343,-0.474782,1.71156,-3.15565,0.0518084,0.894737,-3.15565,0.0518084,0.894737,-0.762811,0.764631,-0.526576,0.491212,0.353683,0.405805,-0.435931,1
1.43693,-0.715966,-2.051,-0.938611,2.34805,1.48242,-1.1656,1.43693,-0.715966,-2.051,-0.938611,2.34805,1.48242,-1.1656,1.51227,-0.792535,-1.99864,-0.988244,2.31707,1.43874,-1.12095,-0.763126,0.709927,-0.824259,0.659364,0.633281,0.582939,-0.660275,-0.763126,0.709927,-0.824259,0.659364,0.633281,0.582939,-0.660275,0.283797,-0.541298,0.84533,0.809485,-0.0139029,0.053426,0.58454,-0.73355,-0.143695,0.397318,1.50257,-0.474643,1.71977,-3.17308,0.013876,0.821018,-3.17308,0.013876,0.821018,-0.753344,0.765692,-0.523548,0.496323,0.309831,0.436835,-0.446449,1
1.4294,-0.70937,-2.05956,-0.932535,2.3559,1.48906,-1.1714,1.4294,-0.70937,-2.05956,-0.932535,2.3559,1.48906,-1.1714,1.50478,-0.785593,-2.00672,-0.981579,2.32296,1.44476,-1.12764,-0.758488,0.686989,-0.820005,0.672919,0.57194,0.609485,-0.672847,-0.758488,0.686989,-0.820005,0.672919,0.57194,0.609485,-0.672847,0.276328,-0.54223,0.849267,0.816139,-0.0193616,0.0537618,0.575024,-0.734274,-0.129236,0.39205,1.47093,-0.474555,1.72677,-3.16366,0.00879765,0.700426,-3.16366,0.00879765,0.700426,-0.75384,0.762228,-0.528362,0.490438,0.32941,0.443004,-0.437614,1
1.42106,-0.702268,-2.06806,-0.927298,2.36536,1.49164,-1.17675,1.42106,-0.702268,-2.06806,-0.927298,2.36536,1.49164,-1.17675,1.49676,-0.778726,-2.0154,-0.974588,2.32828,1.45108,-1.13447,-0.806798,0.692717,-0.872329,0.697295,0.521298,0.639398,-0.684796,-0.806798,0.692717,-0.872329,0.697295,0.521298,0.639398,-0.684796,0.268474,-0.543221,0.853141,0.823007,-0.0250122,0.0544868,0.564858,-0.770456,-0.128482,0.393107,1.43926,-0.47408,1.7327,-3.16719,0.0474989,0.592995,-3.16719,0.0474989,0.592995,-0.757026,0.764582,-0.526628,0.472892,0.370785,0.405637,-0.422764,1
1.41437,-0.694873,-2.07596,-0.922265,2.36946,1.49751,-1.18345,1.41437,-0.694873,-2.07596,-0.922265,2.36946,1.49751,-1.18345,1.48918,-0.771721,-2.0236,-0.967802,2.3334,1.45744,-1.14132,-0.740859,0.699453,-0.807781,0.6693,0.506476,0.635647,-0.684664,-0.740859,0.699453,-0.807781,0.6693,0.506476,0.635647,-0.684664,0.260957,-0.543691,0.857141,0.829464,-0.0308714,0.0552659,0.554961,-0.721447,-0.0738145,0.404134,1.40749,-0.47359,1.73745,-3.17707,0.048998,0.475025,-3.17707,0.048998,0.475025,-0.748174,0.768474,-0.523611,0.455371,0.360596,0.400692,-0.421336,1
1.40631,-0.688615,-2.08491,-0.915761,2.37647,1.50485,-1.18956,1.40631,-0.688615,-2.08491,-0.915761,2.37647,1.50485,-1.18956,1.48155,-0.765051,-2.03205,-0.96089,2.33836,1.46393,-1.14817,-0.782422,0.662984,-0.864803,0.69539,0.493762,0.652593,-0.685239,-0.782422,0.662984,-0.864803,0.69539,0.493762,0.652593,-0.685239,0.253352,-0.544196,0.860968,0.835844,-0.0367251,0.0560833,0.544858,-0.757938,-0.0961917,0.383037,1.37611,-0.473324,1.74103,-3.13737,0.0266343,0.357854,-3.13737,0.0266343,0.357854,-0.752437,0.76436,-0.5286,0.451287,0.381032,0.409198,-0.413917,1
1.39959,-0.681786,-2.09316,-0.906969,2.38093,1.51676,-1.19708,1.39959,-0.681786,-2.09316,-0.906969,2.38093,1.51676,-1.19708,1.47374,-0.758134,-2.04055,-0.954017,2.34343,1.47061,-1.15499,-0.767872,0.703,-0.830264,0.670438,0.510732,0.670989,-0.679319,-0.767872,0.703,-0.830264,0.670438,0.510732,0.670989,-0.679319,0.245646,-0.54443,0.864917,0.842085,-0.0427882,0.0569657,0.534618,-0.742141,-0.0466495,0.405865,1.34472,-0.473787,1.74377,-3.13911,-0.0463337,0.273824,-3.13911,-0.0463337,0.273824,-0.741514,0.763475,-0.526086,0.470477,0.375035,0.461577,-0.42089,1
1.39143,-0.67479,-2.10137,-0.903485,2.38979,1.51881,-1.20246,1.39143,-0.67479,-2.10137,-0.903485,2.38979,1.51881,-1.20246,1.4663,-0.751198,-2.04865,-0.947516,2.34891,1.47717,-1.16163,-0.747439,0.682123,-0.815966,0.646841,0.560895,0.65058,-0.658693,-0.747439,0.682123,-0.815966,0.646841,0.560895,0.65058,-0.658693,0.238238,-0.544343,0.868867,0.847877,-0.048795,0.0576048,0.52479,-0.727035,-0.036682,0.393447,1.31356,-0.473368,1.74597,-3.11594,0.0419796,0.220335,-3.11594,0.0419796,0.220335,-0.748747,0.764082,-0.527237,0.440316,0.408735,0.416445,-0.408254,1
1.38416,-0.668182,-2.11056,-0.894934,2.39335,1.52772,-1.20919,1.38416,-0.668182,-2.11056,-0.894934,2.39335,1.52772,-1.20919,1.45843,-0.744529,-2.05722,-0.940842,2.35486,1.48352,-1.1681,-0.796168,0.672308,-0.86243,0.666495,0.60124,0.63065,-0.643988,-0.796168,0.672308,-0.86243,0.666495,0.60124,0.63065,-0.643988,0.230483,-0.544502,0.872664,0.853696,-0.0545536,0.0581088,0.514637,-0.765691,-0.051233,0.388066,1.28226,-0.473486,1.74683,-3.1304,-0.0118852,0.0861168,-3.1304,-0.0118852,0.0861168,-0.742715,0.763473,-0.533391,0.459085,0.384918,0.442052,-0.410886,1
1.37629,-0.660952,-2.11855,-0.891848,2.40219,1.53151,-1.21468,1.37629,-0.660952,-2.11855,-0.891848,2.40219,1.53151,-1.21468,1.45071,-0.737511,-2.06547,-0.934545,2.36099,1.48989,-1.17452,-0.762707,0.706775,-0.813174,0.614938,0.612956,0.646493,-0.641328,-0.762707,0.706775,-0.813174,0.614938,0.612956,0.646493,-0.641328,0.222947,-0.544198,0.876605,0.859173,-0.060449,0.058602,0.504712,-0.728529,0.0031652,0.40159,1.25106,-0.473121,1.74687,-3.1194,0.0365555,0.00334978,-3.1194,0.0365555,0.00334978,-0.744198,0.765598,-0.530791,0.42697,0.41205,0.416258,-0.401598,1
1.36827,-0.654187,-2.12787,-0.88536,2.40719,1.53779,-1.221,1.36827,-0.654187,-2.12787,-0.88536,2.40719,1.53779,-1.221,1.44292,-0.730666,-2.07378,-0.92834,2.3672,1.49654,-1.18095,-0.789277,0.673482,-0.845724,0.623111,0.622198,0.66912,-0.643065,-0.789277,0.673482,-0.845724,0.623111,0.622198,0.66912,-0.643065,0.215369,-0.543805,0.880423,0.864499,-0.0664198,0.059037,0.494717,-0.751787,-0.0075686,0.381959,1.2197,-0.4729,1.74565,-3.13634,0.0220627,-0.121629,-3.13634,0.0220627,-0.121629,-0.746541,0.764795,-0.540881,0.429803,0.399988,0.412452,-0.400501,1
1.35999,-0.647244,-2.13675,-0.884085,2.41616,1.54035,-1.22566,1.35999,-0.647244,-2.13675,-0.884085,2.41616,1.54035,-1.22566,1.43496,-0.72391,-2.08232,-0.921921,2.37356,1.50308,-1.18734,-0.792297,0.685754,-0.84715,0.637601,0.638113,0.651574,-0.637109,-0.792297,0.685754,-0.84715,0.637601,0.638113,0.651574,-0.637109,0.207623,-0.543398,0.884232,0.869768,-0.0723699,0.0594593,0.48449,-0.755973,0.011624,0.394645,1.18879,-0.472357,1.74396,-3.09112,0.0542969,-0.168586,-3.09112,0.0542969,-0.168586,-0.749741,0.766657,-0.544351,0.378362,0.426024,0.372694,-0.383277,1
1.35299,-0.639919,-2.14539,-0.876869,2.42029,1.5483,-1.23277,1.35299,-0.639919,-2.14539,-0.876869,2.42029,1.5483,-1.23277,1.42732,-0.716892,-2.09059,-0.915797,2.37989,1.50966,-1.1937,-0.759878,0.699491,-0.82603,0.597867,0.629723,0.661969,-0.635161,-0.759878,0.699491,-0.82603,0.597867,0.629723,0.661969,-0.635161,0.200197,-0.54254,0.88814,0.874695,-0.0784625,0.0599446,0.474509,-0.722203,0.0483921,0.394412,1.15767,-0.472057,1.74148,-3.11167,0.0300407,-0.247812,-3.11167,0.0300407,-0.247812,-0.743225,0.769732,-0.548008,0.389281,0.404073,0.386346,-0.390675,1
1.34544,-0.633318,-2.15421,-0.871949,2.42737,1.55605,-1.23867,1.34544,-0.633318,-2.15421,-0.871949,2.42737,1.55605,-1.23867,1.41959,-0.710082,-2.09912,-0.909709,2.38626,1.51624,-1.19999,-0.778669,0.674277,-0.861107,0.610942,0.640211,0.654743,-0.626401,-0.778669,0.674277,-0.861107,0.610942,0.640211,0.654743,-0.626401,0.19273,-0.541695,0.891891,0.879506,-0.0844499,0.0604543,0.464417,-0.739815,0.0401497,0.380716,1.09448,-0.471605,1.73281,-3.13632,0.0206709,-0.503731,-3.13632,0.0206709,-0.503731,-0.741422,0.767642,-0.550904,0.377603,0.411116,0.398121,-0.3868,1
1.33778,-0.626486,-2.16294,-0.864721,2.4334,1.56349,-1.24522,1.33778,-0.626486,-2.16294,-0.864721,2.4334,1.56349,-1.24522,1.41183,-0.703235,-2.10767,-0.903607,2.39269,1.5227,-1.20615,-0.771131,0.694302,-0.847229,0.605441,0.644737,0.638481,-0.612787,-0.771131,0.694302,-0.847229,0.605441,0.644737,0.638481,-0.612787,0.185279,-0.540686,0.895672,0.884141,-0.0904423,0.0609964,0.454307,-0.728328,0.0691232,0.393415,1.06303,-0.471526,1.72706,-3.14447,0.00792444,-0.575173,-3.14447,0.00792444,-0.575173,-0.740482,0.767495,-0.552663,0.388859,0.407112,0.407912,-0.390677,1
1.33019,-0.619381,-2.17143,-0.858406,2.43882,1.57004,-1.25164,1.33019,-0.619381,-2.17143,-0.858406,2.43882,1.57004,-1.25164,1.4042,-0.696212,-2.1161,-0.897958,2.39926,1.52885,-1.21219,-0.765211,0.702056,-0.846906,0.549955,0.660402,0.612691,-0.601127,-0.765211,0.702056,-0.846906,0.549955,0.660402,0.612691,-0.601127,0.178105,-0.539426,0.899442,0.88849,-0.0962587,0.0615653,0.444443,-0.706068,0.0861391,0.382306,1.06303,-0.471526,1.72706,-3.14447,0.00792444,-0.575173,-3.14447,0.00792444,-0.575173,-0.74011,0.768311,-0.553307,0.395523,0.395649,0.411858,-0.39454,1
1.3216,-0.612927,-2.18134,-0.851042,2.44212,1.57708,-1.25794,1.3216,-0.612927,-2.18134,-0.851042,2.44212,1.57708,-1.25794,1.3963,-0.68935,-2.12486,-0.892488,2.40586,1.53483,-1.21819,-0.794979,0.67985,-0.879646,0.540009,0.65881,0.602505,-0.600923,-0.794979,0.67985,-0.879646,0.540009,0.65881,0.602505,-0.600923,0.170849,-0.538237,0.90303,0.89279,-0.101827,0.0622381,0.434378,-0.721243,0.078151,0.363759,1.03149,-0.471642,1.72052,-3.15435,-0.0116765,-0.653422,-3.15435,-0.0116765,-0.653422,-0.747081,0.764235,-0.564764,0.414461,0.362604,0.422455,-0.397488,1
1.31319,-0.605991,-2.19025,-0.849806,2.44998,1.57958,-1.26283,1.31319,-0.605991,-2.19025,-0.849806,2.44998,1.57958,-1.26283,1.38849,-0.682413,-2.13348,-0.88713,2.41239,1.54092,-1.22418,-0.772857,0.702823,-0.852502,0.53899,0.649511,0.614561,-0.599653,-0.772857,0.702823,-0.852502,0.53899,0.649511,0.614561,-0.599653,0.163727,-0.536786,0.906645,0.896868,-0.10752,0.0629474,0.424388,-0.700777,0.116176,0.380167,1.0001,-0.471417,1.71274,-3.13905,0.0225604,-0.778699,-3.13905,0.0225604,-0.778699,-0.753055,0.764216,-0.567673,0.373242,0.375871,0.386613,-0.386461,1
1.30472,-0.598918,-2.19954,-0.85255,2.45506,1.58226,-1.26676,1.30472,-0.598918,-2.19954,-0.85255,2.45506,1.58226,-1.26676,1.38069,-0.675343,-2.14217,-0.88179,2.41884,1.54726,-1.23022,-0.790989,0.700474,-0.887783,0.533513,0.639924,0.639979,-0.605849,-0.790989,0.700474,-0.887783,0.533513,0.639924,0.639979,-0.605849,0.156656,-0.535068,0.910301,0.90078,-0.11343,0.0637683,0.414322,-0.709999,0.124261,0.371526,0.968924,-0.470526,1.70346,-3.11753,0.0890374,-0.927913,-3.11753,0.0890374,-0.927913,-0.759745,0.764246,-0.573702,0.292401,0.362159,0.350033,-0.365427,1
1.29683,-0.592259,-2.2098,-0.841542,2.4537,1.59348,-1.27484,1.29683,-0.592259,-2.2098,-0.841542,2.4537,1.59348,-1.27484,1.37273,-0.668512,-2.15108,-0.876464,2.42511,1.5538,-1.23634,-0.787813,0.680593,-0.881839,0.535359,0.620289,0.657691,-0.614465,-0.787813,0.680593,-0.881839,0.535359,0.620289,0.657691,-0.614465,0.149521,-0.533347,0.913787,0.904613,-0.119345,0.0646993,0.404036,-0.705359,0.134274,0.362895,0.937415,-0.470336,1.69339,-3.15091,0.0190645,-1.00625,-3.15091,0.0190645,-1.00625,-0.759019,0.762528,-0.587145,0.349214,0.285894,0.396769,-0.385042,1
1.28976,-0.586084,-2.21842,-0.833272,2.45779,1.60448,-1.28202,1.28976,-0.586084,-2.21842,-0.833272,2.45779,1.60448,-1.28202,1.36518,-0.661527,-2.15966,-0.871028,2.43097,1.56045,-1.24247,-0.750818,0.702056,-0.859549,0.543736,0.576323,0.661957,-0.610822,-0.750818,0.702056,-0.859549,0.543736,0.576323,0.661957,-0.610822,0.142718,-0.531203,0.917417,0.908143,-0.125561,0.0657662,0.393936,-0.673886,0.173378,0.379198,0.905934,-0.47095,1.68222,-3.14815,-0.0614405,-1.11787,-3.14815,-0.0614405,-1.11787,-0.754213,0.754432,-0.587576,0.377558,0.26819,0.440302,-0.395494,1
1.28044,-0.579363,-2.22768,-0.833349,2.46546,1.60578,-1.28595,1.28044,-0.579363,-2.22768,-0.833349,2.46546,1.60578,-1.28595,1.35734,-0.654674,-2.16876,-0.865616,2.43672,1.5668,-1.24849,-0.790773,0.680892,-0.918786,0.535083,0.573581,0.624819,-0.598838,-0.790773,0.680892,-0.918786,0.535083,0.573581,0.624819,-0.598838,0.135816,-0.529149,0.920901,0.911642,-0.131504,0.0670725,0.383558,-0.695026,0.157174,0.35861,0.874917,-0.470855,1.67058,-3.10163,0.00951588,-1.16355,-3.10163,0.00951588,-1.16355,-0.76906,0.753113,-0.589136,0.322665,0.287393,0.389743,-0.374576,1
1.27319,-0.572455,-2.23707,-0.829847,2.46447,1.61064,-1.29172,1.27319,-0.572455,-2.23707,-0.829847,2.46447,1.61064,-1.29172,1.3498,-0.647788,-2.17756,-0.86077,2.44232,1.57271,-1.25433,-0.741543,0.697154,-0.867099,0.475931,0.548175,0.583954,-0.580658,-0.741543,0.697154,-0.867099,0.475931,0.548175,0.583954,-0.580658,0.129368,-0.526935,0.924293,0.914836,-0.137126,0.0684448,0.373614,-0.635341,0.188666,0.357632,0.84388,-0.470751,1.65781,-3.10374,0.010404,-1.27741,-3.10374,0.010404,-1.27741,-0.766151,0.753334,-0.595106,0.309226,0.221515,0.379323,-0.373928,1
1.26443,-0.565987,-2.24713,-0.832751,2.46489,1.61507,-1.29581,1.26443,-0.565987,-2.24713,-0.832751,2.46489,1.61507,-1.29581,1.34199,-0.640712,-2.18663,-0.856005,2.44721,1.57871,-1.26016,-0.803069,0.707065,-0.928421,0.483552,0.471286,0.613794,-0.585212,-0.803069,0.707065,-0.928421,0.483552,0.471286,0.613794,-0.585212,0.122959,-0.524499,0.927686,0.917927,-0.14284,0.0703519,0.363397,-0.664236,0.197303,0.353863,0.813372,-0.470493,1.64438,-3.05082,0.0257671,-1.34249,-3.05082,0.0257671,-1.34249,-0.775629,0.747244,-0.605027,0.232537,0.176832,0.363588,-0.356542,1
1.25645,-0.559392,-2.25736,-0.831099,2.45998,1.62097,-1.30238,1.25645,-0.559392,-2.25736,-0.831099,2.45998,1.62097,-1.30238,1.33387,-0.633656,-2.19585,-0.851169,2.45147,1.58525,-1.26611,-0.797077,0.70522,-0.905795,0.483948,0.41568,0.662509,-0.596681,-0.797077,0.70522,-0.905795,0.483948,0.41568,0.662509,-0.596681,0.11648,-0.521869,0.931023,0.920905,-0.148855,0.0726239,0.35285,-0.64944,0.223153,0.353653,0.782214,-0.470165,1.6296,-3.11574,0.0328541,-1.47855,-3.11574,0.0328541,-1.47855,-0.77421,0.742633,-0.615127,0.200692,0.0851171,0.357197,-0.362636,1
1.24935,-0.553526,-2.26679,-0.838293,2.46351,1.62653,-1.30578,1.24935,-0.553526,-2.26679,-0.838293,2.46351,1.62653,-1.30578,1.32619,-0.626827,-2.20489,-0.846442,2.45544,1.59178,-1.27201,-0.772307,0.674237,-0.918326,0.474311,0.392095,0.644576,-0.586511,-0.772307,0.674237,-0.918326,0.474311,0.392095,0.644576,-0.586511,0.11036,-0.519143,0.934229,0.92361,-0.15482,0.0749272,0.34258,-0.629917,0.218865,0.333889,0.75166,-0.47005,1.61377,-3.05539,0.0114501,-1.58237,-3.05539,0.0114501,-1.58237,-0.768465,0.733006,-0.61899,0.0814884,0.0807791,0.347536,-0.337635,1
1.24206,-0.546466,-2.27597,-0.846424,2.46812,1.63159,-1.30979,1.24206,-0.546466,-2.27597,-0.846424,2.46812,1.63159,-1.30979,1.31817,-0.620024,-2.21441,-0.841999,2.45903,1.59808,-1.27778,-0.800494,0.690344,-0.948335,0.425702,0.341799,0.625484,-0.57304,-0.800494,0.690344,-0.948335,0.425702,0.341799,0.625484,-0.57304,0.104234,-0.516469,0.937267,0.926252,-0.160471,0.0776465,0.33208,-0.62152,0.228248,0.322729,0.720885,-0.469589,1.59762,-3.07753,0.0461668,-1.61499,-3.07753,0.0461668,-1.61499,-0.761078,0.73558,-0.615565,-0.044251,0.090889,0.335087,-0.320025,1
1.23741,-0.539658,-2.28391,-0.852197,2.47396,1.64296,-1.31383,1.23741,-0.539658,-2.28391,-0.852197,2.47396,1.64296,-1.31383,1.31056,-0.612858,-2.22345,-0.83845,2.46163,1.60409,-1.28333,-0.755756,0.716039,-0.900697,0.341847,0.227169,0.5917,-0.54985,-0.755756,0.716039,-0.900697,0.341847,0.227169,0.5917,-0.54985,0.0988958,-0.51344,0.940257,0.92851,-0.165908,0.0808757,0.322183,-0.546715,0.258332,0.314712,0.689483,-0.469382,1.58008,-3.14016,0.0206232,-1.75406,-3.14016,0.0206232,-1.75406,-0.731563,0.732002,-0.6046,-0.137471,0.123274,0.388703,-0.305033,1
1.23072,-0.534095,-2.29292,-0.864836,2.48539,1.65361,-1.31417,1.23072,-0.534095,-2.29292,-0.864836,2.48539,1.65361,-1.31417,1.30246,-0.605946,-2.233,-0.835596,2.46312,1.60987,-1.28877,-0.826848,0.68923,-0.972304,0.250213,0.130833,0.571326,-0.54236,-0.826848,0.68923,-0.972304,0.250213,0.130833,0.571326,-0.54236,0.0936559,-0.510657,0.942828,0.930741,-0.17076,0.0848532,0.31203,-0.556903,0.227476,0.26296,0.658875,-0.46926,1.5613,-3.06086,0.0122368,-1.87829,-3.06086,0.0122368,-1.87829,-0.717368,0.718508,-0.59927,-0.292396,0.222696,0.437398,-0.253997,1
1.22767,-0.527205,-2.30095,-0.862773,2.4931,1.66739,-1.32442,1.22767,-0.527205,-2.30095,-0.862773,2.4931,1.66739,-1.32442,1.29433,-0.598513,-2.24236,-0.834112,2.46415,1.61552,-1.29402,-0.806043,0.758464,-0.922041,0.104673,0.0991743,0.563105,-0.51899,-0.806043,0.758464,-0.922041,0.104673,0.0991743,0.563105,-0.51899,0.0889951,-0.507647,0.945246,0.932696,-0.175239,0.0892624,0.302329,-0.484791,0.266973,0.257567,0.627117,-0.469727,1.54169,-3.1758,-0.0466555,-1.96059,-3.1758,-0.0466555,-1.96059,-0.66659,0.713077,-0.585876,-0.286605,0.289526,0.518661,-0.303975,1
1.22212,-0.52251,-2.31147,-0.870735,2.50628,1.67312,-1.3297,1.22212,-0.52251,-2.31147,-0.870735,2.50628,1.67312,-1.3297,1.28596,-0.591108,-2.25179,-0.834302,2.46538,1.62116,-1.29896,-0.853753,0.731883,-0.956796,-0.0548412,0.136317,0.567168,-0.485301,-0.853753,0.731883,-0.956796,-0.0548412,0.136317,0.567168,-0.485301,0.0846464,-0.504881,0.947146,0.934493,-0.178966,0.0937356,0.293101,-0.481016,0.229632,0.19183,0.595798,-0.469847,1.52139,-3.13188,-0.012061,-2.02994,-3.13188,-0.012061,-2.02994,-0.638378,0.685972,-0.596795,-0.364333,0.408997,0.519566,-0.307335,1
1.2175,-0.515498,-2.32147,-0.880173,2.51807,1.67651,-1.33195,1.2175,-0.515498,-2.32147,-0.880173,2.51807,1.67651,-1.33195,1.27722,-0.583559,-2.26133,-0.835853,2.4674,1.62722,-1.30353,-0.874451,0.769478,-0.943961,-0.194305,0.226325,0.624897,-0.444853,-0.874451,0.769478,-0.943961,-0.194305,0.226325,0.624897,-0.444853,0.0803458,-0.502213,0.948688,0.936135,-0.182321,0.0980296,0.284254,-0.461576,0.241928,0.167683,0.564642,-0.469783,1.50011,-3.11559,0.0064075,-2.12857,-3.11559,0.0064075,-2.12857,-0.597205,0.680616,-0.601357,-0.443199,0.506767,0.492893,-0.284193,1
1.21204,-0.510434,-2.33304,-0.890341,2.5314,1.68105,-1.33818,1.21204,-0.510434,-2.33304,-0.890341,2.5314,1.68105,-1.33818,1.26853,-0.575792,-2.27053,-0.839083,2.47081,1.63418,-1.30766,-0.870891,0.774368,-0.918014,-0.362867,0.379881,0.726418,-0.409727,-0.870891,0.774368,-0.918014,-0.362867,0.379881,0.726418,-0.409727,0.0763071,-0.49951,0.94986,0.937489,-0.185533,0.1017,0.276313,-0.437135,0.237615,0.119847,0.533728,-0.469057,1.47737,-3.09139,0.0725687,-2.27333,-3.09139,0.0725687,-2.27333,-0.56492,0.653582,-0.625039,-0.512573,0.605925,0.468698,-0.30519,1
1.20827,-0.506128,-2.3445,-0.896284,2.53755,1.68612,-1.34501,1.20827,-0.506128,-2.3445,-0.896284,2.53755,1.68612,-1.34501,1.25968,-0.568105,-2.27984,-0.8434,2.47572,1.64211,-1.31196,-0.887694,0.769119,-0.932,-0.451661,0.52939,0.81128,-0.438202,-0.887694,0.769119,-0.932,-0.451661,0.52939,0.81128,-0.438202,0.072143,-0.496945,0.950641,0.938777,-0.188692,0.104683,0.268577,-0.448942,0.228362,0.0873586,0.502239,-0.468955,1.45356,-3.14888,0.0102699,-2.38193,-3.14888,0.0102699,-2.38193,-0.514055,0.619767,-0.646583,-0.528844,0.618289,0.440126,-0.33051,1
1.20692,-0.504219,-2.357,-0.899212,2.54481,1.69572,-1.3469,1.20692,-0.504219,-2.357,-0.899212,2.54481,1.69572,-1.3469,1.25109,-0.560286,-2.28889,-0.8485,2.48233,1.65049,-1.31653,-0.842476,0.779114,-0.893578,-0.536931,0.704364,0.849894,-0.460242,-0.842476,0.779114,-0.893578,-0.536931,0.704364,0.849894,-0.460242,0.0680593,-0.494344,0.951299,0.939974,-0.191855,0.10676,0.261235,-0.421707,0.233604,0.0719822,0.471089,-0.469386,1.42891,-3.11499,-0.0430882,-2.4645,-3.11499,-0.0430882,-2.4645,-0.441683,0.56067,-0.681049,-0.507113,0.624863,0.452314,-0.303683,1
1.19593,-0.503724,-2.3681,-0.90364,2.55823,1.69932,-1.35299,1.19593,-0.503724,-2.3681,-0.90364,2.55823,1.69932,-1.35299,1.24295,-0.552719,-2.29801,-0.854568,2.49063,1.65897,-1.32107,-0.811544,0.746396,-0.927854,-0.619384,0.873029,0.838665,-0.452572,-0.811544,0.746396,-0.927854,-0.619384,0.873029,0.838665,-0.452572,0.0640784,-0.492053,0.951593,0.941149,-0.194563,0.107937,0.254428,-0.419888,0.198353,0.0312222,0.440503,-0.469516,1.40328,-3.05863,-0.0130653,-2.56268,-3.05863,-0.0130653,-2.56268,-0.470183,0.489946,-0.700883,-0.490725,0.675985,0.403552,-0.319283,1
1.18452,-0.501833,-2.3787,-0.910035,2.56931,1.70053,-1.36018,1.18452,-0.501833,-2.3787,-0.910035,2.56931,1.70053,-1.36018,1.23498,-0.545239,-2.3075,-0.861137,2.5005,1.66697,-1.32569,-0.785262,0.755097,-0.949018,-0.673051,1.01953,0.782422,-0.467852,-0.785262,0.755097,-0.949018,-0.673051,1.01953,0.782422,-0.467852,0.0599877,-0.490048,0.951733,0.94244,-0.196734,0.108406,0.247692,-0.414448,0.187007,0.0218905,0.379785,-0.469281,1.3495,-3.029,0.0056237,-2.72894,-3.029,0.0056237,-2.72894,-0.50458,0.434065,-0.711994,-0.488974,0.688074,0.335587,-0.344894,1
1.17923,-0.492569,-2.38809,-0.909035,2.58,1.70836,-1.36553,1.17923,-0.492569,-2.38809,-0.909035,2.58,1.70836,-1.36553,1.22773,-0.537607,-2.3169,-0.868447,2.51115,1.67454,-1.33054,-0.71096,0.759986,-0.948494,-0.750974,1.07397,0.749584,-0.487375,-0.71096,0.759986,-0.948494,-0.750974,1.07397,0.749584,-0.487375,0.0563232,-0.488088,0.951778,0.943702,-0.19852,0.108413,0.241377,-0.368243,0.180114,0.00199678,0.379785,-0.469281,1.3495,-3.029,0.0056237,-2.72894,-3.029,0.0056237,-2.72894,-0.484947,0.450387,-0.711933,-0.405886,0.688477,0.338232,-0.349939,1
1.17367,-0.489291,-2.3991,-0.91488,2.59025,1.72283,-1.37374,1.17367,-0.489291,-2.3991,-0.91488,2.59025,1.72283,-1.37374,1.22057,-0.530486,-2.32724,-0.875837,2.52183,1.6818,-1.33537,-0.715885,0.698497,-1.05519,-0.73047,1.06632,0.717982,-0.482294,-0.715885,0.698497,-1.05519,-0.73047,1.06632,0.717982,-0.482294,0.0524661,-0.486594,0.951481,0.94511,-0.199749,0.108513,0.234719,-0.406368,0.134918,-0.03096,0.349034,-0.469407,1.32123,-3.07516,-0.012514,-2.82643,-3.07516,-0.012514,-2.82643,-0.469002,0.41195,-0.718569,-0.390432,0.68419,0.410285,-0.383736,1
1.16889,-0.497485,-2.41014,-0.932242,2.60343,1.72501,-1.38183,1.16889,-0.497485,-2.41014,-0.932242,2.60343,1.72501,-1.38183,1.21416,-0.523482,-2.33757,-0.882974,2.53239,1.6886,-1.34023,-0.608629,0.700893,-1.0215,-0.716748,1.05252,0.665289,-0.490359,-0.608629,0.700893,-1.0215,-0.716748,1.05252,0.665289,-0.490359,0.0488956,-0.48511,0.951231,0.946459,-0.200871,0.108514,0.228234,-0.350047,0.145836,-0.0199833,0.318961,-0.46901,1.29187,-3.00726,0.0396609,-2.93633,-3.00726,0.0396609,-2.93633,-0.452695,0.259969,-0.725659,-0.492681,0.710369,0.364035,-0.415952,1
1.16109,-0.490699,-2.42155,-0.932916,2.61045,1.74181,-1.38603,1.16109,-0.490699,-2.42155,-0.932916,2.61045,1.74181,-1.38603,1.20823,-0.516949,-2.34834,-0.890141,2.54296,1.69481,-1.34532,-0.600096,0.632884,-1.10364,-0.703242,1.06074,0.605861,-0.515849,-0.600096,0.632884,-1.10364,-0.703242,1.06074,0.605861,-0.515849,0.0453772,-0.483998,0.950758,0.947912,-0.201475,0.108405,0.221628,-0.38038,0.0974599,-0.052461,0.288701,-0.469285,1.26198,-3.02596,-0.0274599,-2.98924,-3.02596,-0.0274599,-2.98924,-0.471355,0.2625,-0.732087,-0.427748,0.674869,0.470009,-0.407122,1
1.16535,-0.528853,-2.43349,-0.95303,2.62241,1.74886,-1.39613,1.16535,-0.528853,-2.43349,-0.95303,2.62241,1.74886,-1.39613,1.20253,-0.510769,-2.35926,-0.896625,2.55357,1.7007,-1.35073,-0.550782,0.619906,-1.0784,-0.626833,1.05773,0.585368,-0.548925,-0.550782,0.619906,-1.0784,-0.626833,1.05773,0.585368,-0.548925,0.0416945,-0.482981,0.950345,0.949414,-0.202093,0.108122,0.214663,-0.372052,0.109784,-0.0302964,0.2581,-0.468914,1.23108,-3.06009,0.0370502,-3.08979,-3.06009,0.0370502,-3.08979,-0.371797,-0.180834,-0.742314,-0.564046,0.688433,0.481667,-0.45399,1
1.15364,-0.555759,-2.44648,-0.964787,2.6257,1.76228,-1.40658,1.15364,-0.555759,-2.44648,-0.964787,2.6257,1.76228,-1.40658,1.1973,-0.50488,-2.36995,-0.902733,2.56418,1.70691,-1.35654,-0.517024,0.571802,-1.07008,-0.611217,1.06575,0.634251,-0.593301,-0.517024,0.571802,-1.07008,-0.611217,1.06575,0.634251,-0.593301,0.0380743,-0.481915,0.949924,0.950836,-0.203025,0.107567,0.207656,-0.373579,0.0983845,-0.0481141,0.227386,-0.468967,1.19879,-3.07148,-0.00531077,-3.22865,-3.07148,-0.00531077,-3.22865,-0.436645,-0.508791,-0.765272,-0.62054,0.615241,0.553666,-0.500432,1
1.14811,-0.562732,-2.45597,-0.978737,2.62911,1.77342,-1.416,1.14811,-0.562732,-2.45597,-0.978737,2.62911,1.77342,-1.416,1.1924,-0.499546,-2.38061,-0.909074,2.57488,1.71348,-1.36277,-0.481647,0.523387,-1.06553,-0.635916,1.07296,0.664989,-0.631686,-0.481647,0.523387,-1.06553,-0.635916,1.07296,0.664989,-0.631686,0.0344533,-0.481099,0.949179,0.952265,-0.20387,0.106704,0.200605,-0.367673,0.0778521,-0.0783337,0.196089,-0.469448,1.1653,-3.12967,-0.0480652,-3.34913,-3.12967,-0.0480652,-3.34913,-0.442924,-0.631857,-0.753625,-0.696626,0.54233,0.599411,-0.532277,1
1.13929,-0.562373,-2.46628,-0.987135,2.6352,1.78198,-1.423,1.13929,-0.562373,-2.46628,-0.987135,2.6352,1.78198,-1.423,1.18761,-0.494878,-2.39131,-0.915558,2.58559,1.72067,-1.36925,-0.477369,0.443562,-1.07002,-0.657224,1.06935,0.737684,-0.655163,-0.477369,0.443562,-1.07002,-0.657224,1.06935,0.737684,-0.655163,0.030678,-0.480551,0.948059,0.953684,-0.204721,0.105607,0.193451,-0.38662,0.0444049,-0.125033,0.165516,-0.469691,1.13127,-3.05729,-0.0243634,-3.40272,-3.05729,-0.0243634,-3.40272,-0.483202,-0.674951,-0.749676,-0.71577,0.496179,0.613124,-0.537541,1
1.12174,-0.562198,-2.47676,-0.996095,2.63751,1.79124,-1.42485,1.12174,-0.562198,-2.47676,-0.996095,2.63751,1.79124,-1.42485,1.18294,-0.490844,-2.40196,-0.922614,2.59614,1.72863,-1.37613,-0.466979,0.389886,-1.0688,-0.716868,1.0492,0.813614,-0.700857,-0.466979,0.389886,-1.0688,-0.716868,1.0492,0.813614,-0.700857,0.0268664,-0.480296,0.946443,0.955092,-0.205486,0.10433,0.186252,-0.388331,0.0203404,-0.172268,0.104003,-0.46883,1.06099,-3.08387,0.0797004,-3.60152,-3.08387,0.0797004,-3.60152,-0.612008,-0.713546,-0.747998,-0.73481,0.413786,0.626133,-0.487144,1
1.11525,-0.559463,-2.48633,-1.00453,2.62857,1.80275,-1.4303,1.11525,-0.559463,-2.48633,-1.00453,2.62857,1.80275,-1.4303,1.17819,-0.487303,-2.41269,-0.930384,2.60619,1.73751,-1.38361,-0.469963,0.344131,-1.06507,-0.799977,0.984889,0.912122,-0.764744,-0.469963,0.344131,-1.06507,-0.799977,0.984889,0.912122,-0.764744,0.0229913,-0.48027,0.94431,0.956494,-0.206208,0.103118,0.178783,-0.386957,0.000291678,-0.22566,0.0728859,-0.468883,1.02365,-3.11173,-0.00529885,-3.73418,-3.11173,-0.00529885,-3.73418,-0.629417,-0.721598,-0.736467,-0.741472,0.223792,0.652459,-0.466922,1
1.10823,-0.557204,-2.49764,-1.01217,2.61277,1.81273,-1.43746,1.10823,-0.557204,-2.49764,-1.01217,2.61277,1.81273,-1.43746,1.17356,-0.484162,-2.42328,-0.939002,2.61505,1.7472,-1.39169,-0.470418,0.299263,-1.06711,-0.877513,0.857476,0.984266,-0.819355,-0.470418,0.299263,-1.06711,-0.877513,0.857476,0.984266,-0.819355,0.0193323,-0.480415,0.941664,0.957833,-0.206842,0.102258,0.171217,-0.378786,-0.0206111,-0.277918,0.0728859,-0.468883,1.02365,-3.11173,-0.00529885,-3.73418,-3.11173,-0.00529885,-3.73418,-0.653261,-0.730415,-0.743641,-0.731649,-0.0228298,0.655302,-0.457709,1
1.09875,-0.557467,-2.50922,-1.02176,2.60413,1.82125,-1.43802,1.09875,-0.557467,-2.50922,-1.02176,2.60413,1.82125,-1.43802,1.16864,-0.481906,-2.434,-0.948939,2.62296,1.75823,-1.40002,-0.495069,0.200959,-1.0693,-1.06185,0.781948,1.1584,-0.831195,-0.495069,0.200959,-1.0693,-1.06185,0.781948,1.1584,-0.831195,0.0155466,-0.481055,0.938091,0.959167,-0.207152,0.101656,0.163562,-0.388789,-0.0751347,-0.393422,0.0429033,-0.468825,0.985735,-2.99827,0.00574589,-3.7917,-2.99827,0.00574589,-3.7917,-0.698855,-0.755608,-0.752243,-0.728169,-0.18831,0.630207,-0.379939,1
1.08089,-0.504311,-2.51877,-0.980097,2.66976,1.73568,-1.42668,1.08089,-0.504311,-2.51877,-0.980097,2.66976,1.73568,-1.42668,1.16328,-0.480818,-2.44483,-0.959548,2.62918,1.76933,-1.40793,-0.546648,0.0971539,-1.07184,-1.0482,0.584357,1.11626,-0.776021,-0.546648,0.0971539,-1.07184,-1.0482,0.584357,1.11626,-0.776021,0.0115444,-0.482373,0.933727,0.96055,-0.20664,0.101677,0.155901,-0.424009,-0.120588,-0.439957,0.0214873,-0.460127,0.977611,-2.14159,0.869799,-0.812382,-2.14159,0.869799,-0.812382,-0.823922,-0.234925,-0.739399,-0.205496,0.405829,-0.336444,-0.187561,1
1.07606,-0.49903,-2.51941,-0.932322,2.69959,1.72636,-1.42417,1.07606,-0.49903,-2.51941,-0.932322,2.69959,1.72636,-1.42417,1.15775,-0.480518,-2.45506,-0.969995,2.6323,1.78041,-1.41525,-0.547585,0.00570464,-0.999689,-1.06407,0.206652,1.10748,-0.720689,-0.547585,0.00570464,-0.999689,-1.06407,0.206652,1.10748,-0.720689,0.00776871,-0.483883,0.929015,0.961747,-0.205893,0.102913,0.148526,-0.390184,-0.149324,-0.489923,0.00727232,-0.442023,0.995011,-1.4215,1.81045,1.73994,-1.4215,1.81045,1.73994,-0.816894,-0.185118,-0.643537,0.376725,0.672913,-0.540506,-0.0892347,1
1.06794,-0.496694,-2.53714,-0.929454,2.69273,1.73604,-1.41159,1.06794,-0.496694,-2.53714,-0.929454,2.69273,1.73604,-1.41159,1.15192,-0.481337,-2.46515,-0.980017,2.63143,1.79128,-1.42206,-0.602378,-0.112475,-1.01705,-0.987525,-0.179499,1.07894,-0.665297,-0.602378,-0.112475,-1.01705,-0.987525,-0.179499,1.07894,-0.665297,0.00410746,-0.485781,0.923827,0.962792,-0.204697,0.105852,0.141163,-0.41947,-0.18758,-0.53045,-0.00727622,-0.424564,1.01218,-1.45485,1.74591,1.71661,-1.45485,1.74591,1.71661,-0.839835,-0.15357,-0.719888,0.505634,0.612998,-0.552457,0.104712,1
1.06222,-0.49812,-2.54686,-0.932952,2.69243,1.74702,-1.42063,1.06222,-0.49812,-2.54686,-0.932952,2.69243,1.74702,-1.42063,1.14581,-0.483365,-2.47514,-0.989241,2.6282,1.80073,-1.42767,-0.612373,-0.227227,-0.986039,-0.880826,-0.320763,0.846479,-0.507197,-0.612373,-0.227227,-0.986039,-0.880826,-0.320763,0.846479,-0.507197,0.000269171,-0.488254,0.918359,0.963818,-0.202558,0.109749,0.13409,-0.443486,-0.239759,-0.539481,-0.0214283,-0.406412,1.02765,-1.41521,1.81516,1.54738,-1.41521,1.81516,1.54738,-0.835846,-0.147552,-0.717251,0.562893,0.642318,-0.537123,0.0704382,1
1.05654,-0.507195,-2.55425,-0.937049,2.69672,1.75474,-1.41983,1.05654,-0.507195,-2.55425,-0.937049,2.69672,1.75474,-1.41983,1.13934,-0.486287,-2.48498,-0.994923,2.62847,1.80375,-1.43072,-0.655086,-0.321677,-0.9759,-0.456323,0.177275,0.0970147,-0.240529,-0.655086,-0.321677,-0.9759,-0.456323,0.177275,0.0970147,-0.240529,-0.00485478,-0.491457,0.914151,0.965371,-0.198411,0.111914,0.127148,-0.589313,-0.30009,-0.394013,-0.035069,-0.388046,1.04231,-1.36407,1.83664,1.46632,-1.36407,1.83664,1.46632,-0.827985,-0.209083,-0.692713,0.578734,0.682478,-0.490169,0.108904,1
1.05146,-0.474178,-2.55605,-0.93739,2.70144,1.74822,-1.42758,1.05146,-0.474178,-2.55605,-0.93739,2.70144,1.74822,-1.42758,1.13321,-0.490902,-2.49417,-0.996303,2.63518,1.79882,-1.43117,-0.591364,-0.512362,-0.905934,-0.00735851,0.83232,-0.675016,0.0220156,-0.591364,-0.512362,-0.905934,-0.00735851,0.83232,-0.675016,0.0220156,-0.0115384,-0.495879,0.911323,0.967729,-0.191717,0.110459,0.120597,-0.710078,-0.402372,-0.276845,-0.0500555,-0.369796,1.05662,-1.49865,1.82498,1.43061,-1.49865,1.82498,1.43061,-0.817555,0.16724,-0.618845,0.589134,0.662608,-0.505929,0.0359124,1
1.04679,-0.464843,-2.56294,-0.937528,2.71507,1.73569,-1.43606,1.04679,-0.464843,-2.56294,-0.937528,2.71507,1.73569,-1.43606,1.12795,-0.497741,-2.50325,-0.992859,2.64693,1.78912,-1.42989,-0.50196,-0.73706,-0.909326,0.457629,1.25866,-1.02175,0.139332,-0.50196,-0.73706,-0.909326,0.457629,1.25866,-1.02175,0.139332,-0.0196902,-0.501226,0.909445,0.9705,-0.184062,0.105956,0.114124,-0.824273,-0.473092,-0.208163,-0.0655237,-0.351525,1.0696,-1.54682,1.82713,1.29837,-1.54682,1.82713,1.29837,-0.811668,0.328978,-0.596851,0.553318,0.681444,-0.534232,-0.0617273,1
1.042,-0.478932,-2.57403,-0.933946,2.72704,1.72517,-1.4327,1.042,-0.478932,-2.57403,-0.933946,2.72704,1.72517,-1.4327,1.12374,-0.505742,-2.51197,-0.985693,2.66015,1.77923,-1.42845,-0.402153,-0.812023,-0.867584,0.799296,1.31322,-0.953309,0.146475,-0.402153,-0.812023,-0.867584,0.799296,1.31322,-0.953309,0.146475,-0.0282937,-0.506369,0.908229,0.973026,-0.177715,0.100255,0.107645,-0.833614,-0.435868,-0.135092,-0.0802883,-0.333529,1.0815,-1.47646,1.7996,1.18979,-1.47646,1.7996,1.18979,-0.817409,0.268097,-0.620608,0.517464,0.66887,-0.540605,-0.0424384,1
1.03706,-0.49744,-2.58523,-0.924816,2.73763,1.71669,-1.42335,1.03706,-0.49744,-2.58523,-0.924816,2.73763,1.71669,-1.42335,1.11947,-0.514035,-2.52088,-0.976496,2.67237,1.7708,-1.42731,-0.440683,-0.837778,-0.895495,0.943505,1.18699,-0.813461,0.0898959,-0.440683,-0.837778,-0.895495,0.943505,1.18699,-0.813461,0.0898959,-0.0371874,-0.510919,0.90731,0.975164,-0.17289,0.0950569,0.100637,-0.872803,-0.39589,-0.117675,-0.0952176,-0.315217,1.09238,-1.49293,1.83114,1.08759,-1.49293,1.83114,1.08759,-0.824094,0.165957,-0.643453,0.516795,0.652579,-0.541094,0.039585,1
1.03197,-0.516187,-2.59552,-0.913296,2.74766,1.70967,-1.41707,1.03197,-0.516187,-2.59552,-0.913296,2.74766,1.70967,-1.41707,1.11459,-0.521891,-2.52941,-0.967071,2.68301,1.76344,-1.42723,-0.5048,-0.760765,-0.836364,0.946262,1.03222,-0.725998,-0.0219317,-0.5048,-0.760765,-0.836364,0.946262,1.03222,-0.725998,-0.0219317,-0.0460319,-0.514821,0.906528,0.977028,-0.168973,0.0906338,0.0930064,-0.860421,-0.327128,-0.0857422,-0.110034,-0.296968,1.10172,-1.48164,1.82494,0.93379,-1.48164,1.82494,0.93379,-0.826229,0.0570346,-0.661161,0.537751,0.646468,-0.537649,0.101644,1
1.0257,-0.51981,-2.60456,-0.901124,2.75626,1.70269,-1.4156,1.0257,-0.51981,-2.60456,-0.901124,2.75626,1.70269,-1.4156,1.10839,-0.528961,-2.53794,-0.95817,2.6928,1.75607,-1.42804,-0.665117,-0.697224,-0.872234,0.855827,0.970765,-0.743735,-0.0903393,-0.665117,-0.697224,-0.872234,0.855827,0.970765,-0.743735,-0.0903393,-0.0551962,-0.518214,0.905876,0.978802,-0.165138,0.0868707,0.0844335,-0.923441,-0.292217,-0.0927618,-0.125401,-0.278636,1.11099,-1.53666,1.83318,0.927663,-1.53666,1.83318,0.927663,-0.826924,0.0915099,-0.666146,0.570469,0.634616,-0.533796,0.124337,1
1.01846,-0.532173,-2.61341,-0.89425,2.76744,1.69683,-1.41719,1.01846,-0.532173,-2.61341,-0.89425,2.76744,1.69683,-1.41719,1.10108,-0.535604,-2.54653,-0.950747,2.70244,1.74834,-1.42849,-0.73839,-0.641088,-0.845113,0.715524,0.963767,-0.782398,-0.0146091,-0.73839,-0.641088,-0.845113,0.715524,0.963767,-0.782398,-0.0146091,-0.0646885,-0.521524,0.904915,0.98057,-0.160601,0.0833582,0.0757659,-0.929927,-0.271018,-0.11199,-0.139733,-0.260491,1.11816,-1.43325,1.81448,0.716674,-1.43325,1.81448,0.716674,-0.826177,0.034307,-0.668794,0.564971,0.649936,-0.515064,0.113074,1
1.01095,-0.532169,-2.62164,-0.886197,2.77659,1.68859,-1.41661,1.01095,-0.532169,-2.62164,-0.886197,2.77659,1.68859,-1.41661,1.0936,-0.541152,-2.55493,-0.944068,2.71212,1.74007,-1.42799,-0.760718,-0.525845,-0.856582,0.650927,0.970727,-0.839204,0.0684795,-0.760718,-0.525845,-0.856582,0.650927,0.970727,-0.839204,0.0684795,-0.0739215,-0.52433,0.904256,0.982182,-0.155953,0.0800885,0.0677047,-0.913953,-0.218271,-0.0768282,-0.154492,-0.242701,1.12464,-1.47594,1.77899,0.647748,-1.47594,1.77899,0.647748,-0.826459,0.0898208,-0.66714,0.578706,0.644746,-0.514769,0.113793,1
1.00262,-0.529909,-2.63129,-0.880171,2.7861,1.67962,-1.41487,1.00262,-0.529909,-2.63129,-0.880171,2.7861,1.67962,-1.41487,1.0854,-0.545603,-2.56429,-0.938323,2.72195,1.7316,-1.42695,-0.832106,-0.409947,-0.953743,0.560034,0.98719,-0.846486,0.114543,-0.832106,-0.409947,-0.953743,0.560034,0.98719,-0.846486,0.114543,-0.0833975,-0.526661,0.903733,0.983701,-0.151089,0.0773143,0.059392,-0.941524,-0.163402,-0.058425,-0.168546,-0.226551,1.13072,-1.40541,1.61509,0.607908,-1.40541,1.61509,0.607908,-0.82782,0.156941,-0.669975,0.581517,0.641504,-0.51982,0.120846,1
0.99472,-0.529361,-2.64083,-0.875907,2.79714,1.6718,-1.41706,0.99472,-0.529361,-2.64083,-0.875907,2.79714,1.6718,-1.41706,1.07735,-0.548406,-2.57365,-0.932984,2.7317,1.72326,-1.42545,-0.794332,-0.240003,-0.930242,0.531608,0.973039,-0.831566,0.158811,-0.794332,-0.240003,-0.930242,0.531608,0.973039,-0.831566,0.158811,-0.0923502,-0.528077,0.90388,0.98497,-0.14684,0.0749691,0.0514873,-0.87153,-0.0749187,0.0207269,-0.18353,-0.208258,1.13591,-1.49833,1.82928,0.519252,-1.49833,1.82928,0.519252,-0.826281,0.190447,-0.671846,0.57077,0.654396,-0.514558,0.0838298,1
0.986472,-0.528772,-2.65109,-0.872527,2.80856,1.66408,-1.41454,0.986472,-0.528772,-2.65109,-0.872527,2.80856,1.66408,-1.41454,1.06901,-0.54993,-2.58365,-0.927431,2.74148,1.71499,-1.42384,-0.852934,-0.127425,-1.02517,0.566637,0.981859,-0.821787,0.161735,-0.852934,-0.127425,-1.02517,0.566637,0.981859,-0.821787,0.161735,-0.101281,-0.528648,0.904682,0.98604,-0.143209,0.0731121,0.0432505,-0.90128,0.00229976,0.0833955,-0.196836,-0.189957,1.13947,-1.33058,1.83003,0.356328,-1.33058,1.83003,0.356328,-0.825418,0.211576,-0.674419,0.549035,0.670795,-0.509078,0.0929984,1
0.97795,-0.525495,-2.66182,-0.86575,2.81779,1.65517,-1.41375,0.97795,-0.525495,-2.66182,-0.86575,2.81779,1.65517,-1.41375,1.06045,-0.550285,-2.59389,-0.921425,2.75136,1.70684,-1.42224,-0.848607,-0.00920367,-1.01365,0.610918,0.986116,-0.817222,0.161759,-0.848607,-0.00920367,-1.01365,0.610918,0.986116,-0.817222,0.161759,-0.110122,-0.528338,0.906211,0.986896,-0.140366,0.0715781,0.0347761,-0.869775,0.0818317,0.162866,-0.211072,-0.171719,1.14263,-1.42366,1.82381,0.315642,-1.42366,1.82381,0.315642,-0.825029,0.247897,-0.679288,0.556745,0.664285,-0.516746,0.0849257,1
0.96941,-0.521249,-2.67255,-0.859408,2.8248,1.6453,-1.41265,0.96941,-0.521249,-2.67255,-0.859408,2.8248,1.6453,-1.41265,1.05185,-0.550222,-2.60419,-0.914954,2.76127,1.69846,-1.42077,-0.871018,0.00457785,-1.04251,0.659681,0.993863,-0.84687,0.133897,-0.871018,0.00457785,-1.04251,0.659681,0.993863,-0.84687,0.133897,-0.118918,-0.52758,0.908126,0.987621,-0.137858,0.0701219,0.0261477,-0.887719,0.112587,0.187071,-0.22716,-0.154008,1.14503,-1.60878,1.7711,0.239825,-1.60878,1.7711,0.239825,-0.824396,0.289731,-0.683552,0.55546,0.635327,-0.531512,0.0812631,1
0.960853,-0.521118,-2.68314,-0.854914,2.83671,1.6373,-1.41132,0.960853,-0.521118,-2.68314,-0.854914,2.83671,1.6373,-1.41132,1.0431,-0.5499,-2.61468,-0.908114,2.77127,1.69002,-1.41962,-0.869795,0.0459465,-1.04585,0.693355,1.00349,-0.842879,0.112805,-0.869795,0.0459465,-1.04585,0.693355,1.00349,-0.842879,0.112805,-0.127775,-0.526425,0.9103,0.98822,-0.13566,0.0687096,0.017214,-0.877218,0.155996,0.221921,-0.241789,-0.135901,1.14615,-1.46289,1.81075,0.112724,-1.46289,1.81075,0.112724,-0.822474,0.28782,-0.684565,0.532002,0.654388,-0.527202,0.0830175,1
0.952477,-0.52195,-2.69408,-0.848529,2.84583,1.62875,-1.40995,0.952477,-0.52195,-2.69408,-0.848529,2.84583,1.62875,-1.40995,1.03466,-0.549015,-2.62499,-0.90111,2.78149,1.68156,-1.41859,-0.832885,0.0998622,-1.02375,0.690503,1.02661,-0.846139,0.100929,-0.832885,0.0998622,-1.02375,0.690503,1.02661,-0.846139,0.100929,-0.136287,-0.524803,0.912853,0.988676,-0.133894,0.0672351,0.00847249,-0.836012,0.192839,0.253453,-0.271485,-0.0998097,1.14511,-1.56685,1.81265,-0.094974,-1.56685,1.81265,-0.094974,-0.82184,0.270651,-0.69092,0.525802,0.64332,-0.528095,0.0863633,1
0.944486,-0.523204,-2.70448,-0.842017,2.85689,1.62028,-1.4072,0.944486,-0.523204,-2.70448,-0.842017,2.84842,1.62028,-1.4072,1.02658,-0.547716,-2.63518,-0.894546,2.79177,1.67312,-1.41758,-0.808821,0.139889,-1.02809,0.649027,1.02408,-0.843299,0.100078,-0.808821,0.139889,-1.02809,0.649027,1.02408,-0.843299,0.100078,-0.144405,-0.522945,0.915496,0.98904,-0.132211,0.065733,6.54058e-05,-0.804638,0.216095,0.261613,-0.286585,-0.0812984,1.1433,-1.51001,1.85113,-0.181425,-1.51001,1.85113,-0.181425,-0.820894,0.245125,-0.69293,0.525297,0.651197,-0.528379,0.103853,1
0.936479,-0.52816,-2.71535,-0.83549,2.86703,1.61171,-1.40455,0.936479,-0.52816,-2.71535,-0.83549,2.84842,1.61171,-1.40455,1.01846,-0.546119,-2.64547,-0.888114,2.8019,1.66479,-1.41663,-0.802853,0.166002,-1.01747,0.641812,1.00452,-0.834179,0.0958956,-0.802853,0.166002,-1.01747,0.641812,1.00452,-0.834179,0.0958956,-0.152384,-0.520786,0.918251,0.989295,-0.130698,0.0643748,-0.00834118,-0.783209,0.24239,0.275049,-0.301024,-0.0634737,1.13961,-1.44383,1.78247,-0.368619,-1.44383,1.78247,-0.368619,-0.819835,0.179591,-0.698797,0.526246,0.651324,-0.53083,0.120802,1
0.928761,-0.534743,-2.72579,-0.827978,2.87614,1.60286,-1.40186,0.928761,-0.534743,-2.72579,-0.827978,2.84842,1.60286,-1.40186,1.01072,-0.544297,-2.6554,-0.88162,2.8118,1.65643,-1.4156,-0.778214,0.178129,-1.00394,0.64953,0.985177,-0.838805,0.104033,-0.778214,0.178129,-1.00394,0.64953,0.985177,-0.838805,0.104033,-0.159946,-0.5184,0.921185,0.98945,-0.129405,0.063048,-0.0163491,-0.75593,0.259666,0.286804,-0.315388,-0.0460307,1.13528,-1.43647,1.74431,-0.432909,-1.43647,1.74431,-0.432909,-0.819592,0.0955397,-0.703878,0.53642,0.643472,-0.535736,0.137449,1
0.920457,-0.551561,-2.73721,-0.81954,2.88419,1.59423,-1.39796,0.920457,-0.551561,-2.73721,-0.81954,2.84842,1.59423,-1.39796,1.00251,-0.542915,-2.66576,-0.87513,2.82162,1.64822,-1.41448,-0.825946,0.127497,-1.03163,0.650033,0.974458,-0.816335,0.120115,-0.825946,0.127497,-1.03163,0.650033,0.974458,-0.816335,0.120115,-0.167897,-0.515984,0.923862,0.989544,-0.127973,0.061788,-0.0246517,-0.79362,0.262546,0.258559,-0.329524,-0.0301731,1.13065,-1.41351,1.58576,-0.463068,-1.41351,1.58576,-0.463068,-0.820485,-0.0864542,-0.714509,0.555902,0.625646,-0.539857,0.165146,1
0.912347,-0.566072,-2.74792,-0.811126,2.89189,1.58642,-1.39387,0.912347,-0.566072,-2.74792,-0.811126,2.84842,1.58642,-1.39387,0.994481,-0.5417,-2.67575,-0.868255,2.83071,1.6401,-1.41309,-0.802038,0.11622,-1.00325,0.706634,0.8778,-0.814297,0.145461,-0.802038,0.11622,-1.00325,0.706634,0.8778,-0.814297,0.145461,-0.175563,-0.513433,0.926606,0.989534,-0.126748,0.060777,-0.0326106,-0.762521,0.277543,0.27481,-0.343959,-0.0124135,1.12522,-1.44355,1.77596,-0.543356,-1.44355,1.77596,-0.543356,-0.82134,-0.243714,-0.721703,0.571297,0.611855,-0.536841,0.192229,1
