Afshin1997/kuka_rl_ros2/src/catch_and_throw/output_files/tm/nn_ema7.00_jvws1_realball_D29H10M15S53/recorded_data.csv
pure_target_joint_0,pure_target_joint_1,pure_target_joint_2,pure_target_joint_3,pure_target_joint_4,pure_target_joint_5,pure_target_joint_6,target_joint_0,target_joint_1,target_joint_2,target_joint_3,target_joint_4,target_joint_5,target_joint_6,pos_joint_0,pos_joint_1,pos_joint_2,pos_joint_3,pos_joint_4,pos_joint_5,pos_joint_6,vel_joint_0,vel_joint_1,vel_joint_2,vel_joint_3,vel_joint_4,vel_joint_5,vel_joint_6,vel_smooth_joint_0,vel_smooth_joint_1,vel_smooth_joint_2,vel_smooth_joint_3,vel_smooth_joint_4,vel_smooth_joint_5,vel_smooth_joint_6,ee_pos_x,ee_pos_y,ee_pos_z,ee_or_w,ee_or_x,ee_or_y,ee_or_z,eep_vel_x,eep_vel_y,eep_vel_z,ee_vel_offset_x,ee_vel_offset_y,ee_vel_offset_z,ball_pos_x,ball_pos_y,ball_pos_z,ball_raw_vx,ball_raw_vy,ball_raw_vz,ball_ema_vx,ball_ema_vy,ball_ema_vz,action_0,action_1,action_2,action_3,action_4,action_5,action_6,command_published
1.83152,-1.05951,-1.7763,-1.06311,2.00825,1.18456,-0.983538,1.83152,-1.05951,-1.7763,-1.06311,2.00825,1.18456,-0.983538,1.78078,-1.07207,-1.81514,-1.11962,1.93718,1.11684,-0.916291,4.79518e-05,-2.39759e-05,0,0,-1.91633e-05,0,2.39541e-05,4.79518e-05,-2.39759e-05,0,0,-1.91633e-05,0,2.39541e-05,0.533552,-0.455648,0.691964,0.572576,0.178286,0.150716,0.785911,2.41093e-05,1.93306e-05,-1.36793e-05,2.44775e-05,2.01204e-05,-1.38954e-05,2.97387,-0.532621,0.364921,-3.27365,0.234145,5.09831,-3.27365,0.10216,5.09831,0.507353,0.125547,0.388436,0.565105,0.710715,0.677194,-0.672474,1
1.82909,-1.05989,-1.78274,-1.06631,2.00962,1.18281,-0.982253,1.82909,-1.05989,-1.78274,-1.06631,2.00962,1.18281,-0.982253,1.78078,-1.07207,-1.81514,-1.11962,1.93718,1.11684,-0.916291,5.99071e-05,0,0,1.1977e-05,0,0,0,5.99071e-05,0,0,1.1977e-05,0,0,0,0.533553,-0.455648,0.691964,0.572576,0.178286,0.150716,0.785911,2.55088e-05,2.64193e-05,2.84379e-06,2.51828e-05,2.75353e-05,2.96843e-06,2.94109,-0.530355,0.415478,-3.27723,0.226551,5.05565,-3.27723,0.15475,5.05565,0.483075,0.12181,0.324023,0.533037,0.724473,0.659678,-0.659624,1
1.82096,-1.06259,-1.79045,-1.07208,2.01066,1.18095,-0.979798,1.82096,-1.06259,-1.79045,-1.07208,2.01066,1.18095,-0.979798,1.78078,-1.07206,-1.81514,-1.11961,1.93718,1.11684,-0.916291,-0.00137815,0.00185751,8.3883e-05,0.00179758,-5.75247e-05,3.5953e-05,-8.3883e-05,-0.00137815,0.00185751,8.3883e-05,0.00179758,-5.75247e-05,3.5953e-05,-8.3883e-05,0.533547,-0.455652,0.691971,0.572583,0.178281,0.150717,0.785907,-0.00103836,-0.000761548,0.00148641,-0.00109128,-0.000734092,0.0015123,2.90778,-0.527938,0.465005,-3.33083,0.241756,4.9527,-3.33083,0.198131,4.9527,0.401807,0.0947335,0.246964,0.475334,0.734856,0.641123,-0.63507,1
1.79823,-1.04687,-1.78135,-1.0625,2.01112,1.17899,-0.982895,1.79823,-1.04687,-1.78135,-1.0625,2.01112,1.17899,-0.982895,1.78082,-1.07172,-1.81447,-1.11932,1.93807,1.11783,-0.917396,0.00605188,0.0532207,0.118186,0.0621727,0.161831,0.175769,-0.196345,0.00605188,0.0532207,0.118186,0.0621727,0.161831,0.175769,-0.196345,0.53325,-0.45556,0.692583,0.573013,0.177479,0.150146,0.785884,-0.0402154,0.00970308,0.0988425,-0.0550718,0.0079779,0.106418,2.87516,-0.525893,0.513074,-3.26242,0.204474,4.80697,-3.26242,0.219816,4.80697,0.174033,0.248479,0.331169,0.568148,0.730425,0.611603,-0.65499,1
1.7196,-1.04014,-1.77247,-1.04655,2.01545,1.18387,-0.996403,1.7196,-1.04014,-1.77247,-1.04655,2.01545,1.18387,-0.996403,1.78076,-1.07138,-1.81187,-1.11701,1.94447,1.12362,-0.924347,-0.00337949,0.00269638,0.284631,0.283157,0.822406,0.717587,-0.869088,-0.00337949,0.00269638,0.284631,0.283157,0.822406,0.717587,-0.869088,0.53143,-0.456423,0.6949,0.576021,0.173918,0.146029,0.785256,-0.164972,-0.105481,0.222564,-0.21943,-0.129176,0.25013,2.84158,-0.523507,0.560086,-3.35846,0.238562,4.70112,-3.35846,0.227778,4.70112,-0.611656,0.312335,0.394077,0.704639,0.709821,0.602449,-0.720556,1
1.70806,-1.03419,-1.75413,-1.03772,2.02681,1.1902,-1.00934,1.70806,-1.03419,-1.75413,-1.03772,2.02681,1.1902,-1.00934,1.78184,-1.0725,-1.80813,-1.11223,1.95779,1.1342,-0.937101,0.157901,-0.145665,0.40453,0.553718,1.48101,1.1533,-1.37909,0.157901,-0.145665,0.40453,0.553718,1.48101,1.1533,-1.37909,0.528651,-0.458629,0.697914,0.581126,0.168494,0.137405,0.784234,-0.202759,-0.196804,0.27563,-0.292128,-0.245988,0.318546,2.80909,-0.521019,0.605874,-3.24905,0.248885,4.57884,-3.24905,0.23043,4.57884,-0.737881,0.383091,0.539917,0.74507,0.690149,0.560037,-0.722339,1
1.70461,-1.03362,-1.74488,-1.02979,2.04148,1.20354,-1.02461,1.70461,-1.03362,-1.74488,-1.02979,2.04148,1.20354,-1.02461,1.78502,-1.07455,-1.80411,-1.10472,1.97499,1.14666,-0.951697,0.368387,-0.206951,0.39903,0.810331,1.75646,1.25154,-1.45316,0.368387,-0.206951,0.39903,0.810331,1.75646,1.25154,-1.45316,0.525871,-0.461504,0.701297,0.586802,0.162425,0.12612,0.783183,-0.168199,-0.230032,0.299302,-0.270802,-0.291047,0.34487,2.77625,-0.518465,0.650736,-3.28314,0.25537,4.48623,-3.28314,0.234185,4.48623,-0.804141,0.409272,0.592369,0.74927,0.664893,0.568768,-0.729104,1
1.70837,-1.027,-1.74105,-1.02037,2.05846,1.2132,-1.03705,1.70837,-1.027,-1.74105,-1.02037,2.05846,1.2132,-1.03705,1.78955,-1.07572,-1.79944,-1.09519,1.9916,1.15832,-0.965102,0.463743,-0.077632,0.491809,0.982468,1.60035,1.12832,-1.30176,0.463743,-0.077632,0.491809,0.982468,1.60035,1.12832,-1.30176,0.523295,-0.463971,0.705696,0.5922,0.155869,0.114858,0.782184,-0.153948,-0.176513,0.425143,-0.259037,-0.228756,0.468021,2.74323,-0.516074,0.694758,-3.30217,0.23911,4.4022,-3.30217,0.238089,4.4022,-0.811843,0.487224,0.583916,0.748251,0.668651,0.548841,-0.719445,1
1.712,-1.02119,-1.73536,-1.00989,2.07173,1.22211,-1.04806,1.712,-1.02119,-1.73536,-1.00989,2.07173,1.22211,-1.04806,1.79374,-1.07575,-1.79381,-1.08472,2.00528,1.16856,-0.977274,0.399641,0.0119959,0.595698,1.07502,1.29078,0.992175,-1.19716,0.399641,0.0119959,0.595698,1.07502,1.29078,0.992175,-1.19716,0.520471,-0.466058,0.71104,0.597664,0.148819,0.10482,0.780809,-0.193328,-0.168072,0.512809,-0.29672,-0.208799,0.551796,2.71062,-0.51375,0.737323,-3.26104,0.23241,4.25648,-3.26104,0.240162,4.25648,-0.81741,0.545672,0.584439,0.748388,0.664543,0.535523,-0.707856,1
1.71468,-1.0157,-1.72891,-0.998199,2.08214,1.22968,-1.05817,1.71468,-1.0157,-1.72891,-0.998199,2.08214,1.22968,-1.05817,1.79713,-1.07532,-1.78683,-1.07319,2.01657,1.1775,-0.989003,0.317842,0.0514016,0.72661,1.16158,1.08576,0.872773,-1.17011,0.317842,0.0514016,0.72661,1.16158,1.08576,0.872773,-1.17011,0.51712,-0.468271,0.717137,0.603538,0.141373,0.095416,0.778878,-0.245767,-0.187326,0.582182,-0.34987,-0.2225,0.618432,2.67786,-0.511221,0.778909,-3.27618,0.252897,4.15861,-3.27618,0.244562,4.15861,-0.824437,0.596238,0.579177,0.74993,0.655663,0.521881,-0.691675,1
1.71718,-1.01223,-1.72286,-0.98631,2.09131,1.23723,-1.06902,1.71718,-1.01223,-1.72286,-0.98631,2.09131,1.23723,-1.06902,1.80005,-1.07462,-1.77911,-1.06161,2.02678,1.18576,-1.001,0.290145,0.0800326,0.78652,1.16253,1.01027,0.821659,-1.2133,0.290145,0.0800326,0.78652,1.16253,1.01027,0.821659,-1.2133,0.513499,-0.470401,0.72348,0.609585,0.133843,0.0863232,0.776556,-0.265883,-0.176519,0.606217,-0.37042,-0.209029,0.639702,2.64464,-0.508567,0.82004,-3.32155,0.265366,4.11305,-3.32155,0.2469,4.11305,-0.828679,0.623867,0.56251,0.753033,0.645321,0.514636,-0.680121,1
1.72033,-1.01005,-1.7131,-0.975507,2.10263,1.24622,-1.08088,1.72033,-1.01005,-1.7131,-0.975507,2.10263,1.24622,-1.08088,1.80285,-1.07338,-1.77079,-1.05018,2.03731,1.19382,-1.01347,0.276651,0.135881,0.83906,1.12289,1.0714,0.799751,-1.25701,0.276651,0.135881,0.83906,1.12289,1.0714,0.799751,-1.25701,0.509651,-0.472313,0.730173,0.615609,0.126204,0.0769983,0.774061,-0.282271,-0.150484,0.636252,-0.389272,-0.183782,0.667461,2.61225,-0.506365,0.859828,-3.23966,0.220162,3.97882,-3.23966,0.245029,3.97882,-0.82518,0.633348,0.57694,0.74678,0.653242,0.523949,-0.674067,1
1.72321,-1.00769,-1.70353,-0.964843,2.11425,1.25601,-1.09321,1.72321,-1.00769,-1.70353,-0.964843,2.11425,1.25601,-1.09321,1.80544,-1.07152,-1.76247,-1.03893,2.04881,1.20205,-1.02621,0.24742,0.210496,0.82843,1.13823,1.17326,0.824751,-1.27508,0.24742,0.210496,0.82843,1.13823,1.17326,0.824751,-1.27508,0.505503,-0.474181,0.73707,0.621606,0.118558,0.0672861,0.771377,-0.320658,-0.157059,0.669797,-0.431838,-0.19174,0.699007,2.58019,-0.504603,0.898233,-3.20582,0.176203,3.84047,-3.20582,0.236371,3.84047,-0.822307,0.638364,0.589435,0.740843,0.654384,0.539605,-0.669997,1
1.72538,-1.00441,-1.69534,-0.954155,2.12554,1.26623,-1.10543,1.72538,-1.00441,-1.69534,-0.954155,2.12554,1.26623,-1.10543,1.80752,-1.06872,-1.75434,-1.02792,2.06102,1.21043,-1.03882,0.200369,0.296988,0.80343,1.09276,1.23283,0.840103,-1.25563,0.200369,0.296988,0.80343,1.09276,1.23283,0.840103,-1.25563,0.500932,-0.475985,0.74427,0.627569,0.110831,0.0574317,0.768489,-0.353131,-0.143682,0.691795,-0.465683,-0.177183,0.718201,2.54819,-0.502418,0.935733,-3.19991,0.21857,3.75001,-3.19991,0.228986,3.75001,-0.821362,0.643102,0.590066,0.73764,0.645132,0.558082,-0.666046,1
1.72705,-0.999838,-1.68832,-0.94326,2.1363,1.27549,-1.11696,1.72705,-0.999838,-1.68832,-0.94326,2.1363,1.27549,-1.11696,1.80928,-1.06506,-1.74652,-1.01696,2.07331,1.21861,-1.05107,0.161791,0.390923,0.777748,1.10332,1.22708,0.814804,-1.21418,0.161791,0.390923,0.777748,1.10332,1.22708,0.814804,-1.21418,0.49609,-0.477646,0.751718,0.633446,0.103087,0.0477675,0.765401,-0.386164,-0.134877,0.728869,-0.498842,-0.164849,0.752353,2.51656,-0.500492,0.972921,-3.16322,0.192571,3.71878,-3.16322,0.219081,3.71878,-0.822249,0.65222,0.582029,0.736956,0.629897,0.568876,-0.658935,1
1.72764,-0.994283,-1.68303,-0.932208,2.14604,1.28411,-1.12811,1.72764,-0.994283,-1.68303,-0.932208,2.14604,1.28411,-1.12811,1.81031,-1.06081,-1.73893,-1.00622,2.08525,1.22674,-1.06307,0.0849703,0.436153,0.756139,1.06665,1.1852,0.810957,-1.19558,0.0849703,0.436153,0.756139,1.06665,1.1852,0.810957,-1.19558,0.490847,-0.479302,0.759252,0.639378,0.0952936,0.0383816,0.761999,-0.424881,-0.13847,0.730326,-0.536591,-0.165098,0.750776,2.48416,-0.498012,1.00922,-3.23987,0.248006,3.6298,-3.23987,0.213301,3.6298,-0.826733,0.665253,0.559011,0.74013,0.607885,0.57364,-0.650451,1
1.72772,-0.988315,-1.67503,-0.922088,2.15665,1.2923,-1.13914,1.72772,-0.988315,-1.67503,-0.922088,2.15665,1.2923,-1.13914,1.81035,-1.05595,-1.73107,-0.995545,2.09681,1.23502,-1.07496,-0.0280318,0.50208,0.801285,1.06014,1.14998,0.833188,-1.1895,-0.0280318,0.50208,0.801285,1.06014,1.14998,0.833188,-1.1895,0.484939,-0.481023,0.767085,0.645497,0.0871756,0.0290735,0.758214,-0.498205,-0.148997,0.77117,-0.613712,-0.171778,0.789525,2.45217,-0.495689,1.04409,-3.19848,0.23227,3.48669,-3.19848,0.212328,3.48669,-0.826307,0.676328,0.560461,0.734577,0.598486,0.572861,-0.641811,1
1.72639,-0.982085,-1.66766,-0.912083,2.166,1.3006,-1.15018,1.72639,-0.982085,-1.66766,-0.912083,2.166,1.3006,-1.15018,1.80918,-1.05067,-1.72275,-0.985201,2.10812,1.24368,-1.08689,-0.144977,0.534773,0.841433,1.03601,1.12608,0.88278,-1.19254,-0.144977,0.534773,0.841433,1.03601,1.12608,0.88278,-1.19254,0.478278,-0.482847,0.77511,0.651768,0.0787113,0.0196649,0.754067,-0.570327,-0.166433,0.787319,-0.689945,-0.186489,0.803332,2.41983,-0.492972,1.07776,-3.23491,0.271696,3.36769,-3.23491,0.222906,3.36769,-0.827906,0.685886,0.550948,0.731179,0.578765,0.569195,-0.632946,1
1.72377,-0.976249,-1.6596,-0.902256,2.17497,1.30793,-1.16176,1.72377,-0.976249,-1.6596,-0.902256,2.17497,1.30793,-1.16176,1.80672,-1.04518,-1.7142,-0.974793,2.11925,1.25273,-1.09882,-0.280809,0.550449,0.854317,1.02879,1.10639,0.911471,-1.19427,-0.280809,0.550449,0.854317,1.02879,1.10639,0.911471,-1.19427,0.47076,-0.485048,0.783214,0.658366,0.0699603,0.010083,0.749372,-0.649392,-0.207723,0.787637,-0.771558,-0.225916,0.800799,2.38838,-0.491027,1.11147,-3.14462,0.19455,3.37108,-3.14462,0.230084,3.37108,-0.829518,0.689285,0.545962,0.725377,0.55717,0.552013,-0.629362,1
1.71979,-0.969842,-1.65515,-0.891707,2.18195,1.31774,-1.1727,1.71979,-0.969842,-1.65515,-0.891707,2.18195,1.31774,-1.1727,1.8032,-1.03943,-1.70571,-0.964678,2.13011,1.26189,-1.11069,-0.373282,0.590298,0.853322,1.01427,1.07608,0.917847,-1.18314,-0.373282,0.590298,0.853322,1.01427,1.07608,0.917847,-1.18314,0.462673,-0.487397,0.791241,0.665097,0.0611531,0.000615765,0.744248,-0.703855,-0.216388,0.795792,-0.826757,-0.230804,0.805997,2.35544,-0.489092,1.14391,-3.29401,0.193471,3.2438,-3.29401,0.228382,3.2438,-0.83406,0.695859,0.505568,0.729706,0.518457,0.558523,-0.620122,1
1.71524,-0.962662,-1.64473,-0.882597,2.19206,1.32579,-1.18385,1.71524,-0.962662,-1.64473,-0.882597,2.19206,1.32579,-1.18385,1.79855,-1.03295,-1.69702,-0.954564,2.14069,1.27115,-1.12242,-0.500198,0.657039,0.866037,0.99867,1.04846,0.926823,-1.16846,-0.500198,0.657039,0.866037,0.99867,1.04846,0.926823,-1.16846,0.458335,-0.488555,0.795426,0.668534,0.0565695,-0.00409611,0.741516,-0.779106,-0.224317,0.822752,-0.903468,-0.234854,0.831701,2.32329,-0.486833,1.17505,-3.21445,0.225922,3.11422,-3.21445,0.226713,3.11422,-0.833005,0.702921,0.522981,0.71967,0.513658,0.546348,-0.614338,1
1.70924,-0.955507,-1.63602,-0.873852,2.20079,1.33355,-1.19529,1.70924,-0.955507,-1.63602,-0.873852,2.20079,1.33355,-1.19529,1.79281,-1.02638,-1.68858,-0.944774,2.15092,1.28027,-1.13394,-0.594967,0.657248,0.842628,0.984074,1.01292,0.909546,-1.14936,-0.594967,0.657248,0.842628,0.984074,1.01292,0.909546,-1.14936,0.444503,-0.492264,0.807725,0.679014,0.0429156,-0.017839,0.732653,-0.825606,-0.247634,0.801443,-0.948312,-0.254303,0.805642,2.29094,-0.484455,1.20471,-3.23532,0.237739,2.96544,-3.23532,0.222366,2.96544,-0.835741,0.708696,0.525569,0.709225,0.498706,0.532824,-0.613497,1
1.70219,-0.948111,-1.62773,-0.864349,2.20964,1.33972,-1.2059,1.70219,-0.948111,-1.62773,-0.864349,2.20964,1.33972,-1.2059,1.78614,-1.01978,-1.68028,-0.934669,2.16082,1.2892,-1.14535,-0.685842,0.660879,0.819858,1.00674,0.976663,0.884559,-1.13622,-0.685842,0.660879,0.819858,1.00674,0.976663,0.884559,-1.13622,0.434598,-0.495098,0.815738,0.686253,0.0338868,-0.0268545,0.726077,-0.862315,-0.271346,0.801311,-0.985681,-0.275692,0.802468,2.25861,-0.481871,1.23351,-3.23272,0.258487,2.87977,-3.23272,0.22387,2.87977,-0.839518,0.716667,0.525484,0.703201,0.48824,0.505168,-0.605512,1
1.69513,-0.940935,-1.6197,-0.855159,2.2182,1.3449,-1.2167,1.69513,-0.940935,-1.6197,-0.855159,2.2182,1.3449,-1.2167,1.77923,-1.01304,-1.67223,-0.924604,2.17025,1.29785,-1.15666,-0.689461,0.677285,0.808222,1.0136,0.93168,0.868501,-1.13049,-0.689461,0.677285,0.808222,1.0136,0.93168,0.868501,-1.13049,0.424582,-0.497753,0.823608,0.693409,0.024947,-0.0355358,0.719235,-0.888188,-0.253956,0.785801,-1.00829,-0.253375,0.784236,2.22643,-0.47933,1.26135,-3.21875,0.254053,2.78395,-3.21875,0.228127,2.78395,-0.841073,0.721065,0.525309,0.694446,0.479484,0.470451,-0.600419,1
1.68737,-0.9337,-1.61243,-0.845809,2.22572,1.34928,-1.22702,1.68737,-0.9337,-1.61243,-0.845809,2.22572,1.34928,-1.22702,1.77175,-1.0063,-1.66427,-0.914227,2.17932,1.30664,-1.16789,-0.774115,0.662688,0.786327,1.03756,0.900963,0.875571,-1.12073,-0.774115,0.662688,0.786327,1.03756,0.900963,0.875571,-1.12073,0.414109,-0.500494,0.831374,0.700665,0.0158545,-0.0441806,0.711945,-0.941384,-0.284124,0.764542,-1.06135,-0.280591,0.760104,2.19411,-0.47718,1.2882,-3.23124,0.214979,2.68551,-3.23124,0.235807,2.68551,-0.843811,0.726036,0.51833,0.684179,0.464016,0.426404,-0.591291,1
1.67916,-0.92674,-1.6056,-0.837891,2.23283,1.35092,-1.23781,1.67916,-0.92674,-1.6056,-0.837891,2.23283,1.35092,-1.23781,1.76365,-0.999828,-1.65634,-0.903712,2.18826,1.31533,-1.1791,-0.814933,0.652958,0.806088,1.06008,0.892776,0.864127,-1.12007,-0.814933,0.652958,0.806088,1.06008,0.892776,0.864127,-1.12007,0.403251,-0.50344,0.838856,0.707956,0.00689612,-0.0528862,0.704239,-0.976383,-0.289132,0.756233,-1.09704,-0.283905,0.748768,2.1619,-0.474695,1.31404,-3.22187,0.248533,2.5844,-3.22187,0.241507,2.5844,-0.844983,0.730873,0.507458,0.658207,0.445678,0.35591,-0.587128,1
1.67065,-0.91939,-1.59791,-0.831014,2.23954,1.34709,-1.24818,1.67065,-0.91939,-1.59791,-0.831014,2.23954,1.34709,-1.24818,1.75523,-0.993095,-1.64803,-0.893169,2.19712,1.3238,-1.19025,-0.857655,0.671053,0.826281,1.04598,0.883879,0.838421,-1.1133,-0.857655,0.671053,0.826281,1.04598,0.883879,0.838421,-1.1133,0.392092,-0.506128,0.846436,0.715033,-0.00215522,-0.0616256,0.696366,-1.00298,-0.271127,0.756672,-1.12279,-0.263174,0.746334,2.12978,-0.472475,1.33881,-3.21178,0.221968,2.47678,-3.21178,0.240301,2.47678,-0.845747,0.737045,0.501144,0.621553,0.424221,0.232886,-0.579288,1
1.66156,-0.911955,-1.58978,-0.824988,2.24702,1.32799,-1.25749,1.66156,-0.911955,-1.58978,-0.824988,2.24702,1.32799,-1.25749,1.74632,-0.986587,-1.6398,-0.882468,2.20599,1.33178,-1.20131,-0.894518,0.647517,0.832777,1.07787,0.88409,0.780706,-1.10369,-0.894518,0.647517,0.832777,1.07787,0.88409,0.780706,-1.10369,0.380666,-0.508978,0.853745,0.722057,-0.0108888,-0.0703794,0.688158,-1.03128,-0.286336,0.738497,-1.14941,-0.278229,0.725244,2.09795,-0.470196,1.36277,-3.1827,0.227886,2.39576,-3.1827,0.236439,2.39576,-0.847618,0.746318,0.500239,0.574797,0.410268,-0.0379321,-0.561765,1
1.65256,-0.903419,-1.57784,-0.821424,2.25786,1.30042,-1.26349,1.65256,-0.903419,-1.57784,-0.821424,2.25786,1.30042,-1.26349,1.73743,-0.979973,-1.63135,-0.872116,2.21467,1.33901,-1.21223,-0.888526,0.667626,0.838661,1.02738,0.859221,0.699431,-1.08815,-0.888526,0.667626,0.838661,1.02738,0.859221,0.699431,-1.08815,0.369369,-0.511437,0.860968,0.728651,-0.0192977,-0.0789128,0.68005,-1.01334,-0.240645,0.731317,-1.12609,-0.230482,0.715994,2.06638,-0.468134,1.38559,-3.15719,0.206196,2.28232,-3.15719,0.229217,2.28232,-0.848771,0.765541,0.535092,0.506918,0.431923,-0.385903,-0.512662,1
1.64337,-0.894908,-1.56564,-0.814921,2.26887,1.288,-1.26479,1.64337,-0.894908,-1.56564,-0.814921,2.26887,1.288,-1.26479,1.72832,-0.973073,-1.62321,-0.861506,2.22308,1.34507,-1.22303,-0.91857,0.695704,0.812009,1.06956,0.834754,0.573444,-1.07738,-0.91857,0.695704,0.812009,1.06956,0.834754,0.573444,-1.07738,0.35802,-0.513761,0.868202,0.735202,-0.0273036,-0.0869995,0.671687,-1.03223,-0.236495,0.738356,-1.13938,-0.224009,0.721395,2.03491,-0.46663,1.40729,-3.14691,0.15049,2.16988,-3.14691,0.216756,2.16988,-0.849478,0.781651,0.575693,0.465852,0.457825,-0.570696,-0.417598,1
1.63426,-0.887492,-1.55792,-0.801961,2.27595,1.28363,-1.26603,1.63426,-0.887492,-1.55792,-0.801961,2.27595,1.28363,-1.26603,1.71941,-0.966144,-1.61497,-0.851539,2.2311,1.34868,-1.23372,-0.876878,0.688694,0.822327,0.975949,0.79236,0.269195,-1.06558,-0.876878,0.688694,0.822327,0.975949,0.79236,0.269195,-1.06558,0.347316,-0.515708,0.875295,0.74127,-0.0341141,-0.0943633,0.663664,-0.953584,-0.190395,0.716083,-1.04437,-0.182013,0.699565,2.00328,-0.464455,1.42826,-3.16339,0.217485,2.09709,-3.16339,0.209459,2.09709,-0.851498,0.78652,0.570515,0.495778,0.448442,-0.650464,-0.3231,1
1.6249,-0.880817,-1.55534,-0.788676,2.27271,1.27889,-1.26244,1.6249,-0.880817,-1.55534,-0.788676,2.27271,1.27889,-1.26244,1.71028,-0.959205,-1.60706,-0.841686,2.23877,1.34815,-1.24412,-0.931369,0.702092,0.78701,0.996609,0.767471,-0.154221,-1.02748,-0.931369,0.702092,0.78701,0.996609,0.767471,-0.154221,-1.02748,0.337171,-0.517797,0.8823,0.747205,-0.0389999,-0.100661,0.655768,-0.942823,-0.215124,0.718438,-1.0151,-0.211703,0.703779,1.97158,-0.462208,1.44858,-3.16988,0.22462,2.03146,-3.16988,0.203812,2.03146,-0.85372,0.783872,0.517178,0.530099,0.33938,-0.692595,-0.18323,1
1.61605,-0.873673,-1.54595,-0.777383,2.27829,1.27263,-1.26248,1.61605,-0.873673,-1.54595,-0.777383,2.27829,1.27263,-1.26248,1.70112,-0.951965,-1.59868,-0.832772,2.2466,1.34315,-1.25378,-0.902895,0.727114,0.856361,0.854815,0.794546,-0.623345,-0.937145,-0.902895,0.727114,0.856361,0.854815,0.794546,-0.623345,-0.937145,0.327856,-0.519606,0.889448,0.752373,-0.0418375,-0.106059,0.648796,-0.848047,-0.158426,0.725672,-0.899955,-0.165883,0.713702,1.93999,-0.459609,1.46782,-3.15895,0.259992,1.92466,-3.15895,0.208056,1.92466,-0.850742,0.782915,0.527295,0.553889,0.316988,-0.70525,-0.0870053,1
1.6066,-0.866722,-1.5411,-0.768926,2.28585,1.26321,-1.26436,1.6066,-0.866722,-1.5411,-0.768926,2.28585,1.26321,-1.26436,1.69164,-0.944938,-1.58986,-0.824425,2.25498,1.3337,-1.26184,-0.973324,0.691977,0.886057,0.851795,0.854791,-1.0366,-0.755924,-0.973324,0.691977,0.886057,0.851795,0.854791,-1.0366,-0.755924,0.319101,-0.521695,0.89651,0.756688,-0.0424965,-0.110901,0.642898,-0.847224,-0.208005,0.712481,-0.884573,-0.227381,0.70237,1.90849,-0.457223,1.4858,-3.14946,0.238574,1.79774,-3.14946,0.215691,1.79774,-0.850353,0.782162,0.48764,0.554988,0.30872,-0.704866,-0.0252075,1
1.5966,-0.859657,-1.53688,-0.760645,2.29572,1.25163,-1.25934,1.5966,-0.859657,-1.53688,-0.760645,2.29572,1.25163,-1.25934,1.68184,-0.93786,-1.58064,-0.816348,2.26362,1.3216,-1.26766,-0.965377,0.718856,0.934996,0.792081,0.855714,-1.25796,-0.516797,-0.965377,0.718856,0.934996,0.792081,0.855714,-1.25796,-0.516797,0.310546,-0.523811,0.903639,0.760055,-0.0420783,-0.115355,0.638153,-0.811084,-0.165959,0.72607,-0.839634,-0.189537,0.717303,1.87739,-0.455001,1.50323,-3.11054,0.222144,1.74319,-3.11054,0.22521,1.74319,-0.852452,0.782035,0.437584,0.557024,0.321032,-0.69968,0.083258,1
1.58693,-0.852113,-1.53619,-0.753019,2.30078,1.23998,-1.25523,1.58693,-0.852113,-1.53619,-0.753019,2.30078,1.23998,-1.25523,1.6722,-0.930751,-1.57163,-0.808128,2.27101,1.3088,-1.27083,-0.971765,0.703923,0.884182,0.850266,0.700069,-1.27111,-0.256001,-0.971765,0.703923,0.884182,0.850266,0.700069,-1.27111,-0.256001,0.302198,-0.525626,0.910752,0.762652,-0.0417126,-0.119015,0.634396,-0.821768,-0.164734,0.713418,-0.8468,-0.181924,0.705805,1.84588,-0.453077,1.52001,-3.15076,0.192389,1.67805,-3.15076,0.23053,1.67805,-0.852704,0.786378,0.354401,0.551086,0.297738,-0.688227,0.155996,1
1.57769,-0.84443,-1.53825,-0.748826,2.30084,1.22901,-1.2499,1.57769,-0.84443,-1.53825,-0.748826,2.30084,1.22901,-1.2499,1.66278,-0.92359,-1.56302,-0.799246,2.27697,1.29641,-1.27207,-0.922065,0.724968,0.851992,0.878753,0.564653,-1.21455,-0.0889012,-0.922065,0.724968,0.851992,0.878753,0.564653,-1.21455,-0.0889012,0.293781,-0.527144,0.917878,0.764898,-0.0419771,-0.122092,0.631081,-0.806051,-0.11548,0.718153,-0.830421,-0.125052,0.711219,1.8135,-0.450909,1.53537,-3.23808,0.216863,1.53573,-3.23808,0.226809,1.53573,-0.850928,0.7916,0.247676,0.504197,0.238716,-0.673994,0.221754,1
1.56906,-0.836415,-1.5451,-0.750718,2.29808,1.21906,-1.2403,1.56906,-0.836415,-1.5451,-0.750718,2.29808,1.21906,-1.2403,1.65381,-0.916144,-1.55518,-0.79012,2.28223,1.28452,-1.27198,-0.898635,0.749728,0.761029,0.932695,0.523139,-1.18588,0.0455772,-0.898635,0.749728,0.761029,0.932695,0.523139,-1.18588,0.0455772,0.285542,-0.52822,0.924987,0.766827,-0.0426721,-0.12465,0.628187,-0.808154,-0.0986291,0.715556,-0.831533,-0.103758,0.709143,1.78141,-0.449374,1.54934,-3.20926,0.153512,1.39691,-3.20926,0.21446,1.39691,-0.847546,0.797286,0.100808,0.394015,0.158505,-0.654577,0.316852,1
1.56099,-0.828396,-1.55624,-0.760718,2.29374,1.21007,-1.23098,1.56099,-0.828396,-1.55624,-0.760718,2.29374,1.21007,-1.23098,1.64506,-0.908466,-1.54799,-0.78049,2.28771,1.27299,-1.27088,-0.860345,0.76991,0.70626,0.944668,0.553838,-1.13801,0.133016,-0.860345,0.76991,0.70626,0.944668,0.553838,-1.13801,0.133016,0.2772,-0.529134,0.932092,0.768507,-0.0436446,-0.127197,0.62555,-0.797603,-0.0708342,0.709491,-0.822062,-0.074878,0.702757,1.75038,-0.446749,1.56246,-3.1026,0.262427,1.31183,-3.1026,0.208457,1.31183,-0.840699,0.800694,-0.0825144,0.197721,0.0603355,-0.629267,0.399081,1
1.55265,-0.820885,-1.5588,-0.785032,2.28853,1.20208,-1.2218,1.55265,-0.820885,-1.5588,-0.785032,2.28853,1.20208,-1.2218,1.63657,-0.900803,-1.54213,-0.771237,2.29338,1.26148,-1.26876,-0.86062,0.769155,0.529153,0.933774,0.562812,-1.1535,0.2447,-0.86062,0.769155,0.529153,0.933774,0.562812,-1.1535,0.2447,0.269277,-0.529943,0.93882,0.769922,-0.0443251,-0.129286,0.62333,-0.776727,-0.0804321,0.667763,-0.794786,-0.0834579,0.6627,1.71846,-0.444405,1.57444,-3.19256,0.234458,1.19799,-3.19256,0.209505,1.19799,-0.839225,0.799179,-0.166644,-0.137953,-0.0484386,-0.59399,0.469649,1
1.54483,-0.813027,-1.53671,-0.804581,2.28431,1.19546,-1.21373,1.54483,-0.813027,-1.53671,-0.804581,2.28431,1.19546,-1.21373,1.62788,-0.892774,-1.53833,-0.761822,2.29841,1.25021,-1.26528,-0.861136,0.812419,0.324361,0.911758,0.469486,-1.11817,0.388167,-0.861136,0.812419,0.324361,0.911758,0.469486,-1.11817,0.388167,0.26144,-0.530629,0.945361,0.771535,-0.0451373,-0.130375,0.621046,-0.750037,-0.0532672,0.646287,-0.760561,-0.0481299,0.643965,1.68692,-0.442547,1.58572,-3.15394,0.185785,1.12842,-3.15394,0.210241,1.12842,-0.830519,0.797467,0.0161963,-0.427583,-0.141044,-0.547426,0.515478,1
1.53661,-0.805611,-1.51121,-0.807705,2.28296,1.18976,-1.2092,1.53661,-0.805611,-1.51121,-0.807705,2.28296,1.18976,-1.2092,1.61955,-0.8844,-1.5372,-0.754506,2.30158,1.23915,-1.26008,-0.837239,0.842248,0.0309201,0.663463,0.25574,-1.10219,0.564267,-0.837239,0.842248,0.0309201,0.663463,0.25574,-1.10219,0.564267,0.255069,-0.530497,0.951347,0.772985,-0.0456163,-0.129201,0.619452,-0.607634,0.017739,0.573766,-0.597166,0.0333484,0.578005,1.6552,-0.440605,1.59599,-3.17109,0.194231,1.0265,-3.17109,0.21111,1.0265,-0.829444,0.787888,0.259889,-0.531995,-0.186206,-0.493854,0.50879,1
1.52745,-0.797351,-1.506,-0.803581,2.27877,1.1853,-1.20231,1.52745,-0.797351,-1.506,-0.803581,2.27877,1.1853,-1.20231,1.61038,-0.875452,-1.53885,-0.749698,2.30245,1.22855,-1.25322,-0.941983,0.921754,-0.206242,0.412232,0.0346113,-1.04956,0.724944,-0.941983,0.921754,-0.206242,0.412232,0.0346113,-1.04956,0.724944,0.249731,-0.529611,0.956847,0.774709,-0.0459438,-0.125398,0.618053,-0.538956,0.0907035,0.538009,-0.510716,0.120657,0.547966,1.62358,-0.43839,1.60493,-3.16216,0.221461,0.893784,-3.16216,0.211774,0.893784,-0.829264,0.781012,0.328478,-0.538826,-0.236751,-0.432538,0.509044,1
1.51673,-0.788817,-1.50646,-0.797072,2.27624,1.18409,-1.19314,1.51673,-0.788817,-1.50646,-0.797072,2.27624,1.18409,-1.19314,1.60034,-0.866042,-1.54129,-0.748961,2.30139,1.21874,-1.24506,-1.03495,0.935428,-0.243082,-0.047207,-0.153766,-0.961506,0.843626,-1.03495,0.935428,-0.243082,-0.047207,-0.153766,-0.961506,0.843626,0.245744,-0.527518,0.961894,0.776002,-0.0460965,-0.119475,0.617594,-0.4066,0.196785,0.468911,-0.361723,0.234146,0.483093,1.59249,-0.43609,1.61287,-3.10938,0.229979,0.794709,-3.10938,0.215604,0.794709,-0.836051,0.772259,0.348273,-0.481115,-0.251507,-0.346491,0.519189,1
1.50453,-0.780333,-1.50557,-0.794957,2.27529,1.18225,-1.18557,1.50453,-0.780333,-1.50557,-0.794957,2.27529,1.18225,-1.18557,1.58844,-0.856781,-1.54211,-0.752173,2.29867,1.20979,-1.23614,-1.2328,0.9259,-0.00164187,-0.409643,-0.300073,-0.87487,0.901655,-1.2328,0.9259,-0.00164187,-0.409643,-0.300073,-0.87487,0.901655,0.242262,-0.524588,0.966545,0.776738,-0.0462632,-0.112505,0.617964,-0.389452,0.278391,0.447899,-0.340593,0.31997,0.462456,1.56135,-0.434015,1.62045,-3.1141,0.207552,0.757873,-3.1141,0.210678,0.757873,-0.839112,0.764472,0.365452,-0.427839,-0.233797,-0.275399,0.50566,1
1.49221,-0.771869,-1.49693,-0.806869,2.27782,1.17635,-1.17687,1.49221,-0.771869,-1.49693,-0.806869,2.27782,1.17635,-1.17687,1.57535,-0.848296,-1.53937,-0.758776,2.29511,1.20184,-1.22731,-1.33841,0.809399,0.353244,-0.718952,-0.371118,-0.777196,0.875266,-1.33841,0.809399,0.353244,-0.718952,-0.371118,-0.777196,0.875266,0.23912,-0.520975,0.97083,0.776497,-0.0465381,-0.10579,0.619432,-0.356259,0.322787,0.395986,-0.310278,0.360217,0.408733,1.53004,-0.432769,1.62665,-3.13083,0.124612,0.619709,-3.13083,0.201741,0.619709,-0.831341,0.764269,0.424378,-0.480934,-0.17293,-0.254878,0.504341,1
1.4795,-0.764769,-1.48451,-0.819603,2.28206,1.17079,-1.16708,1.4795,-0.764769,-1.48451,-0.819603,2.28206,1.17079,-1.16708,1.56154,-0.841183,-1.53354,-0.76668,2.29106,1.19459,-1.21878,-1.37812,0.694758,0.660579,-0.802973,-0.419994,-0.70492,0.847553,-1.37812,0.694758,0.660579,-0.802973,-0.419994,-0.70492,0.847553,0.23581,-0.517461,0.974666,0.77568,-0.0468824,-0.0999567,0.621395,-0.367973,0.33109,0.373313,-0.330009,0.36464,0.383385,1.49903,-0.431075,1.63187,-3.10137,0.169319,0.521743,-3.10137,0.194507,0.521743,-0.820386,0.764141,0.490294,-0.529231,-0.0899725,-0.237987,0.517007,1
1.46649,-0.75882,-1.47218,-0.82672,2.28639,1.17352,-1.15815,1.46649,-0.75882,-1.47218,-0.82672,2.28639,1.17352,-1.15815,1.54812,-0.834621,-1.52601,-0.774005,2.28663,1.18834,-1.21033,-1.3177,0.6395,0.763953,-0.695381,-0.44124,-0.587789,0.845588,-1.3177,0.6395,0.763953,-0.695381,-0.44124,-0.587789,0.845588,0.232252,-0.513801,0.978531,0.774535,-0.0479018,-0.0948971,0.623534,-0.388218,0.329329,0.374247,-0.360085,0.363625,0.381746,1.46806,-0.429006,1.63644,-3.09677,0.206932,0.457788,-3.09677,0.188381,0.457788,-0.816388,0.758014,0.53821,-0.527151,-0.00231669,-0.148227,0.521777,1
1.45461,-0.752932,-1.4608,-0.829588,2.29121,1.19055,-1.15041,1.45461,-0.752932,-1.4608,-0.829588,2.29121,1.19055,-1.15041,1.53656,-0.828114,-1.51853,-0.780466,2.28256,1.18324,-1.20186,-1.10167,0.657619,0.733598,-0.636827,-0.380553,-0.479322,0.847265,-1.10167,0.657619,0.733598,-0.636827,-0.380553,-0.479322,0.847265,0.229209,-0.509771,0.982396,0.772934,-0.0494305,-0.0903578,0.626071,-0.302609,0.385302,0.378837,-0.279739,0.419623,0.384835,1.43677,-0.426633,1.64005,-3.12848,0.237328,0.36056,-3.12848,0.187069,0.36056,-0.819457,0.75182,0.577303,-0.49122,0.086471,0.0730534,0.514541,1
1.44535,-0.747252,-1.45071,-0.83402,2.29007,1.2173,-1.14533,1.44535,-0.747252,-1.45071,-0.83402,2.29007,1.2173,-1.14533,1.52664,-0.821184,-1.51161,-0.786614,2.28003,1.17897,-1.1933,-0.953167,0.711331,0.694506,-0.628175,-0.203209,-0.414309,0.860543,-0.953167,0.711331,0.694506,-0.628175,-0.203209,-0.414309,0.860543,0.226808,-0.50529,0.986311,0.770707,-0.0511445,-0.0863453,0.629237,-0.234869,0.438463,0.389976,-0.216582,0.469598,0.394609,1.40561,-0.424419,1.64255,-3.11615,0.221363,0.249815,-3.11615,0.191213,0.249815,-0.812973,0.739316,0.60892,-0.474056,0.100446,0.383271,0.479747,1
1.43831,-0.741659,-1.44059,-0.842915,2.29201,1.22916,-1.14247,1.43831,-0.741659,-1.44059,-0.842915,2.29201,1.22916,-1.14247,1.51777,-0.813777,-1.50444,-0.793721,2.27924,1.1752,-1.18456,-0.885878,0.738056,0.718809,-0.723986,-0.0362203,-0.356103,0.879574,-0.885878,0.738056,0.718809,-0.723986,-0.0362203,-0.356103,0.879574,0.225176,-0.500157,0.990246,0.767526,-0.0527947,-0.0827656,0.633456,-0.174492,0.487703,0.382133,-0.159182,0.514603,0.385814,1.37517,-0.421941,1.64405,-3.04471,0.247803,0.149906,-3.04471,0.204865,0.149906,-0.794546,0.721174,0.638474,-0.491944,0.127662,0.539539,0.420876,1
1.4305,-0.737052,-1.43181,-0.854513,2.30595,1.23025,-1.14609,1.4305,-0.737052,-1.43181,-0.854513,2.30595,1.23025,-1.14609,1.50857,-0.806606,-1.49653,-0.800848,2.28024,1.17331,-1.17565,-0.926335,0.713572,0.828295,-0.710205,0.146722,-0.11791,0.895345,-0.926335,0.713572,0.828295,-0.710205,0.146722,-0.11791,0.895345,0.22296,-0.495103,0.994052,0.763878,-0.055153,-0.0804053,0.637953,-0.238853,0.48677,0.380241,-0.240279,0.512281,0.380437,1.34414,-0.420256,1.64498,-3.10239,0.168508,0.0937104,-3.10239,0.215689,0.0937104,-0.780692,0.695534,0.647212,-0.536642,0.257096,0.569454,0.295594,1
1.42168,-0.733861,-1.4254,-0.866436,2.31814,1.22864,-1.15665,1.42168,-0.733861,-1.4254,-0.866436,2.31814,1.22864,-1.15665,1.49914,-0.799486,-1.4876,-0.80827,2.28268,1.1745,-1.16673,-0.953215,0.704596,0.904776,-0.746888,0.2652,0.196237,0.88692,-0.953215,0.704596,0.904776,-0.746888,0.2652,0.196237,0.88692,0.220151,-0.489718,0.997803,0.759672,-0.0589065,-0.0792361,0.642767,-0.277346,0.513775,0.370419,-0.294179,0.542509,0.367415,1.31314,-0.418581,1.64515,-3.10057,0.167531,0.0164509,-3.10057,0.213127,0.0164509,-0.774641,0.656251,0.621951,-0.581657,0.354522,0.541341,0.100761,1
1.41126,-0.733365,-1.42492,-0.877011,2.31411,1.23421,-1.17435,1.41126,-0.733365,-1.42492,-0.877011,2.31411,1.23421,-1.17435,1.48943,-0.792708,-1.47808,-0.815514,2.28549,1.17931,-1.15831,-0.966086,0.673222,0.97523,-0.719229,0.281767,0.586902,0.822902,-0.966086,0.673222,0.97523,-0.719229,0.281767,0.586902,0.822902,0.216582,-0.484181,1.00136,0.75547,-0.0643414,-0.0789608,0.647218,-0.33558,0.53204,0.35893,-0.370418,0.568618,0.351909,1.28074,-0.41663,1.64369,-3.23974,0.195095,-0.145674,-3.23974,0.204986,-0.145674,-0.781694,0.593436,0.531594,-0.614962,0.286185,0.548945,-0.160322,1
1.41052,-0.730593,-1.42283,-0.891221,2.30101,1.2479,-1.19122,1.41052,-0.730593,-1.42283,-0.891221,2.30101,1.2479,-1.19122,1.48025,-0.786167,-1.46786,-0.822941,2.28859,1.18829,-1.15105,-0.912434,0.646858,1.01747,-0.757518,0.331179,0.979245,0.681312,-0.912434,0.646858,1.01747,-0.757518,0.331179,0.979245,0.681312,0.212709,-0.478103,1.0047,0.751085,-0.0716552,-0.0795793,0.651464,-0.33699,0.571307,0.331534,-0.387651,0.613641,0.320323,1.24967,-0.414579,1.64114,-3.10729,0.205076,-0.255537,-3.10729,0.196787,-0.255537,-0.697317,0.555735,0.45027,-0.682797,0.124203,0.596145,-0.401691,1
1.41209,-0.728194,-1.41881,-0.901952,2.28987,1.26221,-1.19603,1.41209,-0.728194,-1.41881,-0.901952,2.28987,1.26221,-1.19603,1.47115,-0.779634,-1.45782,-0.83077,2.29316,1.19913,-1.14653,-0.898916,0.664091,1.01176,-0.81214,0.502156,1.09991,0.3521,-0.898916,0.664091,1.01176,-0.81214,0.502156,1.09991,0.3521,0.208759,-0.471945,1.00776,0.747178,-0.0793926,-0.0809364,0.654883,-0.32377,0.590602,0.315739,-0.380295,0.62965,0.302183,1.21901,-0.412016,1.63822,-3.06587,0.256291,-0.292003,-3.06587,0.198427,-0.292003,-0.590678,0.514397,0.390097,-0.711816,-0.0328832,0.630723,-0.494955,1
1.39983,-0.725577,-1.448,-0.911069,2.29395,1.27156,-1.20068,1.39983,-0.725577,-1.448,-0.911069,2.29395,1.27156,-1.20068,1.46278,-0.772692,-1.44746,-0.839631,2.29961,1.20988,-1.146,-0.830452,0.694182,1.02611,-0.902619,0.682011,1.05567,-0.0466415,-0.830452,0.694182,1.02611,-0.902619,0.682011,1.05567,-0.0466415,0.205492,-0.465338,1.01078,0.743651,-0.0865669,-0.0828732,0.657739,-0.255992,0.627755,0.306478,-0.311643,0.658506,0.292266,1.18791,-0.410261,1.63382,-3.10926,0.175521,-0.439727,-3.10926,0.198294,-0.439727,-0.629511,0.47115,-0.00542026,-0.714374,-0.0566689,0.616832,-0.54685,1
1.38163,-0.718252,-1.48861,-0.917719,2.30893,1.2773,-1.20798,1.38163,-0.718252,-1.48861,-0.917719,2.30893,1.2773,-1.20798,1.454,-0.766049,-1.4384,-0.848821,2.30593,1.21982,-1.14919,-0.885614,0.660388,0.873151,-0.932831,0.574328,0.984326,-0.41528,-0.885614,0.660388,0.873151,-0.932831,0.574328,0.984326,-0.41528,0.202529,-0.459227,1.01332,0.741767,-0.0926949,-0.0844104,0.658836,-0.23582,0.57965,0.253287,-0.279974,0.611798,0.241137,1.15658,-0.408222,1.62859,-3.1334,0.203922,-0.522518,-3.1334,0.204844,-0.522518,-0.723688,0.477973,-0.502132,-0.688986,0.0299693,0.574792,-0.587941,1
1.3734,-0.713867,-1.49575,-0.924599,2.28257,1.28852,-1.21801,1.3734,-0.713867,-1.49575,-0.924599,2.28257,1.28852,-1.21801,1.44556,-0.758987,-1.43011,-0.858894,2.30878,1.22989,-1.15624,-0.834179,0.722285,0.808389,-1.01879,0.184399,1.01974,-0.791025,-0.834179,0.722285,0.808389,-1.01879,0.184399,1.01974,-0.791025,0.20056,-0.452233,1.01572,0.741594,-0.0988221,-0.0840705,0.658183,-0.142333,0.677641,0.247703,-0.173771,0.726877,0.237585,1.12567,-0.405903,1.62218,-3.09057,0.231856,-0.641584,-3.09057,0.211311,-0.641584,-0.72165,0.451205,-0.656366,-0.657056,-0.262105,0.586298,-0.617756,1
1.35932,-0.709487,-1.49414,-0.930062,2.26773,1.30012,-1.22976,1.35932,-0.709487,-1.49414,-0.930062,2.26773,1.30012,-1.22976,1.43646,-0.752188,-1.4241,-0.869163,2.30798,1.24063,-1.1659,-0.938017,0.656872,0.501444,-1.0244,-0.147918,1.0942,-1.00735,-0.938017,0.656872,0.501444,-1.0244,-0.147918,1.0942,-1.00735,0.198931,-0.445379,1.01751,0.743619,-0.104963,-0.0818237,0.655224,-0.141764,0.592618,0.154539,-0.158514,0.655709,0.14684,1.09503,-0.403897,1.61444,-3.06474,0.200585,-0.774169,-3.06474,0.211942,-0.774169,-0.771401,0.427003,-0.700376,-0.608984,-0.402542,0.594955,-0.638647,1
1.34831,-0.703771,-1.49486,-0.936766,2.26338,1.31155,-1.2408,1.34831,-0.703771,-1.49486,-0.936766,2.26338,1.31155,-1.2408,1.42749,-0.745744,-1.42223,-0.879736,2.30614,1.25213,-1.17639,-0.869765,0.660407,0.0831726,-1.05552,-0.158771,1.16479,-1.05398,-0.869765,0.660407,0.0831726,-1.05552,-0.158771,1.16479,-1.05398,0.198055,-0.439325,1.01824,0.747022,-0.110416,-0.0782994,0.650873,-0.0570148,0.530449,0.0617043,-0.0613546,0.596403,0.0562138,1.06441,-0.401885,1.60621,-3.06156,0.201267,-0.822675,-3.06156,0.209567,-0.822675,-0.791809,0.419731,-0.726244,-0.570301,-0.427684,0.594208,-0.644054,1
1.33752,-0.698199,-1.50043,-0.945091,2.26185,1.32055,-1.25131,1.33752,-0.698199,-1.50043,-0.945091,2.26185,1.32055,-1.25131,1.41863,-0.738351,-1.4257,-0.890166,2.30534,1.26404,-1.18681,-0.899498,0.762767,-0.501265,-1.02885,-0.084697,1.20827,-1.03774,-0.899498,0.762767,-0.501265,-1.02885,-0.084697,1.20827,-1.03774,0.197901,-0.43391,1.01831,0.751519,-0.115038,-0.0736051,0.64542,-0.0153705,0.446394,-0.0127305,-0.00330767,0.517704,-0.0152534,1.03412,-0.4008,1.59677,-3.02955,0.10848,-0.94353,-3.02955,0.19545,-0.94353,-0.811099,0.401515,-0.747334,-0.549254,-0.43491,0.565098,-0.645039,1
1.32971,-0.693605,-1.51066,-0.946747,2.25737,1.33198,-1.2623,1.32971,-0.693605,-1.51066,-0.946747,2.25737,1.33198,-1.2623,1.40979,-0.729864,-1.43422,-0.900205,2.30218,1.27645,-1.19718,-0.870052,0.879328,-0.949018,-0.990233,-0.406918,1.24137,-1.03676,-0.870052,0.879328,-0.949018,-0.990233,-0.406918,1.24137,-1.03676,0.198553,-0.428623,1.01786,0.757577,-0.119514,-0.0663828,0.638269,0.0582681,0.445407,-0.0537345,0.0917992,0.535957,-0.0539792,1.00377,-0.399082,1.58667,-3.03493,0.171798,-1.01039,-3.03493,0.187141,-1.01039,-0.800885,0.362589,-0.764376,-0.465417,-0.448173,0.555337,-0.651277,1
1.32139,-0.686226,-1.52306,-0.932204,2.24905,1.34446,-1.27261,1.32139,-0.686226,-1.52306,-0.932204,2.24905,1.34446,-1.27261,1.40108,-0.720121,-1.44603,-0.909629,2.29509,1.28868,-1.20771,-0.873456,0.989334,-1.23273,-0.924762,-0.799761,1.22167,-1.06021,-0.873456,0.989334,-1.23273,-0.924762,-0.799761,1.22167,-1.06021,0.199984,-0.422878,1.01731,0.764929,-0.124279,-0.0562944,0.6295,0.100553,0.464571,-0.0638486,0.154252,0.574891,-0.0639828,0.973145,-0.397052,1.57583,-3.06216,0.202954,-1.08355,-3.06216,0.179458,-1.08355,-0.79692,0.338945,-0.7703,-0.225755,-0.460365,0.557805,-0.649023,1
1.31189,-0.676355,-1.53614,-0.917425,2.24318,1.35253,-1.2851,1.31189,-0.676355,-1.53614,-0.917425,2.24318,1.35253,-1.2851,1.39228,-0.710458,-1.45885,-0.918475,2.28559,1.30071,-1.21855,-0.885452,0.957539,-1.29526,-0.878417,-0.978934,1.19576,-1.09491,-0.885452,0.957539,-1.29526,-0.878417,-0.978934,1.19576,-1.09491,0.201561,-0.417353,1.01649,0.772828,-0.129202,-0.0450603,0.619689,0.0979375,0.423017,-0.0934014,0.160063,0.537285,-0.0956484,0.942652,-0.394612,1.56424,-3.04924,0.244048,-1.15989,-3.04924,0.179881,-1.15989,-0.80392,0.341023,-0.772904,0.0105007,-0.424032,0.518148,-0.665495,1
1.30266,-0.668517,-1.54873,-0.936365,2.23859,1.35832,-1.29731,1.30266,-0.668517,-1.54873,-0.936365,2.23859,1.35832,-1.29731,1.38364,-0.701548,-1.47108,-0.927521,2.27587,1.31218,-1.22974,-0.853346,0.876895,-1.19206,-0.909517,-0.960871,1.12777,-1.12578,-0.853346,0.876895,-1.19206,-0.909517,-0.960871,1.12777,-1.12578,0.203274,-0.412301,1.0153,0.780383,-0.133735,-0.0340678,0.609882,0.112731,0.389042,-0.123868,0.175954,0.494948,-0.128058,0.912301,-0.392107,1.55141,-3.03516,0.250518,-1.28231,-3.03516,0.191661,-1.28231,-0.809792,0.330304,-0.776521,-0.0884384,-0.372758,0.461353,-0.675671,1
1.29374,-0.661055,-1.55961,-0.964393,2.23797,1.36243,-1.31084,1.29374,-0.661055,-1.55961,-0.964393,2.23797,1.36243,-1.31084,1.37503,-0.693527,-1.4825,-0.935556,2.26685,1.3233,-1.2412,-0.865091,0.762791,-1.12412,-0.736749,-0.87535,1.12065,-1.15035,-0.865091,0.762791,-1.12412,-0.736749,-0.87535,1.12065,-1.15035,0.204431,-0.408062,1.01398,0.78769,-0.13817,-0.0241419,0.599892,0.0241637,0.285553,-0.128993,0.0794766,0.38305,-0.13641,0.882018,-0.390118,1.53741,-3.02829,0.198826,-1.39999,-3.02829,0.204126,-1.39999,-0.81296,0.32472,-0.771043,-0.288367,-0.288794,0.391267,-0.696386,1
1.28578,-0.657191,-1.56928,-0.981023,2.2453,1.36749,-1.32339,1.28578,-0.657191,-1.56928,-0.981023,2.2453,1.36749,-1.32339,1.36666,-0.686643,-1.49317,-0.940921,2.25845,1.3343,-1.25278,-0.812491,0.670846,-1.05608,-0.469997,-0.836117,1.08484,-1.15997,-0.812491,0.670846,-1.05608,-0.469997,-0.836117,1.08484,-1.15997,0.204429,-0.404915,1.01283,0.794985,-0.142978,-0.0157529,0.589329,-0.0617943,0.204038,-0.0992085,-0.0153354,0.295777,-0.109806,0.851882,-0.388384,1.52272,-3.01355,0.173396,-1.46965,-3.01355,0.21471,-1.46965,-0.808835,0.294522,-0.761088,-0.40102,-0.131485,0.331919,-0.706122,1
1.27847,-0.654893,-1.57888,-0.981475,2.25816,1.37871,-1.33497,1.27847,-0.654893,-1.57888,-0.981475,2.25816,1.37871,-1.33497,1.35932,-0.680342,-1.50427,-0.943393,2.25038,1.34466,-1.2645,-0.705888,0.617742,-1.13636,-0.175274,-0.790288,1.01612,-1.17633,-0.705888,0.617742,-1.13636,-0.175274,-0.790288,1.01612,-1.17633,0.203802,-0.402603,1.01195,0.802402,-0.147926,-0.00828132,0.578101,-0.117915,0.11976,-0.070772,-0.0750428,0.206729,-0.0832297,0.821293,-0.386739,1.50742,-3.05896,0.164583,-1.52988,-3.05896,0.210211,-1.52988,-0.808542,0.2545,-0.746114,-0.380821,0.0777898,0.34045,-0.704654,1
1.27338,-0.646311,-1.58971,-0.965368,2.26679,1.39305,-1.34789,1.27338,-0.646311,-1.58971,-0.965368,2.26679,1.39305,-1.34789,1.35372,-0.674389,-1.51613,-0.94511,2.24324,1.35388,-1.27645,-0.511643,0.591916,-1.20651,-0.201184,-0.689963,0.878382,-1.20224,-0.511643,0.591916,-1.20651,-0.201184,-0.689963,0.878382,-1.20224,0.203698,-0.400728,1.01099,0.80945,-0.152142,-0.00127994,0.567135,-0.0225021,0.107968,-0.0961628,0.0251946,0.183908,-0.106925,0.790252,-0.384993,1.4909,-3.1041,0.1746,-1.65211,-3.1041,0.198742,-1.65211,-0.803361,0.280773,-0.735802,-0.202578,0.235505,0.391656,-0.714381,1
1.26878,-0.646056,-1.60357,-0.967876,2.27009,1.39693,-1.36077,1.26878,-0.646056,-1.60357,-0.967876,2.27009,1.39693,-1.36077,1.34918,-0.669188,-1.52866,-0.948543,2.23804,1.36166,-1.28875,-0.44906,0.496734,-1.25814,-0.408912,-0.443389,0.753802,-1.24006,-0.44906,0.496734,-1.25814,-0.408912,-0.443389,0.753802,-1.24006,0.204603,-0.399542,1.00933,0.815943,-0.154577,0.00528312,0.55706,0.0554065,0.0386943,-0.182401,0.107651,0.0949055,-0.188664,0.759633,-0.383171,1.47305,-3.06193,0.182122,-1.78412,-3.06193,0.185462,-1.78412,-0.803983,0.231318,-0.749072,-0.193326,0.320527,0.352659,-0.720197,1
1.26329,-0.643677,-1.61618,-0.990517,2.27183,1.3947,-1.3739,1.26329,-0.643677,-1.61618,-0.990517,2.27183,1.3947,-1.3739,1.34381,-0.664066,-1.54123,-0.95456,2.2363,1.36836,-1.30143,-0.581162,0.521757,-1.25261,-0.648607,-0.0699863,0.652958,-1.27528,-0.581162,0.521757,-1.25261,-0.648607,-0.0699863,0.652958,-1.27528,0.205872,-0.398928,1.00714,0.822005,-0.155288,0.0110749,0.547787,0.0621881,0.00647081,-0.223088,0.116158,0.0452713,-0.225376,0.729466,-0.380858,1.45462,-3.01669,0.231311,-1.84305,-3.01669,0.182254,-1.84305,-0.805235,0.203895,-0.749491,-0.359565,0.355297,0.263347,-0.724687,1
1.25541,-0.638146,-1.62656,-1.00741,2.26699,1.39969,-1.38579,1.25541,-0.638146,-1.62656,-1.00741,2.26699,1.39969,-1.38579,1.33661,-0.658847,-1.55293,-0.961819,2.2387,1.37508,-1.31429,-0.766134,0.515861,-1.14032,-0.736018,0.33488,0.682318,-1.28943,-0.766134,0.515861,-1.14032,-0.736018,0.33488,0.682318,-1.28943,0.206311,-0.398894,1.00489,0.827809,-0.155273,0.0152176,0.538879,-0.0310297,-0.0413224,-0.223946,0.0111394,-0.0167972,-0.224695,0.698631,-0.379013,1.43531,-3.0835,0.184569,-1.93169,-3.0835,0.185489,-1.93169,-0.812026,0.207011,-0.736256,-0.455954,0.282952,0.246145,-0.714949,1
1.24616,-0.633272,-1.63703,-1.02237,2.26957,1.40423,-1.398,1.24616,-0.633272,-1.63703,-1.02237,2.26957,1.40423,-1.398,1.32761,-0.654364,-1.56412,-0.968305,2.24424,1.38266,-1.32725,-0.931596,0.421224,-1.12092,-0.625454,0.613732,0.776788,-1.29675,-0.931596,0.421224,-1.12092,-0.625454,0.613732,0.776788,-1.29675,0.205076,-0.400046,1.00265,0.833825,-0.155232,0.0173501,0.529469,-0.189828,-0.165316,-0.228696,-0.161398,-0.150411,-0.228992,0.668044,-0.377504,1.41457,-3.0587,0.150859,-2.07394,-3.0587,0.186527,-2.07394,-0.814564,0.210922,-0.72904,-0.540619,0.2533,0.215775,-0.707532,1
1.23698,-0.629714,-1.64715,-1.03188,2.2845,1.40784,-1.41154,1.23698,-0.629714,-1.64715,-1.03188,2.2845,1.40784,-1.41154,1.31838,-0.650481,-1.57577,-0.974181,2.25129,1.39033,-1.34027,-0.913872,0.386566,-1.186,-0.578873,0.718634,0.743017,-1.30292,-0.913872,0.386566,-1.186,-0.578873,0.718634,0.743017,-1.30292,0.203207,-0.402041,1.00027,0.839976,-0.154848,0.0185445,0.519729,-0.215242,-0.219892,-0.240508,-0.188153,-0.211351,-0.239321,0.637859,-0.375602,1.3927,-3.01845,0.190198,-2.18649,-3.01845,0.187664,-2.18649,-0.814051,0.207664,-0.713725,-0.576987,0.332172,0.175059,-0.712743,1
1.22911,-0.627232,-1.65836,-1.03781,2.29701,1.4157,-1.42515,1.22911,-0.627232,-1.65836,-1.03781,2.29701,1.4157,-1.42515,1.30997,-0.64627,-1.5878,-0.980429,2.25821,1.39678,-1.3533,-0.811026,0.440099,-1.19469,-0.654911,0.665656,0.615795,-1.30272,-0.811026,0.440099,-1.19469,-0.654911,0.665656,0.615795,-1.30272,0.201964,-0.403882,0.99789,0.845934,-0.153828,0.0201925,0.510221,-0.131147,-0.170225,-0.240519,-0.0965451,-0.163527,-0.238031,0.608268,-0.373408,1.3697,-2.95907,0.219357,-2.30063,-2.95907,0.190163,-2.30063,-0.808656,0.190381,-0.70564,-0.573821,0.388063,0.18924,-0.718515,1
1.22118,-0.629355,-1.67055,-1.042,2.30411,1.42203,-1.43768,1.22118,-0.629355,-1.67055,-1.042,2.30411,1.42203,-1.43768,1.30194,-0.64138,-1.59982,-0.988147,2.26351,1.40213,-1.36624,-0.81987,0.495057,-1.21334,-0.807119,0.49255,0.516089,-1.29077,-0.81987,0.495057,-1.21334,-0.807119,0.49255,0.516089,-1.29077,0.201752,-0.405065,0.99537,0.851593,-0.152359,0.0232461,0.501034,-0.0603428,-0.128171,-0.265521,-0.011701,-0.119197,-0.262411,0.577878,-0.372005,1.3459,-3.039,0.140375,-2.37991,-3.039,0.185037,-2.37991,-0.807647,0.120243,-0.707321,-0.538566,0.406005,0.199017,-0.714313,1
1.21284,-0.646192,-1.68246,-1.0515,2.30781,1.42837,-1.45002,1.21284,-0.646192,-1.68246,-1.0515,2.30781,1.42837,-1.45002,1.29331,-0.636188,-1.61142,-0.996834,2.26785,1.4069,-1.37906,-0.870538,0.532866,-1.12785,-0.881803,0.429984,0.468261,-1.27956,-0.870538,0.532866,-1.12785,-0.881803,0.429984,0.468261,-1.27956,0.201765,-0.406015,0.992754,0.857131,-0.150664,0.0270485,0.491828,-0.0511952,-0.0926942,-0.259132,0.000999942,-0.0831788,-0.256399,0.51822,-0.36896,1.2959,-2.98747,0.166863,-2.53817,-2.98747,0.169667,-2.53817,-0.804717,-0.100042,-0.710422,-0.546663,0.399605,0.214743,-0.709618,1
1.20369,-0.656567,-1.6923,-1.0637,2.31116,1.4404,-1.46252,1.20369,-0.656567,-1.6923,-1.0637,2.31116,1.4404,-1.46252,1.28407,-0.631213,-1.62258,-1.00615,2.27293,1.41132,-1.39185,-0.948086,0.474133,-1.13081,-0.948458,0.54156,0.434838,-1.28014,-0.948086,0.474133,-1.13081,-0.948458,0.54156,0.434838,-1.28014,0.20156,-0.407278,0.989976,0.862567,-0.148498,0.0305291,0.482694,-0.0874525,-0.158227,-0.29852,-0.0354691,-0.157888,-0.29368,0.488949,-0.366941,1.26976,-2.92707,0.201869,-2.6143,-2.92707,0.170546,-2.6143,-0.803733,-0.253533,-0.697155,-0.575457,0.382302,0.29071,-0.706674,1
1.1936,-0.652491,-1.70196,-1.07413,2.31483,1.45136,-1.47539,1.1936,-0.652491,-1.70196,-1.07413,2.31483,1.45136,-1.47539,1.27446,-0.627013,-1.63386,-1.01602,2.27952,1.41562,-1.40474,-0.952029,0.407107,-1.11592,-0.986746,0.701588,0.433364,-1.29247,-0.952029,0.407107,-1.11592,-0.986746,0.701588,0.433364,-1.29247,0.201005,-0.409377,0.986774,0.868003,-0.145535,0.0332085,0.47359,-0.112764,-0.211957,-0.330224,-0.0662929,-0.221668,-0.323435,0.488949,-0.366941,1.26976,-2.92707,0.201869,-2.6143,-2.92707,0.170546,-2.6143,-0.808563,-0.254779,-0.680952,-0.581087,0.353176,0.357343,-0.7065,1
1.18399,-0.651125,-1.71449,-1.08663,2.32454,1.45062,-1.4886,1.18399,-0.651125,-1.71449,-1.08663,2.32454,1.45062,-1.4886,1.26508,-0.623549,-1.64505,-1.02606,2.28738,1.42011,-1.41772,-0.936246,0.318581,-1.1316,-1.01024,0.803845,0.453892,-1.2993,-0.936246,0.318581,-1.1316,-1.01024,0.803845,0.453892,-1.2993,0.200163,-0.41206,0.983284,0.873302,-0.142138,0.0349648,0.464669,-0.137245,-0.275036,-0.372799,-0.0952932,-0.293037,-0.364406,0.459366,-0.364879,1.24285,-2.95827,0.206223,-2.69158,-2.95827,0.17196,-2.69158,-0.810912,-0.275759,-0.69438,-0.605694,0.371606,0.305051,-0.708819,1
1.17547,-0.6484,-1.72682,-1.09738,2.33039,1.45459,-1.50188,1.17547,-0.6484,-1.72682,-1.09738,2.33039,1.45459,-1.50188,1.2559,-0.620939,-1.65667,-1.03612,2.29551,1.42505,-1.43068,-0.906059,0.25104,-1.16235,-0.989898,0.808198,0.511307,-1.29525,-0.906059,0.25104,-1.16235,-0.989898,0.808198,0.511307,-1.29525,0.199037,-0.415386,0.979367,0.878586,-0.138472,0.0362871,0.455626,-0.162965,-0.317155,-0.402073,-0.124359,-0.337601,-0.393668,0.429348,-0.362874,1.21479,-3.00188,0.200525,-2.80524,-3.00188,0.17694,-2.80524,-0.804373,-0.274608,-0.701531,-0.612652,0.348868,0.295367,-0.71198,1
1.16794,-0.650579,-1.73983,-1.11092,2.33689,1.45203,-1.51512,1.16794,-0.650579,-1.73983,-1.11092,2.33689,1.45203,-1.51512,1.24746,-0.618424,-1.66792,-1.04639,2.30293,1.43093,-1.44353,-0.824388,0.252646,-1.11531,-1.04353,0.717235,0.620685,-1.2818,-0.824388,0.252646,-1.11531,-1.04353,0.717235,0.620685,-1.2818,0.198085,-0.418374,0.975333,0.88348,-0.13532,0.0375994,0.44692,-0.124707,-0.270293,-0.416236,-0.0886323,-0.286371,-0.409624,0.370383,-0.359368,1.15548,-2.89322,0.16008,-3.03773,-2.89322,0.192251,-3.03773,-0.795149,-0.321544,-0.719094,-0.645308,0.33964,0.210994,-0.715854,1
1.16012,-0.648146,-1.75111,-1.12018,2.34007,1.46152,-1.52808,1.16012,-0.648146,-1.75111,-1.12018,2.34007,1.46152,-1.52808,1.2393,-0.616192,-1.67926,-1.0567,2.30946,1.43782,-1.45632,-0.814897,0.210522,-1.1345,-1.0188,0.639234,0.706382,-1.27852,-0.814897,0.210522,-1.1345,-1.0188,0.639234,0.706382,-1.27852,0.19706,-0.421322,0.971074,0.888216,-0.132619,0.0390204,0.438134,-0.151057,-0.288036,-0.435243,-0.116456,-0.301538,-0.429769,0.370383,-0.359368,1.15548,-2.89322,0.16008,-3.03773,-2.89322,0.192251,-3.03773,-0.791807,-0.319542,-0.718518,-0.634796,0.306116,0.236958,-0.717588,1
1.15187,-0.650538,-1.76325,-1.13055,2.34341,1.46243,-1.54148,1.15187,-0.650538,-1.76325,-1.13055,2.34341,1.46243,-1.54148,1.23172,-0.614546,-1.68985,-1.06728,2.3156,1.44483,-1.46912,-0.736545,0.147913,-1.03743,-1.07752,0.607433,0.690416,-1.28104,-0.736545,0.147913,-1.03743,-1.07752,0.607433,0.690416,-1.28104,0.196145,-0.424267,0.966633,0.892643,-0.129889,0.0401746,0.429771,-0.115445,-0.277963,-0.458703,-0.0834838,-0.295127,-0.45263,0.310793,-0.356026,1.09345,-3.02518,0.150853,-3.11893,-3.02518,0.181923,-3.11893,-0.798449,-0.359918,-0.733987,-0.632683,0.278194,0.176002,-0.723597,1
1.14466,-0.65414,-1.77459,-1.14168,2.3513,1.46098,-1.55406,1.14466,-0.65414,-1.77459,-1.14168,2.3513,1.46098,-1.55406,1.22422,-0.61404,-1.70056,-1.07784,2.32158,1.45097,-1.48198,-0.764121,0.0153522,-1.08833,-1.04131,0.601719,0.588548,-1.28744,-0.764121,0.0153522,-1.08833,-1.04131,0.601719,0.588548,-1.28744,0.195013,-0.428009,0.961783,0.897164,-0.126333,0.0411165,0.421243,-0.170304,-0.380988,-0.505372,-0.13617,-0.407422,-0.497056,0.280692,-0.354384,1.06062,-3.0101,0.164199,-3.2831,-3.0101,0.173617,-3.2831,-0.795611,-0.400996,-0.740264,-0.63841,0.297191,0.100071,-0.720796,1
1.1365,-0.657595,-1.78529,-1.1526,2.35904,1.46116,-1.56684,1.1365,-0.657595,-1.78529,-1.1526,2.35904,1.46116,-1.56684,1.2166,-0.614651,-1.71119,-1.08848,2.32757,1.456,-1.49496,-0.753826,-0.0809794,-1.04754,-1.07595,0.594202,0.482665,-1.30097,-0.753826,-0.0809794,-1.04754,-1.07595,0.594202,0.482665,-1.30097,0.193608,-0.432544,0.956548,0.901791,-0.121824,0.041821,0.412533,-0.175944,-0.425628,-0.542764,-0.140907,-0.46065,-0.532646,0.250757,-0.352997,1.02706,-2.99344,0.138748,-3.35557,-2.99344,0.164791,-3.35557,-0.800924,-0.429444,-0.741081,-0.641221,0.31473,0.0516262,-0.718759,1
1.1282,-0.661046,-1.79594,-1.16226,2.36426,1.46212,-1.57963,1.1282,-0.661046,-1.79594,-1.16226,2.36426,1.46212,-1.57963,1.20907,-0.616131,-1.72174,-1.09917,2.33322,1.46043,-1.508,-0.757206,-0.169186,-1.06194,-1.06509,0.556523,0.435793,-1.30402,-0.757206,-0.169186,-1.06194,-1.06509,0.556523,0.435793,-1.30402,0.192047,-0.437566,0.950977,0.906402,-0.116751,0.0424274,0.403737,-0.205846,-0.476636,-0.577729,-0.169959,-0.51668,-0.566926,0.22098,-0.351298,0.993648,-2.97775,0.169864,-3.34154,-2.97775,0.160376,-3.34154,-0.808664,-0.449151,-0.742031,-0.630893,0.310421,0.0168531,-0.716271,1
1.11937,-0.662562,-1.80607,-1.16978,2.36972,1.47173,-1.59248,1.11937,-0.662562,-1.80607,-1.16978,2.36972,1.47173,-1.59248,1.20137,-0.618094,-1.73269,-1.11036,2.33825,1.46507,-1.52087,-0.773002,-0.199614,-1.10991,-1.14224,0.479956,0.481346,-1.27283,-0.773002,-0.199614,-1.10991,-1.14224,0.479956,0.481346,-1.27283,0.190349,-0.442882,0.944946,0.91096,-0.111422,0.0433031,0.394792,-0.21138,-0.490909,-0.628378,-0.172059,-0.531486,-0.618103,0.193942,-0.351205,0.964456,-2.70382,0.00927448,-2.91926,-2.70382,0.142824,-2.91926,-0.819986,-0.44468,-0.733754,-0.594255,0.314662,0.0666506,-0.716074,1
1.10802,-0.652728,-1.81101,-1.10478,2.38483,1.49949,-1.60601,1.10802,-0.652728,-1.81101,-1.10478,2.38483,1.49949,-1.60601,1.19384,-0.620306,-1.74376,-1.12189,2.34303,1.4696,-1.53372,-0.739181,-0.237473,-1.08885,-1.15997,0.496734,0.439976,-1.29206,-0.739181,-0.237473,-1.08885,-1.15997,0.496734,0.439976,-1.29206,0.18866,-0.448287,0.93864,0.915388,-0.105824,0.0442835,0.385881,-0.210347,-0.498575,-0.647246,-0.172412,-0.543994,-0.636591,0.17249,-0.347771,0.961254,-2.14514,0.343418,-0.320196,-2.14514,0.150066,-0.320196,-0.858213,-0.32422,-0.672499,0.171088,0.418008,0.298887,-0.722917,1
1.09973,-0.634538,-1.81431,-1.0759,2.40052,1.51905,-1.61767,1.09973,-0.634538,-1.81431,-1.0759,2.40052,1.51905,-1.61767,1.18644,-0.62321,-1.75499,-1.13369,2.34828,1.47237,-1.54659,-0.756307,-0.304682,-1.15573,-1.17501,0.533455,0.238192,-1.28437,-0.756307,-0.304682,-1.15573,-1.17501,0.533455,0.238192,-1.28437,0.186934,-0.454327,0.931981,0.919824,-0.098914,0.0451714,0.376962,-0.234831,-0.569483,-0.691059,-0.191134,-0.627803,-0.678537,0.154468,-0.343086,0.965749,-1.80219,0.468504,0.449556,-1.80219,0.192278,0.449556,-0.867103,-0.113278,-0.593239,0.577894,0.522357,0.466834,-0.710744,1
1.09314,-0.631579,-1.81388,-1.09981,2.40868,1.50305,-1.62351,1.09314,-0.631579,-1.81388,-1.09981,2.40868,1.50305,-1.62351,1.17866,-0.626889,-1.76645,-1.145,2.35421,1.47545,-1.55881,-0.772402,-0.3807,-1.1207,-1.13323,0.604058,0.341679,-1.21547,-0.772402,-0.3807,-1.1207,-1.13323,0.604058,0.341679,-1.21547,0.184404,-0.460932,0.925081,0.924202,-0.0917973,0.045414,0.367916,-0.299204,-0.592957,-0.706291,-0.265728,-0.65322,-0.69435,0.145887,-0.343681,0.975222,-0.858176,-0.0594288,0.947315,-0.858176,0.19807,0.947315,-0.855204,-0.0468995,-0.474288,0.451947,0.544718,0.275971,-0.646977,1
1.08789,-0.626013,-1.78414,-1.14226,2.41241,1.46781,-1.63174,1.08789,-0.626013,-1.78414,-1.14226,2.41241,1.46781,-1.63174,1.17091,-0.630803,-1.77748,-1.15526,2.3602,1.47852,-1.57131,-0.792357,-0.393308,-1.10809,-0.951475,0.609005,0.291715,-1.26033,-0.792357,-0.393308,-1.10809,-0.951475,0.609005,0.291715,-1.26033,0.181346,-0.467514,0.918429,0.92856,-0.0849901,0.0451985,0.358483,-0.374116,-0.605954,-0.658459,-0.345387,-0.665574,-0.647576,0.143145,-0.346872,0.98896,-0.274211,-0.319117,1.37373,-0.274211,0.149036,1.37373,-0.830164,0.0478996,-0.0665943,0.129958,0.522088,-0.107113,-0.604251,1
1.07788,-0.648113,-1.76655,-1.12923,2.40824,1.4486,-1.64439,1.07788,-0.648113,-1.76655,-1.12923,2.40824,1.4486,-1.64439,1.16248,-0.634831,-1.78855,-1.16195,2.36726,1.48301,-1.58415,-0.845592,-0.407102,-1.10105,-0.582975,0.744862,0.535145,-1.29,-0.845592,-0.407102,-1.10105,-0.582975,0.744862,0.535145,-1.29,0.176377,-0.474259,0.912735,0.933272,-0.0797509,0.043543,0.347486,-0.554499,-0.618218,-0.555681,-0.548217,-0.666583,-0.547038,0.141218,-0.350127,1.00129,-0.192672,-0.325486,1.23298,-0.192672,0.0581187,1.23298,-0.846035,-0.13282,0.219963,0.327229,0.409782,-0.34413,-0.602332,1
1.07245,-0.665476,-1.74822,-1.11125,2.40376,1.46613,-1.66372,1.07245,-0.665476,-1.74822,-1.11125,2.40376,1.46613,-1.66372,1.15472,-0.639104,-1.79888,-1.16387,2.37574,1.49024,-1.59706,-0.740488,-0.436608,-1.00189,-0.0668377,0.87696,0.75693,-1.28425,-0.740488,-0.436608,-1.00189,-0.0668377,0.87696,0.75693,-1.28425,0.169618,-0.480642,0.908482,0.93799,-0.0772094,0.0395678,0.33563,-0.687988,-0.591806,-0.392775,-0.710878,-0.624214,-0.386615,0.13843,-0.353777,1.01337,-0.278765,-0.365084,1.20847,-0.278765,-0.0578994,1.20847,-0.82271,-0.263713,0.506568,0.526219,0.280274,-0.241148,-0.666602,1
1.07352,-0.679246,-1.74324,-1.10505,2.43679,1.46391,-1.6792,1.07352,-0.679246,-1.74324,-1.10505,2.43679,1.46391,-1.6792,1.14859,-0.643702,-1.80753,-1.16157,2.38524,1.49626,-1.60924,-0.577738,-0.458887,-0.795053,0.336441,0.977093,0.510241,-1.19422,-0.577738,-0.458887,-0.795053,0.336441,0.977093,0.510241,-1.19422,0.162296,-0.486706,0.905736,0.942383,-0.0756138,0.0340291,0.324098,-0.701989,-0.560047,-0.233576,-0.73923,-0.591859,-0.227696,0.135749,-0.357096,1.02473,-0.268173,-0.331873,1.13585,-0.268173,-0.199296,1.13585,-0.750688,-0.355433,0.642943,0.565146,0.515463,-0.323517,-0.699585,1
1.07203,-0.663696,-1.75443,-1.1031,2.45342,1.44309,-1.68835,1.07203,-0.663696,-1.75443,-1.1031,2.45342,1.44309,-1.68835,1.14337,-0.648369,-1.81246,-1.15633,2.39481,1.49617,-1.62034,-0.508815,-0.47043,-0.384373,0.515753,0.926081,-0.185679,-1.0851,-0.508815,-0.47043,-0.384373,0.515753,0.926081,-0.185679,-1.0851,0.155391,-0.492406,0.904698,0.94629,-0.0729519,0.0281144,0.313724,-0.620729,-0.510965,-0.0922374,-0.653836,-0.556234,-0.0848521,0.13371,-0.360159,1.03487,-0.203848,-0.306278,1.01366,-0.203848,-0.303411,1.01366,-0.713462,-0.153277,0.580232,0.53229,0.586072,-0.530821,-0.680071,1
1.06268,-0.671434,-1.75092,-1.09352,2.46265,1.42899,-1.69767,1.06268,-0.671434,-1.75092,-1.09352,2.46265,1.42899,-1.69767,1.1383,-0.653031,-1.8118,-1.15145,2.40246,1.49015,-1.63089,-0.52425,-0.459728,0.214573,0.460759,0.699844,-0.704896,-1.05351,-0.52425,-0.459728,0.214573,0.460759,0.699844,-0.704896,-1.05351,0.149967,-0.497099,0.904752,0.949418,-0.0689361,0.0228571,0.305502,-0.484373,-0.382704,0.0219782,-0.511678,-0.433396,0.0294354,0.131127,-0.362978,1.04455,-0.258285,-0.281933,0.968528,-0.258285,-0.326561,0.968528,-0.756276,-0.184031,0.608831,0.579278,0.601878,-0.611567,-0.667823,1
1.0506,-0.68172,-1.74832,-1.08443,2.47116,1.42321,-1.70854,1.0506,-0.68172,-1.74832,-1.08443,2.47116,1.42321,-1.70854,1.13122,-0.657464,-1.80606,-1.14773,2.40808,1.48224,-1.6421,-0.788125,-0.434874,0.685266,0.345977,0.550092,-0.7942,-1.15002,-0.788125,-0.434874,0.685266,0.345977,0.550092,-0.7942,-1.15002,0.144794,-0.500612,0.905578,0.952172,-0.0651529,0.0179516,0.297995,-0.509287,-0.281032,0.0937258,-0.538667,-0.326607,0.099787,0.128552,-0.366683,1.05195,-0.257486,-0.370508,0.739157,-0.257486,-0.326856,0.739157,-0.806217,-0.242567,0.577311,0.632936,0.630725,-0.590308,-0.664468,1
1.03869,-0.689691,-1.74031,-1.07708,2.47688,1.42358,-1.7215,1.03869,-0.689691,-1.74031,-1.07708,2.47688,1.42358,-1.7215,1.12108,-0.661866,-1.79688,-1.14416,2.41491,1.47432,-1.65451,-1.07519,-0.445743,0.982924,0.37916,0.741452,-0.795375,-1.26825,-1.07519,-0.445743,0.982924,0.37916,0.741452,-0.795375,-1.26825,0.138207,-0.503731,0.90708,0.95501,-0.061789,0.011754,0.289829,-0.659259,-0.263262,0.162565,-0.704465,-0.309884,0.167822,0.126668,-0.369523,1.05854,-0.188404,-0.283983,0.659275,-0.188404,-0.321013,0.659275,-0.823936,-0.278253,0.565684,0.670808,0.619707,-0.507393,-0.669889,1
1.02689,-0.696784,-1.72776,-1.06857,2.48416,1.42112,-1.73537,1.02689,-0.696784,-1.72776,-1.06857,2.48416,1.42112,-1.73537,1.11,-0.666502,-1.7863,-1.13902,2.42438,1.46556,-1.66749,-1.09526,-0.471293,1.0529,0.558392,1.01605,-0.9106,-1.3015,-1.09526,-0.471293,1.0529,0.558392,1.01605,-0.9106,-1.3015,0.13034,-0.507072,0.909259,0.95788,-0.0582638,0.00379587,0.281169,-0.748081,-0.291827,0.221224,-0.807534,-0.345448,0.22584,0.124513,-0.37305,1.06423,-0.215578,-0.352722,0.569236,-0.215578,-0.318562,0.569236,-0.831056,-0.302824,0.585444,0.704511,0.597819,-0.444419,-0.678855,1
1.01734,-0.692065,-1.71873,-1.06059,2.49369,1.40623,-1.74921,1.01734,-0.692065,-1.71873,-1.06059,2.49369,1.40623,-1.74921,1.0998,-0.670962,-1.77726,-1.13147,2.43608,1.45508,-1.68017,-0.989359,-0.435952,0.850273,0.815268,1.21391,-1.08764,-1.25328,-0.989359,-0.435952,0.850273,0.815268,1.21391,-1.08764,-1.25328,0.121829,-0.511003,0.911884,0.960768,-0.0540467,-0.00488288,0.271992,-0.802631,-0.344061,0.266044,-0.865274,-0.40345,0.269646,0.122361,-0.376329,1.06949,-0.215113,-0.327879,0.526309,-0.215113,-0.321525,0.526309,-0.824637,-0.211032,0.585316,0.708818,0.576104,-0.488504,-0.690397,1
1.01081,-0.68575,-1.7108,-1.05214,2.50892,1.38907,-1.76322,1.01081,-0.68575,-1.7108,-1.05214,2.50892,1.38907,-1.76322,1.09133,-0.674829,-1.76972,-1.12276,2.44882,1.44402,-1.69231,-0.802769,-0.358188,0.728984,0.867902,1.27801,-1.1048,-1.20169,-0.802769,-0.358188,0.728984,0.867902,1.27801,-1.1048,-1.20169,0.113647,-0.514908,0.914699,0.963375,-0.0496185,-0.0136032,0.263176,-0.732737,-0.314873,0.280777,-0.795151,-0.373166,0.282677,0.120251,-0.379723,1.07362,-0.211006,-0.339371,0.412762,-0.211006,-0.327717,0.412762,-0.805141,-0.109216,0.589234,0.706187,0.600985,-0.54952,-0.709114,1
1.00734,-0.67436,-1.70269,-1.04398,2.52365,1.37656,-1.77536,1.00734,-0.67436,-1.70269,-1.04398,2.52365,1.37656,-1.77536,1.08394,-0.676846,-1.76309,-1.11416,2.46113,1.43365,-1.70414,-0.726647,-0.154797,0.665061,0.844797,1.20566,-0.999869,-1.1808,-0.726647,-0.154797,0.665061,0.844797,1.20566,-0.999869,-1.1808,0.106362,-0.517755,0.91795,0.965659,-0.0460003,-0.0213936,0.254811,-0.651686,-0.202578,0.33641,-0.708634,-0.247548,0.336226,0.118008,-0.383284,1.07696,-0.22437,-0.356075,0.334048,-0.22437,-0.335005,0.334048,-0.76597,0.0248629,0.604046,0.701821,0.625238,-0.570937,-0.71224,1
1.00193,-0.68261,-1.6943,-1.03407,2.53419,1.37122,-1.78825,1.00193,-0.68261,-1.6943,-1.03407,2.53419,1.37122,-1.78825,1.07671,-0.67775,-1.75549,-1.10571,2.47225,1.42501,-1.71607,-0.735132,-0.0768411,0.785224,0.855295,1.0793,-0.833975,-1.19822,-0.735132,-0.0768411,0.785224,0.855295,1.0793,-0.833975,-1.19822,0.0995017,-0.51934,0.921725,0.967628,-0.0439072,-0.0287992,0.24686,-0.632384,-0.105049,0.390331,-0.691687,-0.135012,0.387846,0.115236,-0.386762,1.07984,-0.277168,-0.347838,0.2882,-0.277168,-0.337248,0.2882,-0.747725,-0.0485988,0.611904,0.716341,0.61939,-0.537884,-0.721827,1
0.992677,-0.695953,-1.68731,-1.02578,2.54223,1.36889,-1.79976,0.992677,-0.695953,-1.68731,-1.02578,2.54223,1.36889,-1.79976,1.06857,-0.678646,-1.74725,-1.09644,2.48233,1.41683,-1.72836,-0.841561,-0.0928636,0.837486,0.941327,0.989778,-0.82277,-1.2404,-0.841561,-0.0928636,0.837486,0.941327,0.989778,-0.82277,-1.2404,0.0919724,-0.520591,0.925805,0.969596,-0.0425927,-0.0361311,0.238254,-0.712153,-0.0960623,0.414767,-0.772489,-0.119906,0.410849,0.113188,-0.389705,1.08147,-0.204808,-0.294253,0.162458,-0.204808,-0.339007,0.162458,-0.758881,-0.173065,0.59941,0.706606,0.599036,-0.479365,-0.714028,1
0.981985,-0.687623,-1.6781,-1.01494,2.55018,1.37222,-1.81236,0.981985,-0.687623,-1.6781,-1.01494,2.55018,1.37222,-1.81236,1.05987,-0.679846,-1.73809,-1.08673,2.49216,1.40812,-1.74109,-0.870083,-0.134975,0.948302,0.982996,0.989606,-0.893895,-1.28318,-0.870083,-0.134975,0.948302,0.982996,0.989606,-0.893895,-1.28318,0.0840059,-0.521765,0.930025,0.971472,-0.0412546,-0.043669,0.229419,-0.741447,-0.0907241,0.428083,-0.805167,-0.115831,0.422943,0.110946,-0.392585,1.08246,-0.224209,-0.288048,0.0991464,-0.224209,-0.329978,0.0991464,-0.778798,-0.0777692,0.599936,0.717874,0.580218,-0.359,-0.712684,1
0.97223,-0.696893,-1.67005,-1.00353,2.5562,1.36709,-1.82553,0.97223,-0.696893,-1.67005,-1.00353,2.5562,1.36709,-1.82553,1.05125,-0.681853,-1.72806,-1.07622,2.50252,1.39834,-1.75408,-0.860196,-0.222961,1.01361,1.07622,1.0589,-0.999881,-1.30214,-0.860196,-0.222961,1.01361,1.07622,1.0589,-0.999881,-1.30214,0.0755881,-0.52322,0.934258,0.973157,-0.0394094,-0.0519052,0.220722,-0.791508,-0.123296,0.425924,-0.861466,-0.15395,0.419232,0.108727,-0.395951,1.08148,-0.221866,-0.336644,-0.0984311,-0.221866,-0.325043,-0.0984311,-0.790239,-0.150402,0.580078,0.726863,0.536812,-0.312555,-0.714582,1
0.962365,-0.708205,-1.66288,-0.992815,2.5644,1.35819,-1.83861,0.962365,-0.708205,-1.66288,-0.992815,2.5644,1.35819,-1.83861,1.04262,-0.684869,-1.71816,-1.06525,2.51371,1.38826,-1.76717,-0.861191,-0.326287,0.98127,1.0989,1.13859,-1.00786,-1.31018,-0.861191,-0.326287,0.98127,1.0989,1.13859,-1.00786,-1.31018,0.0665065,-0.525237,0.938078,0.974685,-0.0369645,-0.0608604,0.211941,-0.849349,-0.176861,0.37392,-0.924536,-0.213002,0.365407,0.106796,-0.399392,1.07931,-0.193131,-0.344089,-0.216734,-0.193131,-0.322025,-0.216734,-0.802588,-0.233358,0.552768,0.724401,0.506899,-0.300763,-0.714404,1
0.955129,-0.699712,-1.65154,-0.980669,2.57572,1.35441,-1.85264,0.955129,-0.699712,-1.65154,-0.980669,2.57572,1.35441,-1.85264,1.03449,-0.688329,-1.7083,-1.05432,2.52518,1.37876,-1.78017,-0.789972,-0.341367,0.992762,1.07858,1.14246,-0.917787,-1.29557,-0.789972,-0.341367,0.992762,1.07858,1.14246,-0.917787,-1.29557,0.0573539,-0.527306,0.941579,0.97594,-0.0344796,-0.0701838,0.203537,-0.825324,-0.158182,0.35453,-0.903674,-0.191773,0.343867,0.104636,-0.402626,1.07638,-0.215989,-0.323322,-0.2931,-0.215989,-0.319762,-0.2931,-0.793647,-0.113829,0.567611,0.736521,0.505416,-0.243455,-0.724689,1
0.950947,-0.703178,-1.63858,-0.97049,2.5867,1.3415,-1.8662,0.950947,-0.703178,-1.63858,-0.97049,2.5867,1.3415,-1.8662,1.02695,-0.691613,-1.69871,-1.04387,2.53618,1.37125,-1.79303,-0.754474,-0.325584,0.935632,1.0425,1.08258,-0.703,-1.28127,-0.754474,-0.325584,0.935632,1.0425,1.08258,-0.703,-1.28127,0.0484828,-0.528907,0.94484,0.976926,-0.0327794,-0.0794679,0.195513,-0.814496,-0.126951,0.328962,-0.893776,-0.151304,0.316251,0.102838,-0.406066,1.07303,-0.179791,-0.344062,-0.334835,-0.179791,-0.323436,-0.334835,-0.759991,-0.115647,0.601309,0.73376,0.50518,-0.297541,-0.731716,1
0.945422,-0.700401,-1.63072,-0.960287,2.59649,1.33779,-1.87938,0.945422,-0.700401,-1.63072,-0.960287,2.59649,1.33779,-1.87938,1.01961,-0.694682,-1.68942,-1.03344,2.54619,1.36528,-1.80579,-0.713642,-0.304335,0.945231,1.02697,0.970516,-0.56815,-1.27759,-0.713642,-0.304335,0.945231,1.02697,0.970516,-0.56815,-1.27759,0.0396751,-0.530056,0.948016,0.977763,-0.0319107,-0.0884742,0.18744,-0.787293,-0.0825728,0.327517,-0.865489,-0.0980437,0.313253,0.100647,-0.409562,1.06852,-0.219071,-0.349584,-0.450838,-0.219071,-0.332889,-0.450838,-0.741913,-0.057191,0.586997,0.731538,0.502981,-0.274914,-0.735881,1
0.941008,-0.71471,-1.6212,-0.952173,2.60163,1.32832,-1.89192,0.941008,-0.71471,-1.6212,-0.952173,2.60163,1.32832,-1.89192,1.01271,-0.697936,-1.68,-1.02308,2.55514,1.35995,-1.8186,-0.700591,-0.340336,0.928477,1.05322,0.876979,-0.524754,-1.28195,-0.700591,-0.340336,0.928477,1.05322,0.876979,-0.524754,-1.28195,0.0310652,-0.530975,0.951039,0.978435,-0.0313954,-0.0972326,0.179516,-0.804153,-0.0838929,0.308595,-0.881204,-0.0955654,0.293051,0.0990209,-0.412919,1.06341,-0.162643,-0.335678,-0.511193,-0.162643,-0.338916,-0.511193,-0.716988,-0.167739,0.588032,0.709077,0.464988,-0.316302,-0.733234,1
0.930545,-0.701385,-1.61397,-0.938986,2.60523,1.34924,-1.90468,0.930545,-0.701385,-1.61397,-0.938986,2.60523,1.34924,-1.90468,1.00498,-0.701672,-1.67102,-1.01209,2.56378,1.35496,-1.83154,-0.78857,-0.37617,0.905958,1.0965,0.86348,-0.495836,-1.29913,-0.78857,-0.37617,0.905958,1.0965,0.86348,-0.495836,-1.29913,0.0215096,-0.532077,0.953828,0.979094,-0.0310058,-0.106126,0.170734,-0.889095,-0.0952984,0.290958,-0.967716,-0.104212,0.27358,0.0962112,-0.416689,1.05752,-0.280964,-0.37699,-0.588858,-0.280964,-0.343576,-0.588858,-0.744324,0.00286487,0.570581,0.73102,0.414425,-0.0571519,-0.731385,1
0.923188,-0.708893,-1.6049,-0.928678,2.60044,1.34066,-1.91682,0.923188,-0.708893,-1.6049,-0.928678,2.60044,1.34066,-1.91682,0.997205,-0.705195,-1.66131,-1.00081,2.57257,1.34959,-1.84466,-0.776214,-0.343848,0.981916,1.14413,0.887085,-0.555195,-1.31672,-0.776214,-0.343848,0.981916,1.14413,0.887085,-0.555195,-1.31672,0.0118702,-0.532848,0.956826,0.979542,-0.0306548,-0.11519,0.162141,-0.889761,-0.0596624,0.323822,-0.970072,-0.0676124,0.304532,0.094015,-0.419749,1.0505,-0.219625,-0.306064,-0.702,-0.219625,-0.343036,-0.702,-0.740165,-0.0369739,0.56418,0.721316,0.278779,-0.0893686,-0.721613,1
0.913454,-0.732938,-1.59954,-0.919193,2.61408,1.31436,-1.92973,0.913454,-0.732938,-1.59954,-0.919193,2.61408,1.31436,-1.92973,0.989201,-0.708778,-1.65196,-0.9895,2.58169,1.34372,-1.85791,-0.803814,-0.368021,0.918793,1.11647,0.918647,-0.59949,-1.32636,-0.803814,-0.368021,0.918793,1.11647,0.918647,-0.59949,-1.32636,0.00196198,-0.533728,0.959633,0.979875,-0.0298795,-0.124239,0.153355,-0.91709,-0.0826515,0.284624,-0.995623,-0.0941723,0.264358,0.0921238,-0.422741,1.04332,-0.18912,-0.299114,-0.718319,-0.18912,-0.338706,-0.718319,-0.757474,-0.241598,0.524221,0.703064,0.323853,-0.293593,-0.718217,1
0.905708,-0.691516,-1.59724,-0.906946,2.63776,1.32791,-1.94319,0.905708,-0.691516,-1.59724,-0.906946,2.63776,1.32791,-1.94319,0.981536,-0.712279,-1.64252,-0.978299,2.59069,1.33807,-1.87119,-0.753251,-0.340552,0.954016,1.12647,0.882559,-0.514963,-1.32902,-0.753251,-0.340552,0.954016,1.12647,0.882559,-0.514963,-1.32902,-0.00778073,-0.534399,0.962355,0.980011,-0.0291575,-0.133252,0.144817,-0.892502,-0.0398136,0.295959,-0.972238,-0.0454473,0.273738,0.0897895,-0.425131,1.03491,-0.23343,-0.239089,-0.840664,-0.23343,-0.322797,-0.840664,-0.758286,0.207625,0.452847,0.713532,0.470734,-0.10151,-0.719961,1
0.902306,-0.697011,-1.60508,-0.899658,2.59008,1.31976,-1.95481,0.902306,-0.697011,-1.60508,-0.899658,2.59008,1.31976,-1.95481,0.974073,-0.715346,-1.63304,-0.967508,2.59857,1.33502,-1.88438,-0.74775,-0.294364,0.942583,1.07272,0.74329,-0.253676,-1.31761,-0.74775,-0.294364,0.942583,1.07272,0.74329,-0.253676,-1.31761,-0.0172689,-0.534283,0.965044,0.979965,-0.0297779,-0.142117,0.136327,-0.867133,0.02421,0.290468,-0.945253,0.032811,0.266913,0.0883539,-0.427083,1.02573,-0.143558,-0.195125,-0.91809,-0.143558,-0.296567,-0.91809,-0.717674,0.183353,0.279573,0.678496,-0.0848368,-0.152532,-0.704316,1
0.899025,-0.768393,-1.62665,-0.906207,2.5623,1.30486,-1.96735,0.899025,-0.768393,-1.62665,-0.906207,2.5623,1.30486,-1.96735,0.966344,-0.717914,-1.62384,-0.956197,2.60439,1.33253,-1.89744,-0.780947,-0.253161,0.911435,1.13773,0.546053,-0.265373,-1.30116,-0.780947,-0.253161,0.911435,1.13773,0.546053,-0.265373,-1.30116,-0.026792,-0.533552,0.967984,0.979945,-0.0313104,-0.150126,0.127235,-0.885081,0.0627011,0.315033,-0.955291,0.0801935,0.292343,0.08681,-0.42915,1.01612,-0.154388,-0.206718,-0.960898,-0.154388,-0.267367,-0.960898,-0.673186,-0.504798,-0.0281618,0.4999,-0.420898,-0.276656,-0.699049,1
0.88099,-0.718807,-1.62688,-0.877925,2.67345,1.3088,-1.98357,0.88099,-0.718807,-1.62688,-0.877925,2.67345,1.3088,-1.98357,0.958549,-0.720828,-1.6152,-0.945087,2.60963,1.32891,-1.91034,-0.774895,-0.304263,0.851177,1.11796,0.540205,-0.383768,-1.28534,-0.774895,-0.304263,0.851177,1.11796,0.540205,-0.383768,-1.28534,-0.0363115,-0.533132,0.97058,0.979902,-0.0321306,-0.157575,0.118021,-0.895035,0.023105,0.27065,-0.961203,0.0339338,0.248278,0.0849374,-0.432099,1.00563,-0.18726,-0.294867,-1.04872,-0.18726,-0.247758,-1.04872,-0.77559,0.0202144,-0.116839,0.671611,0.638268,-0.201096,-0.732299,1
0.880245,-0.679739,-1.66875,-0.879314,2.59159,1.3726,-1.98625,0.880245,-0.679739,-1.66875,-0.879314,2.59159,1.3726,-1.98625,0.950705,-0.72376,-1.60754,-0.933773,2.61577,1.32529,-1.92315,-0.791961,-0.282955,0.714685,1.11203,0.61564,-0.363011,-1.28134,-0.791961,-0.282955,0.714685,1.11203,0.61564,-0.363011,-1.28134,-0.0461879,-0.532879,0.972901,0.979719,-0.0326339,-0.165228,0.108557,-0.920985,0.0138818,0.241762,-0.985999,0.0244972,0.218643,0.0830872,-0.434481,0.993929,-0.185019,-0.238216,-1.17046,-0.185019,-0.23903,-1.17046,-0.704594,0.440209,-0.612105,0.54459,-0.241812,0.473101,-0.631029,1
0.895351,-0.770228,-1.65539,-0.871568,2.5855,1.35436,-1.99745,0.895351,-0.770228,-1.65539,-0.871568,2.5855,1.35436,-1.99745,0.942885,-0.725887,-1.6029,-0.922915,2.61806,1.32176,-1.93587,-0.767764,-0.178753,0.372857,1.09062,0.0481659,-0.354653,-1.26859,-0.767764,-0.178753,0.372857,1.09062,0.0481659,-0.354653,-1.26859,-0.0552897,-0.532393,0.975039,0.980005,-0.0335682,-0.17013,0.0975625,-0.841647,0.042862,0.23241,-0.874616,0.0691812,0.21957,0.0817543,-0.437192,0.981113,-0.133294,-0.271177,-1.28164,-0.133294,-0.239536,-1.28164,-0.475337,-0.443411,-0.524896,0.513467,-0.325602,0.326046,-0.615847,1
0.908913,-0.716267,-1.66141,-0.85785,2.57498,1.38389,-2.01217,0.908913,-0.716267,-1.66141,-0.85785,2.57498,1.38389,-2.01217,0.935608,-0.726659,-1.6021,-0.912632,2.61302,1.31764,-1.94838,-0.72739,-0.0514111,-0.0203607,1.01522,-0.65208,-0.421464,-1.24565,-0.72739,-0.0514111,-0.0203607,1.01522,-0.65208,-0.421464,-1.24565,-0.0625722,-0.531398,0.977311,0.981133,-0.0353224,-0.170249,0.0845263,-0.70747,0.0676847,0.222887,-0.698347,0.107574,0.224468,0.078945,-0.440181,0.968291,-0.280929,-0.298902,-1.28213,-0.280929,-0.252502,-1.28213,-0.266953,0.103923,-0.593033,0.547813,-0.380322,0.662481,-0.637894,1
0.917453,-0.768375,-1.66799,-0.842583,2.57817,1.3779,-2.02333,0.917453,-0.768375,-1.66799,-0.842583,2.57817,1.3779,-2.02333,0.927449,-0.726916,-1.60535,-0.902367,2.60727,1.31484,-1.96092,-0.847697,-0.0204326,-0.433699,1.03486,-0.447778,-0.171574,-1.25502,-0.847697,-0.0204326,-0.433699,1.03486,-0.447778,-0.171574,-1.25502,-0.0703627,-0.530543,0.97907,0.982443,-0.0374146,-0.169142,0.0692558,-0.836769,0.034767,0.150372,-0.828802,0.0806889,0.150786,0.0770516,-0.4429,0.954789,-0.18934,-0.271901,-1.35029,-0.18934,-0.266467,-1.35029,-0.0999658,-0.414591,-0.626372,0.597838,-0.29105,0.630566,-0.624092,1
0.890857,-0.741132,-1.67127,-0.839782,2.57243,1.39067,-2.03978,0.890857,-0.741132,-1.67127,-0.839782,2.57243,1.39067,-2.03978,0.91915,-0.726587,-1.61231,-0.892773,2.60846,1.31772,-1.973,-0.803045,0.0613458,-0.772366,0.930841,0.28378,0.441333,-1.18658,-0.803045,0.0613458,-0.772366,0.930841,0.28378,0.441333,-1.18658,-0.0793234,-0.529795,0.979798,0.983012,-0.0401962,-0.170843,0.0537038,-0.879295,0.0361831,0.0640992,-0.897122,0.0874782,0.0543192,0.0748579,-0.445104,0.940079,-0.219369,-0.2204,-1.47096,-0.219369,-0.26846,-1.47096,-0.282932,-0.145455,-0.589561,0.529903,-0.360246,0.729506,-0.667885,1
0.888874,-0.763563,-1.6933,-0.831014,2.56429,1.39565,-2.04559,0.888874,-0.763563,-1.6933,-0.831014,2.56429,1.39565,-2.04559,0.911837,-0.72547,-1.62212,-0.883694,2.61205,1.32596,-1.98426,-0.720799,0.110756,-1.05471,0.914304,0.285506,0.929655,-1.11197,-0.720799,0.110756,-1.05471,0.914304,0.285506,0.929655,-1.11197,-0.0881248,-0.528548,0.98,0.98307,-0.0446378,-0.173559,0.0381803,-0.859621,0.0715395,0.0202475,-0.87689,0.141963,0.00827976,0.0732179,-0.447277,0.924557,-0.164002,-0.217202,-1.55219,-0.164002,-0.258892,-1.55219,-0.229632,-0.380939,-0.711742,0.5268,-0.477637,0.696927,-0.613286,1
0.880691,-0.761753,-1.7002,-0.81452,2.55897,1.41065,-2.06636,0.880691,-0.761753,-1.7002,-0.81452,2.55897,1.41065,-2.06636,0.905041,-0.724718,-1.63344,-0.874708,2.60935,1.33766,-1.99522,-0.658686,0.0641021,-1.13484,0.888874,-0.480758,1.24173,-1.09452,-0.658686,0.0641021,-1.13484,0.888874,-0.480758,1.24173,-1.09452,-0.0961518,-0.526609,0.979912,0.983179,-0.0514499,-0.173965,0.0211618,-0.77294,0.124616,-0.00392519,-0.762745,0.220861,-0.00983281,0.0714382,-0.448938,0.908444,-0.177968,-0.16619,-1.61129,-0.177968,-0.244515,-1.61129,-0.243491,-0.370355,-0.667681,0.601882,-0.503727,0.729871,-0.711421,1
0.88887,-0.77269,-1.71232,-0.815944,2.56033,1.42073,-2.0739,0.88887,-0.77269,-1.71232,-0.815944,2.56033,1.42073,-2.0739,0.899091,-0.725027,-1.64428,-0.865351,2.60006,1.35089,-2.00634,-0.575254,-0.0688478,-1.06209,0.957302,-1.02452,1.32864,-1.12246,-0.575254,-0.0688478,-1.06209,0.957302,-1.02452,1.32864,-1.12246,-0.103326,-0.524243,0.979697,0.983207,-0.0599017,-0.172353,0.00328837,-0.735637,0.130379,-0.024907,-0.708876,0.237837,-0.028609,0.0696315,-0.450895,0.889522,-0.180668,-0.19567,-1.89224,-0.180668,-0.224992,-1.89224,-0.102214,-0.476638,-0.680313,0.494068,-0.397329,0.69847,-0.675533,1
0.885813,-0.777484,-1.71778,-0.809324,2.55929,1.4312,-2.08719,0.885813,-0.777484,-1.71778,-0.809324,2.55929,1.4312,-2.08719,0.893782,-0.726688,-1.65455,-0.855623,2.58917,1.36405,-2.01796,-0.518054,-0.201954,-1.02991,0.972845,-1.08561,1.3168,-1.17316,-0.518054,-0.201954,-1.02991,0.972845,-1.08561,1.3168,-1.17316,-0.110437,-0.522219,0.979056,0.982864,-0.0682351,-0.170608,-0.0147047,-0.741139,0.0857509,-0.0783998,-0.712267,0.188445,-0.0834024,0.0676769,-0.453377,0.87005,-0.195462,-0.248235,-1.94719,-0.195462,-0.212183,-1.94719,-0.0796912,-0.507966,-0.632359,0.462996,-0.298858,0.671481,-0.692353,1
0.875943,-0.783513,-1.72674,-0.810017,2.56732,1.43951,-2.09648,0.875943,-0.783513,-1.72674,-0.810017,2.56732,1.43951,-2.09648,0.889513,-0.729436,-1.66476,-0.845595,2.57892,1.37684,-2.02983,-0.38665,-0.288873,-1.00696,1.01645,-1.00822,1.26358,-1.19218,-0.38665,-0.288873,-1.00696,1.01645,-1.00822,1.26358,-1.19218,-0.117484,-0.520782,0.977924,0.982096,-0.0758728,-0.16938,-0.0322683,-0.715131,0.0437866,-0.109591,-0.688923,0.138662,-0.116664,0.066137,-0.455923,0.849989,-0.153989,-0.254574,-2.00607,-0.153989,-0.211545,-2.00607,-0.135707,-0.540767,-0.619864,0.355776,-0.115979,0.626727,-0.666544,1
0.868148,-0.786608,-1.73991,-0.820794,2.56217,1.44945,-2.10539,0.868148,-0.786608,-1.73991,-0.820794,2.56217,1.44945,-2.10539,0.886436,-0.732644,-1.67487,-0.835254,2.56973,1.38936,-2.04217,-0.295584,-0.340368,-1.03079,1.02572,-0.881079,1.24103,-1.2489,-0.295584,-0.340368,-1.03079,1.02572,-0.881079,1.24103,-1.2489,-0.124225,-0.519655,0.976584,0.980924,-0.0829972,-0.168728,-0.0493075,-0.696008,0.00992195,-0.141823,-0.672353,0.097912,-0.150599,0.064536,-0.4581,0.828839,-0.160098,-0.21773,-2.11501,-0.160098,-0.216859,-2.11501,-0.182876,-0.539632,-0.650325,0.1446,-0.0755744,0.600927,-0.632244,1
0.861876,-0.794319,-1.75325,-0.83194,2.55033,1.46217,-2.11744,0.861876,-0.794319,-1.75325,-0.83194,2.55033,1.46217,-2.11744,0.883673,-0.736634,-1.68541,-0.825027,2.56267,1.40185,-2.05483,-0.268153,-0.405345,-1.04988,1.02435,-0.648188,1.25386,-1.26736,-0.268153,-0.405345,-1.04988,1.02435,-0.648188,1.25386,-1.26736,-0.131297,-0.51908,0.974665,0.979339,-0.0892755,-0.168974,-0.0661202,-0.725062,-0.02408,-0.1864,-0.709028,0.0572121,-0.198173,0.0626998,-0.461359,0.807587,-0.183624,-0.32585,-2.12519,-0.183624,-0.234285,-2.12519,-0.217973,-0.576851,-0.678405,-0.0691355,-0.123475,0.603221,-0.626151,1
0.875035,-0.799739,-1.7669,-0.835873,2.52705,1.47594,-2.13042,0.875035,-0.799739,-1.7669,-0.835873,2.52705,1.47594,-2.13042,0.881183,-0.740862,-1.6958,-0.815554,2.55831,1.41423,-2.06747,-0.248787,-0.438852,-1.0439,0.902883,-0.349222,1.22729,-1.25938,-0.248787,-0.438852,-1.0439,0.902883,-0.349222,1.22729,-1.25938,-0.138326,-0.518822,0.972378,0.977413,-0.0947018,-0.170199,-0.0820211,-0.70853,-0.0613684,-0.236617,-0.700945,0.008252,-0.250064,0.061128,-0.464077,0.784824,-0.157184,-0.27177,-2.27635,-0.157184,-0.253806,-2.27635,-0.0614826,-0.58877,-0.710951,-0.203189,-0.312586,0.617084,-0.629593,1
0.882332,-0.803187,-1.78012,-0.82567,2.51843,1.49115,-2.14726,0.882332,-0.803187,-1.78012,-0.82567,2.51843,1.49115,-2.14726,0.878722,-0.745789,-1.70614,-0.808172,2.55697,1.42636,-2.07974,-0.239883,-0.502823,-1.02414,0.667554,-0.0818552,1.2027,-1.21517,-0.239883,-0.502823,-1.02414,0.667554,-0.0818552,1.2027,-1.21517,-0.145209,-0.519363,0.969223,0.975326,-0.0985747,-0.172309,-0.0966,-0.666094,-0.123688,-0.321775,-0.666188,-0.0693246,-0.335119,0.0592655,-0.466421,0.761778,-0.186247,-0.234437,-2.30451,-0.186247,-0.262186,-2.30451,0.0360966,-0.573981,-0.739797,-0.174986,-0.385457,0.647963,-0.675186,1
0.870346,-0.807041,-1.79358,-0.835459,2.52643,1.49932,-2.16077,0.870346,-0.807041,-1.79358,-0.835459,2.52643,1.49932,-2.16077,0.876103,-0.75085,-1.71637,-0.803838,2.55679,1.43792,-2.09143,-0.283266,-0.506142,-1.02848,0.358505,-0.017181,1.14862,-1.15369,-0.283266,-0.506142,-1.02848,0.358505,-0.017181,1.14862,-1.15369,-0.15119,-0.520505,0.965402,0.973364,-0.101068,-0.174071,-0.109762,-0.583519,-0.163002,-0.388772,-0.579526,-0.121938,-0.397896,0.0574941,-0.469039,0.73761,-0.177145,-0.261831,-2.41685,-0.177145,-0.264135,-2.41685,-0.0575714,-0.561915,-0.772123,-0.316214,-0.303606,0.614031,-0.693417,1
0.858359,-0.810864,-1.80486,-0.841271,2.53582,1.50542,-2.16963,0.858359,-0.810864,-1.80486,-0.841271,2.53582,1.50542,-2.16963,0.872641,-0.755968,-1.72657,-0.802768,2.55563,1.44952,-2.10272,-0.365084,-0.50673,-1.01463,0.0272168,-0.171676,1.16028,-1.12317,-0.365084,-0.50673,-1.01463,0.0272168,-0.171676,1.16028,-1.12317,-0.156251,-0.521975,0.960953,0.971599,-0.102831,-0.174574,-0.122253,-0.49102,-0.181884,-0.452431,-0.474895,-0.14841,-0.455757,0.0557486,-0.471387,0.712535,-0.174546,-0.234744,-2.50747,-0.174546,-0.261895,-2.50747,-0.142826,-0.54896,-0.782946,-0.385025,-0.198053,0.559025,-0.669091,1
0.835824,-0.823546,-1.81497,-0.849004,2.55471,1.50894,-2.17534,0.835824,-0.823546,-1.81497,-0.849004,2.55471,1.50894,-2.17534,0.868267,-0.761159,-1.73716,-0.803625,2.55151,1.46132,-2.11389,-0.463561,-0.534354,-1.08378,-0.101557,-0.498134,1.19005,-1.12091,-0.463561,-0.534354,-1.08378,-0.101557,-0.498134,1.19005,-1.12091,-0.160665,-0.523488,0.956124,0.969959,-0.104636,-0.173169,-0.135069,-0.477568,-0.186211,-0.498366,-0.442707,-0.152104,-0.495962,0.054356,-0.473504,0.686776,-0.13926,-0.211763,-2.57591,-0.13926,-0.254394,-2.57591,-0.324438,-0.623869,-0.778131,-0.453791,0.0320059,0.476241,-0.614533,1
0.817399,-0.834585,-1.82609,-0.859231,2.55184,1.51714,-2.18307,0.817399,-0.834585,-1.82609,-0.859231,2.55184,1.51714,-2.18307,0.863896,-0.766997,-1.74856,-0.805065,2.54407,1.47359,-2.1256,-0.402033,-0.597668,-1.1572,-0.184562,-0.810269,1.23485,-1.18986,-0.402033,-0.597668,-1.1572,-0.184562,-0.810269,1.23485,-1.18986,-0.164642,-0.525241,0.950805,0.968279,-0.106672,-0.170121,-0.148716,-0.409942,-0.222963,-0.556251,-0.360129,-0.190468,-0.54921,0.0520801,-0.475927,0.659063,-0.227588,-0.242221,-2.77128,-0.227588,-0.241158,-2.77128,-0.464972,-0.675883,-0.775312,-0.541656,0.0777375,0.435503,-0.574687,1
0.812317,-0.838481,-1.83921,-0.869122,2.5389,1.53268,-2.19357,0.812317,-0.838481,-1.83921,-0.869122,2.5389,1.53268,-2.19357,0.861187,-0.773157,-1.76106,-0.808415,2.5364,1.48586,-2.13808,-0.234249,-0.620223,-1.27391,-0.369687,-0.699723,1.21802,-1.26407,-0.234249,-0.620223,-1.27391,-0.369687,-0.699723,1.21802,-1.26407,-0.167211,-0.527874,0.944751,0.966746,-0.107691,-0.16634,-0.161668,-0.287688,-0.302266,-0.632945,-0.238765,-0.283766,-0.622978,0.0501858,-0.477976,0.630537,-0.18943,-0.204885,-2.85267,-0.18943,-0.23276,-2.85267,-0.488698,-0.653244,-0.781524,-0.607065,0.0250689,0.468203,-0.554906,1
0.821979,-0.840024,-1.85217,-0.875587,2.53402,1.55168,-2.20471,0.821979,-0.840024,-1.85217,-0.875587,2.53402,1.55168,-2.20471,0.859245,-0.779111,-1.77402,-0.813266,2.53251,1.49749,-2.15077,-0.193202,-0.586499,-1.3019,-0.528601,-0.275874,1.14697,-1.26058,-0.193202,-0.586499,-1.3019,-0.528601,-0.275874,1.14697,-1.26058,-0.169393,-0.531109,0.938273,0.965236,-0.107214,-0.163587,-0.17339,-0.25214,-0.337092,-0.668079,-0.21791,-0.332942,-0.658937,0.0488202,-0.480528,0.600406,-0.13656,-0.255257,-3.01306,-0.13656,-0.23119,-3.01306,-0.372656,-0.609128,-0.781534,-0.623208,0.0150717,0.541909,-0.539444,1
0.856777,-0.845467,-1.86665,-0.882805,2.54391,1.55978,-2.22303,0.856777,-0.845467,-1.86665,-0.882805,2.54391,1.55978,-2.22303,0.856696,-0.784979,-1.78695,-0.819163,2.53338,1.50807,-2.1627,-0.277909,-0.58675,-1.28149,-0.603684,0.192078,1.01786,-1.16504,-0.277909,-0.58675,-1.28149,-0.603684,0.192078,1.01786,-1.16504,-0.172264,-0.534694,0.93146,0.963693,-0.105201,-0.162402,-0.183997,-0.327498,-0.353436,-0.694096,-0.311697,-0.362142,-0.68694,0.0470857,-0.483483,0.57003,-0.17345,-0.29552,-3.0376,-0.17345,-0.236019,-3.0376,0.000805601,-0.604881,-0.796988,-0.63642,0.105351,0.517135,-0.603298,1
0.878129,-0.851857,-1.87957,-0.892087,2.55167,1.56723,-2.24214,0.878129,-0.851857,-1.87957,-0.892087,2.55167,1.56723,-2.24214,0.853376,-0.791009,-1.79971,-0.825677,2.53677,1.51731,-2.17338,-0.345921,-0.612505,-1.27934,-0.673758,0.344138,0.900122,-1.03871,-0.345921,-0.612505,-1.27934,-0.673758,0.344138,0.900122,-1.03871,-0.175806,-0.538538,0.924382,0.9622,-0.102017,-0.161926,-0.193761,-0.37074,-0.371786,-0.728176,-0.360385,-0.390105,-0.720015,0.0459262,-0.485485,0.538733,-0.115955,-0.200191,-3.12966,-0.115955,-0.238765,-3.12966,0.247527,-0.608484,-0.798634,-0.664097,0.148994,0.499246,-0.687532,1
0.848821,-0.863626,-1.89146,-0.894643,2.56359,1.57322,-2.25323,0.848821,-0.863626,-1.89146,-0.894643,2.56359,1.57322,-2.25323,0.850051,-0.797254,-1.81228,-0.833441,2.53891,1.52617,-2.18321,-0.327489,-0.624837,-1.25355,-0.811724,0.161992,0.892523,-0.967295,-0.327489,-0.624837,-1.25355,-0.811724,0.161992,0.892523,-0.967295,-0.178833,-0.542591,0.916961,0.960926,-0.0984749,-0.160608,-0.202804,-0.300166,-0.38186,-0.762505,-0.28248,-0.404346,-0.751232,0.0450738,-0.488507,0.507418,-0.0852346,-0.302142,-3.13152,-0.0852346,-0.248683,-3.13152,-0.0122961,-0.663718,-0.791809,-0.612019,0.246859,0.47043,-0.700163,1
0.809177,-0.873459,-1.90375,-0.903314,2.57302,1.5768,-2.25497,0.809177,-0.873459,-1.90375,-0.903314,2.57302,1.5768,-2.25497,0.846528,-0.803853,-1.82481,-0.842158,2.5398,1.53569,-2.19274,-0.362664,-0.671421,-1.25018,-0.895939,0.086557,0.976667,-0.957707,-0.362664,-0.671421,-1.25018,-0.895939,0.086557,0.976667,-0.957707,-0.181649,-0.546673,0.909095,0.959677,-0.095024,-0.158727,-0.211653,-0.305871,-0.38318,-0.814274,-0.286326,-0.4059,-0.802639,0.0439217,-0.490647,0.474051,-0.11521,-0.214046,-3.33673,-0.11521,-0.250645,-3.33673,-0.373503,-0.696064,-0.789407,-0.61156,0.332223,0.411106,-0.622334,1
0.797777,-0.881293,-1.91728,-0.916241,2.56992,1.58845,-2.25435,0.797777,-0.881293,-1.91728,-0.916241,2.56992,1.58845,-2.25435,0.842816,-0.810676,-1.83739,-0.851967,2.54115,1.54607,-2.20307,-0.371293,-0.684364,-1.26288,-1.01389,0.158234,1.04101,-1.0675,-0.371293,-0.684364,-1.26288,-1.01389,0.158234,1.04101,-1.0675,-0.184452,-0.550788,0.900723,0.958284,-0.0913338,-0.157061,-0.22064,-0.293652,-0.387153,-0.862786,-0.277376,-0.413106,-0.851453,0.0420733,-0.493394,0.440372,-0.184846,-0.274736,-3.36789,-0.184846,-0.255422,-3.36789,-0.450389,-0.706172,-0.798917,-0.642738,0.287625,0.42383,-0.512777,1
0.801006,-0.884371,-1.93002,-0.929604,2.55801,1.60625,-2.26489,0.801006,-0.884371,-1.93002,-0.929604,2.55801,1.60625,-2.26489,0.839393,-0.81724,-1.85003,-0.86215,2.54365,1.5563,-2.21497,-0.332654,-0.643365,-1.26688,-1.01849,0.281569,1.01761,-1.23098,-0.332654,-0.643365,-1.26688,-1.01849,0.281569,1.01761,-1.23098,-0.187125,-0.554868,0.892278,0.95668,-0.0871642,-0.155801,-0.22998,-0.27663,-0.372762,-0.853508,-0.265358,-0.40082,-0.843256,0.0401403,-0.496338,0.406206,-0.193298,-0.294319,-3.41665,-0.193298,-0.258617,-3.41665,-0.383878,-0.671312,-0.799888,-0.674543,0.143586,0.499494,-0.49918,1
0.809051,-0.887361,-1.94256,-0.941799,2.55522,1.61917,-2.28444,0.809051,-0.887361,-1.94256,-0.941799,2.55522,1.61917,-2.28444,0.836499,-0.823963,-1.86298,-0.872761,2.54814,1.56605,-2.22805,-0.271245,-0.685818,-1.2992,-1.07468,0.500852,0.946253,-1.31894,-0.271245,-0.685818,-1.2992,-1.07468,0.500852,0.946253,-1.31894,-0.189825,-0.559251,0.883461,0.954913,-0.0819772,-0.155247,-0.239414,-0.272504,-0.411898,-0.907717,-0.271796,-0.45015,-0.89811,0.0387805,-0.498712,0.370688,-0.135976,-0.237483,-3.55177,-0.135976,-0.258143,-3.55177,-0.274481,-0.633981,-0.795826,-0.69038,0.0707773,0.531183,-0.563941,1
0.84456,-0.892685,-1.9563,-0.95321,2.54394,1.62821,-2.30081,0.84456,-0.892685,-1.9563,-0.95321,2.54394,1.62821,-2.30081,0.834349,-0.830876,-1.87591,-0.882935,2.55453,1.57447,-2.24058,-0.20471,-0.69459,-1.29524,-1.00493,0.672233,0.811781,-1.2154,-0.20471,-0.69459,-1.29524,-1.00493,0.672233,0.811781,-1.2154,-0.192654,-0.563925,0.874538,0.953156,-0.0758176,-0.155402,-0.248186,-0.28149,-0.423774,-0.90459,-0.289679,-0.4683,-0.896345,0.0367395,-0.501036,0.334053,-0.204104,-0.23239,-3.66348,-0.204104,-0.259842,-3.66348,0.102104,-0.618095,-0.803856,-0.702753,-0.10588,0.537369,-0.60227,1
0.857759,-0.902089,-1.96866,-0.961545,2.56846,1.63201,-2.31968,0.857759,-0.902089,-1.96866,-0.961545,2.56846,1.63201,-2.31968,0.832319,-0.838058,-1.88886,-0.892949,2.56065,1.58243,-2.25091,-0.208868,-0.7225,-1.29229,-1.00935,0.550667,0.801415,-0.97348,-0.208868,-0.7225,-1.29229,-1.00935,0.550667,0.801415,-0.97348,-0.195556,-0.568636,0.865436,0.951593,-0.0695508,-0.155321,-0.255947,-0.289002,-0.426541,-0.916707,-0.2984,-0.472548,-0.908954,0.035366,-0.503255,0.296111,-0.137353,-0.221848,-3.7942,-0.137353,-0.251219,-3.7942,0.254403,-0.640314,-0.798055,-0.685962,0.0781996,0.49579,-0.687681,1
0.811324,-0.917482,-1.98127,-0.964772,2.57423,1.63916,-2.32601,0.811324,-0.917482,-1.98127,-0.964772,2.57423,1.63916,-2.32601,0.829451,-0.845451,-1.90192,-0.902753,2.56381,1.59095,-2.25961,-0.317383,-0.744419,-1.30436,-0.986315,0.245144,0.877513,-0.851556,-0.317383,-0.744419,-1.30436,-0.986315,0.245144,0.877513,-0.851556,-0.198649,-0.572922,0.856243,0.950074,-0.0642464,-0.153964,-0.263678,-0.326502,-0.373212,-0.936829,-0.317475,-0.411767,-0.926057,0.0345239,-0.506076,0.256956,-0.0842035,-0.282073,-3.91555,-0.0842035,-0.252518,-3.91555,-0.181264,-0.720309,-0.793538,-0.620199,0.104188,0.48207,-0.66407,1
0.777405,-0.926004,-1.99369,-0.974874,2.58342,1.64508,-2.31953,0.777405,-0.926004,-1.99369,-0.974874,2.58342,1.64508,-2.31953,0.825946,-0.852872,-1.91482,-0.913304,2.56405,1.60053,-2.26851,-0.357601,-0.737552,-1.28485,-1.0827,-0.0502942,0.978154,-0.915083,-0.357601,-0.737552,-1.28485,-1.0827,-0.0502942,0.978154,-0.915083,-0.201451,-0.576789,0.846869,0.948509,-0.0597568,-0.151398,-0.271733,-0.285455,-0.339451,-0.955796,-0.264099,-0.374527,-0.942805,0.0329853,-0.508778,0.217377,-0.153863,-0.27023,-3.95784,-0.153863,-0.250602,-3.95784,-0.485405,-0.731314,-0.78878,-0.615697,0.193717,0.445545,-0.510212,1
0.770624,-0.933077,-2.00737,-0.988428,2.55862,1.66136,-2.30836,0.770624,-0.933077,-2.00737,-0.988428,2.55862,1.66136,-2.30836,0.822152,-0.860159,-1.92774,-0.924216,2.56195,1.61085,-2.27886,-0.388028,-0.725892,-1.30026,-1.11542,-0.228615,1.04494,-1.08141,-0.388028,-0.725892,-1.30026,-1.11542,-0.228615,1.04494,-1.08141,-0.203937,-0.580273,0.837455,0.946721,-0.0558965,-0.147852,-0.280598,-0.275059,-0.308283,-0.965443,-0.245539,-0.340631,-0.95129,0.0316103,-0.511005,0.176669,-0.137496,-0.222689,-4.07082,-0.137496,-0.247041,-4.07082,-0.515284,-0.72918,-0.796342,-0.642116,-0.0333588,0.505103,-0.294946,1
0.771092,-0.936761,-2.01937,-1.00328,2.54143,1.67368,-2.31692,0.771092,-0.936761,-2.01937,-1.00328,2.54143,1.67368,-2.31692,0.818494,-0.867609,-1.94095,-0.935993,2.56149,1.62104,-2.29101,-0.352736,-0.750555,-1.31874,-1.18412,0.0314076,0.998694,-1.25192,-0.352736,-0.750555,-1.31874,-1.18412,0.0314076,0.998694,-1.25192,-0.206484,-0.583928,0.827539,0.944643,-0.0510715,-0.144842,-0.289936,-0.27865,-0.326982,-1.01463,-0.261624,-0.368093,-1.00248,0.0310576,-0.513888,0.13534,-0.0552714,-0.288337,-4.13294,-0.0552714,-0.253524,-4.13294,-0.474025,-0.691526,-0.784155,-0.672851,-0.200612,0.526371,-0.259126,1
