Afshin1997/kuka_rl_ros2/src/catch_and_throw/output_files/tm/optitrack_reduced/tm_received_joint_vel_np.csv
joint_0,joint_1,joint_2,joint_3,joint_4,joint_5,joint_6
2.39541e-05,4.793e-05,3.5953e-05,1.19989e-05,5.75247e-05,0,0
0,-2.39771e-05,-1.19994e-05,-1.19994e-05,0,-2.39771e-05,0
-5.99071e-05,-2.39541e-05,-2.39541e-05,0,1.91633e-05,-1.1977e-05,0
1.19776e-05,2.39552e-05,4.79323e-05,-3.59547e-05,-5.75275e-05,-2.39552e-05,3.59547e-05
0.00191744,0.00532089,0.0132303,-0.0151118,-0.0059824,-0.0154114,0.0116844
0.00302008,0.0286909,0.0694982,-0.0871754,-0.0435469,-0.0746276,0.0326219
-0.016454,0.038097,0.125376,-0.134076,-0.0999941,-0.115274,0.0101145
-0.0456131,0.0288947,0.186707,-0.120013,-0.125214,-0.0662025,0.0017018
-0.0696148,-0.00299599,0.208653,-0.111619,-0.112687,0.000695061,-0.00808918
-0.0656512,-0.0435997,0.21541,-0.065783,-0.108378,-0.00894045,-0.00433839
-0.0345018,-0.0572473,0.265061,-0.0444605,-0.113915,-0.0234047,0.0515669
-0.0215961,-0.0763773,0.267746,0.0305126,-0.110603,0.0120205,0.0699896
-0.0200252,-0.0887172,0.213566,0.129499,-0.116752,0.00847264,0.0247229
0.0124759,-0.0742681,0.191501,0.133903,-0.137448,-0.0676047,0.0299493
0.0678771,-0.0446162,0.24458,0.0678771,-0.148831,-0.129115,0.0549464
0.0994236,-0.013926,0.31119,0.0180247,-0.12974,-0.0752508,0.100922
0.0881899,-0.0150399,0.308575,-0.0212475,-0.110041,0.0125472,0.0863803
0.0872354,-0.037979,0.269256,-0.055009,-0.12067,-0.00661544,0.0448581
0.132542,-0.0518905,0.27315,-0.134208,-0.147336,-0.0757745,0.0860088
0.177994,-0.0597908,0.32538,-0.227982,-0.155358,-0.0887813,0.144977
0.168854,-0.0849183,0.330817,-0.225658,-0.123789,-0.00805322,0.158703
0.134203,-0.111025,0.309836,-0.244928,-0.0786568,0.0424732,0.0784387
0.127198,-0.131308,0.345857,-0.258793,-0.0592486,-0.0249506,0.0114686
0.123183,-0.1402,0.369657,-0.253964,-0.0805705,-0.104153,0.0200731
0.108052,-0.151808,0.369351,-0.258986,-0.115953,-0.155823,-0.00562073
0.0845228,-0.168135,0.350171,-0.201546,-0.142484,-0.156642,-0.0361796
0.0614087,-0.181805,0.300488,-0.124699,-0.146307,-0.145073,-0.0359895
0.0577986,-0.151405,0.253185,-0.108023,-0.12285,-0.0982564,-0.00353526
0.0779593,-0.0995794,0.26022,-0.0730217,-0.112578,-0.0770365,-0.0126916
0.0901673,-0.0293966,0.298412,0.0202289,-0.1305,-0.0523339,-0.0454312
0.0625232,0.0119965,0.298163,0.0848025,-0.145463,0.00435038,-0.0700975
0.0302475,0.0100785,0.290167,0.147391,-0.1412,0.0287615,-0.0894482
0.0302609,-0.000790981,0.313204,0.208938,-0.139615,0.0182524,-0.105656
0.055246,-0.0252142,0.343089,0.261394,-0.135927,-0.0124154,-0.114495
0.0750111,-0.0581489,0.339078,0.293297,-0.134821,-0.0209609,-0.132525
0.0837558,-0.0848464,0.310672,0.318593,-0.133703,-0.027623,-0.139062
0.105835,-0.0858451,0.302645,0.350931,-0.132827,-0.0421975,-0.139716
0.137899,-0.068728,0.300653,0.370484,-0.131747,-0.0621607,-0.140608
0.173596,-0.0572621,0.29265,0.373965,-0.130526,-0.0793855,-0.14282
0.207119,-0.0565882,0.273677,0.371658,-0.132974,-0.0838877,-0.144479
0.243933,-0.0740763,0.257811,0.372958,-0.125943,-0.0827651,-0.132033
0.278615,-0.0905028,0.257799,0.332351,-0.0986135,-0.0629277,-0.0678052
0.30183,-0.0963196,0.251375,0.233782,-0.0987333,-0.0860009,-0.0421496
0.309749,-0.0980886,0.235137,0.17952,-0.114816,-0.0899875,-0.0395231
0.315025,-0.0999149,0.232847,0.175405,-0.108532,-0.0334608,0.00734651
0.330925,-0.111127,0.256984,0.159542,-0.0791324,0.0355084,0.0361795
0.342158,-0.105692,0.29271,0.111372,-0.0401529,0.094474,0.0676406
0.331224,-0.0939422,0.292348,0.178165,-0.034207,0.0943377,0.0469172
0.300857,-0.0887412,0.219702,0.213135,-0.0628343,0.0596801,-0.0120199
0.29603,-0.084383,0.168994,0.183375,-0.0797881,0.0298894,0.00297215
0.316748,-0.0390797,0.197903,0.137552,-0.0708683,0.0241357,0.0491702
0.309476,0.0189835,0.254827,0.103295,-0.0653108,-0.00106662,0.0423293
0.242615,0.0423513,0.269243,0.0382528,-0.065116,-0.0141291,0.00210918
0.164751,0.0426409,0.283518,-0.0508384,-0.0688007,-0.0149567,0.025575
0.116101,0.0185631,0.332662,-0.0577626,-0.0561616,-0.0177962,0.0321769
0.078187,-0.0324061,0.323211,-0.0150645,-0.0621278,-0.0330653,0.0195587
0.0383367,-0.0908983,0.260951,-0.041848,-0.078097,-0.065708,0.0376775
0.0162271,-0.0864923,0.243478,-0.0609773,-0.0901619,-0.116933,0.00122242
0.000922756,-0.0297801,0.292229,0.0292648,-0.105919,-0.143436,-0.0447481
-0.0308721,0.0149088,0.344603,0.1023,-0.104524,-0.126317,-0.05115
-0.0796573,0.0202649,0.331872,0.0628199,-0.0733993,-0.0617413,-0.0218587
-0.0945459,-0.00142617,0.298175,-0.0148488,-0.0706224,-0.0814828,-0.0203018
-0.065744,-0.0260052,0.248044,-0.100078,-0.124077,-0.19988,-0.0663432
-0.0174734,-0.0629188,0.189104,-0.146762,-0.189528,-0.340229,-0.105823
0.0108814,-0.0924562,0.125784,-0.179064,-0.227043,-0.378873,-0.13289
0.0214163,-0.0947496,0.12416,-0.17465,-0.214743,-0.321952,-0.134251
0.0345377,-0.0879023,0.189994,-0.146048,-0.194198,-0.274876,-0.071724
0.040244,-0.107873,0.251939,-0.169006,-0.144696,-0.182309,-0.00880863
0.06119,-0.150279,0.324441,-0.160477,-0.0852874,-0.0466175,-0.0144047
0.097578,-0.193059,0.394303,-0.158651,-0.062703,0.0258746,0.00264858
0.12679,-0.252993,0.428318,-0.161112,-0.0903302,-0.00613578,0.0452274
0.128941,-0.349708,0.381527,-0.182764,-0.126307,-0.0549011,0.0261023
0.128941,-0.349708,0.381527,-0.182764,-0.126307,-0.0549011,0.0261023
0.187354,-0.441258,0.403878,-0.267914,-0.117026,-0.047279,-0.00790979
0.184661,-0.426149,0.399653,-0.187992,-0.0863803,0.0277309,-0.000958709
0.193706,-0.401098,0.428435,-0.13316,-0.0433552,0.0884577,0.064249
0.204818,-0.36605,0.469519,-0.0653005,-0.00592487,0.132926,0.143388
0.196306,-0.340624,0.485469,0.0300931,0.015206,0.159334,0.216153
0.196306,-0.340624,0.485469,0.0300931,0.015206,0.159334,0.216153
0.0928479,-0.309769,0.449649,0.128831,0.0284458,0.17953,0.177732
0.0928479,-0.309769,0.449649,0.128831,0.0284458,0.17953,0.177732
0.0168502,-0.261227,0.451205,0.0189955,0.0575257,0.154301,0.121008
-0.101396,-0.128636,0.443454,-0.133465,0.108661,0.123135,0.12111
-0.128366,-0.105907,0.437363,-0.173776,0.117563,0.149807,0.17169
-0.165067,-0.0785908,0.420517,-0.206196,0.131919,0.185512,0.207718
-0.201771,-0.0512218,0.403627,-0.227334,0.150104,0.224818,0.229899
-0.233088,-0.0215711,0.391875,-0.237067,0.166951,0.261574,0.176536
-0.265949,0.00767008,0.357115,-0.227586,0.172328,0.285855,0.0959001
-0.295021,0.0305711,0.270406,-0.21951,0.140759,0.235688,0.0221823
-0.283518,0.0633861,0.221726,-0.216381,0.0958186,0.157321,0.0223392
-0.249422,0.115645,0.241453,-0.260291,0.059402,0.118042,0.0259572
-0.239654,0.159945,0.253748,-0.270251,0.0418404,0.121655,-0.020889
-0.256217,0.168075,0.203727,-0.176116,0.0645408,0.198286,-0.0118162
-0.250261,0.147362,0.14572,-0.0925804,0.0963939,0.285627,-0.00152203
-0.186027,0.12365,0.174139,-0.0669783,0.120338,0.305255,-0.00615976
-0.136737,0.12516,0.232597,-0.0846906,0.133434,0.276925,-0.00405058
-0.159622,0.119677,0.217699,-0.113218,0.139366,0.277765,-0.000778982
-0.204039,0.0957877,0.185056,-0.110899,0.136809,0.277992,0.00322368
-0.206445,0.0672332,0.214283,-0.115015,0.118292,0.27846,-0.00116251
-0.170855,0.0422913,0.282186,-0.0988436,0.113761,0.253772,-0.00868836
-0.147949,0.0156158,0.335087,-0.0438154,0.137256,0.224099,-0.0152084
-0.153059,-0.015663,0.339709,-0.00810115,0.173566,0.180538,-0.0357721
-0.155283,-0.0444266,0.351015,0.0558958,0.201723,0.124315,-0.0609293
-0.135742,-0.0763737,0.389598,0.145198,0.215117,0.0536162,-0.0854575
-0.102384,-0.116154,0.428447,0.216572,0.227802,-0.0127036,-0.111168
-0.0689077,-0.166205,0.449362,0.257715,0.238835,-0.0599317,-0.132519
-0.0350307,-0.216836,0.460505,0.261346,0.245385,-0.0919692,-0.145037
0.00901191,-0.257176,0.475547,0.229672,0.248691,-0.100485,-0.163449
0.0608694,-0.296617,0.494302,0.190734,0.24109,-0.0957204,-0.175813
0.118449,-0.332267,0.50764,0.185416,0.227868,-0.0782911,-0.184733
0.176892,-0.365744,0.512686,0.169449,0.219269,-0.0318069,-0.197553
0.236491,-0.402097,0.514471,0.153862,0.205913,0.020912,-0.205513
0.295634,-0.431467,0.507892,0.138289,0.19135,0.0626791,-0.212809
0.357397,-0.466559,0.498628,0.145389,0.176806,0.0976452,-0.220529
0.423737,-0.505567,0.490263,0.172397,0.154284,0.121223,-0.226747
0.484535,-0.54485,0.472647,0.177626,0.138956,0.142885,-0.232393
0.532496,-0.587014,0.443907,0.190626,0.128608,0.122865,-0.230115
0.571479,-0.59734,0.417868,0.202049,0.114873,0.103469,-0.230871
0.608286,-0.606812,0.408073,0.211407,0.106729,0.0745557,-0.220611
0.641848,-0.605921,0.411133,0.20453,0.0985368,0.0362155,-0.214908
0.667075,-0.605873,0.413914,0.193517,0.0947403,-0.00750195,-0.204446
0.681847,-0.620175,0.411105,0.190997,0.0858859,-0.0430244,-0.195048
0.683409,-0.636635,0.396453,0.190737,0.0675895,-0.0600156,-0.192726
0.675867,-0.64418,0.378795,0.190961,0.0382929,-0.0777316,-0.19047
0.664031,-0.637558,0.366877,0.189934,0.004621,-0.104392,-0.189814
0.656908,-0.622967,0.370909,0.185544,-0.0228952,-0.127407,-0.194353
0.655954,-0.607466,0.386063,0.184014,-0.0463252,-0.142621,-0.199868
0.654271,-0.592635,0.403183,0.190614,-0.0739589,-0.163097,-0.203905
0.63902,-0.590797,0.399665,0.205129,-0.0965427,-0.166589,-0.205225
0.609509,-0.58373,0.382534,0.211071,-0.110852,-0.145468,-0.209262
0.582911,-0.564444,0.377447,0.20791,-0.12517,-0.113895,-0.212967
0.570367,-0.543426,0.394542,0.210412,-0.134092,-0.0868159,-0.211563
0.563833,-0.520175,0.417665,0.208653,-0.150058,-0.0469531,-0.215675
0.556657,-0.516916,0.432977,0.209717,-0.168186,-0.0122242,-0.21517
0.542226,-0.523099,0.430547,0.212416,-0.182578,0.00559651,-0.219498
0.524071,-0.535996,0.414197,0.220371,-0.19436,0.0010906,-0.217112
0.504908,-0.539026,0.402133,0.232704,-0.210802,-0.0102463,-0.218288
0.490886,-0.523688,0.400139,0.238348,-0.229719,-0.0156997,-0.218694
0.486117,-0.510864,0.401103,0.260879,-0.244377,-0.0347295,-0.217569
0.489172,-0.48928,0.400163,0.280821,-0.261473,-0.0632783,-0.214978
0.494194,-0.475248,0.396357,0.310037,-0.274154,-0.0944455,-0.212811
0.494026,-0.475534,0.386333,0.343261,-0.285481,-0.121655,-0.21396
0.490635,-0.478148,0.369753,0.362694,-0.296493,-0.125616,-0.208401
0.486703,-0.48765,0.355964,0.389101,-0.304771,-0.121978,-0.209525
0.480149,-0.480029,0.343556,0.409671,-0.316549,-0.100869,-0.208701
0.476853,-0.466164,0.340824,0.418012,-0.326845,-0.058254,-0.211613
0.477607,-0.454849,0.351818,0.421268,-0.338385,-0.023226,-0.208339
0.482162,-0.438972,0.36901,0.420337,-0.349644,0.00407453,-0.213698
0.482257,-0.438586,0.37961,0.423797,-0.356621,0.00795772,-0.209034
0.475931,-0.45122,0.382971,0.414333,-0.361436,-0.00669903,-0.209563
0.462543,-0.464472,0.374145,0.403914,-0.369986,-0.0147889,-0.206002
0.448152,-0.482881,0.360849,0.404638,-0.376162,-0.0412847,-0.201246
0.434523,-0.484894,0.349145,0.402069,-0.379766,-0.0725903,-0.200956
0.427096,-0.469603,0.350878,0.405992,-0.390332,-0.108503,-0.199293
0.425738,-0.450654,0.356456,0.407426,-0.398864,-0.143718,-0.19651
0.431099,-0.42857,0.364384,0.406136,-0.401069,-0.163845,-0.197567
0.438406,-0.415659,0.372958,0.410518,-0.407972,-0.175765,-0.199662
0.442771,-0.420265,0.377902,0.419666,-0.408969,-0.173623,-0.197975
0.442349,-0.433732,0.373234,0.415623,-0.406553,-0.151508,-0.20122
0.439679,-0.452634,0.36551,0.40888,-0.40615,-0.107556,-0.202721
0.437591,-0.467324,0.358038,0.411177,-0.407531,-0.0538464,-0.206829
0.435017,-0.469256,0.348481,0.405153,-0.407205,0.00183354,-0.210558
0.435374,-0.463621,0.341115,0.400523,-0.416333,0.0320826,-0.212869
0.439176,-0.452933,0.33772,0.408054,-0.421337,0.0483432,-0.214033
0.449695,-0.437747,0.346461,0.408217,-0.423523,0.0313875,-0.218957
0.459465,-0.43008,0.355228,0.406184,-0.429064,-0.00437415,-0.217461
0.462555,-0.43499,0.35431,0.414449,-0.432287,-0.0311118,-0.218646
0.46125,-0.44047,0.347858,0.425274,-0.432669,-0.0446762,-0.215591
0.461356,-0.449444,0.346508,0.428495,-0.435067,-0.0733932,-0.213804
0.457224,-0.454767,0.341483,0.42585,-0.436695,-0.103206,-0.212595
0.447421,-0.44639,0.332674,0.430679,-0.442102,-0.12395,-0.211457
0.440899,-0.433085,0.334812,0.431994,-0.449966,-0.129565,-0.215062
0.435185,-0.421943,0.329043,0.409947,-0.448238,-0.128264,-0.195758
0.419219,-0.420621,0.268333,0.328268,-0.417617,-0.131123,-0.161264
0.420864,-0.40187,0.243322,0.308563,-0.399286,-0.152304,-0.128037
0.421316,-0.364042,0.240877,0.291583,-0.377925,-0.168574,-0.0986446
0.378058,-0.319504,0.195482,0.238684,-0.350948,-0.173288,-0.0791899
0.321113,-0.276651,0.141837,0.185628,-0.32573,-0.157297,-0.0651838
0.276973,-0.227671,0.10933,0.153359,-0.303779,-0.152831,-0.0474684
0.276973,-0.227671,0.10933,0.153359,-0.303779,-0.152831,-0.0474684
0.276973,-0.227671,0.10933,0.153359,-0.303779,-0.152831,-0.0474684
0.276973,-0.227671,0.10933,0.153359,-0.303779,-0.152831,-0.0474684
0.276973,-0.227671,0.10933,0.153359,-0.303779,-0.152831,-0.0474684
0.276973,-0.227671,0.10933,0.153359,-0.303779,-0.152831,-0.0474684
0.276973,-0.227671,0.10933,0.153359,-0.303779,-0.152831,-0.0474684
0.276973,-0.227671,0.10933,0.153359,-0.303779,-0.152831,-0.0474684
0.276973,-0.227671,0.10933,0.153359,-0.303779,-0.152831,-0.0474684
0.276973,-0.227671,0.10933,0.153359,-0.303779,-0.152831,-0.0474684
0.276973,-0.227671,0.10933,0.153359,-0.303779,-0.152831,-0.0474684
0.276973,-0.227671,0.10933,0.153359,-0.303779,-0.152831,-0.0474684
0.276973,-0.227671,0.10933,0.153359,-0.303779,-0.152831,-0.0474684
0.276973,-0.227671,0.10933,0.153359,-0.303779,-0.152831,-0.0474684
0.276973,-0.227671,0.10933,0.153359,-0.303779,-0.152831,-0.0474684
0.276973,-0.227671,0.10933,0.153359,-0.303779,-0.152831,-0.0474684
0.276973,-0.227671,0.10933,0.153359,-0.303779,-0.152831,-0.0474684
0.276973,-0.227671,0.10933,0.153359,-0.303779,-0.152831,-0.0474684
0.276973,-0.227671,0.10933,0.153359,-0.303779,-0.152831,-0.0474684
0.276973,-0.227671,0.10933,0.153359,-0.303779,-0.152831,-0.0474684
0.276973,-0.227671,0.10933,0.153359,-0.303779,-0.152831,-0.0474684
0.276973,-0.227671,0.10933,0.153359,-0.303779,-0.152831,-0.0474684
0.276973,-0.227671,0.10933,0.153359,-0.303779,-0.152831,-0.0474684
0.276973,-0.227671,0.10933,0.153359,-0.303779,-0.152831,-0.0474684
0.276973,-0.227671,0.10933,0.153359,-0.303779,-0.152831,-0.0474684
0.276973,-0.227671,0.10933,0.153359,-0.303779,-0.152831,-0.0474684
0.276973,-0.227671,0.10933,0.153359,-0.303779,-0.152831,-0.0474684
0.276973,-0.227671,0.10933,0.153359,-0.303779,-0.152831,-0.0474684
0.276973,-0.227671,0.10933,0.153359,-0.303779,-0.152831,-0.0474684
0.276973,-0.227671,0.10933,0.153359,-0.303779,-0.152831,-0.0474684
0.276973,-0.227671,0.10933,0.153359,-0.303779,-0.152831,-0.0474684
0.276973,-0.227671,0.10933,0.153359,-0.303779,-0.152831,-0.0474684
0.276973,-0.227671,0.10933,0.153359,-0.303779,-0.152831,-0.0474684
0.276973,-0.227671,0.10933,0.153359,-0.303779,-0.152831,-0.0474684
0.276973,-0.227671,0.10933,0.153359,-0.303779,-0.152831,-0.0474684
0.276973,-0.227671,0.10933,0.153359,-0.303779,-0.152831,-0.0474684
0.276973,-0.227671,0.10933,0.153359,-0.303779,-0.152831,-0.0474684
0.276973,-0.227671,0.10933,0.153359,-0.303779,-0.152831,-0.0474684
0.276973,-0.227671,0.10933,0.153359,-0.303779,-0.152831,-0.0474684
0.276973,-0.227671,0.10933,0.153359,-0.303779,-0.152831,-0.0474684
0.276973,-0.227671,0.10933,0.153359,-0.303779,-0.152831,-0.0474684
0.276973,-0.227671,0.10933,0.153359,-0.303779,-0.152831,-0.0474684
0.276973,-0.227671,0.10933,0.153359,-0.303779,-0.152831,-0.0474684
0.276973,-0.227671,0.10933,0.153359,-0.303779,-0.152831,-0.0474684
0.276973,-0.227671,0.10933,0.153359,-0.303779,-0.152831,-0.0474684
0.276973,-0.227671,0.10933,0.153359,-0.303779,-0.152831,-0.0474684
0.276973,-0.227671,0.10933,0.153359,-0.303779,-0.152831,-0.0474684
0.276973,-0.227671,0.10933,0.153359,-0.303779,-0.152831,-0.0474684
0.276973,-0.227671,0.10933,0.153359,-0.303779,-0.152831,-0.0474684
0.276973,-0.227671,0.10933,0.153359,-0.303779,-0.152831,-0.0474684
0.276973,-0.227671,0.10933,0.153359,-0.303779,-0.152831,-0.0474684
0.276973,-0.227671,0.10933,0.153359,-0.303779,-0.152831,-0.0474684
0.276973,-0.227671,0.10933,0.153359,-0.303779,-0.152831,-0.0474684
0.276973,-0.227671,0.10933,0.153359,-0.303779,-0.152831,-0.0474684
0.276973,-0.227671,0.10933,0.153359,-0.303779,-0.152831,-0.0474684
0.276973,-0.227671,0.10933,0.153359,-0.303779,-0.152831,-0.0474684
0.276973,-0.227671,0.10933,0.153359,-0.303779,-0.152831,-0.0474684
0.276973,-0.227671,0.10933,0.153359,-0.303779,-0.152831,-0.0474684
0.276973,-0.227671,0.10933,0.153359,-0.303779,-0.152831,-0.0474684
0.276973,-0.227671,0.10933,0.153359,-0.303779,-0.152831,-0.0474684
0.276973,-0.227671,0.10933,0.153359,-0.303779,-0.152831,-0.0474684
0.276973,-0.227671,0.10933,0.153359,-0.303779,-0.152831,-0.0474684
0.276973,-0.227671,0.10933,0.153359,-0.303779,-0.152831,-0.0474684
0.276973,-0.227671,0.10933,0.153359,-0.303779,-0.152831,-0.0474684
0.276973,-0.227671,0.10933,0.153359,-0.303779,-0.152831,-0.0474684
0.276973,-0.227671,0.10933,0.153359,-0.303779,-0.152831,-0.0474684
0.276973,-0.227671,0.10933,0.153359,-0.303779,-0.152831,-0.0474684
0.276973,-0.227671,0.10933,0.153359,-0.303779,-0.152831,-0.0474684
0.276973,-0.227671,0.10933,0.153359,-0.303779,-0.152831,-0.0474684
0.276973,-0.227671,0.10933,0.153359,-0.303779,-0.152831,-0.0474684
0.276973,-0.227671,0.10933,0.153359,-0.303779,-0.152831,-0.0474684
0.276973,-0.227671,0.10933,0.153359,-0.303779,-0.152831,-0.0474684
0.276973,-0.227671,0.10933,0.153359,-0.303779,-0.152831,-0.0474684
0.276973,-0.227671,0.10933,0.153359,-0.303779,-0.152831,-0.0474684
0.276973,-0.227671,0.10933,0.153359,-0.303779,-0.152831,-0.0474684
0.276973,-0.227671,0.10933,0.153359,-0.303779,-0.152831,-0.0474684
0.276973,-0.227671,0.10933,0.153359,-0.303779,-0.152831,-0.0474684
0.276973,-0.227671,0.10933,0.153359,-0.303779,-0.152831,-0.0474684
0.276973,-0.227671,0.10933,0.153359,-0.303779,-0.152831,-0.0474684
0.276973,-0.227671,0.10933,0.153359,-0.303779,-0.152831,-0.0474684
0.276973,-0.227671,0.10933,0.153359,-0.303779,-0.152831,-0.0474684
0.276973,-0.227671,0.10933,0.153359,-0.303779,-0.152831,-0.0474684
0.276973,-0.227671,0.10933,0.153359,-0.303779,-0.152831,-0.0474684
0.276973,-0.227671,0.10933,0.153359,-0.303779,-0.152831,-0.0474684
0.276973,-0.227671,0.10933,0.153359,-0.303779,-0.152831,-0.0474684
0.276973,-0.227671,0.10933,0.153359,-0.303779,-0.152831,-0.0474684
0.276973,-0.227671,0.10933,0.153359,-0.303779,-0.152831,-0.0474684
0.276973,-0.227671,0.10933,0.153359,-0.303779,-0.152831,-0.0474684
0.276973,-0.227671,0.10933,0.153359,-0.303779,-0.152831,-0.0474684
0.276973,-0.227671,0.10933,0.153359,-0.303779,-0.152831,-0.0474684
0.276973,-0.227671,0.10933,0.153359,-0.303779,-0.152831,-0.0474684
0.276973,-0.227671,0.10933,0.153359,-0.303779,-0.152831,-0.0474684
0.276973,-0.227671,0.10933,0.153359,-0.303779,-0.152831,-0.0474684
0.276973,-0.227671,0.10933,0.153359,-0.303779,-0.152831,-0.0474684
0.276973,-0.227671,0.10933,0.153359,-0.303779,-0.152831,-0.0474684
0.276973,-0.227671,0.10933,0.153359,-0.303779,-0.152831,-0.0474684
0.276973,-0.227671,0.10933,0.153359,-0.303779,-0.152831,-0.0474684
0.276973,-0.227671,0.10933,0.153359,-0.303779,-0.152831,-0.0474684
0.276973,-0.227671,0.10933,0.153359,-0.303779,-0.152831,-0.0474684
0.276973,-0.227671,0.10933,0.153359,-0.303779,-0.152831,-0.0474684
0.276973,-0.227671,0.10933,0.153359,-0.303779,-0.152831,-0.0474684
0.276973,-0.227671,0.10933,0.153359,-0.303779,-0.152831,-0.0474684
0.276973,-0.227671,0.10933,0.153359,-0.303779,-0.152831,-0.0474684
0.276973,-0.227671,0.10933,0.153359,-0.303779,-0.152831,-0.0474684
0.276973,-0.227671,0.10933,0.153359,-0.303779,-0.152831,-0.0474684
0.276973,-0.227671,0.10933,0.153359,-0.303779,-0.152831,-0.0474684
0.276973,-0.227671,0.10933,0.153359,-0.303779,-0.152831,-0.0474684
0.276973,-0.227671,0.10933,0.153359,-0.303779,-0.152831,-0.0474684
0.276973,-0.227671,0.10933,0.153359,-0.303779,-0.152831,-0.0474684
0.276973,-0.227671,0.10933,0.153359,-0.303779,-0.152831,-0.0474684
0.276973,-0.227671,0.10933,0.153359,-0.303779,-0.152831,-0.0474684
0.276973,-0.227671,0.10933,0.153359,-0.303779,-0.152831,-0.0474684
0.276973,-0.227671,0.10933,0.153359,-0.303779,-0.152831,-0.0474684
0.276973,-0.227671,0.10933,0.153359,-0.303779,-0.152831,-0.0474684
0.276973,-0.227671,0.10933,0.153359,-0.303779,-0.152831,-0.0474684
0.276973,-0.227671,0.10933,0.153359,-0.303779,-0.152831,-0.0474684
0.276973,-0.227671,0.10933,0.153359,-0.303779,-0.152831,-0.0474684
0.276973,-0.227671,0.10933,0.153359,-0.303779,-0.152831,-0.0474684
0.276973,-0.227671,0.10933,0.153359,-0.303779,-0.152831,-0.0474684
0.276973,-0.227671,0.10933,0.153359,-0.303779,-0.152831,-0.0474684
0.276973,-0.227671,0.10933,0.153359,-0.303779,-0.152831,-0.0474684
0.276973,-0.227671,0.10933,0.153359,-0.303779,-0.152831,-0.0474684
0.276973,-0.227671,0.10933,0.153359,-0.303779,-0.152831,-0.0474684
0.276973,-0.227671,0.10933,0.153359,-0.303779,-0.152831,-0.0474684
0.276973,-0.227671,0.10933,0.153359,-0.303779,-0.152831,-0.0474684
0.276973,-0.227671,0.10933,0.153359,-0.303779,-0.152831,-0.0474684
0.276973,-0.227671,0.10933,0.153359,-0.303779,-0.152831,-0.0474684
0.276973,-0.227671,0.10933,0.153359,-0.303779,-0.152831,-0.0474684
0.276973,-0.227671,0.10933,0.153359,-0.303779,-0.152831,-0.0474684
0.276973,-0.227671,0.10933,0.153359,-0.303779,-0.152831,-0.0474684
0.276973,-0.227671,0.10933,0.153359,-0.303779,-0.152831,-0.0474684
0.276973,-0.227671,0.10933,0.153359,-0.303779,-0.152831,-0.0474684
0.276973,-0.227671,0.10933,0.153359,-0.303779,-0.152831,-0.0474684
0.276973,-0.227671,0.10933,0.153359,-0.303779,-0.152831,-0.0474684
0.276973,-0.227671,0.10933,0.153359,-0.303779,-0.152831,-0.0474684
0.276973,-0.227671,0.10933,0.153359,-0.303779,-0.152831,-0.0474684
0.276973,-0.227671,0.10933,0.153359,-0.303779,-0.152831,-0.0474684
0.276973,-0.227671,0.10933,0.153359,-0.303779,-0.152831,-0.0474684
0.276973,-0.227671,0.10933,0.153359,-0.303779,-0.152831,-0.0474684
0.276973,-0.227671,0.10933,0.153359,-0.303779,-0.152831,-0.0474684
0.276973,-0.227671,0.10933,0.153359,-0.303779,-0.152831,-0.0474684
0.276973,-0.227671,0.10933,0.153359,-0.303779,-0.152831,-0.0474684
0.276973,-0.227671,0.10933,0.153359,-0.303779,-0.152831,-0.0474684
0.276973,-0.227671,0.10933,0.153359,-0.303779,-0.152831,-0.0474684
0.276973,-0.227671,0.10933,0.153359,-0.303779,-0.152831,-0.0474684
0.276973,-0.227671,0.10933,0.153359,-0.303779,-0.152831,-0.0474684
0.276973,-0.227671,0.10933,0.153359,-0.303779,-0.152831,-0.0474684
0.276973,-0.227671,0.10933,0.153359,-0.303779,-0.152831,-0.0474684
0.276973,-0.227671,0.10933,0.153359,-0.303779,-0.152831,-0.0474684
0.276973,-0.227671,0.10933,0.153359,-0.303779,-0.152831,-0.0474684
0.276973,-0.227671,0.10933,0.153359,-0.303779,-0.152831,-0.0474684
0.276973,-0.227671,0.10933,0.153359,-0.303779,-0.152831,-0.0474684
0.276973,-0.227671,0.10933,0.153359,-0.303779,-0.152831,-0.0474684
0.276973,-0.227671,0.10933,0.153359,-0.303779,-0.152831,-0.0474684
0.276973,-0.227671,0.10933,0.153359,-0.303779,-0.152831,-0.0474684
0.276973,-0.227671,0.10933,0.153359,-0.303779,-0.152831,-0.0474684
0.276973,-0.227671,0.10933,0.153359,-0.303779,-0.152831,-0.0474684
0.276973,-0.227671,0.10933,0.153359,-0.303779,-0.152831,-0.0474684
0.276973,-0.227671,0.10933,0.153359,-0.303779,-0.152831,-0.0474684
0.276973,-0.227671,0.10933,0.153359,-0.303779,-0.152831,-0.0474684
0.276973,-0.227671,0.10933,0.153359,-0.303779,-0.152831,-0.0474684
0.276973,-0.227671,0.10933,0.153359,-0.303779,-0.152831,-0.0474684
0.276973,-0.227671,0.10933,0.153359,-0.303779,-0.152831,-0.0474684
0.276973,-0.227671,0.10933,0.153359,-0.303779,-0.152831,-0.0474684
0.276973,-0.227671,0.10933,0.153359,-0.303779,-0.152831,-0.0474684
0.276973,-0.227671,0.10933,0.153359,-0.303779,-0.152831,-0.0474684
0.276973,-0.227671,0.10933,0.153359,-0.303779,-0.152831,-0.0474684
0.276973,-0.227671,0.10933,0.153359,-0.303779,-0.152831,-0.0474684
0.276973,-0.227671,0.10933,0.153359,-0.303779,-0.152831,-0.0474684
0.276973,-0.227671,0.10933,0.153359,-0.303779,-0.152831,-0.0474684
0.276973,-0.227671,0.10933,0.153359,-0.303779,-0.152831,-0.0474684
0.276973,-0.227671,0.10933,0.153359,-0.303779,-0.152831,-0.0474684
0.276973,-0.227671,0.10933,0.153359,-0.303779,-0.152831,-0.0474684
0.276973,-0.227671,0.10933,0.153359,-0.303779,-0.152831,-0.0474684
0.276973,-0.227671,0.10933,0.153359,-0.303779,-0.152831,-0.0474684
0.276973,-0.227671,0.10933,0.153359,-0.303779,-0.152831,-0.0474684
0.276973,-0.227671,0.10933,0.153359,-0.303779,-0.152831,-0.0474684
0.276973,-0.227671,0.10933,0.153359,-0.303779,-0.152831,-0.0474684
0.276973,-0.227671,0.10933,0.153359,-0.303779,-0.152831,-0.0474684
0.276973,-0.227671,0.10933,0.153359,-0.303779,-0.152831,-0.0474684
0.276973,-0.227671,0.10933,0.153359,-0.303779,-0.152831,-0.0474684
0.276973,-0.227671,0.10933,0.153359,-0.303779,-0.152831,-0.0474684
0.276973,-0.227671,0.10933,0.153359,-0.303779,-0.152831,-0.0474684
0.276973,-0.227671,0.10933,0.153359,-0.303779,-0.152831,-0.0474684
0.276973,-0.227671,0.10933,0.153359,-0.303779,-0.152831,-0.0474684
0.276973,-0.227671,0.10933,0.153359,-0.303779,-0.152831,-0.0474684
0.276973,-0.227671,0.10933,0.153359,-0.303779,-0.152831,-0.0474684
0.276973,-0.227671,0.10933,0.153359,-0.303779,-0.152831,-0.0474684
0.276973,-0.227671,0.10933,0.153359,-0.303779,-0.152831,-0.0474684
0.276973,-0.227671,0.10933,0.153359,-0.303779,-0.152831,-0.0474684
0.276973,-0.227671,0.10933,0.153359,-0.303779,-0.152831,-0.0474684
0.276973,-0.227671,0.10933,0.153359,-0.303779,-0.152831,-0.0474684
0.276973,-0.227671,0.10933,0.153359,-0.303779,-0.152831,-0.0474684
0.276973,-0.227671,0.10933,0.153359,-0.303779,-0.152831,-0.0474684
0.276973,-0.227671,0.10933,0.153359,-0.303779,-0.152831,-0.0474684
0.276973,-0.227671,0.10933,0.153359,-0.303779,-0.152831,-0.0474684
0.276973,-0.227671,0.10933,0.153359,-0.303779,-0.152831,-0.0474684
0.276973,-0.227671,0.10933,0.153359,-0.303779,-0.152831,-0.0474684
0.276973,-0.227671,0.10933,0.153359,-0.303779,-0.152831,-0.0474684
0.276973,-0.227671,0.10933,0.153359,-0.303779,-0.152831,-0.0474684
0.276973,-0.227671,0.10933,0.153359,-0.303779,-0.152831,-0.0474684
0.276973,-0.227671,0.10933,0.153359,-0.303779,-0.152831,-0.0474684
0.276973,-0.227671,0.10933,0.153359,-0.303779,-0.152831,-0.0474684
0.276973,-0.227671,0.10933,0.153359,-0.303779,-0.152831,-0.0474684
0.276973,-0.227671,0.10933,0.153359,-0.303779,-0.152831,-0.0474684
0.276973,-0.227671,0.10933,0.153359,-0.303779,-0.152831,-0.0474684
0.276973,-0.227671,0.10933,0.153359,-0.303779,-0.152831,-0.0474684
0.276973,-0.227671,0.10933,0.153359,-0.303779,-0.152831,-0.0474684
0.276973,-0.227671,0.10933,0.153359,-0.303779,-0.152831,-0.0474684
0.276973,-0.227671,0.10933,0.153359,-0.303779,-0.152831,-0.0474684
0.276973,-0.227671,0.10933,0.153359,-0.303779,-0.152831,-0.0474684
0.276973,-0.227671,0.10933,0.153359,-0.303779,-0.152831,-0.0474684
0.276973,-0.227671,0.10933,0.153359,-0.303779,-0.152831,-0.0474684
0.276973,-0.227671,0.10933,0.153359,-0.303779,-0.152831,-0.0474684
0.276973,-0.227671,0.10933,0.153359,-0.303779,-0.152831,-0.0474684
0.276973,-0.227671,0.10933,0.153359,-0.303779,-0.152831,-0.0474684
0.276973,-0.227671,0.10933,0.153359,-0.303779,-0.152831,-0.0474684
0.276973,-0.227671,0.10933,0.153359,-0.303779,-0.152831,-0.0474684
0.276973,-0.227671,0.10933,0.153359,-0.303779,-0.152831,-0.0474684
0.276973,-0.227671,0.10933,0.153359,-0.303779,-0.152831,-0.0474684
0.276973,-0.227671,0.10933,0.153359,-0.303779,-0.152831,-0.0474684
0.276973,-0.227671,0.10933,0.153359,-0.303779,-0.152831,-0.0474684
0.276973,-0.227671,0.10933,0.153359,-0.303779,-0.152831,-0.0474684
0.276973,-0.227671,0.10933,0.153359,-0.303779,-0.152831,-0.0474684
0.276973,-0.227671,0.10933,0.153359,-0.303779,-0.152831,-0.0474684
0.276973,-0.227671,0.10933,0.153359,-0.303779,-0.152831,-0.0474684
0.276973,-0.227671,0.10933,0.153359,-0.303779,-0.152831,-0.0474684
0.276973,-0.227671,0.10933,0.153359,-0.303779,-0.152831,-0.0474684
0.276973,-0.227671,0.10933,0.153359,-0.303779,-0.152831,-0.0474684
0.276973,-0.227671,0.10933,0.153359,-0.303779,-0.152831,-0.0474684
0.276973,-0.227671,0.10933,0.153359,-0.303779,-0.152831,-0.0474684
0.276973,-0.227671,0.10933,0.153359,-0.303779,-0.152831,-0.0474684
0.276973,-0.227671,0.10933,0.153359,-0.303779,-0.152831,-0.0474684
0.276973,-0.227671,0.10933,0.153359,-0.303779,-0.152831,-0.0474684
0.276973,-0.227671,0.10933,0.153359,-0.303779,-0.152831,-0.0474684
0.276973,-0.227671,0.10933,0.153359,-0.303779,-0.152831,-0.0474684
0.276973,-0.227671,0.10933,0.153359,-0.303779,-0.152831,-0.0474684
0.276973,-0.227671,0.10933,0.153359,-0.303779,-0.152831,-0.0474684
0.276973,-0.227671,0.10933,0.153359,-0.303779,-0.152831,-0.0474684
0.276973,-0.227671,0.10933,0.153359,-0.303779,-0.152831,-0.0474684
0.276973,-0.227671,0.10933,0.153359,-0.303779,-0.152831,-0.0474684
0.276973,-0.227671,0.10933,0.153359,-0.303779,-0.152831,-0.0474684
0.276973,-0.227671,0.10933,0.153359,-0.303779,-0.152831,-0.0474684
0.276973,-0.227671,0.10933,0.153359,-0.303779,-0.152831,-0.0474684
0.276973,-0.227671,0.10933,0.153359,-0.303779,-0.152831,-0.0474684
0.276973,-0.227671,0.10933,0.153359,-0.303779,-0.152831,-0.0474684
0.276973,-0.227671,0.10933,0.153359,-0.303779,-0.152831,-0.0474684
0.276973,-0.227671,0.10933,0.153359,-0.303779,-0.152831,-0.0474684
0.276973,-0.227671,0.10933,0.153359,-0.303779,-0.152831,-0.0474684
0.276973,-0.227671,0.10933,0.153359,-0.303779,-0.152831,-0.0474684
0.276973,-0.227671,0.10933,0.153359,-0.303779,-0.152831,-0.0474684
0.276973,-0.227671,0.10933,0.153359,-0.303779,-0.152831,-0.0474684
0.276973,-0.227671,0.10933,0.153359,-0.303779,-0.152831,-0.0474684
0.276973,-0.227671,0.10933,0.153359,-0.303779,-0.152831,-0.0474684
0.276973,-0.227671,0.10933,0.153359,-0.303779,-0.152831,-0.0474684
0.276973,-0.227671,0.10933,0.153359,-0.303779,-0.152831,-0.0474684
0.276973,-0.227671,0.10933,0.153359,-0.303779,-0.152831,-0.0474684
0.276973,-0.227671,0.10933,0.153359,-0.303779,-0.152831,-0.0474684
0.276973,-0.227671,0.10933,0.153359,-0.303779,-0.152831,-0.0474684
0.276973,-0.227671,0.10933,0.153359,-0.303779,-0.152831,-0.0474684
0.276973,-0.227671,0.10933,0.153359,-0.303779,-0.152831,-0.0474684
0.276973,-0.227671,0.10933,0.153359,-0.303779,-0.152831,-0.0474684
0.276973,-0.227671,0.10933,0.153359,-0.303779,-0.152831,-0.0474684
0.276973,-0.227671,0.10933,0.153359,-0.303779,-0.152831,-0.0474684
0.276973,-0.227671,0.10933,0.153359,-0.303779,-0.152831,-0.0474684
0.276973,-0.227671,0.10933,0.153359,-0.303779,-0.152831,-0.0474684
0.276973,-0.227671,0.10933,0.153359,-0.303779,-0.152831,-0.0474684
0.276973,-0.227671,0.10933,0.153359,-0.303779,-0.152831,-0.0474684
0.276973,-0.227671,0.10933,0.153359,-0.303779,-0.152831,-0.0474684
0.276973,-0.227671,0.10933,0.153359,-0.303779,-0.152831,-0.0474684
0.276973,-0.227671,0.10933,0.153359,-0.303779,-0.152831,-0.0474684
0.276973,-0.227671,0.10933,0.153359,-0.303779,-0.152831,-0.0474684
0.276973,-0.227671,0.10933,0.153359,-0.303779,-0.152831,-0.0474684
0.276973,-0.227671,0.10933,0.153359,-0.303779,-0.152831,-0.0474684
0.276973,-0.227671,0.10933,0.153359,-0.303779,-0.152831,-0.0474684
0.276973,-0.227671,0.10933,0.153359,-0.303779,-0.152831,-0.0474684
0.276973,-0.227671,0.10933,0.153359,-0.303779,-0.152831,-0.0474684
0.276973,-0.227671,0.10933,0.153359,-0.303779,-0.152831,-0.0474684
0.276973,-0.227671,0.10933,0.153359,-0.303779,-0.152831,-0.0474684
0.276973,-0.227671,0.10933,0.153359,-0.303779,-0.152831,-0.0474684
0.276973,-0.227671,0.10933,0.153359,-0.303779,-0.152831,-0.0474684
0.276973,-0.227671,0.10933,0.153359,-0.303779,-0.152831,-0.0474684
0.276973,-0.227671,0.10933,0.153359,-0.303779,-0.152831,-0.0474684
0.276973,-0.227671,0.10933,0.153359,-0.303779,-0.152831,-0.0474684
0.276973,-0.227671,0.10933,0.153359,-0.303779,-0.152831,-0.0474684
0.276973,-0.227671,0.10933,0.153359,-0.303779,-0.152831,-0.0474684
0.276973,-0.227671,0.10933,0.153359,-0.303779,-0.152831,-0.0474684
0.276973,-0.227671,0.10933,0.153359,-0.303779,-0.152831,-0.0474684
0.276973,-0.227671,0.10933,0.153359,-0.303779,-0.152831,-0.0474684
0.276973,-0.227671,0.10933,0.153359,-0.303779,-0.152831,-0.0474684
0.276973,-0.227671,0.10933,0.153359,-0.303779,-0.152831,-0.0474684
0.276973,-0.227671,0.10933,0.153359,-0.303779,-0.152831,-0.0474684
0.276973,-0.227671,0.10933,0.153359,-0.303779,-0.152831,-0.0474684
0.276973,-0.227671,0.10933,0.153359,-0.303779,-0.152831,-0.0474684
0.276973,-0.227671,0.10933,0.153359,-0.303779,-0.152831,-0.0474684
0.276973,-0.227671,0.10933,0.153359,-0.303779,-0.152831,-0.0474684
0.276973,-0.227671,0.10933,0.153359,-0.303779,-0.152831,-0.0474684
0.276973,-0.227671,0.10933,0.153359,-0.303779,-0.152831,-0.0474684
0.276973,-0.227671,0.10933,0.153359,-0.303779,-0.152831,-0.0474684
0.276973,-0.227671,0.10933,0.153359,-0.303779,-0.152831,-0.0474684
0.276973,-0.227671,0.10933,0.153359,-0.303779,-0.152831,-0.0474684
0.276973,-0.227671,0.10933,0.153359,-0.303779,-0.152831,-0.0474684
0.276973,-0.227671,0.10933,0.153359,-0.303779,-0.152831,-0.0474684
0.276973,-0.227671,0.10933,0.153359,-0.303779,-0.152831,-0.0474684
0.276973,-0.227671,0.10933,0.153359,-0.303779,-0.152831,-0.0474684
0.276973,-0.227671,0.10933,0.153359,-0.303779,-0.152831,-0.0474684
0.276973,-0.227671,0.10933,0.153359,-0.303779,-0.152831,-0.0474684
0.276973,-0.227671,0.10933,0.153359,-0.303779,-0.152831,-0.0474684
0.276973,-0.227671,0.10933,0.153359,-0.303779,-0.152831,-0.0474684
0.276973,-0.227671,0.10933,0.153359,-0.303779,-0.152831,-0.0474684
0.276973,-0.227671,0.10933,0.153359,-0.303779,-0.152831,-0.0474684
0.276973,-0.227671,0.10933,0.153359,-0.303779,-0.152831,-0.0474684
0.276973,-0.227671,0.10933,0.153359,-0.303779,-0.152831,-0.0474684
0.276973,-0.227671,0.10933,0.153359,-0.303779,-0.152831,-0.0474684
0.276973,-0.227671,0.10933,0.153359,-0.303779,-0.152831,-0.0474684
0.276973,-0.227671,0.10933,0.153359,-0.303779,-0.152831,-0.0474684
0.276973,-0.227671,0.10933,0.153359,-0.303779,-0.152831,-0.0474684
0.276973,-0.227671,0.10933,0.153359,-0.303779,-0.152831,-0.0474684
0.276973,-0.227671,0.10933,0.153359,-0.303779,-0.152831,-0.0474684
0.276973,-0.227671,0.10933,0.153359,-0.303779,-0.152831,-0.0474684
0.276973,-0.227671,0.10933,0.153359,-0.303779,-0.152831,-0.0474684
0.276973,-0.227671,0.10933,0.153359,-0.303779,-0.152831,-0.0474684
0.276973,-0.227671,0.10933,0.153359,-0.303779,-0.152831,-0.0474684
0.276973,-0.227671,0.10933,0.153359,-0.303779,-0.152831,-0.0474684
0.276973,-0.227671,0.10933,0.153359,-0.303779,-0.152831,-0.0474684
0.276973,-0.227671,0.10933,0.153359,-0.303779,-0.152831,-0.0474684
0.276973,-0.227671,0.10933,0.153359,-0.303779,-0.152831,-0.0474684
0.276973,-0.227671,0.10933,0.153359,-0.303779,-0.152831,-0.0474684
0.276973,-0.227671,0.10933,0.153359,-0.303779,-0.152831,-0.0474684
0.276973,-0.227671,0.10933,0.153359,-0.303779,-0.152831,-0.0474684
0.276973,-0.227671,0.10933,0.153359,-0.303779,-0.152831,-0.0474684
0.276973,-0.227671,0.10933,0.153359,-0.303779,-0.152831,-0.0474684
0.276973,-0.227671,0.10933,0.153359,-0.303779,-0.152831,-0.0474684
0.276973,-0.227671,0.10933,0.153359,-0.303779,-0.152831,-0.0474684
0.276973,-0.227671,0.10933,0.153359,-0.303779,-0.152831,-0.0474684
0.276973,-0.227671,0.10933,0.153359,-0.303779,-0.152831,-0.0474684
0.276973,-0.227671,0.10933,0.153359,-0.303779,-0.152831,-0.0474684
0.276973,-0.227671,0.10933,0.153359,-0.303779,-0.152831,-0.0474684
0.276973,-0.227671,0.10933,0.153359,-0.303779,-0.152831,-0.0474684
0.276973,-0.227671,0.10933,0.153359,-0.303779,-0.152831,-0.0474684
0.276973,-0.227671,0.10933,0.153359,-0.303779,-0.152831,-0.0474684
0.276973,-0.227671,0.10933,0.153359,-0.303779,-0.152831,-0.0474684
0.276973,-0.227671,0.10933,0.153359,-0.303779,-0.152831,-0.0474684
0.276973,-0.227671,0.10933,0.153359,-0.303779,-0.152831,-0.0474684
0.276973,-0.227671,0.10933,0.153359,-0.303779,-0.152831,-0.0474684
0.276973,-0.227671,0.10933,0.153359,-0.303779,-0.152831,-0.0474684
0.276973,-0.227671,0.10933,0.153359,-0.303779,-0.152831,-0.0474684
0.276973,-0.227671,0.10933,0.153359,-0.303779,-0.152831,-0.0474684
0.276973,-0.227671,0.10933,0.153359,-0.303779,-0.152831,-0.0474684
0.276973,-0.227671,0.10933,0.153359,-0.303779,-0.152831,-0.0474684
0.276973,-0.227671,0.10933,0.153359,-0.303779,-0.152831,-0.0474684
0.276973,-0.227671,0.10933,0.153359,-0.303779,-0.152831,-0.0474684
0.276973,-0.227671,0.10933,0.153359,-0.303779,-0.152831,-0.0474684
0.276973,-0.227671,0.10933,0.153359,-0.303779,-0.152831,-0.0474684
0.276973,-0.227671,0.10933,0.153359,-0.303779,-0.152831,-0.0474684
0.276973,-0.227671,0.10933,0.153359,-0.303779,-0.152831,-0.0474684
0.276973,-0.227671,0.10933,0.153359,-0.303779,-0.152831,-0.0474684
0.276973,-0.227671,0.10933,0.153359,-0.303779,-0.152831,-0.0474684
0.276973,-0.227671,0.10933,0.153359,-0.303779,-0.152831,-0.0474684
0.276973,-0.227671,0.10933,0.153359,-0.303779,-0.152831,-0.0474684
0.276973,-0.227671,0.10933,0.153359,-0.303779,-0.152831,-0.0474684
0.276973,-0.227671,0.10933,0.153359,-0.303779,-0.152831,-0.0474684
0.276973,-0.227671,0.10933,0.153359,-0.303779,-0.152831,-0.0474684
0.276973,-0.227671,0.10933,0.153359,-0.303779,-0.152831,-0.0474684
0.276973,-0.227671,0.10933,0.153359,-0.303779,-0.152831,-0.0474684
0.276973,-0.227671,0.10933,0.153359,-0.303779,-0.152831,-0.0474684
0.276973,-0.227671,0.10933,0.153359,-0.303779,-0.152831,-0.0474684
0.276973,-0.227671,0.10933,0.153359,-0.303779,-0.152831,-0.0474684
0.276973,-0.227671,0.10933,0.153359,-0.303779,-0.152831,-0.0474684
0.276973,-0.227671,0.10933,0.153359,-0.303779,-0.152831,-0.0474684
0.276973,-0.227671,0.10933,0.153359,-0.303779,-0.152831,-0.0474684
0.276973,-0.227671,0.10933,0.153359,-0.303779,-0.152831,-0.0474684
0.276973,-0.227671,0.10933,0.153359,-0.303779,-0.152831,-0.0474684
0.276973,-0.227671,0.10933,0.153359,-0.303779,-0.152831,-0.0474684
0.276973,-0.227671,0.10933,0.153359,-0.303779,-0.152831,-0.0474684
0.276973,-0.227671,0.10933,0.153359,-0.303779,-0.152831,-0.0474684
0.276973,-0.227671,0.10933,0.153359,-0.303779,-0.152831,-0.0474684
0.276973,-0.227671,0.10933,0.153359,-0.303779,-0.152831,-0.0474684
0.276973,-0.227671,0.10933,0.153359,-0.303779,-0.152831,-0.0474684
0.276973,-0.227671,0.10933,0.153359,-0.303779,-0.152831,-0.0474684
0.276973,-0.227671,0.10933,0.153359,-0.303779,-0.152831,-0.0474684
0.276973,-0.227671,0.10933,0.153359,-0.303779,-0.152831,-0.0474684
0.276973,-0.227671,0.10933,0.153359,-0.303779,-0.152831,-0.0474684
0.276973,-0.227671,0.10933,0.153359,-0.303779,-0.152831,-0.0474684
0.276973,-0.227671,0.10933,0.153359,-0.303779,-0.152831,-0.0474684
0.276973,-0.227671,0.10933,0.153359,-0.303779,-0.152831,-0.0474684
0.276973,-0.227671,0.10933,0.153359,-0.303779,-0.152831,-0.0474684
0.276973,-0.227671,0.10933,0.153359,-0.303779,-0.152831,-0.0474684
0.276973,-0.227671,0.10933,0.153359,-0.303779,-0.152831,-0.0474684
0.276973,-0.227671,0.10933,0.153359,-0.303779,-0.152831,-0.0474684
0.276973,-0.227671,0.10933,0.153359,-0.303779,-0.152831,-0.0474684
0.276973,-0.227671,0.10933,0.153359,-0.303779,-0.152831,-0.0474684
0.276973,-0.227671,0.10933,0.153359,-0.303779,-0.152831,-0.0474684
0.276973,-0.227671,0.10933,0.153359,-0.303779,-0.152831,-0.0474684
0.276973,-0.227671,0.10933,0.153359,-0.303779,-0.152831,-0.0474684
0.276973,-0.227671,0.10933,0.153359,-0.303779,-0.152831,-0.0474684
0.276973,-0.227671,0.10933,0.153359,-0.303779,-0.152831,-0.0474684
0.276973,-0.227671,0.10933,0.153359,-0.303779,-0.152831,-0.0474684
0.276973,-0.227671,0.10933,0.153359,-0.303779,-0.152831,-0.0474684
0.276973,-0.227671,0.10933,0.153359,-0.303779,-0.152831,-0.0474684
0.276973,-0.227671,0.10933,0.153359,-0.303779,-0.152831,-0.0474684
0.276973,-0.227671,0.10933,0.153359,-0.303779,-0.152831,-0.0474684
0.276973,-0.227671,0.10933,0.153359,-0.303779,-0.152831,-0.0474684
0.276973,-0.227671,0.10933,0.153359,-0.303779,-0.152831,-0.0474684
0.276973,-0.227671,0.10933,0.153359,-0.303779,-0.152831,-0.0474684
0.276973,-0.227671,0.10933,0.153359,-0.303779,-0.152831,-0.0474684
0.276973,-0.227671,0.10933,0.153359,-0.303779,-0.152831,-0.0474684
0.276973,-0.227671,0.10933,0.153359,-0.303779,-0.152831,-0.0474684
0.276973,-0.227671,0.10933,0.153359,-0.303779,-0.152831,-0.0474684
0.276973,-0.227671,0.10933,0.153359,-0.303779,-0.152831,-0.0474684
0.276973,-0.227671,0.10933,0.153359,-0.303779,-0.152831,-0.0474684
0.276973,-0.227671,0.10933,0.153359,-0.303779,-0.152831,-0.0474684
0.276973,-0.227671,0.10933,0.153359,-0.303779,-0.152831,-0.0474684
0.276973,-0.227671,0.10933,0.153359,-0.303779,-0.152831,-0.0474684
0.276973,-0.227671,0.10933,0.153359,-0.303779,-0.152831,-0.0474684
0.276973,-0.227671,0.10933,0.153359,-0.303779,-0.152831,-0.0474684
0.276973,-0.227671,0.10933,0.153359,-0.303779,-0.152831,-0.0474684
0.276973,-0.227671,0.10933,0.153359,-0.303779,-0.152831,-0.0474684
0.276973,-0.227671,0.10933,0.153359,-0.303779,-0.152831,-0.0474684
0.276973,-0.227671,0.10933,0.153359,-0.303779,-0.152831,-0.0474684
0.276973,-0.227671,0.10933,0.153359,-0.303779,-0.152831,-0.0474684
0.276973,-0.227671,0.10933,0.153359,-0.303779,-0.152831,-0.0474684
0.276973,-0.227671,0.10933,0.153359,-0.303779,-0.152831,-0.0474684
0.276973,-0.227671,0.10933,0.153359,-0.303779,-0.152831,-0.0474684
0.276973,-0.227671,0.10933,0.153359,-0.303779,-0.152831,-0.0474684
0.276973,-0.227671,0.10933,0.153359,-0.303779,-0.152831,-0.0474684
0.276973,-0.227671,0.10933,0.153359,-0.303779,-0.152831,-0.0474684
0.276973,-0.227671,0.10933,0.153359,-0.303779,-0.152831,-0.0474684
0.276973,-0.227671,0.10933,0.153359,-0.303779,-0.152831,-0.0474684
0.276973,-0.227671,0.10933,0.153359,-0.303779,-0.152831,-0.0474684
0.276973,-0.227671,0.10933,0.153359,-0.303779,-0.152831,-0.0474684
0.276973,-0.227671,0.10933,0.153359,-0.303779,-0.152831,-0.0474684
0.276973,-0.227671,0.10933,0.153359,-0.303779,-0.152831,-0.0474684
0.276973,-0.227671,0.10933,0.153359,-0.303779,-0.152831,-0.0474684
0.276973,-0.227671,0.10933,0.153359,-0.303779,-0.152831,-0.0474684
0.276973,-0.227671,0.10933,0.153359,-0.303779,-0.152831,-0.0474684
0.276973,-0.227671,0.10933,0.153359,-0.303779,-0.152831,-0.0474684
0.276973,-0.227671,0.10933,0.153359,-0.303779,-0.152831,-0.0474684
0.276973,-0.227671,0.10933,0.153359,-0.303779,-0.152831,-0.0474684
0.276973,-0.227671,0.10933,0.153359,-0.303779,-0.152831,-0.0474684
0.276973,-0.227671,0.10933,0.153359,-0.303779,-0.152831,-0.0474684
0.276973,-0.227671,0.10933,0.153359,-0.303779,-0.152831,-0.0474684
0.276973,-0.227671,0.10933,0.153359,-0.303779,-0.152831,-0.0474684
0.276973,-0.227671,0.10933,0.153359,-0.303779,-0.152831,-0.0474684
0.276973,-0.227671,0.10933,0.153359,-0.303779,-0.152831,-0.0474684
0.276973,-0.227671,0.10933,0.153359,-0.303779,-0.152831,-0.0474684
0.276973,-0.227671,0.10933,0.153359,-0.303779,-0.152831,-0.0474684
0.276973,-0.227671,0.10933,0.153359,-0.303779,-0.152831,-0.0474684
0.276973,-0.227671,0.10933,0.153359,-0.303779,-0.152831,-0.0474684
0.276973,-0.227671,0.10933,0.153359,-0.303779,-0.152831,-0.0474684
0.276973,-0.227671,0.10933,0.153359,-0.303779,-0.152831,-0.0474684
0.276973,-0.227671,0.10933,0.153359,-0.303779,-0.152831,-0.0474684
0.276973,-0.227671,0.10933,0.153359,-0.303779,-0.152831,-0.0474684
0.276973,-0.227671,0.10933,0.153359,-0.303779,-0.152831,-0.0474684
0.276973,-0.227671,0.10933,0.153359,-0.303779,-0.152831,-0.0474684
0.276973,-0.227671,0.10933,0.153359,-0.303779,-0.152831,-0.0474684
0.276973,-0.227671,0.10933,0.153359,-0.303779,-0.152831,-0.0474684
0.276973,-0.227671,0.10933,0.153359,-0.303779,-0.152831,-0.0474684
0.276973,-0.227671,0.10933,0.153359,-0.303779,-0.152831,-0.0474684
0.276973,-0.227671,0.10933,0.153359,-0.303779,-0.152831,-0.0474684
0.276973,-0.227671,0.10933,0.153359,-0.303779,-0.152831,-0.0474684
0.276973,-0.227671,0.10933,0.153359,-0.303779,-0.152831,-0.0474684
0.276973,-0.227671,0.10933,0.153359,-0.303779,-0.152831,-0.0474684
0.276973,-0.227671,0.10933,0.153359,-0.303779,-0.152831,-0.0474684
0.276973,-0.227671,0.10933,0.153359,-0.303779,-0.152831,-0.0474684
0.276973,-0.227671,0.10933,0.153359,-0.303779,-0.152831,-0.0474684
0.276973,-0.227671,0.10933,0.153359,-0.303779,-0.152831,-0.0474684
0.276973,-0.227671,0.10933,0.153359,-0.303779,-0.152831,-0.0474684
0.276973,-0.227671,0.10933,0.153359,-0.303779,-0.152831,-0.0474684
0.276973,-0.227671,0.10933,0.153359,-0.303779,-0.152831,-0.0474684
0.276973,-0.227671,0.10933,0.153359,-0.303779,-0.152831,-0.0474684
0.276973,-0.227671,0.10933,0.153359,-0.303779,-0.152831,-0.0474684
0.276973,-0.227671,0.10933,0.153359,-0.303779,-0.152831,-0.0474684
0.276973,-0.227671,0.10933,0.153359,-0.303779,-0.152831,-0.0474684
0.276973,-0.227671,0.10933,0.153359,-0.303779,-0.152831,-0.0474684
0.276973,-0.227671,0.10933,0.153359,-0.303779,-0.152831,-0.0474684
0.276973,-0.227671,0.10933,0.153359,-0.303779,-0.152831,-0.0474684
0.276973,-0.227671,0.10933,0.153359,-0.303779,-0.152831,-0.0474684
0.276973,-0.227671,0.10933,0.153359,-0.303779,-0.152831,-0.0474684
0.276973,-0.227671,0.10933,0.153359,-0.303779,-0.152831,-0.0474684
0.276973,-0.227671,0.10933,0.153359,-0.303779,-0.152831,-0.0474684
0.276973,-0.227671,0.10933,0.153359,-0.303779,-0.152831,-0.0474684
0.276973,-0.227671,0.10933,0.153359,-0.303779,-0.152831,-0.0474684
0.276973,-0.227671,0.10933,0.153359,-0.303779,-0.152831,-0.0474684
0.276973,-0.227671,0.10933,0.153359,-0.303779,-0.152831,-0.0474684
0.276973,-0.227671,0.10933,0.153359,-0.303779,-0.152831,-0.0474684
0.276973,-0.227671,0.10933,0.153359,-0.303779,-0.152831,-0.0474684
0.276973,-0.227671,0.10933,0.153359,-0.303779,-0.152831,-0.0474684
0.276973,-0.227671,0.10933,0.153359,-0.303779,-0.152831,-0.0474684
0.276973,-0.227671,0.10933,0.153359,-0.303779,-0.152831,-0.0474684
0.276973,-0.227671,0.10933,0.153359,-0.303779,-0.152831,-0.0474684
0.276973,-0.227671,0.10933,0.153359,-0.303779,-0.152831,-0.0474684
0.276973,-0.227671,0.10933,0.153359,-0.303779,-0.152831,-0.0474684
0.276973,-0.227671,0.10933,0.153359,-0.303779,-0.152831,-0.0474684
0.276973,-0.227671,0.10933,0.153359,-0.303779,-0.152831,-0.0474684
0.276973,-0.227671,0.10933,0.153359,-0.303779,-0.152831,-0.0474684
0.276973,-0.227671,0.10933,0.153359,-0.303779,-0.152831,-0.0474684
0.276973,-0.227671,0.10933,0.153359,-0.303779,-0.152831,-0.0474684
0.276973,-0.227671,0.10933,0.153359,-0.303779,-0.152831,-0.0474684
0.276973,-0.227671,0.10933,0.153359,-0.303779,-0.152831,-0.0474684
0.276973,-0.227671,0.10933,0.153359,-0.303779,-0.152831,-0.0474684
0.276973,-0.227671,0.10933,0.153359,-0.303779,-0.152831,-0.0474684
0.276973,-0.227671,0.10933,0.153359,-0.303779,-0.152831,-0.0474684
0.276973,-0.227671,0.10933,0.153359,-0.303779,-0.152831,-0.0474684
0.276973,-0.227671,0.10933,0.153359,-0.303779,-0.152831,-0.0474684
0.276973,-0.227671,0.10933,0.153359,-0.303779,-0.152831,-0.0474684
0.276973,-0.227671,0.10933,0.153359,-0.303779,-0.152831,-0.0474684
0.276973,-0.227671,0.10933,0.153359,-0.303779,-0.152831,-0.0474684
0.276973,-0.227671,0.10933,0.153359,-0.303779,-0.152831,-0.0474684
0.276973,-0.227671,0.10933,0.153359,-0.303779,-0.152831,-0.0474684
0.276973,-0.227671,0.10933,0.153359,-0.303779,-0.152831,-0.0474684
0.276973,-0.227671,0.10933,0.153359,-0.303779,-0.152831,-0.0474684
0.276973,-0.227671,0.10933,0.153359,-0.303779,-0.152831,-0.0474684
0.276973,-0.227671,0.10933,0.153359,-0.303779,-0.152831,-0.0474684
0.276973,-0.227671,0.10933,0.153359,-0.303779,-0.152831,-0.0474684
0.276973,-0.227671,0.10933,0.153359,-0.303779,-0.152831,-0.0474684
0.276973,-0.227671,0.10933,0.153359,-0.303779,-0.152831,-0.0474684
0.276973,-0.227671,0.10933,0.153359,-0.303779,-0.152831,-0.0474684
0.276973,-0.227671,0.10933,0.153359,-0.303779,-0.152831,-0.0474684
0.276973,-0.227671,0.10933,0.153359,-0.303779,-0.152831,-0.0474684
0.276973,-0.227671,0.10933,0.153359,-0.303779,-0.152831,-0.0474684
0.276973,-0.227671,0.10933,0.153359,-0.303779,-0.152831,-0.0474684
0.276973,-0.227671,0.10933,0.153359,-0.303779,-0.152831,-0.0474684
0.276973,-0.227671,0.10933,0.153359,-0.303779,-0.152831,-0.0474684
0.276973,-0.227671,0.10933,0.153359,-0.303779,-0.152831,-0.0474684
0.276973,-0.227671,0.10933,0.153359,-0.303779,-0.152831,-0.0474684
0.276973,-0.227671,0.10933,0.153359,-0.303779,-0.152831,-0.0474684
0.276973,-0.227671,0.10933,0.153359,-0.303779,-0.152831,-0.0474684
0.276973,-0.227671,0.10933,0.153359,-0.303779,-0.152831,-0.0474684
0.276973,-0.227671,0.10933,0.153359,-0.303779,-0.152831,-0.0474684
0.276973,-0.227671,0.10933,0.153359,-0.303779,-0.152831,-0.0474684
0.276973,-0.227671,0.10933,0.153359,-0.303779,-0.152831,-0.0474684
0.276973,-0.227671,0.10933,0.153359,-0.303779,-0.152831,-0.0474684
0.276973,-0.227671,0.10933,0.153359,-0.303779,-0.152831,-0.0474684
0.276973,-0.227671,0.10933,0.153359,-0.303779,-0.152831,-0.0474684
0.276973,-0.227671,0.10933,0.153359,-0.303779,-0.152831,-0.0474684
0.276973,-0.227671,0.10933,0.153359,-0.303779,-0.152831,-0.0474684
0.276973,-0.227671,0.10933,0.153359,-0.303779,-0.152831,-0.0474684
0.276973,-0.227671,0.10933,0.153359,-0.303779,-0.152831,-0.0474684
0.276973,-0.227671,0.10933,0.153359,-0.303779,-0.152831,-0.0474684
0.276973,-0.227671,0.10933,0.153359,-0.303779,-0.152831,-0.0474684
0.276973,-0.227671,0.10933,0.153359,-0.303779,-0.152831,-0.0474684
0.276973,-0.227671,0.10933,0.153359,-0.303779,-0.152831,-0.0474684
0.276973,-0.227671,0.10933,0.153359,-0.303779,-0.152831,-0.0474684
0.276973,-0.227671,0.10933,0.153359,-0.303779,-0.152831,-0.0474684
0.276973,-0.227671,0.10933,0.153359,-0.303779,-0.152831,-0.0474684
0.276973,-0.227671,0.10933,0.153359,-0.303779,-0.152831,-0.0474684
0.276973,-0.227671,0.10933,0.153359,-0.303779,-0.152831,-0.0474684
0.276973,-0.227671,0.10933,0.153359,-0.303779,-0.152831,-0.0474684
0.276973,-0.227671,0.10933,0.153359,-0.303779,-0.152831,-0.0474684
0.276973,-0.227671,0.10933,0.153359,-0.303779,-0.152831,-0.0474684
0.276973,-0.227671,0.10933,0.153359,-0.303779,-0.152831,-0.0474684
0.276973,-0.227671,0.10933,0.153359,-0.303779,-0.152831,-0.0474684
0.276973,-0.227671,0.10933,0.153359,-0.303779,-0.152831,-0.0474684
0.276973,-0.227671,0.10933,0.153359,-0.303779,-0.152831,-0.0474684
0.276973,-0.227671,0.10933,0.153359,-0.303779,-0.152831,-0.0474684
0.276973,-0.227671,0.10933,0.153359,-0.303779,-0.152831,-0.0474684
0.276973,-0.227671,0.10933,0.153359,-0.303779,-0.152831,-0.0474684
0.276973,-0.227671,0.10933,0.153359,-0.303779,-0.152831,-0.0474684
0.276973,-0.227671,0.10933,0.153359,-0.303779,-0.152831,-0.0474684
0.276973,-0.227671,0.10933,0.153359,-0.303779,-0.152831,-0.0474684
0.276973,-0.227671,0.10933,0.153359,-0.303779,-0.152831,-0.0474684
0.276973,-0.227671,0.10933,0.153359,-0.303779,-0.152831,-0.0474684
0.276973,-0.227671,0.10933,0.153359,-0.303779,-0.152831,-0.0474684
0.276973,-0.227671,0.10933,0.153359,-0.303779,-0.152831,-0.0474684
0.276973,-0.227671,0.10933,0.153359,-0.303779,-0.152831,-0.0474684
0.276973,-0.227671,0.10933,0.153359,-0.303779,-0.152831,-0.0474684
0.276973,-0.227671,0.10933,0.153359,-0.303779,-0.152831,-0.0474684
0.276973,-0.227671,0.10933,0.153359,-0.303779,-0.152831,-0.0474684
0.276973,-0.227671,0.10933,0.153359,-0.303779,-0.152831,-0.0474684
0.276973,-0.227671,0.10933,0.153359,-0.303779,-0.152831,-0.0474684
0.276973,-0.227671,0.10933,0.153359,-0.303779,-0.152831,-0.0474684
0.276973,-0.227671,0.10933,0.153359,-0.303779,-0.152831,-0.0474684
0.276973,-0.227671,0.10933,0.153359,-0.303779,-0.152831,-0.0474684
0.276973,-0.227671,0.10933,0.153359,-0.303779,-0.152831,-0.0474684
0.276973,-0.227671,0.10933,0.153359,-0.303779,-0.152831,-0.0474684
0.276973,-0.227671,0.10933,0.153359,-0.303779,-0.152831,-0.0474684
0.276973,-0.227671,0.10933,0.153359,-0.303779,-0.152831,-0.0474684
0.276973,-0.227671,0.10933,0.153359,-0.303779,-0.152831,-0.0474684
0.276973,-0.227671,0.10933,0.153359,-0.303779,-0.152831,-0.0474684
0.276973,-0.227671,0.10933,0.153359,-0.303779,-0.152831,-0.0474684
0.276973,-0.227671,0.10933,0.153359,-0.303779,-0.152831,-0.0474684
0.276973,-0.227671,0.10933,0.153359,-0.303779,-0.152831,-0.0474684
0.276973,-0.227671,0.10933,0.153359,-0.303779,-0.152831,-0.0474684
0.276973,-0.227671,0.10933,0.153359,-0.303779,-0.152831,-0.0474684
0.276973,-0.227671,0.10933,0.153359,-0.303779,-0.152831,-0.0474684
0.276973,-0.227671,0.10933,0.153359,-0.303779,-0.152831,-0.0474684
0.276973,-0.227671,0.10933,0.153359,-0.303779,-0.152831,-0.0474684
0.276973,-0.227671,0.10933,0.153359,-0.303779,-0.152831,-0.0474684
0.276973,-0.227671,0.10933,0.153359,-0.303779,-0.152831,-0.0474684
0.276973,-0.227671,0.10933,0.153359,-0.303779,-0.152831,-0.0474684
0.276973,-0.227671,0.10933,0.153359,-0.303779,-0.152831,-0.0474684
0.276973,-0.227671,0.10933,0.153359,-0.303779,-0.152831,-0.0474684
0.276973,-0.227671,0.10933,0.153359,-0.303779,-0.152831,-0.0474684
0.276973,-0.227671,0.10933,0.153359,-0.303779,-0.152831,-0.0474684
0.276973,-0.227671,0.10933,0.153359,-0.303779,-0.152831,-0.0474684
0.276973,-0.227671,0.10933,0.153359,-0.303779,-0.152831,-0.0474684
0.276973,-0.227671,0.10933,0.153359,-0.303779,-0.152831,-0.0474684
0.276973,-0.227671,0.10933,0.153359,-0.303779,-0.152831,-0.0474684
0.276973,-0.227671,0.10933,0.153359,-0.303779,-0.152831,-0.0474684
0.276973,-0.227671,0.10933,0.153359,-0.303779,-0.152831,-0.0474684
0.276973,-0.227671,0.10933,0.153359,-0.303779,-0.152831,-0.0474684
0.276973,-0.227671,0.10933,0.153359,-0.303779,-0.152831,-0.0474684
0.276973,-0.227671,0.10933,0.153359,-0.303779,-0.152831,-0.0474684
0.276973,-0.227671,0.10933,0.153359,-0.303779,-0.152831,-0.0474684
0.276973,-0.227671,0.10933,0.153359,-0.303779,-0.152831,-0.0474684
0.276973,-0.227671,0.10933,0.153359,-0.303779,-0.152831,-0.0474684
0.276973,-0.227671,0.10933,0.153359,-0.303779,-0.152831,-0.0474684
0.276973,-0.227671,0.10933,0.153359,-0.303779,-0.152831,-0.0474684
0.276973,-0.227671,0.10933,0.153359,-0.303779,-0.152831,-0.0474684
0.276973,-0.227671,0.10933,0.153359,-0.303779,-0.152831,-0.0474684
0.276973,-0.227671,0.10933,0.153359,-0.303779,-0.152831,-0.0474684
0.276973,-0.227671,0.10933,0.153359,-0.303779,-0.152831,-0.0474684
0.276973,-0.227671,0.10933,0.153359,-0.303779,-0.152831,-0.0474684
0.276973,-0.227671,0.10933,0.153359,-0.303779,-0.152831,-0.0474684
0.276973,-0.227671,0.10933,0.153359,-0.303779,-0.152831,-0.0474684
0.276973,-0.227671,0.10933,0.153359,-0.303779,-0.152831,-0.0474684
0.276973,-0.227671,0.10933,0.153359,-0.303779,-0.152831,-0.0474684
0.276973,-0.227671,0.10933,0.153359,-0.303779,-0.152831,-0.0474684
0.276973,-0.227671,0.10933,0.153359,-0.303779,-0.152831,-0.0474684
0.276973,-0.227671,0.10933,0.153359,-0.303779,-0.152831,-0.0474684
0.276973,-0.227671,0.10933,0.153359,-0.303779,-0.152831,-0.0474684
0.276973,-0.227671,0.10933,0.153359,-0.303779,-0.152831,-0.0474684
0.276973,-0.227671,0.10933,0.153359,-0.303779,-0.152831,-0.0474684
0.276973,-0.227671,0.10933,0.153359,-0.303779,-0.152831,-0.0474684
0.276973,-0.227671,0.10933,0.153359,-0.303779,-0.152831,-0.0474684
0.276973,-0.227671,0.10933,0.153359,-0.303779,-0.152831,-0.0474684
0.276973,-0.227671,0.10933,0.153359,-0.303779,-0.152831,-0.0474684
0.276973,-0.227671,0.10933,0.153359,-0.303779,-0.152831,-0.0474684
0.276973,-0.227671,0.10933,0.153359,-0.303779,-0.152831,-0.0474684
0.276973,-0.227671,0.10933,0.153359,-0.303779,-0.152831,-0.0474684
0.276973,-0.227671,0.10933,0.153359,-0.303779,-0.152831,-0.0474684
0.276973,-0.227671,0.10933,0.153359,-0.303779,-0.152831,-0.0474684
0.276973,-0.227671,0.10933,0.153359,-0.303779,-0.152831,-0.0474684
0.276973,-0.227671,0.10933,0.153359,-0.303779,-0.152831,-0.0474684
0.276973,-0.227671,0.10933,0.153359,-0.303779,-0.152831,-0.0474684
0.276973,-0.227671,0.10933,0.153359,-0.303779,-0.152831,-0.0474684
0.276973,-0.227671,0.10933,0.153359,-0.303779,-0.152831,-0.0474684
0.276973,-0.227671,0.10933,0.153359,-0.303779,-0.152831,-0.0474684
0.276973,-0.227671,0.10933,0.153359,-0.303779,-0.152831,-0.0474684
0.276973,-0.227671,0.10933,0.153359,-0.303779,-0.152831,-0.0474684
0.276973,-0.227671,0.10933,0.153359,-0.303779,-0.152831,-0.0474684
0.276973,-0.227671,0.10933,0.153359,-0.303779,-0.152831,-0.0474684
0.276973,-0.227671,0.10933,0.153359,-0.303779,-0.152831,-0.0474684
0.276973,-0.227671,0.10933,0.153359,-0.303779,-0.152831,-0.0474684
0.276973,-0.227671,0.10933,0.153359,-0.303779,-0.152831,-0.0474684
0.276973,-0.227671,0.10933,0.153359,-0.303779,-0.152831,-0.0474684
0.276973,-0.227671,0.10933,0.153359,-0.303779,-0.152831,-0.0474684
0.276973,-0.227671,0.10933,0.153359,-0.303779,-0.152831,-0.0474684
0.276973,-0.227671,0.10933,0.153359,-0.303779,-0.152831,-0.0474684
0.276973,-0.227671,0.10933,0.153359,-0.303779,-0.152831,-0.0474684
0.276973,-0.227671,0.10933,0.153359,-0.303779,-0.152831,-0.0474684
0.276973,-0.227671,0.10933,0.153359,-0.303779,-0.152831,-0.0474684
0.276973,-0.227671,0.10933,0.153359,-0.303779,-0.152831,-0.0474684
0.276973,-0.227671,0.10933,0.153359,-0.303779,-0.152831,-0.0474684
0.276973,-0.227671,0.10933,0.153359,-0.303779,-0.152831,-0.0474684
0.276973,-0.227671,0.10933,0.153359,-0.303779,-0.152831,-0.0474684
0.276973,-0.227671,0.10933,0.153359,-0.303779,-0.152831,-0.0474684
0.276973,-0.227671,0.10933,0.153359,-0.303779,-0.152831,-0.0474684
0.276973,-0.227671,0.10933,0.153359,-0.303779,-0.152831,-0.0474684
0.276973,-0.227671,0.10933,0.153359,-0.303779,-0.152831,-0.0474684
0.276973,-0.227671,0.10933,0.153359,-0.303779,-0.152831,-0.0474684
0.276973,-0.227671,0.10933,0.153359,-0.303779,-0.152831,-0.0474684
0.276973,-0.227671,0.10933,0.153359,-0.303779,-0.152831,-0.0474684
0.276973,-0.227671,0.10933,0.153359,-0.303779,-0.152831,-0.0474684
0.276973,-0.227671,0.10933,0.153359,-0.303779,-0.152831,-0.0474684
0.276973,-0.227671,0.10933,0.153359,-0.303779,-0.152831,-0.0474684
0.276973,-0.227671,0.10933,0.153359,-0.303779,-0.152831,-0.0474684
0.276973,-0.227671,0.10933,0.153359,-0.303779,-0.152831,-0.0474684
0.276973,-0.227671,0.10933,0.153359,-0.303779,-0.152831,-0.0474684
0.276973,-0.227671,0.10933,0.153359,-0.303779,-0.152831,-0.0474684
0.276973,-0.227671,0.10933,0.153359,-0.303779,-0.152831,-0.0474684
0.276973,-0.227671,0.10933,0.153359,-0.303779,-0.152831,-0.0474684
0.276973,-0.227671,0.10933,0.153359,-0.303779,-0.152831,-0.0474684
0.276973,-0.227671,0.10933,0.153359,-0.303779,-0.152831,-0.0474684
0.276973,-0.227671,0.10933,0.153359,-0.303779,-0.152831,-0.0474684
0.276973,-0.227671,0.10933,0.153359,-0.303779,-0.152831,-0.0474684
0.276973,-0.227671,0.10933,0.153359,-0.303779,-0.152831,-0.0474684
0.276973,-0.227671,0.10933,0.153359,-0.303779,-0.152831,-0.0474684
0.276973,-0.227671,0.10933,0.153359,-0.303779,-0.152831,-0.0474684
0.276973,-0.227671,0.10933,0.153359,-0.303779,-0.152831,-0.0474684
0.276973,-0.227671,0.10933,0.153359,-0.303779,-0.152831,-0.0474684
0.276973,-0.227671,0.10933,0.153359,-0.303779,-0.152831,-0.0474684
0.276973,-0.227671,0.10933,0.153359,-0.303779,-0.152831,-0.0474684
0.276973,-0.227671,0.10933,0.153359,-0.303779,-0.152831,-0.0474684
0.276973,-0.227671,0.10933,0.153359,-0.303779,-0.152831,-0.0474684
0.276973,-0.227671,0.10933,0.153359,-0.303779,-0.152831,-0.0474684
0.276973,-0.227671,0.10933,0.153359,-0.303779,-0.152831,-0.0474684
0.276973,-0.227671,0.10933,0.153359,-0.303779,-0.152831,-0.0474684
0.276973,-0.227671,0.10933,0.153359,-0.303779,-0.152831,-0.0474684
0.276973,-0.227671,0.10933,0.153359,-0.303779,-0.152831,-0.0474684
0.276973,-0.227671,0.10933,0.153359,-0.303779,-0.152831,-0.0474684
0.276973,-0.227671,0.10933,0.153359,-0.303779,-0.152831,-0.0474684
0.276973,-0.227671,0.10933,0.153359,-0.303779,-0.152831,-0.0474684
0.276973,-0.227671,0.10933,0.153359,-0.303779,-0.152831,-0.0474684
0.276973,-0.227671,0.10933,0.153359,-0.303779,-0.152831,-0.0474684
0.276973,-0.227671,0.10933,0.153359,-0.303779,-0.152831,-0.0474684
0.276973,-0.227671,0.10933,0.153359,-0.303779,-0.152831,-0.0474684
0.276973,-0.227671,0.10933,0.153359,-0.303779,-0.152831,-0.0474684
0.276973,-0.227671,0.10933,0.153359,-0.303779,-0.152831,-0.0474684
0.276973,-0.227671,0.10933,0.153359,-0.303779,-0.152831,-0.0474684
0.276973,-0.227671,0.10933,0.153359,-0.303779,-0.152831,-0.0474684
0.276973,-0.227671,0.10933,0.153359,-0.303779,-0.152831,-0.0474684
0.276973,-0.227671,0.10933,0.153359,-0.303779,-0.152831,-0.0474684
0.276973,-0.227671,0.10933,0.153359,-0.303779,-0.152831,-0.0474684
0.276973,-0.227671,0.10933,0.153359,-0.303779,-0.152831,-0.0474684
0.276973,-0.227671,0.10933,0.153359,-0.303779,-0.152831,-0.0474684
0.276973,-0.227671,0.10933,0.153359,-0.303779,-0.152831,-0.0474684
0.276973,-0.227671,0.10933,0.153359,-0.303779,-0.152831,-0.0474684
0.276973,-0.227671,0.10933,0.153359,-0.303779,-0.152831,-0.0474684
0.276973,-0.227671,0.10933,0.153359,-0.303779,-0.152831,-0.0474684
0.276973,-0.227671,0.10933,0.153359,-0.303779,-0.152831,-0.0474684
0.276973,-0.227671,0.10933,0.153359,-0.303779,-0.152831,-0.0474684
0.276973,-0.227671,0.10933,0.153359,-0.303779,-0.152831,-0.0474684
0.276973,-0.227671,0.10933,0.153359,-0.303779,-0.152831,-0.0474684
0.276973,-0.227671,0.10933,0.153359,-0.303779,-0.152831,-0.0474684
0.276973,-0.227671,0.10933,0.153359,-0.303779,-0.152831,-0.0474684
0.276973,-0.227671,0.10933,0.153359,-0.303779,-0.152831,-0.0474684
0.276973,-0.227671,0.10933,0.153359,-0.303779,-0.152831,-0.0474684
0.276973,-0.227671,0.10933,0.153359,-0.303779,-0.152831,-0.0474684
0.276973,-0.227671,0.10933,0.153359,-0.303779,-0.152831,-0.0474684
0.276973,-0.227671,0.10933,0.153359,-0.303779,-0.152831,-0.0474684
0.276973,-0.227671,0.10933,0.153359,-0.303779,-0.152831,-0.0474684
0.276973,-0.227671,0.10933,0.153359,-0.303779,-0.152831,-0.0474684
0.276973,-0.227671,0.10933,0.153359,-0.303779,-0.152831,-0.0474684
0.276973,-0.227671,0.10933,0.153359,-0.303779,-0.152831,-0.0474684
0.276973,-0.227671,0.10933,0.153359,-0.303779,-0.152831,-0.0474684
0.276973,-0.227671,0.10933,0.153359,-0.303779,-0.152831,-0.0474684
0.276973,-0.227671,0.10933,0.153359,-0.303779,-0.152831,-0.0474684
0.276973,-0.227671,0.10933,0.153359,-0.303779,-0.152831,-0.0474684
0.276973,-0.227671,0.10933,0.153359,-0.303779,-0.152831,-0.0474684
0.276973,-0.227671,0.10933,0.153359,-0.303779,-0.152831,-0.0474684
0.276973,-0.227671,0.10933,0.153359,-0.303779,-0.152831,-0.0474684
0.276973,-0.227671,0.10933,0.153359,-0.303779,-0.152831,-0.0474684
0.276973,-0.227671,0.10933,0.153359,-0.303779,-0.152831,-0.0474684
0.276973,-0.227671,0.10933,0.153359,-0.303779,-0.152831,-0.0474684
0.276973,-0.227671,0.10933,0.153359,-0.303779,-0.152831,-0.0474684
0.276973,-0.227671,0.10933,0.153359,-0.303779,-0.152831,-0.0474684
0.276973,-0.227671,0.10933,0.153359,-0.303779,-0.152831,-0.0474684
0.276973,-0.227671,0.10933,0.153359,-0.303779,-0.152831,-0.0474684
0.276973,-0.227671,0.10933,0.153359,-0.303779,-0.152831,-0.0474684
0.276973,-0.227671,0.10933,0.153359,-0.303779,-0.152831,-0.0474684
0.276973,-0.227671,0.10933,0.153359,-0.303779,-0.152831,-0.0474684
0.276973,-0.227671,0.10933,0.153359,-0.303779,-0.152831,-0.0474684
0.276973,-0.227671,0.10933,0.153359,-0.303779,-0.152831,-0.0474684
0.276973,-0.227671,0.10933,0.153359,-0.303779,-0.152831,-0.0474684
0.276973,-0.227671,0.10933,0.153359,-0.303779,-0.152831,-0.0474684
0.276973,-0.227671,0.10933,0.153359,-0.303779,-0.152831,-0.0474684
0.276973,-0.227671,0.10933,0.153359,-0.303779,-0.152831,-0.0474684
0.276973,-0.227671,0.10933,0.153359,-0.303779,-0.152831,-0.0474684
0.276973,-0.227671,0.10933,0.153359,-0.303779,-0.152831,-0.0474684
0.276973,-0.227671,0.10933,0.153359,-0.303779,-0.152831,-0.0474684
0.276973,-0.227671,0.10933,0.153359,-0.303779,-0.152831,-0.0474684
0.276973,-0.227671,0.10933,0.153359,-0.303779,-0.152831,-0.0474684
0.276973,-0.227671,0.10933,0.153359,-0.303779,-0.152831,-0.0474684
0.276973,-0.227671,0.10933,0.153359,-0.303779,-0.152831,-0.0474684
0.276973,-0.227671,0.10933,0.153359,-0.303779,-0.152831,-0.0474684
0.276973,-0.227671,0.10933,0.153359,-0.303779,-0.152831,-0.0474684
0.276973,-0.227671,0.10933,0.153359,-0.303779,-0.152831,-0.0474684
0.276973,-0.227671,0.10933,0.153359,-0.303779,-0.152831,-0.0474684
0.276973,-0.227671,0.10933,0.153359,-0.303779,-0.152831,-0.0474684
0.276973,-0.227671,0.10933,0.153359,-0.303779,-0.152831,-0.0474684
0.276973,-0.227671,0.10933,0.153359,-0.303779,-0.152831,-0.0474684
0.276973,-0.227671,0.10933,0.153359,-0.303779,-0.152831,-0.0474684
0.276973,-0.227671,0.10933,0.153359,-0.303779,-0.152831,-0.0474684
0.276973,-0.227671,0.10933,0.153359,-0.303779,-0.152831,-0.0474684
0.276973,-0.227671,0.10933,0.153359,-0.303779,-0.152831,-0.0474684
0.276973,-0.227671,0.10933,0.153359,-0.303779,-0.152831,-0.0474684
0.276973,-0.227671,0.10933,0.153359,-0.303779,-0.152831,-0.0474684
0.276973,-0.227671,0.10933,0.153359,-0.303779,-0.152831,-0.0474684
0.276973,-0.227671,0.10933,0.153359,-0.303779,-0.152831,-0.0474684
0.276973,-0.227671,0.10933,0.153359,-0.303779,-0.152831,-0.0474684
0.276973,-0.227671,0.10933,0.153359,-0.303779,-0.152831,-0.0474684
0.276973,-0.227671,0.10933,0.153359,-0.303779,-0.152831,-0.0474684
0.276973,-0.227671,0.10933,0.153359,-0.303779,-0.152831,-0.0474684
0.276973,-0.227671,0.10933,0.153359,-0.303779,-0.152831,-0.0474684
0.276973,-0.227671,0.10933,0.153359,-0.303779,-0.152831,-0.0474684
0.276973,-0.227671,0.10933,0.153359,-0.303779,-0.152831,-0.0474684
0.276973,-0.227671,0.10933,0.153359,-0.303779,-0.152831,-0.0474684
0.276973,-0.227671,0.10933,0.153359,-0.303779,-0.152831,-0.0474684
0.276973,-0.227671,0.10933,0.153359,-0.303779,-0.152831,-0.0474684
0.276973,-0.227671,0.10933,0.153359,-0.303779,-0.152831,-0.0474684
0.276973,-0.227671,0.10933,0.153359,-0.303779,-0.152831,-0.0474684
0.276973,-0.227671,0.10933,0.153359,-0.303779,-0.152831,-0.0474684
0.276973,-0.227671,0.10933,0.153359,-0.303779,-0.152831,-0.0474684
0.276973,-0.227671,0.10933,0.153359,-0.303779,-0.152831,-0.0474684
0.276973,-0.227671,0.10933,0.153359,-0.303779,-0.152831,-0.0474684
0.276973,-0.227671,0.10933,0.153359,-0.303779,-0.152831,-0.0474684
0.276973,-0.227671,0.10933,0.153359,-0.303779,-0.152831,-0.0474684
0.276973,-0.227671,0.10933,0.153359,-0.303779,-0.152831,-0.0474684
0.276973,-0.227671,0.10933,0.153359,-0.303779,-0.152831,-0.0474684
0.276973,-0.227671,0.10933,0.153359,-0.303779,-0.152831,-0.0474684
0.276973,-0.227671,0.10933,0.153359,-0.303779,-0.152831,-0.0474684
0.276973,-0.227671,0.10933,0.153359,-0.303779,-0.152831,-0.0474684
0.276973,-0.227671,0.10933,0.153359,-0.303779,-0.152831,-0.0474684
0.276973,-0.227671,0.10933,0.153359,-0.303779,-0.152831,-0.0474684
0.276973,-0.227671,0.10933,0.153359,-0.303779,-0.152831,-0.0474684
0.276973,-0.227671,0.10933,0.153359,-0.303779,-0.152831,-0.0474684
0.276973,-0.227671,0.10933,0.153359,-0.303779,-0.152831,-0.0474684
0.276973,-0.227671,0.10933,0.153359,-0.303779,-0.152831,-0.0474684
0.276973,-0.227671,0.10933,0.153359,-0.303779,-0.152831,-0.0474684
0.276973,-0.227671,0.10933,0.153359,-0.303779,-0.152831,-0.0474684
0.276973,-0.227671,0.10933,0.153359,-0.303779,-0.152831,-0.0474684
0.276973,-0.227671,0.10933,0.153359,-0.303779,-0.152831,-0.0474684
0.276973,-0.227671,0.10933,0.153359,-0.303779,-0.152831,-0.0474684
0.276973,-0.227671,0.10933,0.153359,-0.303779,-0.152831,-0.0474684
0.276973,-0.227671,0.10933,0.153359,-0.303779,-0.152831,-0.0474684
0.276973,-0.227671,0.10933,0.153359,-0.303779,-0.152831,-0.0474684
0.276973,-0.227671,0.10933,0.153359,-0.303779,-0.152831,-0.0474684
0.276973,-0.227671,0.10933,0.153359,-0.303779,-0.152831,-0.0474684
0.276973,-0.227671,0.10933,0.153359,-0.303779,-0.152831,-0.0474684
0.276973,-0.227671,0.10933,0.153359,-0.303779,-0.152831,-0.0474684
0.276973,-0.227671,0.10933,0.153359,-0.303779,-0.152831,-0.0474684
0.276973,-0.227671,0.10933,0.153359,-0.303779,-0.152831,-0.0474684
0.276973,-0.227671,0.10933,0.153359,-0.303779,-0.152831,-0.0474684
0.276973,-0.227671,0.10933,0.153359,-0.303779,-0.152831,-0.0474684
0.276973,-0.227671,0.10933,0.153359,-0.303779,-0.152831,-0.0474684
0.276973,-0.227671,0.10933,0.153359,-0.303779,-0.152831,-0.0474684
0.276973,-0.227671,0.10933,0.153359,-0.303779,-0.152831,-0.0474684
0.276973,-0.227671,0.10933,0.153359,-0.303779,-0.152831,-0.0474684
0.276973,-0.227671,0.10933,0.153359,-0.303779,-0.152831,-0.0474684
0.276973,-0.227671,0.10933,0.153359,-0.303779,-0.152831,-0.0474684
0.276973,-0.227671,0.10933,0.153359,-0.303779,-0.152831,-0.0474684
0.276973,-0.227671,0.10933,0.153359,-0.303779,-0.152831,-0.0474684
0.276973,-0.227671,0.10933,0.153359,-0.303779,-0.152831,-0.0474684
0.276973,-0.227671,0.10933,0.153359,-0.303779,-0.152831,-0.0474684
0.276973,-0.227671,0.10933,0.153359,-0.303779,-0.152831,-0.0474684
0.276973,-0.227671,0.10933,0.153359,-0.303779,-0.152831,-0.0474684
0.276973,-0.227671,0.10933,0.153359,-0.303779,-0.152831,-0.0474684
0.276973,-0.227671,0.10933,0.153359,-0.303779,-0.152831,-0.0474684
0.276973,-0.227671,0.10933,0.153359,-0.303779,-0.152831,-0.0474684
0.276973,-0.227671,0.10933,0.153359,-0.303779,-0.152831,-0.0474684
0.276973,-0.227671,0.10933,0.153359,-0.303779,-0.152831,-0.0474684
0.276973,-0.227671,0.10933,0.153359,-0.303779,-0.152831,-0.0474684
0.276973,-0.227671,0.10933,0.153359,-0.303779,-0.152831,-0.0474684
0.276973,-0.227671,0.10933,0.153359,-0.303779,-0.152831,-0.0474684
0.276973,-0.227671,0.10933,0.153359,-0.303779,-0.152831,-0.0474684
0.276973,-0.227671,0.10933,0.153359,-0.303779,-0.152831,-0.0474684
0.276973,-0.227671,0.10933,0.153359,-0.303779,-0.152831,-0.0474684
0.276973,-0.227671,0.10933,0.153359,-0.303779,-0.152831,-0.0474684
0.276973,-0.227671,0.10933,0.153359,-0.303779,-0.152831,-0.0474684
0.276973,-0.227671,0.10933,0.153359,-0.303779,-0.152831,-0.0474684
0.276973,-0.227671,0.10933,0.153359,-0.303779,-0.152831,-0.0474684
0.276973,-0.227671,0.10933,0.153359,-0.303779,-0.152831,-0.0474684
0.276973,-0.227671,0.10933,0.153359,-0.303779,-0.152831,-0.0474684
0.276973,-0.227671,0.10933,0.153359,-0.303779,-0.152831,-0.0474684
0.276973,-0.227671,0.10933,0.153359,-0.303779,-0.152831,-0.0474684
0.276973,-0.227671,0.10933,0.153359,-0.303779,-0.152831,-0.0474684
0.276973,-0.227671,0.10933,0.153359,-0.303779,-0.152831,-0.0474684
0.276973,-0.227671,0.10933,0.153359,-0.303779,-0.152831,-0.0474684
0.276973,-0.227671,0.10933,0.153359,-0.303779,-0.152831,-0.0474684
0.276973,-0.227671,0.10933,0.153359,-0.303779,-0.152831,-0.0474684
0.276973,-0.227671,0.10933,0.153359,-0.303779,-0.152831,-0.0474684
0.276973,-0.227671,0.10933,0.153359,-0.303779,-0.152831,-0.0474684
0.276973,-0.227671,0.10933,0.153359,-0.303779,-0.152831,-0.0474684
0.276973,-0.227671,0.10933,0.153359,-0.303779,-0.152831,-0.0474684
0.276973,-0.227671,0.10933,0.153359,-0.303779,-0.152831,-0.0474684
0.276973,-0.227671,0.10933,0.153359,-0.303779,-0.152831,-0.0474684
0.276973,-0.227671,0.10933,0.153359,-0.303779,-0.152831,-0.0474684
0.276973,-0.227671,0.10933,0.153359,-0.303779,-0.152831,-0.0474684
0.276973,-0.227671,0.10933,0.153359,-0.303779,-0.152831,-0.0474684
0.276973,-0.227671,0.10933,0.153359,-0.303779,-0.152831,-0.0474684
0.276973,-0.227671,0.10933,0.153359,-0.303779,-0.152831,-0.0474684
0.276973,-0.227671,0.10933,0.153359,-0.303779,-0.152831,-0.0474684
0.276973,-0.227671,0.10933,0.153359,-0.303779,-0.152831,-0.0474684
0.276973,-0.227671,0.10933,0.153359,-0.303779,-0.152831,-0.0474684
0.276973,-0.227671,0.10933,0.153359,-0.303779,-0.152831,-0.0474684
0.276973,-0.227671,0.10933,0.153359,-0.303779,-0.152831,-0.0474684
0.276973,-0.227671,0.10933,0.153359,-0.303779,-0.152831,-0.0474684
0.276973,-0.227671,0.10933,0.153359,-0.303779,-0.152831,-0.0474684
0.276973,-0.227671,0.10933,0.153359,-0.303779,-0.152831,-0.0474684
0.276973,-0.227671,0.10933,0.153359,-0.303779,-0.152831,-0.0474684
0.276973,-0.227671,0.10933,0.153359,-0.303779,-0.152831,-0.0474684
0.276973,-0.227671,0.10933,0.153359,-0.303779,-0.152831,-0.0474684
0.276973,-0.227671,0.10933,0.153359,-0.303779,-0.152831,-0.0474684
0.276973,-0.227671,0.10933,0.153359,-0.303779,-0.152831,-0.0474684
0.276973,-0.227671,0.10933,0.153359,-0.303779,-0.152831,-0.0474684
0.276973,-0.227671,0.10933,0.153359,-0.303779,-0.152831,-0.0474684
0.276973,-0.227671,0.10933,0.153359,-0.303779,-0.152831,-0.0474684
0.276973,-0.227671,0.10933,0.153359,-0.303779,-0.152831,-0.0474684
0.276973,-0.227671,0.10933,0.153359,-0.303779,-0.152831,-0.0474684
0.276973,-0.227671,0.10933,0.153359,-0.303779,-0.152831,-0.0474684
0.276973,-0.227671,0.10933,0.153359,-0.303779,-0.152831,-0.0474684
0.276973,-0.227671,0.10933,0.153359,-0.303779,-0.152831,-0.0474684
0.276973,-0.227671,0.10933,0.153359,-0.303779,-0.152831,-0.0474684
0.276973,-0.227671,0.10933,0.153359,-0.303779,-0.152831,-0.0474684
0.276973,-0.227671,0.10933,0.153359,-0.303779,-0.152831,-0.0474684
0.276973,-0.227671,0.10933,0.153359,-0.303779,-0.152831,-0.0474684
0.276973,-0.227671,0.10933,0.153359,-0.303779,-0.152831,-0.0474684
0.276973,-0.227671,0.10933,0.153359,-0.303779,-0.152831,-0.0474684
0.276973,-0.227671,0.10933,0.153359,-0.303779,-0.152831,-0.0474684
0.276973,-0.227671,0.10933,0.153359,-0.303779,-0.152831,-0.0474684
0.276973,-0.227671,0.10933,0.153359,-0.303779,-0.152831,-0.0474684
0.276973,-0.227671,0.10933,0.153359,-0.303779,-0.152831,-0.0474684
0.276973,-0.227671,0.10933,0.153359,-0.303779,-0.152831,-0.0474684
0.276973,-0.227671,0.10933,0.153359,-0.303779,-0.152831,-0.0474684
0.276973,-0.227671,0.10933,0.153359,-0.303779,-0.152831,-0.0474684
0.276973,-0.227671,0.10933,0.153359,-0.303779,-0.152831,-0.0474684
0.276973,-0.227671,0.10933,0.153359,-0.303779,-0.152831,-0.0474684
0.276973,-0.227671,0.10933,0.153359,-0.303779,-0.152831,-0.0474684
0.276973,-0.227671,0.10933,0.153359,-0.303779,-0.152831,-0.0474684
0.276973,-0.227671,0.10933,0.153359,-0.303779,-0.152831,-0.0474684
0.276973,-0.227671,0.10933,0.153359,-0.303779,-0.152831,-0.0474684
0.276973,-0.227671,0.10933,0.153359,-0.303779,-0.152831,-0.0474684
0.276973,-0.227671,0.10933,0.153359,-0.303779,-0.152831,-0.0474684
0.276973,-0.227671,0.10933,0.153359,-0.303779,-0.152831,-0.0474684
0.276973,-0.227671,0.10933,0.153359,-0.303779,-0.152831,-0.0474684
0.276973,-0.227671,0.10933,0.153359,-0.303779,-0.152831,-0.0474684
0.276973,-0.227671,0.10933,0.153359,-0.303779,-0.152831,-0.0474684
0.276973,-0.227671,0.10933,0.153359,-0.303779,-0.152831,-0.0474684
0.276973,-0.227671,0.10933,0.153359,-0.303779,-0.152831,-0.0474684
0.276973,-0.227671,0.10933,0.153359,-0.303779,-0.152831,-0.0474684
0.276973,-0.227671,0.10933,0.153359,-0.303779,-0.152831,-0.0474684
0.276973,-0.227671,0.10933,0.153359,-0.303779,-0.152831,-0.0474684
0.276973,-0.227671,0.10933,0.153359,-0.303779,-0.152831,-0.0474684
0.276973,-0.227671,0.10933,0.153359,-0.303779,-0.152831,-0.0474684
0.276973,-0.227671,0.10933,0.153359,-0.303779,-0.152831,-0.0474684
0.276973,-0.227671,0.10933,0.153359,-0.303779,-0.152831,-0.0474684
0.276973,-0.227671,0.10933,0.153359,-0.303779,-0.152831,-0.0474684
0.276973,-0.227671,0.10933,0.153359,-0.303779,-0.152831,-0.0474684
0.276973,-0.227671,0.10933,0.153359,-0.303779,-0.152831,-0.0474684
0.276973,-0.227671,0.10933,0.153359,-0.303779,-0.152831,-0.0474684
0.276973,-0.227671,0.10933,0.153359,-0.303779,-0.152831,-0.0474684
0.276973,-0.227671,0.10933,0.153359,-0.303779,-0.152831,-0.0474684
0.276973,-0.227671,0.10933,0.153359,-0.303779,-0.152831,-0.0474684
0.276973,-0.227671,0.10933,0.153359,-0.303779,-0.152831,-0.0474684
0.276973,-0.227671,0.10933,0.153359,-0.303779,-0.152831,-0.0474684
0.276973,-0.227671,0.10933,0.153359,-0.303779,-0.152831,-0.0474684
0.276973,-0.227671,0.10933,0.153359,-0.303779,-0.152831,-0.0474684
0.276973,-0.227671,0.10933,0.153359,-0.303779,-0.152831,-0.0474684
0.276973,-0.227671,0.10933,0.153359,-0.303779,-0.152831,-0.0474684
0.276973,-0.227671,0.10933,0.153359,-0.303779,-0.152831,-0.0474684
0.276973,-0.227671,0.10933,0.153359,-0.303779,-0.152831,-0.0474684
0.276973,-0.227671,0.10933,0.153359,-0.303779,-0.152831,-0.0474684
0.276973,-0.227671,0.10933,0.153359,-0.303779,-0.152831,-0.0474684
0.276973,-0.227671,0.10933,0.153359,-0.303779,-0.152831,-0.0474684
0.276973,-0.227671,0.10933,0.153359,-0.303779,-0.152831,-0.0474684
0.276973,-0.227671,0.10933,0.153359,-0.303779,-0.152831,-0.0474684
0.276973,-0.227671,0.10933,0.153359,-0.303779,-0.152831,-0.0474684
0.276973,-0.227671,0.10933,0.153359,-0.303779,-0.152831,-0.0474684
0.276973,-0.227671,0.10933,0.153359,-0.303779,-0.152831,-0.0474684
0.276973,-0.227671,0.10933,0.153359,-0.303779,-0.152831,-0.0474684
0.276973,-0.227671,0.10933,0.153359,-0.303779,-0.152831,-0.0474684
0.276973,-0.227671,0.10933,0.153359,-0.303779,-0.152831,-0.0474684
0.276973,-0.227671,0.10933,0.153359,-0.303779,-0.152831,-0.0474684
0.276973,-0.227671,0.10933,0.153359,-0.303779,-0.152831,-0.0474684
0.276973,-0.227671,0.10933,0.153359,-0.303779,-0.152831,-0.0474684
0.276973,-0.227671,0.10933,0.153359,-0.303779,-0.152831,-0.0474684
0.276973,-0.227671,0.10933,0.153359,-0.303779,-0.152831,-0.0474684
0.276973,-0.227671,0.10933,0.153359,-0.303779,-0.152831,-0.0474684
0.276973,-0.227671,0.10933,0.153359,-0.303779,-0.152831,-0.0474684
0.276973,-0.227671,0.10933,0.153359,-0.303779,-0.152831,-0.0474684
0.276973,-0.227671,0.10933,0.153359,-0.303779,-0.152831,-0.0474684
0.276973,-0.227671,0.10933,0.153359,-0.303779,-0.152831,-0.0474684
0.276973,-0.227671,0.10933,0.153359,-0.303779,-0.152831,-0.0474684
0.276973,-0.227671,0.10933,0.153359,-0.303779,-0.152831,-0.0474684
0.276973,-0.227671,0.10933,0.153359,-0.303779,-0.152831,-0.0474684
0.276973,-0.227671,0.10933,0.153359,-0.303779,-0.152831,-0.0474684
0.276973,-0.227671,0.10933,0.153359,-0.303779,-0.152831,-0.0474684
0.276973,-0.227671,0.10933,0.153359,-0.303779,-0.152831,-0.0474684
0.276973,-0.227671,0.10933,0.153359,-0.303779,-0.152831,-0.0474684
0.276973,-0.227671,0.10933,0.153359,-0.303779,-0.152831,-0.0474684
0.276973,-0.227671,0.10933,0.153359,-0.303779,-0.152831,-0.0474684
0.276973,-0.227671,0.10933,0.153359,-0.303779,-0.152831,-0.0474684
0.276973,-0.227671,0.10933,0.153359,-0.303779,-0.152831,-0.0474684
0.276973,-0.227671,0.10933,0.153359,-0.303779,-0.152831,-0.0474684
0.276973,-0.227671,0.10933,0.153359,-0.303779,-0.152831,-0.0474684
0.276973,-0.227671,0.10933,0.153359,-0.303779,-0.152831,-0.0474684
0.276973,-0.227671,0.10933,0.153359,-0.303779,-0.152831,-0.0474684
0.276973,-0.227671,0.10933,0.153359,-0.303779,-0.152831,-0.0474684
0.276973,-0.227671,0.10933,0.153359,-0.303779,-0.152831,-0.0474684
0.276973,-0.227671,0.10933,0.153359,-0.303779,-0.152831,-0.0474684
0.276973,-0.227671,0.10933,0.153359,-0.303779,-0.152831,-0.0474684
0.276973,-0.227671,0.10933,0.153359,-0.303779,-0.152831,-0.0474684
0.276973,-0.227671,0.10933,0.153359,-0.303779,-0.152831,-0.0474684
0.276973,-0.227671,0.10933,0.153359,-0.303779,-0.152831,-0.0474684
0.276973,-0.227671,0.10933,0.153359,-0.303779,-0.152831,-0.0474684
0.276973,-0.227671,0.10933,0.153359,-0.303779,-0.152831,-0.0474684
0.276973,-0.227671,0.10933,0.153359,-0.303779,-0.152831,-0.0474684
0.276973,-0.227671,0.10933,0.153359,-0.303779,-0.152831,-0.0474684
0.276973,-0.227671,0.10933,0.153359,-0.303779,-0.152831,-0.0474684
0.276973,-0.227671,0.10933,0.153359,-0.303779,-0.152831,-0.0474684
0.276973,-0.227671,0.10933,0.153359,-0.303779,-0.152831,-0.0474684
0.276973,-0.227671,0.10933,0.153359,-0.303779,-0.152831,-0.0474684
0.276973,-0.227671,0.10933,0.153359,-0.303779,-0.152831,-0.0474684
0.276973,-0.227671,0.10933,0.153359,-0.303779,-0.152831,-0.0474684
0.276973,-0.227671,0.10933,0.153359,-0.303779,-0.152831,-0.0474684
0.276973,-0.227671,0.10933,0.153359,-0.303779,-0.152831,-0.0474684
0.276973,-0.227671,0.10933,0.153359,-0.303779,-0.152831,-0.0474684
0.276973,-0.227671,0.10933,0.153359,-0.303779,-0.152831,-0.0474684
0.276973,-0.227671,0.10933,0.153359,-0.303779,-0.152831,-0.0474684
0.276973,-0.227671,0.10933,0.153359,-0.303779,-0.152831,-0.0474684
0.276973,-0.227671,0.10933,0.153359,-0.303779,-0.152831,-0.0474684
0.276973,-0.227671,0.10933,0.153359,-0.303779,-0.152831,-0.0474684
0.276973,-0.227671,0.10933,0.153359,-0.303779,-0.152831,-0.0474684
0.276973,-0.227671,0.10933,0.153359,-0.303779,-0.152831,-0.0474684
0.276973,-0.227671,0.10933,0.153359,-0.303779,-0.152831,-0.0474684
0.276973,-0.227671,0.10933,0.153359,-0.303779,-0.152831,-0.0474684
0.276973,-0.227671,0.10933,0.153359,-0.303779,-0.152831,-0.0474684
0.276973,-0.227671,0.10933,0.153359,-0.303779,-0.152831,-0.0474684
0.276973,-0.227671,0.10933,0.153359,-0.303779,-0.152831,-0.0474684
0.276973,-0.227671,0.10933,0.153359,-0.303779,-0.152831,-0.0474684
0.276973,-0.227671,0.10933,0.153359,-0.303779,-0.152831,-0.0474684
0.276973,-0.227671,0.10933,0.153359,-0.303779,-0.152831,-0.0474684
0.276973,-0.227671,0.10933,0.153359,-0.303779,-0.152831,-0.0474684
0.276973,-0.227671,0.10933,0.153359,-0.303779,-0.152831,-0.0474684
0.276973,-0.227671,0.10933,0.153359,-0.303779,-0.152831,-0.0474684
0.276973,-0.227671,0.10933,0.153359,-0.303779,-0.152831,-0.0474684
0.276973,-0.227671,0.10933,0.153359,-0.303779,-0.152831,-0.0474684
0.276973,-0.227671,0.10933,0.153359,-0.303779,-0.152831,-0.0474684
0.276973,-0.227671,0.10933,0.153359,-0.303779,-0.152831,-0.0474684
0.276973,-0.227671,0.10933,0.153359,-0.303779,-0.152831,-0.0474684
0.276973,-0.227671,0.10933,0.153359,-0.303779,-0.152831,-0.0474684
0.276973,-0.227671,0.10933,0.153359,-0.303779,-0.152831,-0.0474684
0.276973,-0.227671,0.10933,0.153359,-0.303779,-0.152831,-0.0474684
0.276973,-0.227671,0.10933,0.153359,-0.303779,-0.152831,-0.0474684
0.276973,-0.227671,0.10933,0.153359,-0.303779,-0.152831,-0.0474684
0.276973,-0.227671,0.10933,0.153359,-0.303779,-0.152831,-0.0474684
0.276973,-0.227671,0.10933,0.153359,-0.303779,-0.152831,-0.0474684
0.276973,-0.227671,0.10933,0.153359,-0.303779,-0.152831,-0.0474684
0.276973,-0.227671,0.10933,0.153359,-0.303779,-0.152831,-0.0474684
0.276973,-0.227671,0.10933,0.153359,-0.303779,-0.152831,-0.0474684
0.276973,-0.227671,0.10933,0.153359,-0.303779,-0.152831,-0.0474684
0.276973,-0.227671,0.10933,0.153359,-0.303779,-0.152831,-0.0474684
0.276973,-0.227671,0.10933,0.153359,-0.303779,-0.152831,-0.0474684
0.276973,-0.227671,0.10933,0.153359,-0.303779,-0.152831,-0.0474684
0.276973,-0.227671,0.10933,0.153359,-0.303779,-0.152831,-0.0474684
0.276973,-0.227671,0.10933,0.153359,-0.303779,-0.152831,-0.0474684
0.276973,-0.227671,0.10933,0.153359,-0.303779,-0.152831,-0.0474684
0.276973,-0.227671,0.10933,0.153359,-0.303779,-0.152831,-0.0474684
0.276973,-0.227671,0.10933,0.153359,-0.303779,-0.152831,-0.0474684
0.276973,-0.227671,0.10933,0.153359,-0.303779,-0.152831,-0.0474684
0.276973,-0.227671,0.10933,0.153359,-0.303779,-0.152831,-0.0474684
0.276973,-0.227671,0.10933,0.153359,-0.303779,-0.152831,-0.0474684
0.276973,-0.227671,0.10933,0.153359,-0.303779,-0.152831,-0.0474684
0.276973,-0.227671,0.10933,0.153359,-0.303779,-0.152831,-0.0474684
0.276973,-0.227671,0.10933,0.153359,-0.303779,-0.152831,-0.0474684
0.276973,-0.227671,0.10933,0.153359,-0.303779,-0.152831,-0.0474684
0.276973,-0.227671,0.10933,0.153359,-0.303779,-0.152831,-0.0474684
0.276973,-0.227671,0.10933,0.153359,-0.303779,-0.152831,-0.0474684
0.276973,-0.227671,0.10933,0.153359,-0.303779,-0.152831,-0.0474684
0.276973,-0.227671,0.10933,0.153359,-0.303779,-0.152831,-0.0474684
0.276973,-0.227671,0.10933,0.153359,-0.303779,-0.152831,-0.0474684
0.276973,-0.227671,0.10933,0.153359,-0.303779,-0.152831,-0.0474684
0.276973,-0.227671,0.10933,0.153359,-0.303779,-0.152831,-0.0474684
0.276973,-0.227671,0.10933,0.153359,-0.303779,-0.152831,-0.0474684
0.276973,-0.227671,0.10933,0.153359,-0.303779,-0.152831,-0.0474684
0.276973,-0.227671,0.10933,0.153359,-0.303779,-0.152831,-0.0474684
0.276973,-0.227671,0.10933,0.153359,-0.303779,-0.152831,-0.0474684
0.276973,-0.227671,0.10933,0.153359,-0.303779,-0.152831,-0.0474684
0.276973,-0.227671,0.10933,0.153359,-0.303779,-0.152831,-0.0474684
0.276973,-0.227671,0.10933,0.153359,-0.303779,-0.152831,-0.0474684
0.276973,-0.227671,0.10933,0.153359,-0.303779,-0.152831,-0.0474684
0.276973,-0.227671,0.10933,0.153359,-0.303779,-0.152831,-0.0474684
0.276973,-0.227671,0.10933,0.153359,-0.303779,-0.152831,-0.0474684
0.276973,-0.227671,0.10933,0.153359,-0.303779,-0.152831,-0.0474684
0.276973,-0.227671,0.10933,0.153359,-0.303779,-0.152831,-0.0474684
0.276973,-0.227671,0.10933,0.153359,-0.303779,-0.152831,-0.0474684
0.276973,-0.227671,0.10933,0.153359,-0.303779,-0.152831,-0.0474684
0.276973,-0.227671,0.10933,0.153359,-0.303779,-0.152831,-0.0474684
0.276973,-0.227671,0.10933,0.153359,-0.303779,-0.152831,-0.0474684
0.276973,-0.227671,0.10933,0.153359,-0.303779,-0.152831,-0.0474684
0.276973,-0.227671,0.10933,0.153359,-0.303779,-0.152831,-0.0474684
0.276973,-0.227671,0.10933,0.153359,-0.303779,-0.152831,-0.0474684
0.276973,-0.227671,0.10933,0.153359,-0.303779,-0.152831,-0.0474684
0.276973,-0.227671,0.10933,0.153359,-0.303779,-0.152831,-0.0474684
0.276973,-0.227671,0.10933,0.153359,-0.303779,-0.152831,-0.0474684
0.276973,-0.227671,0.10933,0.153359,-0.303779,-0.152831,-0.0474684
0.276973,-0.227671,0.10933,0.153359,-0.303779,-0.152831,-0.0474684
0.276973,-0.227671,0.10933,0.153359,-0.303779,-0.152831,-0.0474684
0.276973,-0.227671,0.10933,0.153359,-0.303779,-0.152831,-0.0474684
0.276973,-0.227671,0.10933,0.153359,-0.303779,-0.152831,-0.0474684
0.276973,-0.227671,0.10933,0.153359,-0.303779,-0.152831,-0.0474684
0.276973,-0.227671,0.10933,0.153359,-0.303779,-0.152831,-0.0474684
0.276973,-0.227671,0.10933,0.153359,-0.303779,-0.152831,-0.0474684
0.276973,-0.227671,0.10933,0.153359,-0.303779,-0.152831,-0.0474684
0.276973,-0.227671,0.10933,0.153359,-0.303779,-0.152831,-0.0474684
0.276973,-0.227671,0.10933,0.153359,-0.303779,-0.152831,-0.0474684
0.276973,-0.227671,0.10933,0.153359,-0.303779,-0.152831,-0.0474684
0.276973,-0.227671,0.10933,0.153359,-0.303779,-0.152831,-0.0474684
0.276973,-0.227671,0.10933,0.153359,-0.303779,-0.152831,-0.0474684
0.276973,-0.227671,0.10933,0.153359,-0.303779,-0.152831,-0.0474684
0.276973,-0.227671,0.10933,0.153359,-0.303779,-0.152831,-0.0474684
0.276973,-0.227671,0.10933,0.153359,-0.303779,-0.152831,-0.0474684
0.276973,-0.227671,0.10933,0.153359,-0.303779,-0.152831,-0.0474684
0.276973,-0.227671,0.10933,0.153359,-0.303779,-0.152831,-0.0474684
0.276973,-0.227671,0.10933,0.153359,-0.303779,-0.152831,-0.0474684
0.276973,-0.227671,0.10933,0.153359,-0.303779,-0.152831,-0.0474684
0.276973,-0.227671,0.10933,0.153359,-0.303779,-0.152831,-0.0474684
0.276973,-0.227671,0.10933,0.153359,-0.303779,-0.152831,-0.0474684
0.276973,-0.227671,0.10933,0.153359,-0.303779,-0.152831,-0.0474684
0.276973,-0.227671,0.10933,0.153359,-0.303779,-0.152831,-0.0474684
0.276973,-0.227671,0.10933,0.153359,-0.303779,-0.152831,-0.0474684
0.276973,-0.227671,0.10933,0.153359,-0.303779,-0.152831,-0.0474684
0.276973,-0.227671,0.10933,0.153359,-0.303779,-0.152831,-0.0474684
0.276973,-0.227671,0.10933,0.153359,-0.303779,-0.152831,-0.0474684
0.276973,-0.227671,0.10933,0.153359,-0.303779,-0.152831,-0.0474684
0.276973,-0.227671,0.10933,0.153359,-0.303779,-0.152831,-0.0474684
0.276973,-0.227671,0.10933,0.153359,-0.303779,-0.152831,-0.0474684
0.276973,-0.227671,0.10933,0.153359,-0.303779,-0.152831,-0.0474684
0.276973,-0.227671,0.10933,0.153359,-0.303779,-0.152831,-0.0474684
0.276973,-0.227671,0.10933,0.153359,-0.303779,-0.152831,-0.0474684
0.276973,-0.227671,0.10933,0.153359,-0.303779,-0.152831,-0.0474684
0.276973,-0.227671,0.10933,0.153359,-0.303779,-0.152831,-0.0474684
0.276973,-0.227671,0.10933,0.153359,-0.303779,-0.152831,-0.0474684
0.276973,-0.227671,0.10933,0.153359,-0.303779,-0.152831,-0.0474684
0.276973,-0.227671,0.10933,0.153359,-0.303779,-0.152831,-0.0474684
0.276973,-0.227671,0.10933,0.153359,-0.303779,-0.152831,-0.0474684
0.276973,-0.227671,0.10933,0.153359,-0.303779,-0.152831,-0.0474684
0.276973,-0.227671,0.10933,0.153359,-0.303779,-0.152831,-0.0474684
0.276973,-0.227671,0.10933,0.153359,-0.303779,-0.152831,-0.0474684
0.276973,-0.227671,0.10933,0.153359,-0.303779,-0.152831,-0.0474684
0.276973,-0.227671,0.10933,0.153359,-0.303779,-0.152831,-0.0474684
0.276973,-0.227671,0.10933,0.153359,-0.303779,-0.152831,-0.0474684
0.276973,-0.227671,0.10933,0.153359,-0.303779,-0.152831,-0.0474684
0.276973,-0.227671,0.10933,0.153359,-0.303779,-0.152831,-0.0474684
0.276973,-0.227671,0.10933,0.153359,-0.303779,-0.152831,-0.0474684
0.276973,-0.227671,0.10933,0.153359,-0.303779,-0.152831,-0.0474684
0.276973,-0.227671,0.10933,0.153359,-0.303779,-0.152831,-0.0474684
0.276973,-0.227671,0.10933,0.153359,-0.303779,-0.152831,-0.0474684
0.276973,-0.227671,0.10933,0.153359,-0.303779,-0.152831,-0.0474684
0.276973,-0.227671,0.10933,0.153359,-0.303779,-0.152831,-0.0474684
0.276973,-0.227671,0.10933,0.153359,-0.303779,-0.152831,-0.0474684
0.276973,-0.227671,0.10933,0.153359,-0.303779,-0.152831,-0.0474684
0.276973,-0.227671,0.10933,0.153359,-0.303779,-0.152831,-0.0474684
0.276973,-0.227671,0.10933,0.153359,-0.303779,-0.152831,-0.0474684
0.276973,-0.227671,0.10933,0.153359,-0.303779,-0.152831,-0.0474684
0.276973,-0.227671,0.10933,0.153359,-0.303779,-0.152831,-0.0474684
0.276973,-0.227671,0.10933,0.153359,-0.303779,-0.152831,-0.0474684
0.276973,-0.227671,0.10933,0.153359,-0.303779,-0.152831,-0.0474684
0.276973,-0.227671,0.10933,0.153359,-0.303779,-0.152831,-0.0474684
0.276973,-0.227671,0.10933,0.153359,-0.303779,-0.152831,-0.0474684
0.276973,-0.227671,0.10933,0.153359,-0.303779,-0.152831,-0.0474684
0.276973,-0.227671,0.10933,0.153359,-0.303779,-0.152831,-0.0474684
0.276973,-0.227671,0.10933,0.153359,-0.303779,-0.152831,-0.0474684
0.276973,-0.227671,0.10933,0.153359,-0.303779,-0.152831,-0.0474684
0.276973,-0.227671,0.10933,0.153359,-0.303779,-0.152831,-0.0474684
0.276973,-0.227671,0.10933,0.153359,-0.303779,-0.152831,-0.0474684
0.276973,-0.227671,0.10933,0.153359,-0.303779,-0.152831,-0.0474684
0.276973,-0.227671,0.10933,0.153359,-0.303779,-0.152831,-0.0474684
0.276973,-0.227671,0.10933,0.153359,-0.303779,-0.152831,-0.0474684
0.276973,-0.227671,0.10933,0.153359,-0.303779,-0.152831,-0.0474684
0.276973,-0.227671,0.10933,0.153359,-0.303779,-0.152831,-0.0474684
0.276973,-0.227671,0.10933,0.153359,-0.303779,-0.152831,-0.0474684
0.276973,-0.227671,0.10933,0.153359,-0.303779,-0.152831,-0.0474684
0.276973,-0.227671,0.10933,0.153359,-0.303779,-0.152831,-0.0474684
0.276973,-0.227671,0.10933,0.153359,-0.303779,-0.152831,-0.0474684
0.276973,-0.227671,0.10933,0.153359,-0.303779,-0.152831,-0.0474684
0.276973,-0.227671,0.10933,0.153359,-0.303779,-0.152831,-0.0474684
0.276973,-0.227671,0.10933,0.153359,-0.303779,-0.152831,-0.0474684
0.276973,-0.227671,0.10933,0.153359,-0.303779,-0.152831,-0.0474684
0.276973,-0.227671,0.10933,0.153359,-0.303779,-0.152831,-0.0474684
0.276973,-0.227671,0.10933,0.153359,-0.303779,-0.152831,-0.0474684
0.276973,-0.227671,0.10933,0.153359,-0.303779,-0.152831,-0.0474684
0.276973,-0.227671,0.10933,0.153359,-0.303779,-0.152831,-0.0474684
0.276973,-0.227671,0.10933,0.153359,-0.303779,-0.152831,-0.0474684
0.276973,-0.227671,0.10933,0.153359,-0.303779,-0.152831,-0.0474684
0.276973,-0.227671,0.10933,0.153359,-0.303779,-0.152831,-0.0474684
0.276973,-0.227671,0.10933,0.153359,-0.303779,-0.152831,-0.0474684
0.276973,-0.227671,0.10933,0.153359,-0.303779,-0.152831,-0.0474684
0.276973,-0.227671,0.10933,0.153359,-0.303779,-0.152831,-0.0474684
0.276973,-0.227671,0.10933,0.153359,-0.303779,-0.152831,-0.0474684
0.276973,-0.227671,0.10933,0.153359,-0.303779,-0.152831,-0.0474684
0.276973,-0.227671,0.10933,0.153359,-0.303779,-0.152831,-0.0474684
0.276973,-0.227671,0.10933,0.153359,-0.303779,-0.152831,-0.0474684
0.276973,-0.227671,0.10933,0.153359,-0.303779,-0.152831,-0.0474684
0.276973,-0.227671,0.10933,0.153359,-0.303779,-0.152831,-0.0474684
0.276973,-0.227671,0.10933,0.153359,-0.303779,-0.152831,-0.0474684
0.276973,-0.227671,0.10933,0.153359,-0.303779,-0.152831,-0.0474684
0.276973,-0.227671,0.10933,0.153359,-0.303779,-0.152831,-0.0474684
0.276973,-0.227671,0.10933,0.153359,-0.303779,-0.152831,-0.0474684
0.276973,-0.227671,0.10933,0.153359,-0.303779,-0.152831,-0.0474684
0.276973,-0.227671,0.10933,0.153359,-0.303779,-0.152831,-0.0474684
0.276973,-0.227671,0.10933,0.153359,-0.303779,-0.152831,-0.0474684
0.276973,-0.227671,0.10933,0.153359,-0.303779,-0.152831,-0.0474684
0.276973,-0.227671,0.10933,0.153359,-0.303779,-0.152831,-0.0474684
0.276973,-0.227671,0.10933,0.153359,-0.303779,-0.152831,-0.0474684
0.276973,-0.227671,0.10933,0.153359,-0.303779,-0.152831,-0.0474684
0.276973,-0.227671,0.10933,0.153359,-0.303779,-0.152831,-0.0474684
0.276973,-0.227671,0.10933,0.153359,-0.303779,-0.152831,-0.0474684
0.276973,-0.227671,0.10933,0.153359,-0.303779,-0.152831,-0.0474684
0.276973,-0.227671,0.10933,0.153359,-0.303779,-0.152831,-0.0474684
0.276973,-0.227671,0.10933,0.153359,-0.303779,-0.152831,-0.0474684
0.276973,-0.227671,0.10933,0.153359,-0.303779,-0.152831,-0.0474684
0.276973,-0.227671,0.10933,0.153359,-0.303779,-0.152831,-0.0474684
0.276973,-0.227671,0.10933,0.153359,-0.303779,-0.152831,-0.0474684
0.276973,-0.227671,0.10933,0.153359,-0.303779,-0.152831,-0.0474684
0.276973,-0.227671,0.10933,0.153359,-0.303779,-0.152831,-0.0474684
0.276973,-0.227671,0.10933,0.153359,-0.303779,-0.152831,-0.0474684
0.276973,-0.227671,0.10933,0.153359,-0.303779,-0.152831,-0.0474684
0.276973,-0.227671,0.10933,0.153359,-0.303779,-0.152831,-0.0474684
0.276973,-0.227671,0.10933,0.153359,-0.303779,-0.152831,-0.0474684
0.276973,-0.227671,0.10933,0.153359,-0.303779,-0.152831,-0.0474684
0.276973,-0.227671,0.10933,0.153359,-0.303779,-0.152831,-0.0474684
0.276973,-0.227671,0.10933,0.153359,-0.303779,-0.152831,-0.0474684
0.276973,-0.227671,0.10933,0.153359,-0.303779,-0.152831,-0.0474684
0.276973,-0.227671,0.10933,0.153359,-0.303779,-0.152831,-0.0474684
0.276973,-0.227671,0.10933,0.153359,-0.303779,-0.152831,-0.0474684
0.276973,-0.227671,0.10933,0.153359,-0.303779,-0.152831,-0.0474684
0.276973,-0.227671,0.10933,0.153359,-0.303779,-0.152831,-0.0474684
0.276973,-0.227671,0.10933,0.153359,-0.303779,-0.152831,-0.0474684
0.276973,-0.227671,0.10933,0.153359,-0.303779,-0.152831,-0.0474684
0.276973,-0.227671,0.10933,0.153359,-0.303779,-0.152831,-0.0474684
0.276973,-0.227671,0.10933,0.153359,-0.303779,-0.152831,-0.0474684
0.276973,-0.227671,0.10933,0.153359,-0.303779,-0.152831,-0.0474684
0.276973,-0.227671,0.10933,0.153359,-0.303779,-0.152831,-0.0474684
0.276973,-0.227671,0.10933,0.153359,-0.303779,-0.152831,-0.0474684
0.276973,-0.227671,0.10933,0.153359,-0.303779,-0.152831,-0.0474684
0.276973,-0.227671,0.10933,0.153359,-0.303779,-0.152831,-0.0474684
0.276973,-0.227671,0.10933,0.153359,-0.303779,-0.152831,-0.0474684
0.276973,-0.227671,0.10933,0.153359,-0.303779,-0.152831,-0.0474684
0.276973,-0.227671,0.10933,0.153359,-0.303779,-0.152831,-0.0474684
0.276973,-0.227671,0.10933,0.153359,-0.303779,-0.152831,-0.0474684
0.276973,-0.227671,0.10933,0.153359,-0.303779,-0.152831,-0.0474684
0.276973,-0.227671,0.10933,0.153359,-0.303779,-0.152831,-0.0474684
0.276973,-0.227671,0.10933,0.153359,-0.303779,-0.152831,-0.0474684
0.276973,-0.227671,0.10933,0.153359,-0.303779,-0.152831,-0.0474684
0.276973,-0.227671,0.10933,0.153359,-0.303779,-0.152831,-0.0474684
0.276973,-0.227671,0.10933,0.153359,-0.303779,-0.152831,-0.0474684
0.276973,-0.227671,0.10933,0.153359,-0.303779,-0.152831,-0.0474684
0.276973,-0.227671,0.10933,0.153359,-0.303779,-0.152831,-0.0474684
0.276973,-0.227671,0.10933,0.153359,-0.303779,-0.152831,-0.0474684
0.276973,-0.227671,0.10933,0.153359,-0.303779,-0.152831,-0.0474684
0.276973,-0.227671,0.10933,0.153359,-0.303779,-0.152831,-0.0474684
0.276973,-0.227671,0.10933,0.153359,-0.303779,-0.152831,-0.0474684
0.276973,-0.227671,0.10933,0.153359,-0.303779,-0.152831,-0.0474684
0.276973,-0.227671,0.10933,0.153359,-0.303779,-0.152831,-0.0474684
0.276973,-0.227671,0.10933,0.153359,-0.303779,-0.152831,-0.0474684
0.276973,-0.227671,0.10933,0.153359,-0.303779,-0.152831,-0.0474684
0.276973,-0.227671,0.10933,0.153359,-0.303779,-0.152831,-0.0474684
0.276973,-0.227671,0.10933,0.153359,-0.303779,-0.152831,-0.0474684
0.276973,-0.227671,0.10933,0.153359,-0.303779,-0.152831,-0.0474684
0.276973,-0.227671,0.10933,0.153359,-0.303779,-0.152831,-0.0474684
0.276973,-0.227671,0.10933,0.153359,-0.303779,-0.152831,-0.0474684
0.276973,-0.227671,0.10933,0.153359,-0.303779,-0.152831,-0.0474684
0.276973,-0.227671,0.10933,0.153359,-0.303779,-0.152831,-0.0474684
0.276973,-0.227671,0.10933,0.153359,-0.303779,-0.152831,-0.0474684
0.276973,-0.227671,0.10933,0.153359,-0.303779,-0.152831,-0.0474684
0.276973,-0.227671,0.10933,0.153359,-0.303779,-0.152831,-0.0474684
0.276973,-0.227671,0.10933,0.153359,-0.303779,-0.152831,-0.0474684
0.276973,-0.227671,0.10933,0.153359,-0.303779,-0.152831,-0.0474684
0.276973,-0.227671,0.10933,0.153359,-0.303779,-0.152831,-0.0474684
0.276973,-0.227671,0.10933,0.153359,-0.303779,-0.152831,-0.0474684
0.276973,-0.227671,0.10933,0.153359,-0.303779,-0.152831,-0.0474684
0.276973,-0.227671,0.10933,0.153359,-0.303779,-0.152831,-0.0474684
0.276973,-0.227671,0.10933,0.153359,-0.303779,-0.152831,-0.0474684
0.276973,-0.227671,0.10933,0.153359,-0.303779,-0.152831,-0.0474684
0.276973,-0.227671,0.10933,0.153359,-0.303779,-0.152831,-0.0474684
0.276973,-0.227671,0.10933,0.153359,-0.303779,-0.152831,-0.0474684
0.276973,-0.227671,0.10933,0.153359,-0.303779,-0.152831,-0.0474684
0.276973,-0.227671,0.10933,0.153359,-0.303779,-0.152831,-0.0474684
0.276973,-0.227671,0.10933,0.153359,-0.303779,-0.152831,-0.0474684
0.276973,-0.227671,0.10933,0.153359,-0.303779,-0.152831,-0.0474684
0.276973,-0.227671,0.10933,0.153359,-0.303779,-0.152831,-0.0474684
0.276973,-0.227671,0.10933,0.153359,-0.303779,-0.152831,-0.0474684
0.276973,-0.227671,0.10933,0.153359,-0.303779,-0.152831,-0.0474684
0.276973,-0.227671,0.10933,0.153359,-0.303779,-0.152831,-0.0474684
0.276973,-0.227671,0.10933,0.153359,-0.303779,-0.152831,-0.0474684
0.276973,-0.227671,0.10933,0.153359,-0.303779,-0.152831,-0.0474684
0.276973,-0.227671,0.10933,0.153359,-0.303779,-0.152831,-0.0474684
0.276973,-0.227671,0.10933,0.153359,-0.303779,-0.152831,-0.0474684
0.276973,-0.227671,0.10933,0.153359,-0.303779,-0.152831,-0.0474684
0.276973,-0.227671,0.10933,0.153359,-0.303779,-0.152831,-0.0474684
0.276973,-0.227671,0.10933,0.153359,-0.303779,-0.152831,-0.0474684
0.276973,-0.227671,0.10933,0.153359,-0.303779,-0.152831,-0.0474684
0.276973,-0.227671,0.10933,0.153359,-0.303779,-0.152831,-0.0474684
0.276973,-0.227671,0.10933,0.153359,-0.303779,-0.152831,-0.0474684
0.276973,-0.227671,0.10933,0.153359,-0.303779,-0.152831,-0.0474684
0.276973,-0.227671,0.10933,0.153359,-0.303779,-0.152831,-0.0474684
0.276973,-0.227671,0.10933,0.153359,-0.303779,-0.152831,-0.0474684
0.276973,-0.227671,0.10933,0.153359,-0.303779,-0.152831,-0.0474684
0.276973,-0.227671,0.10933,0.153359,-0.303779,-0.152831,-0.0474684
0.276973,-0.227671,0.10933,0.153359,-0.303779,-0.152831,-0.0474684
0.276973,-0.227671,0.10933,0.153359,-0.303779,-0.152831,-0.0474684
0.276973,-0.227671,0.10933,0.153359,-0.303779,-0.152831,-0.0474684
0.276973,-0.227671,0.10933,0.153359,-0.303779,-0.152831,-0.0474684
0.276973,-0.227671,0.10933,0.153359,-0.303779,-0.152831,-0.0474684
0.276973,-0.227671,0.10933,0.153359,-0.303779,-0.152831,-0.0474684
0.276973,-0.227671,0.10933,0.153359,-0.303779,-0.152831,-0.0474684
0.276973,-0.227671,0.10933,0.153359,-0.303779,-0.152831,-0.0474684
0.276973,-0.227671,0.10933,0.153359,-0.303779,-0.152831,-0.0474684
0.276973,-0.227671,0.10933,0.153359,-0.303779,-0.152831,-0.0474684
0.276973,-0.227671,0.10933,0.153359,-0.303779,-0.152831,-0.0474684
0.276973,-0.227671,0.10933,0.153359,-0.303779,-0.152831,-0.0474684
0.276973,-0.227671,0.10933,0.153359,-0.303779,-0.152831,-0.0474684
0.276973,-0.227671,0.10933,0.153359,-0.303779,-0.152831,-0.0474684
0.276973,-0.227671,0.10933,0.153359,-0.303779,-0.152831,-0.0474684
0.276973,-0.227671,0.10933,0.153359,-0.303779,-0.152831,-0.0474684
0.276973,-0.227671,0.10933,0.153359,-0.303779,-0.152831,-0.0474684
0.276973,-0.227671,0.10933,0.153359,-0.303779,-0.152831,-0.0474684
0.276973,-0.227671,0.10933,0.153359,-0.303779,-0.152831,-0.0474684
0.276973,-0.227671,0.10933,0.153359,-0.303779,-0.152831,-0.0474684
0.276973,-0.227671,0.10933,0.153359,-0.303779,-0.152831,-0.0474684
0.276973,-0.227671,0.10933,0.153359,-0.303779,-0.152831,-0.0474684
0.276973,-0.227671,0.10933,0.153359,-0.303779,-0.152831,-0.0474684
0.276973,-0.227671,0.10933,0.153359,-0.303779,-0.152831,-0.0474684
0.276973,-0.227671,0.10933,0.153359,-0.303779,-0.152831,-0.0474684
0.276973,-0.227671,0.10933,0.153359,-0.303779,-0.152831,-0.0474684
0.276973,-0.227671,0.10933,0.153359,-0.303779,-0.152831,-0.0474684
0.276973,-0.227671,0.10933,0.153359,-0.303779,-0.152831,-0.0474684
0.276973,-0.227671,0.10933,0.153359,-0.303779,-0.152831,-0.0474684
0.276973,-0.227671,0.10933,0.153359,-0.303779,-0.152831,-0.0474684
0.276973,-0.227671,0.10933,0.153359,-0.303779,-0.152831,-0.0474684
0.276973,-0.227671,0.10933,0.153359,-0.303779,-0.152831,-0.0474684
0.276973,-0.227671,0.10933,0.153359,-0.303779,-0.152831,-0.0474684
0.276973,-0.227671,0.10933,0.153359,-0.303779,-0.152831,-0.0474684
0.276973,-0.227671,0.10933,0.153359,-0.303779,-0.152831,-0.0474684
0.276973,-0.227671,0.10933,0.153359,-0.303779,-0.152831,-0.0474684
0.276973,-0.227671,0.10933,0.153359,-0.303779,-0.152831,-0.0474684
0.276973,-0.227671,0.10933,0.153359,-0.303779,-0.152831,-0.0474684
