Afshin1997/kuka_rl_ros2/src/catch_and_throw/output_files/tm/nn_ema7.00_jvws1_realball_D01H10M14S27/recorded_data.csv
pure_target_joint_0,pure_target_joint_1,pure_target_joint_2,pure_target_joint_3,pure_target_joint_4,pure_target_joint_5,pure_target_joint_6,target_joint_0,target_joint_1,target_joint_2,target_joint_3,target_joint_4,target_joint_5,target_joint_6,pos_joint_0,pos_joint_1,pos_joint_2,pos_joint_3,pos_joint_4,pos_joint_5,pos_joint_6,vel_joint_0,vel_joint_1,vel_joint_2,vel_joint_3,vel_joint_4,vel_joint_5,vel_joint_6,vel_smooth_joint_0,vel_smooth_joint_1,vel_smooth_joint_2,vel_smooth_joint_3,vel_smooth_joint_4,vel_smooth_joint_5,vel_smooth_joint_6,ee_pos_x,ee_pos_y,ee_pos_z,ee_or_w,ee_or_x,ee_or_y,ee_or_z,eep_vel_x,eep_vel_y,eep_vel_z,ee_vel_offset_x,ee_vel_offset_y,ee_vel_offset_z,ball_pos_x,ball_pos_y,ball_pos_z,ball_raw_vx,ball_raw_vy,ball_raw_vz,ball_ema_vx,ball_ema_vy,ball_ema_vz,action_0,action_1,action_2,action_3,action_4,action_5,action_6,command_published
1.72382,-0.994686,-1.8679,-1.13064,1.96085,1.1259,-0.915536,1.72382,-0.994686,-1.8679,-1.13064,1.96085,1.1259,-0.915536,1.78079,-1.07181,-1.81516,-1.11965,1.93738,1.1169,-0.916211,0,0,0,4.793e-05,-3.83615e-05,0,0,0,0,0,4.793e-05,-3.83615e-05,0,0,0.544164,-0.454803,0.713044,0.572546,0.178214,0.150702,0.785952,-6.2522e-06,-1.30611e-05,1.05887e-05,-6.96107e-06,-1.16719e-05,1.08977e-05,2.96786,-0.499117,0.174503,-3.98438,0.125512,4.9793,-3.98438,-0.0168035,4.9793,-0.569634,0.77124,-0.52734,-0.109924,0.234649,0.0900872,0.00674823,1
1.71933,-0.993252,-1.87278,-1.1087,1.97119,1.10773,-0.930666,1.71933,-0.993252,-1.87278,-1.1087,1.97119,1.10773,-0.930666,1.78079,-1.07181,-1.81516,-1.11965,1.93738,1.1169,-0.916211,-2.39541e-05,0,0,0,-3.83615e-05,2.39541e-05,0,-2.39541e-05,0,0,0,-3.83615e-05,2.39541e-05,0,0.544164,-0.454803,0.713044,0.572546,0.178214,0.150702,0.785952,-1.22217e-05,-7.16201e-06,4.57922e-07,-1.28734e-05,-5.07993e-06,7.12324e-07,2.92928,-0.497868,0.225493,-3.85737,0.124872,5.09904,-3.85737,0.0262254,5.09904,-0.614598,0.785585,-0.576129,0.109541,0.338121,-0.0916201,-0.144548,1
1.71226,-0.992431,-1.8728,-1.10788,1.97969,1.08834,-0.947294,1.71226,-0.992431,-1.8728,-1.10788,1.97969,1.08834,-0.947294,1.78078,-1.0718,-1.81516,-1.11964,1.93738,1.1169,-0.916211,-0.00148603,0.00176163,0.000119858,0.00194139,0,5.99289e-05,0,-0.00148603,0.00176163,0.000119858,0.00194139,0,5.99289e-05,0,0.544158,-0.454807,0.713051,0.572553,0.178209,0.150702,0.785947,-0.0011102,-0.000895282,0.00148274,-0.00119708,-0.000868495,0.00152589,2.89235,-0.495794,0.277363,-3.69303,0.207391,5.18699,-3.69303,0.0749372,5.18699,-0.685179,0.793707,-0.576403,0.117603,0.423026,-0.285609,-0.310838,1
1.71122,-0.991282,-1.87266,-1.1137,1.98483,1.08167,-0.944414,1.71122,-0.991282,-1.87266,-1.1137,1.98483,1.08167,-0.944414,1.78079,-1.07171,-1.8158,-1.12055,1.93828,1.1172,-0.916211,-0.00177363,0.0106777,-0.113824,-0.136857,0.162579,0.0443047,-0.000970708,-0.00177363,0.0106777,-0.113824,-0.136857,0.162579,0.0443047,-0.000970708,0.544293,-0.45468,0.712678,0.572242,0.17854,0.150604,0.786117,0.0152972,0.0144323,-0.0615142,0.0198264,0.00855573,-0.0636035,2.85649,-0.493693,0.329455,-3.58622,0.2101,5.2092,-3.58622,0.12217,5.2092,-0.695691,0.804322,-0.56864,0.0685163,0.465531,-0.355297,-0.282033,1
1.7102,-0.99001,-1.87614,-1.11301,1.99749,1.07287,-0.937085,1.7102,-0.99001,-1.87614,-1.11301,1.99749,1.07287,-0.937085,1.78024,-1.07101,-1.81952,-1.12205,1.94273,1.1176,-0.916586,-0.0734976,0.102846,-0.454611,-0.130541,0.522309,0.0251903,-0.0621967,-0.0734976,0.102846,-0.454611,-0.130541,0.522309,0.0251903,-0.0621967,0.544351,-0.455584,0.711439,0.572324,0.180264,0.149991,0.785782,-0.0188301,-0.100468,-0.124211,-0.0024567,-0.126215,-0.131731,2.82078,-0.491167,0.381663,-3.5712,0.252575,5.22085,-3.5712,0.165042,5.22085,-0.70038,0.80995,-0.566185,0.0903251,0.547597,-0.447299,-0.204996,1
1.70523,-0.986592,-1.87982,-1.10897,2.01077,1.06306,-0.945991,1.70523,-0.986592,-1.87982,-1.10897,2.01077,1.06306,-0.945991,1.77913,-1.06875,-1.82661,-1.1223,1.94963,1.11696,-0.918507,-0.117886,0.266152,-0.803728,-0.00985081,0.734319,-0.106417,-0.246726,-0.117886,0.266152,-0.803728,-0.00985081,0.734319,-0.106417,-0.246726,0.544163,-0.45784,0.710081,0.57416,0.183082,0.149698,0.783844,-0.0484173,-0.21252,-0.131341,-0.0152407,-0.249231,-0.147473,2.78422,-0.488613,0.432439,-3.65608,0.255394,5.07752,-3.65608,0.197675,5.07752,-0.738916,0.821609,-0.532103,0.133264,0.611407,-0.538937,-0.274839,1
1.70531,-0.982807,-1.88064,-1.1424,2.02453,1.05248,-0.94756,1.70531,-0.982807,-1.88064,-1.1424,2.02453,1.05248,-0.94756,1.77831,-1.0651,-1.83682,-1.12175,1.95809,1.11394,-0.923086,-0.0677213,0.399125,-1.07121,0.0736653,0.880389,-0.370436,-0.518054,-0.0677213,0.399125,-1.07121,0.0736653,0.880389,-0.370436,-0.518054,0.544425,-0.460766,0.708372,0.577645,0.18736,0.150453,0.780119,-0.0179833,-0.256947,-0.14203,0.0371614,-0.302115,-0.170157,2.74848,-0.485838,0.482079,-3.57368,0.277579,4.964,-3.57368,0.224905,4.964,-0.730076,0.82292,-0.438201,-0.206457,0.664366,-0.614696,-0.244745,1
1.70374,-0.977233,-1.88806,-1.1248,2.03393,1.04737,-0.961291,1.70374,-0.977233,-1.88806,-1.1248,2.03393,1.04737,-0.961291,1.77775,-1.06021,-1.84825,-1.12111,1.96748,1.10797,-0.928727,-0.0656721,0.512362,-1.1602,0.0615256,0.958026,-0.677165,-0.549009,-0.0656721,0.512362,-1.1602,0.0615256,0.958026,-0.677165,-0.549009,0.545162,-0.463788,0.706704,0.581642,0.192955,0.152003,0.775472,0.00374624,-0.260088,-0.126828,0.0775675,-0.311459,-0.166137,2.71218,-0.482831,0.530914,-3.62983,0.300694,4.88351,-3.62983,0.250374,4.88351,-0.740043,0.82982,-0.398075,-0.0369005,0.664487,-0.605976,-0.325648,1
1.70242,-0.972265,-1.90111,-1.13771,2.04411,1.04066,-0.968625,1.70242,-0.972265,-1.90111,-1.13771,2.04411,1.04066,-0.968625,1.77607,-1.05482,-1.85957,-1.1208,1.9775,1.09938,-0.933473,-0.201918,0.5408,-1.10571,0.0198334,1.01752,-0.911308,-0.463755,-0.201918,0.5408,-1.10571,0.0198334,1.01752,-0.911308,-0.463755,0.545701,-0.467414,0.705079,0.585498,0.199812,0.15359,0.770505,-0.042012,-0.316555,-0.112976,0.0405272,-0.380203,-0.158897,2.67597,-0.480122,0.57874,-3.62165,0.270861,4.78265,-3.62165,0.264538,4.78265,-0.736463,0.825581,-0.415369,-0.169103,0.666132,-0.587204,-0.35152,1
1.69797,-0.966844,-1.9058,-1.12686,2.05441,1.03343,-0.977342,1.69797,-0.966844,-1.9058,-1.12686,2.05441,1.03343,-0.977342,1.77328,-1.04922,-1.86934,-1.12157,1.98816,1.08887,-0.938012,-0.302559,0.569358,-0.936306,-0.126143,1.08371,-1.0995,-0.447517,-0.302559,0.569358,-0.936306,-0.126143,1.08371,-1.0995,-0.447517,0.54597,-0.471149,0.703708,0.58896,0.207376,0.154799,0.76561,-0.0619055,-0.29389,-0.0845393,0.0236985,-0.365477,-0.134547,2.63938,-0.477233,0.625447,-3.65899,0.288936,4.67068,-3.65899,0.275909,4.67068,-0.753169,0.823751,-0.364598,-0.0528613,0.662469,-0.554387,-0.393302,1
1.69459,-0.960922,-1.90514,-1.13704,2.06667,1.02145,-0.982245,1.69459,-0.960922,-1.90514,-1.13704,2.06667,1.02145,-0.982245,1.7692,-1.04326,-1.87756,-1.12414,1.99985,1.07705,-0.94244,-0.45533,0.610894,-0.79172,-0.285685,1.19801,-1.19686,-0.4543,-0.45533,0.610894,-0.79172,-0.285685,1.19801,-1.19686,-0.4543,0.5459,-0.474793,0.702522,0.591862,0.215522,0.155526,0.76096,-0.113843,-0.294311,-0.0577028,-0.0296363,-0.375202,-0.109655,2.60314,-0.474538,0.671321,-3.62413,0.269455,4.58745,-3.62413,0.279873,4.58745,-0.746063,0.823394,-0.275814,-0.129056,0.668157,-0.556055,-0.39805,1
1.68819,-0.954294,-1.89603,-1.14211,2.08005,1.0079,-0.987564,1.68819,-0.954294,-1.89603,-1.14211,2.08005,1.0079,-0.987564,1.76338,-1.03679,-1.8849,-1.12785,2.01221,1.06476,-0.947763,-0.610259,0.656469,-0.721662,-0.408904,1.24478,-1.23238,-0.559339,-0.610259,0.656469,-0.721662,-0.408904,1.24478,-1.23238,-0.559339,0.545101,-0.478772,0.701562,0.595147,0.223819,0.156013,0.755887,-0.17496,-0.311558,-0.0449146,-0.0917605,-0.3974,-0.0992244,2.5673,-0.471898,0.71597,-3.5835,0.263977,4.46483,-3.5835,0.279793,4.46483,-0.751942,0.824979,-0.111325,-0.142543,0.678333,-0.568558,-0.398011,1
1.68169,-0.947036,-1.88606,-1.14882,2.09376,0.99602,-0.995846,1.68169,-0.947036,-1.88606,-1.14882,2.09376,0.99602,-0.995846,1.75685,-1.03005,-1.89182,-1.13214,2.02456,1.05308,-0.954151,-0.676997,0.683624,-0.682642,-0.401223,1.22902,-1.14641,-0.662281,-0.676997,0.683624,-0.682642,-0.401223,1.22902,-1.14641,-0.662281,0.543856,-0.482735,0.700759,0.598837,0.231683,0.156503,0.750483,-0.223743,-0.327708,-0.0127337,-0.149363,-0.412267,-0.0641853,2.53102,-0.468653,0.75969,-3.62821,0.324568,4.37199,-3.62821,0.282154,4.37199,-0.751618,0.830159,0.0576549,-0.166834,0.691932,-0.570597,-0.416956,1
1.67386,-0.940012,-1.87884,-1.15237,2.10694,0.984908,-1.00516,1.67386,-0.940012,-1.87884,-1.15237,2.10694,0.984908,-1.00516,1.74938,-1.02319,-1.89891,-1.13516,2.03656,1.04205,-0.961385,-0.747834,0.681464,-0.716962,-0.304371,1.1857,-1.09282,-0.738978,-0.747834,0.681464,-0.716962,-0.304371,1.1857,-1.09282,-0.738978,0.541743,-0.487575,0.700331,0.603697,0.238953,0.156888,0.744202,-0.284153,-0.397989,9.71767e-05,-0.215704,-0.484849,-0.0502124,2.49501,-0.465687,0.802287,-3.60076,0.296557,4.25976,-3.60076,0.284656,4.25976,-0.755209,0.831817,0.200749,-0.17213,0.703709,-0.571375,-0.437763,1
1.67022,-0.932585,-1.87489,-1.16508,2.11843,0.977081,-1.01752,1.67022,-0.932585,-1.87489,-1.16508,2.11843,0.977081,-1.01752,1.74271,-1.0159,-1.90498,-1.13869,2.04825,1.03124,-0.968931,-0.649525,0.75572,-0.542911,-0.350883,1.16622,-1.08585,-0.755792,-0.649525,0.75572,-0.542911,-0.350883,1.16622,-1.08585,-0.755792,0.539954,-0.491365,0.700368,0.608067,0.245607,0.157465,0.738334,-0.237361,-0.27092,0.0871089,-0.17739,-0.346722,0.0410105,2.45923,-0.462861,0.844151,-3.57788,0.282577,4.18639,-3.57788,0.288424,4.18639,-0.724859,0.833124,0.30094,-0.263907,0.70184,-0.541594,-0.485908,1
1.66346,-0.925434,-1.86925,-1.16421,2.13113,0.966636,-1.02436,1.66346,-0.925434,-1.86925,-1.16421,2.13113,0.966636,-1.02436,1.73542,-1.00843,-1.90857,-1.1426,2.06005,1.0201,-0.97643,-0.772582,0.723518,-0.314246,-0.417001,1.18461,-1.12013,-0.750327,-0.772582,0.723518,-0.314246,-0.417001,1.18461,-1.12013,-0.750327,0.537814,-0.494762,0.701254,0.61207,0.251746,0.157459,0.73294,-0.28367,-0.271357,0.124244,-0.231965,-0.352388,0.0813693,2.42339,-0.460008,0.884906,-3.58391,0.28531,4.07549,-3.58391,0.290136,4.07549,-0.719599,0.829997,0.393172,-0.216135,0.710862,-0.534613,-0.479314,1
1.6577,-0.919309,-1.86462,-1.17117,2.14375,0.957637,-1.03248,1.6577,-0.919309,-1.86462,-1.17117,2.14375,0.957637,-1.03248,1.72702,-1.00173,-1.90959,-1.14737,2.07215,1.00832,-0.984003,-0.850853,0.664686,-0.0104864,-0.507233,1.21926,-1.19427,-0.760777,-0.850853,0.664686,-0.0104864,-0.507233,1.21926,-1.19427,-0.760777,0.535295,-0.498191,0.702301,0.615569,0.257988,0.156582,0.728011,-0.296574,-0.23328,0.16189,-0.252989,-0.319138,0.122189,2.38772,-0.457031,0.924778,-3.56681,0.297716,3.98716,-3.56681,0.293188,3.98716,-0.693163,0.824164,0.449756,-0.237981,0.715992,-0.506784,-0.484787,1
1.65043,-0.912775,-1.85669,-1.1728,2.15727,0.947652,-1.04126,1.65043,-0.912775,-1.85669,-1.1728,2.15727,0.947652,-1.04126,1.71812,-0.994862,-1.90742,-1.15264,2.08465,0.996564,-0.991885,-0.913964,0.695462,0.276615,-0.54484,1.25726,-1.16807,-0.801657,-0.913964,0.695462,0.276615,-0.54484,1.25726,-1.16807,-0.801657,0.532479,-0.500899,0.704447,0.618612,0.263381,0.154931,0.723841,-0.322368,-0.173971,0.265362,-0.293305,-0.25678,0.234543,2.35212,-0.454069,0.963639,-3.56021,0.296152,3.88615,-3.56021,0.294316,3.88615,-0.676916,0.820877,0.507357,-0.201636,0.726234,-0.489118,-0.493717,1
1.64151,-0.906229,-1.8498,-1.17575,2.17024,0.940094,-1.05073,1.64151,-0.906229,-1.8498,-1.17575,2.17024,0.940094,-1.05073,1.70815,-0.987851,-1.90364,-1.15809,2.0975,0.985013,-1.00047,-1.01338,0.704115,0.417733,-0.543079,1.29245,-1.13956,-0.875889,-1.01338,0.704115,0.417733,-0.543079,1.29245,-1.13956,-0.875889,0.529069,-0.503627,0.707197,0.621893,0.268277,0.152815,0.71967,-0.372864,-0.182461,0.316695,-0.353196,-0.267062,0.290805,2.31619,-0.451683,1.00118,-3.59328,0.238699,3.75443,-3.59328,0.285627,3.75443,-0.666399,0.816221,0.538446,-0.176609,0.727449,-0.449187,-0.502576,1
1.63604,-0.900155,-1.84173,-1.18328,2.18348,0.939878,-1.06294,1.63604,-0.900155,-1.84173,-1.18328,2.18348,0.939878,-1.06294,1.69831,-0.9808,-1.89798,-1.16374,2.11046,0.974235,-1.00947,-0.97409,0.709675,0.598004,-0.562937,1.29439,-1.07124,-0.90289,-0.97409,0.709675,0.598004,-0.562937,1.29439,-1.07124,-0.90289,0.525617,-0.505602,0.710639,0.624866,0.272274,0.15033,0.716108,-0.35107,-0.101051,0.375895,-0.341327,-0.177776,0.357028,2.2809,-0.449563,1.03809,-3.52943,0.211918,3.69067,-3.52943,0.273812,3.69067,-0.622739,0.806459,0.562576,-0.195368,0.730257,-0.343567,-0.534707,1
1.62497,-0.893203,-1.83702,-1.1784,2.19612,0.939001,-1.07282,1.62497,-0.893203,-1.83702,-1.1784,2.19612,0.939001,-1.07282,1.68837,-0.973696,-1.89212,-1.16851,2.12353,0.963726,-1.01859,-0.996249,0.705936,0.588236,-0.449683,1.31293,-1.03534,-0.911998,-0.996249,0.705936,0.588236,-0.449683,1.31293,-1.03534,-0.911998,0.521886,-0.507763,0.714434,0.628118,0.275909,0.147652,0.712419,-0.38478,-0.142958,0.4009,-0.381283,-0.221898,0.385011,2.24528,-0.447344,1.07379,-3.56138,0.221938,3.57015,-3.56138,0.259965,3.57015,-0.633965,0.80493,0.550996,-0.0988858,0.725902,-0.247246,-0.542375,1
1.62486,-0.88739,-1.8304,-1.19392,2.20892,0.955282,-1.08482,1.62486,-0.88739,-1.8304,-1.19392,2.20892,0.955282,-1.08482,1.67935,-0.966695,-1.88538,-1.17295,2.13665,0.953717,-1.02771,-0.867607,0.695006,0.69871,-0.452703,1.31281,-0.999485,-0.910512,-0.867607,0.695006,0.69871,-0.452703,1.31281,-0.999485,-0.910512,0.518488,-0.509235,0.7186,0.630939,0.278972,0.144816,0.709309,-0.318322,-0.0463896,0.429592,-0.319282,-0.116601,0.417457,2.20999,-0.444729,1.10826,-3.52917,0.261536,3.44688,-3.52917,0.248997,3.44688,-0.5449,0.793054,0.54986,-0.209713,0.722687,0.0156569,-0.571145,1
1.6133,-0.880622,-1.82797,-1.18423,2.22096,0.962929,-1.09387,1.6133,-0.880622,-1.82797,-1.18423,2.22096,0.962929,-1.09387,1.67077,-0.960007,-1.87854,-1.17711,2.14978,0.944147,-1.03686,-0.86231,0.670306,0.67981,-0.398965,1.31625,-0.933007,-0.917799,-0.86231,0.670306,0.67981,-0.398965,1.31625,-0.933007,-0.917799,0.515228,-0.510534,0.722709,0.633584,0.28184,0.141899,0.706401,-0.32906,-0.0624223,0.425293,-0.334201,-0.132374,0.41532,2.1739,-0.442254,1.14186,-3.60858,0.247452,3.36006,-3.60858,0.24054,3.36006,-0.574712,0.793851,0.505743,-0.0712351,0.711779,0.187824,-0.570106,1
1.61386,-0.873693,-1.82155,-1.19491,2.23249,0.969642,-1.10235,1.61386,-0.873693,-1.82155,-1.19491,2.23249,0.969642,-1.10235,1.66264,-0.952904,-1.8711,-1.18095,2.16294,0.936005,-1.0462,-0.795101,0.718137,0.767429,-0.379118,1.31486,-0.770521,-0.936626,-0.795101,0.718137,0.767429,-0.379118,1.31486,-0.770521,-0.936626,0.511924,-0.511196,0.727486,0.636241,0.283642,0.138893,0.703885,-0.310999,0.016588,0.494333,-0.327449,-0.0413443,0.494201,2.13845,-0.439774,1.17461,-3.54588,0.24797,3.27477,-3.54588,0.237775,3.27477,-0.487739,0.792106,0.495514,-0.139626,0.695478,0.336365,-0.561446,1
1.60202,-0.86695,-1.81132,-1.18037,2.24494,0.966153,-1.11289,1.60202,-0.86695,-1.81132,-1.18037,2.24494,0.966153,-1.11289,1.65463,-0.946003,-1.86343,-1.18459,2.17609,0.930534,-1.05587,-0.803514,0.672823,0.764481,-0.365037,1.31341,-0.440719,-0.977769,-0.803514,0.672823,0.764481,-0.365037,1.31341,-0.440719,-0.977769,0.508297,-0.511594,0.732551,0.639117,0.284193,0.135499,0.701715,-0.34397,0.0156537,0.492609,-0.376811,-0.036157,0.504854,2.10307,-0.437195,1.20637,-3.53751,0.257942,3.17651,-3.53751,0.243323,3.17651,-0.526183,0.790531,0.521063,0.0421813,0.688451,0.356198,-0.570282,1
1.59086,-0.860648,-1.79979,-1.16487,2.25689,0.96954,-1.12571,1.59086,-0.860648,-1.79979,-1.16487,2.25689,0.96954,-1.12571,1.64685,-0.938896,-1.85592,-1.18824,2.18924,0.929413,-1.06609,-0.771083,0.734688,0.753119,-0.355636,1.31459,-0.00667506,-1.03696,-0.771083,0.734688,0.753119,-0.355636,1.31459,-0.00667506,-1.03696,0.504194,-0.511451,0.738107,0.642489,0.282745,0.131741,0.699934,-0.368788,0.0728769,0.551532,-0.423107,0.0368022,0.581631,2.06775,-0.434631,1.23706,-3.53239,0.256354,3.06852,-3.53239,0.250171,3.06852,-0.559948,0.782478,0.561275,0.233637,0.676419,0.401271,-0.596147,1
1.57743,-0.853451,-1.79088,-1.14753,2.26822,0.975226,-1.13536,1.57743,-0.853451,-1.79088,-1.14753,2.26822,0.975226,-1.13536,1.63933,-0.931267,-1.84857,-1.19125,2.20224,0.931733,-1.07664,-0.738547,0.756679,0.722512,-0.315094,1.29409,0.296291,-1.05589,-0.738547,0.756679,0.722512,-0.315094,1.29409,0.296291,-1.05589,0.499606,-0.510871,0.744423,0.646469,0.279443,0.127727,0.698337,-0.386788,0.0981751,0.580973,-0.456242,0.0723793,0.622712,2.03248,-0.431694,1.2666,-3.52705,0.293785,2.95416,-3.52705,0.257874,2.95416,-0.619062,0.778156,0.576901,0.437244,0.659847,0.434931,-0.587176,1
1.56336,-0.847218,-1.78586,-1.13646,2.27904,0.983637,-1.1438,1.56336,-0.847218,-1.78586,-1.13646,2.27904,0.983637,-1.1438,1.63223,-0.923901,-1.84166,-1.19387,2.21493,0.936257,-1.08716,-0.712326,0.73899,0.687088,-0.214117,1.26125,0.495273,-1.04627,-0.712326,0.73899,0.687088,-0.214117,1.26125,0.495273,-1.04627,0.494862,-0.510173,0.750736,0.650653,0.275249,0.123495,0.696878,-0.410112,0.0827607,0.598077,-0.491877,0.0616628,0.647689,1.99683,-0.42892,1.29537,-3.56418,0.277391,2.877,-3.56418,0.263181,2.877,-0.688666,0.766838,0.558018,0.574109,0.641065,0.4738,-0.56647,1
1.55442,-0.839823,-1.77998,-1.13355,2.28965,0.989106,-1.15176,1.55442,-0.839823,-1.77998,-1.13355,2.28965,0.989106,-1.15176,1.62515,-0.916254,-1.8346,-1.19437,2.22728,0.941571,-1.09763,-0.691809,0.770161,0.7141,-0.00962311,1.21989,0.536438,-1.04712,-0.691809,0.770161,0.7141,-0.00962311,1.21989,0.536438,-1.04712,0.489514,-0.509796,0.757958,0.655582,0.27004,0.118895,0.695093,-0.44384,0.0615861,0.681636,-0.537139,0.0443159,0.737708,1.96128,-0.426412,1.32286,-3.55592,0.250745,2.74873,-3.55592,0.266916,2.74873,-0.707295,0.76431,0.546184,0.608199,0.623708,0.475344,-0.541348,1
1.5464,-0.832483,-1.77462,-1.12983,2.30066,0.99451,-1.16117,1.5464,-0.832483,-1.77462,-1.12983,2.30066,0.99451,-1.16117,1.61887,-0.908961,-1.82719,-1.19294,2.23922,0.946945,-1.10824,-0.617641,0.711379,0.743916,0.211708,1.18457,0.535826,-1.06754,-0.617641,0.711379,0.743916,0.211708,1.18457,0.535826,-1.06754,0.484096,-0.509534,0.76567,0.660793,0.264273,0.113984,0.693195,-0.451266,0.0266436,0.721736,-0.554299,0.00875127,0.781484,1.92591,-0.423388,1.34962,-3.53688,0.302449,2.67589,-3.53688,0.27299,2.67589,-0.72471,0.764781,0.525734,0.631183,0.614449,0.475645,-0.529317,1
1.5384,-0.825779,-1.76853,-1.12342,2.31191,0.998679,-1.17111,1.5384,-0.825779,-1.76853,-1.12342,2.31191,0.998679,-1.17111,1.61278,-0.902279,-1.81955,-1.18869,2.25084,0.952429,-1.11896,-0.600971,0.664199,0.775721,0.489664,1.15696,0.553635,-1.07177,-0.600971,0.664199,0.775721,0.489664,1.15696,0.553635,-1.07177,0.478021,-0.510112,0.774001,0.666738,0.257872,0.108332,0.690816,-0.505137,-0.0449973,0.787243,-0.623086,-0.0652469,0.852598,1.89077,-0.420695,1.37553,-3.51374,0.2693,2.59142,-3.51374,0.275962,2.59142,-0.743802,0.764999,0.510244,0.652721,0.610684,0.462507,-0.521555,1
1.53241,-0.819396,-1.76118,-1.11573,2.32251,1.0046,-1.18154,1.53241,-0.819396,-1.76118,-1.11573,2.32251,1.0046,-1.18154,1.60739,-0.89551,-1.81146,-1.18217,2.26211,0.958218,-1.12948,-0.520918,0.677117,0.814849,0.701373,1.12041,0.588544,-1.04089,-0.520918,0.677117,0.814849,0.701373,1.12041,0.588544,-1.04089,0.471612,-0.5107,0.783223,0.672994,0.250549,0.102245,0.688368,-0.519055,-0.0406559,0.866468,-0.649638,-0.055176,0.936953,1.85527,-0.418199,1.40022,-3.54941,0.249586,2.4686,-3.54941,0.274383,2.4686,-0.749819,0.76114,0.502876,0.664422,0.603965,0.463824,-0.520656,1
1.52633,-0.813311,-1.75341,-1.10692,2.33304,1.01122,-1.19117,1.52633,-0.813311,-1.75341,-1.10692,2.33304,1.01122,-1.19117,1.60234,-0.888732,-1.80327,-1.17389,2.27312,0.964476,-1.13955,-0.502954,0.680952,0.819211,0.860352,1.09554,0.630883,-0.993793,-0.502954,0.680952,0.819211,0.860352,1.09554,0.630883,-0.993793,0.464762,-0.511421,0.793013,0.679458,0.242521,0.095712,0.685828,-0.556612,-0.0593415,0.913294,-0.697918,-0.0708569,0.986325,1.82061,-0.415674,1.42413,-3.46627,0.252452,2.39141,-3.46627,0.268631,2.39141,-0.760007,0.754208,0.498529,0.669669,0.59923,0.467393,-0.516223,1
1.51959,-0.806753,-1.74916,-1.09639,2.34269,1.01948,-1.19909,1.51959,-0.806753,-1.74916,-1.09639,2.34269,1.01948,-1.19909,1.59716,-0.881845,-1.79539,-1.16483,2.28397,0.970997,-1.14919,-0.528408,0.696927,0.776117,0.921769,1.08515,0.654983,-0.955744,-0.528408,0.696927,0.776117,0.921769,1.08515,0.654983,-0.955744,0.457515,-0.512276,0.802923,0.68603,0.234236,0.0890064,0.683062,-0.594269,-0.0765801,0.920006,-0.739934,-0.0863464,0.991424,1.78528,-0.412907,1.44729,-3.5332,0.276703,2.31556,-3.5332,0.266791,2.31556,-0.775668,0.750919,0.462333,0.684447,0.587254,0.484866,-0.498975,1
1.5128,-0.79923,-1.7414,-1.08634,2.35302,1.02546,-1.20737,1.5128,-0.79923,-1.7414,-1.08634,2.35302,1.02546,-1.20737,1.59145,-0.874393,-1.78759,-1.155,2.29488,0.977634,-1.15866,-0.583403,0.753862,0.790042,0.994272,1.09648,0.673414,-0.944863,-0.583403,0.753862,0.790042,0.994272,1.09648,0.673414,-0.944863,0.449646,-0.513189,0.813252,0.692889,0.225565,0.0821446,0.67991,-0.650515,-0.0772897,0.968107,-0.804016,-0.0835468,1.03965,1.75022,-0.410458,1.46906,-3.50633,0.244972,2.17742,-3.50633,0.263732,2.17742,-0.786503,0.751632,0.461947,0.686605,0.581494,0.478241,-0.487084,1
1.50567,-0.792281,-1.7364,-1.07597,2.3632,1.03354,-1.21526,1.50567,-0.792281,-1.7364,-1.07597,2.3632,1.03354,-1.21526,1.58531,-0.867088,-1.7798,-1.14539,2.30582,0.984391,-1.16811,-0.626054,0.718785,0.766961,0.952772,1.09518,0.671664,-0.946373,-0.626054,0.718785,0.766961,0.952772,1.09518,0.671664,-0.946373,0.441499,-0.514107,0.823327,0.699643,0.216964,0.0751537,0.676593,-0.669623,-0.0873382,0.922136,-0.822077,-0.094646,0.988444,1.71527,-0.408317,1.49022,-3.49427,0.214079,2.11544,-3.49427,0.253495,2.11544,-0.796396,0.748069,0.433975,0.694182,0.573853,0.491501,-0.471444,1
1.4977,-0.785422,-1.73101,-1.06548,2.37321,1.04126,-1.22303,1.4977,-0.785422,-1.73101,-1.06548,2.37321,1.04126,-1.22303,1.57842,-0.859844,-1.77252,-1.13554,2.31677,0.991216,-1.17765,-0.712134,0.733609,0.717383,1.00361,1.09422,0.69,-0.954749,-0.712134,0.733609,0.717383,1.00361,1.09422,0.69,-0.954749,0.432806,-0.515391,0.833168,0.706676,0.208448,0.0680591,0.672701,-0.735705,-0.124275,0.922167,-0.892487,-0.131077,0.985972,1.68033,-0.406055,1.50998,-3.49408,0.226226,1.97676,-3.49408,0.246076,1.97676,-0.807207,0.744215,0.415119,0.70052,0.564453,0.500457,-0.453826,1
1.48999,-0.778435,-1.72672,-1.0551,2.38344,1.049,-1.23108,1.48999,-0.778435,-1.72672,-1.0551,2.38344,1.049,-1.23108,1.57109,-0.852447,-1.76535,-1.12572,2.32759,0.998312,-1.18707,-0.730266,0.733945,0.723459,0.974475,1.07677,0.719492,-0.936594,-0.730266,0.733945,0.723459,0.974475,1.07677,0.719492,-0.936594,0.423774,-0.51656,0.842945,0.713709,0.199777,0.060962,0.668575,-0.74729,-0.100235,0.90844,-0.905623,-0.102671,0.96933,1.64518,-0.403442,1.52883,-3.51562,0.261271,1.88487,-3.51562,0.243219,1.88487,-0.811012,0.740112,0.386293,0.706169,0.558535,0.506898,-0.440145,1
1.48211,-0.771649,-1.72095,-1.04526,2.39445,1.05526,-1.23976,1.48211,-0.771649,-1.72095,-1.04526,2.39445,1.05526,-1.23976,1.5637,-0.845303,-1.75816,-1.11588,2.33816,1.00568,-1.19621,-0.74962,0.708453,0.706392,0.992678,1.05335,0.743352,-0.906785,-0.74962,0.708453,0.706392,0.992678,1.05335,0.743352,-0.906785,0.414587,-0.517614,0.852505,0.720528,0.191014,0.053769,0.664426,-0.770648,-0.106275,0.888228,-0.931514,-0.106484,0.946035,1.61074,-0.400662,1.54668,-3.44391,0.278005,1.78455,-3.44391,0.244185,1.78455,-0.815889,0.736546,0.372128,0.70619,0.562913,0.495861,-0.435484,1
1.47363,-0.764363,-1.71861,-1.0347,2.40437,1.0632,-1.24742,1.47363,-0.764363,-1.71861,-1.0347,2.40437,1.0632,-1.24742,1.55573,-0.837905,-1.75165,-1.1059,2.34853,1.01319,-1.20503,-0.804785,0.755001,0.643617,1.01296,1.03284,0.758644,-0.872821,-0.804785,0.755001,0.643617,1.01296,1.03284,0.758644,-0.872821,0.404992,-0.518732,0.861919,0.727484,0.182206,0.0467116,0.659838,-0.811225,-0.105415,0.890981,-0.972889,-0.100328,0.945752,1.57579,-0.398259,1.56389,-3.49501,0.24024,1.72145,-3.49501,0.244323,1.72145,-0.821068,0.735421,0.330376,0.71197,0.558377,0.50011,-0.423954,1
1.46572,-0.756881,-1.71182,-1.0245,2.41507,1.06987,-1.2563,1.46572,-0.756881,-1.71182,-1.0245,2.41507,1.06987,-1.2563,1.54783,-0.830232,-1.74489,-1.09564,2.35877,1.02109,-1.21348,-0.784435,0.764804,0.681955,1.0258,1.01939,0.801381,-0.837011,-0.784435,0.764804,0.681955,1.0258,1.01939,0.801381,-0.837011,0.395204,-0.519395,0.871533,0.734211,0.172947,0.0395734,0.655331,-0.81495,-0.0619242,0.903088,-0.981568,-0.0501495,0.956265,1.54098,-0.395876,1.57965,-3.4804,0.238293,1.5763,-3.4804,0.247325,1.5763,-0.821132,0.733507,0.330719,0.711411,0.562917,0.487788,-0.428209,1
1.45694,-0.749792,-1.70971,-1.01397,2.42478,1.07767,-1.2633,1.45694,-0.749792,-1.70971,-1.01397,2.42478,1.07767,-1.2633,1.53964,-0.822756,-1.73861,-1.08542,2.36888,1.02922,-1.22167,-0.838174,0.749764,0.602642,1.04459,1.00965,0.818075,-0.815715,-0.838174,0.749764,0.602642,1.04459,1.00965,0.818075,-0.815715,0.385193,-0.52012,0.880778,0.740868,0.163747,0.032432,0.650577,-0.854863,-0.0910932,0.869837,-1.02173,-0.0782347,0.918709,1.50598,-0.393359,1.59445,-3.5008,0.251782,1.47959,-3.5008,0.251476,1.47959,-0.827013,0.729636,0.288916,0.714575,0.559039,0.484525,-0.416334,1
1.44807,-0.741908,-1.70564,-1.00274,2.43505,1.08562,-1.27029,1.44807,-0.741908,-1.70564,-1.00274,2.43505,1.08562,-1.27029,1.53097,-0.814908,-1.73279,-1.07432,2.37909,1.03742,-1.22975,-0.864012,0.790104,0.586295,1.1128,1.02488,0.823133,-0.807134,-0.864012,0.790104,0.586295,1.1128,1.02488,0.823133,-0.807134,0.374568,-0.520915,0.890213,0.747798,0.154253,0.0251779,0.645268,-0.894711,-0.0789034,0.895244,-1.06636,-0.0610842,0.941677,1.47125,-0.390796,1.60868,-3.47246,0.25624,1.42274,-3.47246,0.252595,1.42274,-0.829028,0.729995,0.271549,0.71581,0.559512,0.481997,-0.405468,1
1.43969,-0.734648,-1.70425,-0.991712,2.44429,1.09426,-1.27859,1.43969,-0.734648,-1.70425,-0.991712,2.44429,1.09426,-1.27859,1.52265,-0.807234,-1.72705,-1.06357,2.38932,1.04566,-1.23773,-0.82861,0.754402,0.562793,1.08339,1.02317,0.825817,-0.798013,-0.82861,0.754402,0.562793,1.08339,1.02317,0.825817,-0.798013,0.364167,-0.521347,0.8993,0.7543,0.144875,0.0179652,0.640094,-0.874427,-0.0603179,0.853066,-1.04386,-0.0410088,0.89463,1.43615,-0.388595,1.62158,-3.51052,0.220099,1.29018,-3.51052,0.247042,1.29018,-0.82953,0.725854,0.227983,0.718571,0.549716,0.485911,-0.408633,1
1.43042,-0.726837,-1.69997,-0.980596,2.45546,1.10119,-1.28409,1.43042,-0.726837,-1.69997,-0.980596,2.45546,1.10119,-1.28409,1.51382,-0.799637,-1.72212,-1.05205,2.39968,1.05381,-1.24572,-0.895328,0.767621,0.476013,1.15833,1.03882,0.811029,-0.799535,-0.895328,0.767621,0.476013,1.15833,1.03882,0.811029,-0.799535,0.353206,-0.522151,0.90821,0.761099,0.135543,0.0106302,0.634227,-0.935495,-0.0935985,0.847532,-1.10663,-0.0727435,0.885136,1.40185,-0.386193,1.63346,-3.42926,0.240222,1.18763,-3.42926,0.242196,1.18763,-0.833948,0.728005,0.221478,0.714518,0.557868,0.473759,-0.383697,1
1.42198,-0.719121,-1.70132,-0.968727,2.46482,1.10887,-1.29351,1.42198,-0.719121,-1.70132,-0.968727,2.46482,1.10887,-1.29351,1.50536,-0.791901,-1.71725,-1.04079,2.41004,1.06185,-1.25363,-0.82547,0.770964,0.492025,1.12221,1.03498,0.803742,-0.786604,-0.82547,0.770964,0.492025,1.12221,1.03498,0.803742,-0.786604,0.342502,-0.52244,0.916955,0.7675,0.12626,0.00345307,0.628483,-0.892614,-0.0332841,0.833305,-1.06121,-0.00771123,0.866872,1.36696,-0.383705,1.64469,-3.48917,0.248787,1.12332,-3.48917,0.242118,1.12332,-0.833779,0.727807,0.159312,0.720604,0.547757,0.470233,-0.398759,1
1.41314,-0.712006,-1.70258,-0.957296,2.47464,1.11674,-1.2999,1.41314,-0.712006,-1.70258,-0.957296,2.47464,1.11674,-1.2999,1.49686,-0.784552,-1.7129,-1.0295,2.42036,1.06992,-1.26137,-0.867691,0.724392,0.41379,1.12966,1.03151,0.804054,-0.768567,-0.867691,0.724392,0.41379,1.12966,1.03151,0.804054,-0.768567,0.331718,-0.522835,0.925249,0.773762,0.117169,-0.00375276,0.622535,-0.922271,-0.0689765,0.783499,-1.08917,-0.0440462,0.812306,1.33228,-0.38141,1.65472,-3.4681,0.229499,1.00285,-3.4681,0.240389,1.00285,-0.837211,0.725462,0.103231,0.72203,0.542734,0.468189,-0.385386,1
1.40442,-0.704215,-1.69532,-0.946245,2.48533,1.12217,-1.30862,1.40442,-0.704215,-1.69532,-0.946245,2.48533,1.12217,-1.30862,1.48818,-0.776965,-1.70868,-1.01801,2.43059,1.07801,-1.26897,-0.857648,0.771204,0.432497,1.15549,1.01916,0.814109,-0.754941,-0.857648,0.771204,0.432497,1.15549,1.01916,0.814109,-0.754941,0.320742,-0.522934,0.933558,0.779938,0.107899,-0.0108762,0.61639,-0.928101,-0.0160199,0.80895,-1.09708,0.0172048,0.835215,1.2984,-0.378875,1.66374,-3.38832,0.253564,0.90251,-3.38832,0.239695,0.90251,-0.837568,0.727503,0.133597,0.717627,0.547428,0.441597,-0.396466,1
1.39562,-0.697237,-1.70128,-0.934463,2.49446,1.13007,-1.31529,1.39562,-0.697237,-1.70128,-0.934463,2.49446,1.13007,-1.31529,1.47965,-0.769525,-1.70484,-1.00681,2.44074,1.08621,-1.27632,-0.864671,0.72951,0.343716,1.11539,1.01585,0.822677,-0.732374,-0.864671,0.72951,0.343716,1.11539,1.01585,0.822677,-0.732374,0.309913,-0.522828,0.941491,0.785817,0.0987471,-0.0178828,0.610263,-0.924184,-0.031084,0.74698,-1.08815,0.00212676,0.768444,1.26403,-0.376356,1.67214,-3.43701,0.251809,0.839436,-3.43701,0.241227,0.839436,-0.840261,0.722881,0.035598,0.723464,0.537163,0.43855,-0.389606,1
1.38639,-0.68961,-1.70827,-0.922297,2.50387,1.1383,-1.32098,1.38639,-0.68961,-1.70827,-0.922297,2.50387,1.1383,-1.32098,1.47074,-0.762149,-1.70232,-0.995067,2.45091,1.09438,-1.28361,-0.886004,0.754941,0.236479,1.18427,1.01851,0.816937,-0.728803,-0.886004,0.754941,0.236479,1.18427,1.01851,0.816937,-0.728803,0.298701,-0.523038,0.949095,0.791988,0.0897243,-0.0247746,0.6034,-0.959503,-0.0387504,0.743791,-1.12287,-0.000648088,0.761938,1.2293,-0.373916,1.67955,-3.47247,0.244001,0.740814,-3.47247,0.244786,0.740814,-0.843556,0.725391,-0.0595231,0.727702,0.529575,0.439166,-0.37369,1
1.37812,-0.681332,-1.70744,-0.911008,2.51362,1.14435,-1.32949,1.37812,-0.681332,-1.70744,-0.911008,2.51362,1.14435,-1.32949,1.46232,-0.754198,-1.70018,-0.983625,2.46091,1.10255,-1.29085,-0.837367,0.801055,0.206483,1.14423,0.997851,0.813818,-0.725077,-0.837367,0.801055,0.206483,1.14423,0.997851,0.813818,-0.725077,0.287902,-0.522495,0.956693,0.79787,0.0805917,-0.0312,0.596603,-0.919075,0.0257631,0.739989,-1.07689,0.0712511,0.755076,1.19492,-0.371798,1.68595,-3.43846,0.211796,0.640905,-3.43846,0.242196,0.640905,-0.842064,0.728655,-0.0726032,0.726165,0.527122,0.418016,-0.38638,1
1.3685,-0.673173,-1.71028,-0.899347,2.52443,1.14997,-1.33492,1.3685,-0.673173,-1.71028,-0.899347,2.52443,1.14997,-1.33492,1.45329,-0.74648,-1.69891,-0.971817,2.47096,1.11051,-1.29822,-0.919996,0.755408,0.0910421,1.17422,1.00696,0.784433,-0.737229,-0.919996,0.755408,0.0910421,1.17422,1.00696,0.784433,-0.737229,0.276666,-0.522289,0.963955,0.80401,0.0716668,-0.0375927,0.589083,-0.974059,-0.0327259,0.691875,-1.12851,0.0113617,0.702756,1.16022,-0.369559,1.69138,-3.46998,0.223905,0.5427,-3.46998,0.237924,0.5427,-0.847845,0.733073,-0.113702,0.724701,0.534698,0.394585,-0.367009,1
1.36014,-0.665156,-1.71023,-0.887818,2.53441,1.15407,-1.3457,1.36014,-0.665156,-1.71023,-0.887818,2.53441,1.15407,-1.3457,1.44466,-0.738761,-1.69859,-0.960099,2.48093,1.11822,-1.30554,-0.838721,0.787645,0.0220505,1.18488,0.994879,0.773085,-0.725305,-0.838721,0.787645,0.0220505,1.18488,0.994879,0.773085,-0.725305,0.26575,-0.521913,0.970874,0.810005,0.0630184,-0.0436463,0.581391,-0.934075,0.0145747,0.688027,-1.08366,0.0647774,0.69618,1.12578,-0.367308,1.69553,-3.44422,0.225168,0.415158,-3.44422,0.233912,0.415158,-0.845179,0.736045,-0.116376,0.722815,0.5348,0.358444,-0.401622,1
1.35141,-0.657234,-1.71572,-0.875985,2.54409,1.15923,-1.35337,1.35141,-0.657234,-1.71572,-0.875985,2.54409,1.15923,-1.35337,1.43599,-0.730874,-1.69973,-0.948262,2.49081,1.12598,-1.31268,-0.882199,0.786123,-0.160333,1.17861,0.984218,0.775769,-0.711499,-0.882199,0.786123,-0.160333,1.17861,0.984218,0.775769,-0.711499,0.254816,-0.521507,0.977498,0.816134,0.05447,-0.0492941,0.573173,-0.956038,-0.0135403,0.640608,-1.09781,0.0401559,0.645919,1.09142,-0.364897,1.69874,-3.43566,0.241095,0.320733,-3.43566,0.229956,0.320733,-0.845775,0.736404,-0.159904,0.722767,0.532793,0.33248,-0.406882,1
1.34281,-0.648579,-1.72234,-0.864009,2.55256,1.16578,-1.36188,1.34281,-0.648579,-1.72234,-0.864009,2.55256,1.16578,-1.36188,1.42732,-0.722697,-1.70142,-0.936342,2.50057,1.13356,-1.31974,-0.857284,0.832849,-0.164767,1.1944,0.972924,0.753467,-0.703805,-0.857284,0.832849,-0.164767,1.1944,0.972924,0.753467,-0.703805,0.243926,-0.520755,0.984088,0.82219,0.0458827,-0.0546393,0.564724,-0.943201,0.0426349,0.660917,-1.08241,0.103512,0.664005,1.02271,-0.360213,1.70242,-3.54275,0.191501,0.143814,-3.54275,0.23255,0.143814,-0.845085,0.741178,-0.209274,0.723337,0.51988,0.322171,-0.421439,1
1.33402,-0.639817,-1.72394,-0.853524,2.56513,1.15605,-1.36878,1.33402,-0.639817,-1.72394,-0.853524,2.56513,1.15605,-1.36878,1.41868,-0.71466,-1.70355,-0.924504,2.51032,1.14087,-1.3267,-0.875308,0.78665,-0.237126,1.18829,0.983834,0.720463,-0.698676,-0.875308,0.78665,-0.237126,1.18829,0.983834,0.720463,-0.698676,0.233137,-0.519905,0.99042,0.828078,0.0375089,-0.0598311,0.556148,-0.952667,0.0189285,0.617688,-1.08697,0.0783845,0.617633,0.988935,-0.357399,1.70271,-3.37713,0.281376,0.0291467,-3.37713,0.239537,0.0291467,-0.846605,0.748431,-0.203885,0.709803,0.548027,0.151848,-0.420826,1
1.32472,-0.630397,-1.73077,-0.842754,2.57616,1.14689,-1.37549,1.32472,-0.630397,-1.73077,-0.842754,2.57616,1.14689,-1.37549,1.40975,-0.707003,-1.70617,-0.912594,2.52019,1.14758,-1.33394,-0.886189,0.760058,-0.261789,1.17394,0.986576,0.65273,-0.73301,-0.886189,0.760058,-0.261789,1.17394,0.986576,0.65273,-0.73301,0.222226,-0.519263,0.996418,0.834002,0.0295543,-0.0649783,0.547125,-0.949689,0.0184968,0.592309,-1.07794,0.0768175,0.58955,0.955044,-0.354631,1.7021,-3.38915,0.276786,-0.061202,-3.38915,0.247447,-0.061202,-0.85029,0.76606,-0.245968,0.698406,0.559758,-0.00695116,-0.41547,1
1.31619,-0.62189,-1.74535,-0.832222,2.58454,1.14391,-1.38475,1.31619,-0.62189,-1.74535,-0.832222,2.58454,1.14391,-1.38475,1.40107,-0.69919,-1.70908,-0.900838,2.53005,1.15362,-1.34154,-0.874385,0.788292,-0.310612,1.1991,0.984946,0.587465,-0.76738,-0.874385,0.788292,-0.310612,1.1991,0.984946,0.587465,-0.76738,0.211646,-0.518292,1.00233,0.839776,0.0219031,-0.0698219,0.537978,-0.944441,0.0456559,0.598779,-1.06709,0.107332,0.594139,0.920975,-0.352567,1.70081,-3.40686,0.206411,-0.128973,-3.40686,0.248147,-0.128973,-0.848841,0.772999,-0.362715,0.686162,0.544853,-0.0970406,-0.432005,1
1.30724,-0.613699,-1.75697,-0.822697,2.59239,1.14318,-1.39369,1.30724,-0.613699,-1.75697,-0.822697,2.59239,1.14318,-1.39369,1.39208,-0.691437,-1.71286,-0.888964,2.53992,1.159,-1.34941,-0.894806,0.771551,-0.392726,1.17597,0.981687,0.496938,-0.791624,-0.894806,0.771551,-0.392726,1.17597,0.981687,0.496938,-0.791624,0.200975,-0.517412,1.00803,0.845707,0.0146204,-0.0743782,0.528237,-0.940228,0.0351812,0.566752,-1.05269,0.0951305,0.560462,0.886459,-0.350814,1.69835,-3.45156,0.175276,-0.246191,-3.45156,0.239107,-0.246191,-0.848378,0.777382,-0.441082,0.662673,0.524673,-0.158201,-0.44283,1
1.29933,-0.604793,-1.7623,-0.819455,2.60457,1.12695,-1.40288,1.29933,-0.604793,-1.7623,-0.819455,2.60457,1.12695,-1.40288,1.38336,-0.683648,-1.7168,-0.877142,2.54981,1.16186,-1.35733,-0.87834,0.783151,-0.406148,1.19033,0.993882,0.213123,-0.791228,-0.87834,0.783151,-0.406148,1.19033,0.993882,0.213123,-0.791228,0.190863,-0.516495,1.01367,0.851363,0.00848606,-0.0784505,0.518609,-0.909576,0.0441708,0.572211,-1.00633,0.0952609,0.564943,0.852531,-0.348773,1.69486,-3.3928,0.204122,-0.34852,-3.3928,0.227475,-0.34852,-0.840268,0.788552,-0.454926,0.576874,0.54752,-0.34916,-0.455442,1
1.2905,-0.596439,-1.7702,-0.818634,2.61568,1.11702,-1.4097,1.2905,-0.596439,-1.7702,-0.818634,2.61568,1.11702,-1.4097,1.37425,-0.675971,-1.72164,-0.865316,2.56006,1.16184,-1.36514,-0.912614,0.765307,-0.502894,1.1759,1.03668,-0.0562527,-0.779077,-0.912614,0.765307,-0.502894,1.1759,1.03668,-0.0562527,-0.779077,0.180947,-0.51604,1.01909,0.857017,0.00384836,-0.0820253,0.508703,-0.90378,0.00706151,0.542783,-0.983448,0.0454991,0.535254,0.818463,-0.346198,1.69049,-3.40686,0.257552,-0.437164,-3.40686,0.225409,-0.437164,-0.837582,0.795325,-0.485695,0.466816,0.55619,-0.448256,-0.445563,1
1.28207,-0.588818,-1.77824,-0.815731,2.62296,1.11659,-1.41669,1.28207,-0.588818,-1.77824,-0.815731,2.62296,1.11659,-1.41669,1.36539,-0.6682,-1.72727,-0.853803,2.57036,1.16022,-1.37297,-0.879562,0.773564,-0.594919,1.12472,1.02354,-0.18979,-0.786159,-0.879562,0.773564,-0.594919,1.12472,1.02354,-0.18979,-0.786159,0.17154,-0.515572,1.02435,0.862551,0.000106711,-0.0850667,0.498768,-0.856098,0.0164223,0.519007,-0.921471,0.0507511,0.512242,0.784566,-0.34371,1.68517,-3.3897,0.248814,-0.531852,-3.3897,0.220464,-0.531852,-0.833217,0.793823,-0.509738,0.380723,0.526003,-0.436234,-0.437197,1
1.27315,-0.58094,-1.78473,-0.810865,2.62863,1.11791,-1.42456,1.27315,-0.58094,-1.78473,-0.810865,2.62863,1.11791,-1.42456,1.35631,-0.660248,-1.73469,-0.842433,2.58045,1.15738,-1.381,-0.916389,0.809768,-0.777579,1.15299,1.00157,-0.328696,-0.80821,-0.916389,0.809768,-0.777579,1.15299,1.00157,-0.328696,-0.80821,0.162317,-0.515255,1.02937,0.86841,-0.00289696,-0.0873199,0.488089,-0.873132,0.00715582,0.514695,-0.92477,0.0419967,0.509432,0.75068,-0.341775,1.67849,-3.3886,0.193426,-0.668228,-3.3886,0.2175,-0.668228,-0.831583,0.793071,-0.500378,0.315685,0.481784,-0.394708,-0.435591,1
1.26443,-0.572154,-1.78996,-0.811157,2.6401,1.11048,-1.43363,1.26443,-0.572154,-1.78996,-0.811157,2.6401,1.11048,-1.43363,1.34746,-0.651882,-1.74283,-0.832022,2.5904,1.15254,-1.38925,-0.870807,0.837394,-0.82837,0.993493,0.991321,-0.547956,-0.829377,-0.870807,0.837394,-0.82837,0.993493,0.991321,-0.547956,-0.829377,0.153985,-0.514738,1.0343,0.87415,-0.00476063,-0.0886741,0.477468,-0.766625,0.0325282,0.483411,-0.795808,0.0559376,0.480495,0.716763,-0.338689,1.67173,-3.39164,0.308681,-0.676,-3.39164,0.23135,-0.676,-0.830319,0.79728,-0.471292,0.208642,0.497011,-0.420583,-0.443745,1
1.25563,-0.563494,-1.79179,-0.828944,2.65248,1.09966,-1.44342,1.25563,-0.563494,-1.79179,-0.828944,2.65248,1.09966,-1.44342,1.33836,-0.64352,-1.75189,-0.822781,2.60048,1.14552,-1.39757,-0.932683,0.83918,-0.929675,0.920244,1.01491,-0.73229,-0.831067,-0.932683,0.83918,-0.929675,0.920244,1.01491,-0.73229,-0.831067,0.146316,-0.51453,1.03883,0.879844,-0.0051167,-0.0892781,0.466775,-0.760003,0.00786148,0.453454,-0.774277,0.0211308,0.452108,0.683469,-0.336073,1.6636,-3.32938,0.26156,-0.813174,-3.32938,0.245773,-0.813174,-0.82728,0.800259,-0.398992,-0.0616348,0.52001,-0.458541,-0.458498,1
1.24629,-0.554451,-1.79931,-0.836078,2.66193,1.09284,-1.45395,1.24629,-0.554451,-1.79931,-0.836078,2.66193,1.09284,-1.45395,1.32887,-0.635,-1.76097,-0.815023,2.61057,1.13805,-1.4057,-0.944536,0.85319,-0.891984,0.721217,1.00367,-0.735418,-0.806918,-0.944536,0.85319,-0.891984,0.721217,1.00367,-0.735418,-0.806918,0.139166,-0.514141,1.04311,0.885277,-0.00491031,-0.0894354,0.456357,-0.684946,0.0452293,0.418775,-0.689975,0.0545729,0.418635,0.649232,-0.33428,1.65473,-3.42377,0.179279,-0.886977,-3.42377,0.245536,-0.886977,-0.825764,0.805489,-0.383377,-0.210555,0.513668,-0.452134,-0.482474,1
1.23687,-0.545905,-1.80698,-0.848508,2.66736,1.08824,-1.46366,1.23687,-0.545905,-1.80698,-0.848508,2.66736,1.08824,-1.46366,1.31901,-0.626671,-1.76997,-0.808795,2.62005,1.13114,-1.41369,-1.00801,0.821359,-0.90772,0.60378,0.940545,-0.682435,-0.799272,-1.00801,0.821359,-0.90772,0.60378,0.940545,-0.682435,-0.799272,0.132454,-0.51362,1.04697,0.890534,-0.00453281,-0.0891683,0.446068,-0.677129,0.0398474,0.375088,-0.676732,0.0499991,0.375891,0.615397,-0.332857,1.64417,-3.38345,0.14236,-1.05574,-3.38345,0.23066,-1.05574,-0.821387,0.80766,-0.370065,-0.397121,0.473036,-0.429049,-0.49973,1
1.22658,-0.537226,-1.81473,-0.849359,2.67603,1.08337,-1.47385,1.22658,-0.537226,-1.81473,-0.849359,2.67603,1.08337,-1.47385,1.30876,-0.618376,-1.77855,-0.804355,2.62925,1.12465,-1.42173,-1.01142,0.831762,-0.826045,0.355785,0.914333,-0.649034,-0.807182,-1.01142,0.831762,-0.826045,0.355785,0.914333,-0.649034,-0.807182,0.126305,-0.512902,1.05045,0.895548,-0.00387627,-0.0885507,0.436048,-0.576868,0.0792307,0.330834,-0.5672,0.0849355,0.332832,0.581483,-0.329778,1.63321,-3.39143,0.30781,-1.09586,-3.39143,0.228712,-1.09586,-0.821776,0.811505,-0.361762,-0.450043,0.467802,-0.412865,-0.5212,1
1.21682,-0.528868,-1.8203,-0.852595,2.68814,1.07474,-1.48328,1.21682,-0.528868,-1.8203,-0.852595,2.68814,1.07474,-1.48328,1.29862,-0.610251,-1.78626,-0.803337,2.63862,1.11809,-1.43008,-1.0338,0.797642,-0.762108,0.0369722,0.95184,-0.660455,-0.845232,-1.0338,0.797642,-0.762108,0.0369722,0.95184,-0.660455,-0.845232,0.121692,-0.512203,1.05313,0.899981,-0.00201412,-0.0874814,0.427057,-0.468045,0.0660717,0.242179,-0.446528,0.0563682,0.244957,0.54861,-0.327252,1.62134,-3.28733,0.252625,-1.18709,-3.28733,0.230736,-1.18709,-0.817909,0.81383,-0.34042,-0.492583,0.495174,-0.433557,-0.531984,1
1.20594,-0.520267,-1.82521,-0.85664,2.70107,1.0675,-1.49253,1.20594,-0.520267,-1.82521,-0.85664,2.70107,1.0675,-1.49253,1.28767,-0.602085,-1.79324,-0.804992,2.6484,1.1114,-1.43891,-1.10634,0.834902,-0.669371,-0.237258,0.978416,-0.666663,-0.894429,-1.10634,0.834902,-0.669371,-0.237258,0.978416,-0.666663,-0.894429,0.117837,-0.511597,1.05522,0.904167,0.000781916,-0.0861152,0.418408,-0.387055,0.092754,0.199236,-0.355744,0.0746737,0.202816,0.514898,-0.324261,1.60804,-3.37114,0.29915,-1.33052,-3.37114,0.233667,-1.33052,-0.817291,0.818179,-0.319659,-0.516486,0.526696,-0.439002,-0.536132,1
1.19422,-0.512052,-1.83103,-0.860221,2.71081,1.06377,-1.50158,1.19422,-0.512052,-1.83103,-0.860221,2.71081,1.06377,-1.50158,1.2762,-0.593772,-1.79957,-0.809182,2.65807,1.10499,-1.44809,-1.16925,0.826776,-0.634952,-0.467612,0.962846,-0.632279,-0.922892,-1.16925,0.826776,-0.634952,-0.467612,0.962846,-0.632279,-0.922892,0.114853,-0.510923,1.0568,0.908129,0.00420896,-0.0842785,0.410099,-0.329823,0.0839564,0.136421,-0.289821,0.0591918,0.140564,0.481219,-0.322491,1.59421,-3.36791,0.176927,-1.38245,-3.36791,0.237099,-1.38245,-0.819777,0.817204,-0.314578,-0.510391,0.527404,-0.412214,-0.534907,1
1.18221,-0.503858,-1.83771,-0.866099,2.71877,1.05997,-1.51046,1.18221,-0.503858,-1.83771,-0.866099,2.71877,1.05997,-1.51046,1.26421,-0.585409,-1.80585,-0.814797,2.66733,1.09896,-1.45747,-1.19894,0.851225,-0.624202,-0.589483,0.914122,-0.607951,-0.944404,-1.19894,0.851225,-0.624202,-0.589483,0.914122,-0.607951,-0.944404,0.112248,-0.510283,1.058,0.912092,0.00792056,-0.0820095,0.401622,-0.289815,0.0973553,0.112347,-0.243157,0.0720636,0.117063,0.447663,-0.320178,1.57916,-3.35565,0.231373,-1.50579,-3.35565,0.244841,-1.50579,-0.820026,0.815515,-0.318652,-0.513013,0.514435,-0.389848,-0.529872,1
1.17028,-0.495467,-1.84411,-0.872422,2.72724,1.05656,-1.51988,1.17028,-0.495467,-1.84411,-0.872422,2.72724,1.05656,-1.51988,1.25233,-0.576808,-1.81213,-0.821107,2.67648,1.09277,-1.46712,-1.18278,0.852747,-0.628325,-0.651227,0.922789,-0.623111,-0.968086,-1.18278,0.852747,-0.628325,-0.651227,0.922789,-0.623111,-0.968086,0.110078,-0.509569,1.05906,0.915972,0.0119021,-0.0794586,0.393117,-0.257097,0.0920963,0.0901059,-0.207515,0.0618918,0.0943687,0.41393,-0.318124,1.56364,-3.37326,0.20541,-1.55197,-3.37326,0.243433,-1.55197,-0.820483,0.813403,-0.319809,-0.513144,0.507543,-0.362108,-0.527584,1
1.15932,-0.487354,-1.84767,-0.883322,2.73712,1.05186,-1.52937,1.15932,-0.487354,-1.84767,-0.883322,2.73712,1.05186,-1.52937,1.24089,-0.568351,-1.81851,-0.8283,2.68602,1.08624,-1.47692,-1.12915,0.844633,-0.640501,-0.731308,0.965818,-0.663943,-0.979795,-1.12915,0.844633,-0.640501,-0.731308,0.965818,-0.663943,-0.979795,0.108463,-0.509141,1.05973,0.919609,0.0165417,-0.0768689,0.384886,-0.203482,0.0761361,0.0559688,-0.150363,0.0364654,0.0592891,0.380348,-0.316616,1.54679,-3.35823,0.150782,-1.68432,-3.35823,0.220815,-1.68432,-0.815749,0.809973,-0.291622,-0.550218,0.511005,-0.343794,-0.524527,1
1.1492,-0.478713,-1.84952,-0.891943,2.74608,1.04863,-1.53952,1.1492,-0.478713,-1.84952,-0.891943,2.74608,1.04863,-1.53952,1.23024,-0.559619,-1.8246,-0.835594,2.69598,1.07971,-1.4867,-1.03895,0.879976,-0.592647,-0.728959,1.0012,-0.644,-0.975648,-1.03895,0.879976,-0.592647,-0.728959,1.0012,-0.644,-0.975648,0.107305,-0.508483,1.06046,0.922915,0.0211742,-0.0744198,0.377149,-0.151768,0.114332,0.0721663,-0.102219,0.0749062,0.0744545,0.346541,-0.315147,1.52901,-3.38071,0.146919,-1.77847,-3.38071,0.199909,-1.77847,-0.810478,0.80906,-0.249267,-0.563488,0.501021,-0.310871,-0.528185,1
1.13963,-0.470652,-1.85313,-0.901822,2.75562,1.04413,-1.54866,1.13963,-0.470652,-1.85313,-0.901822,2.75562,1.04413,-1.54866,1.22013,-0.55096,-1.83086,-0.84286,2.70604,1.07348,-1.4964,-1.00929,0.85569,-0.645348,-0.723639,1.00378,-0.618683,-0.966961,-1.00929,0.85569,-0.645348,-0.723639,1.00378,-0.618683,-0.966961,0.106318,-0.50787,1.06106,0.926059,0.0257631,-0.0720723,0.369536,-0.152607,0.0903072,0.0493254,-0.104334,0.0490645,0.0507013,0.313454,-0.313355,1.51018,-3.30862,0.179142,-1.88274,-3.30862,0.182029,-1.88274,-0.805063,0.803083,-0.222739,-0.589618,0.495812,-0.293449,-0.522599,1
1.13101,-0.462594,-1.85786,-0.910833,2.76398,1.04171,-1.55835,1.13101,-0.462594,-1.85786,-0.910833,2.76398,1.04171,-1.55835,1.2107,-0.542257,-1.83695,-0.85022,2.71583,1.06767,-1.50597,-0.910984,0.883361,-0.584697,-0.752316,0.964622,-0.570448,-0.951921,-0.910984,0.883361,-0.584697,-0.752316,0.964622,-0.570448,-0.951921,0.105702,-0.507086,1.06163,0.928998,0.030155,-0.069677,0.362214,-0.0814464,0.132678,0.0564421,-0.0331289,0.0946552,0.0576056,0.280408,-0.311002,1.49036,-3.30467,0.235289,-1.98239,-3.30467,0.182463,-1.98239,-0.796912,0.796639,-0.209087,-0.606132,0.48154,-0.259583,-0.523805,1
1.12249,-0.455191,-1.86775,-0.920182,2.77023,1.04324,-1.56744,1.12249,-0.455191,-1.86775,-0.920182,2.77023,1.04324,-1.56744,1.20197,-0.533751,-1.84275,-0.858026,2.72528,1.06227,-1.51548,-0.876722,0.83304,-0.591576,-0.779412,0.942495,-0.528217,-0.951885,-0.876722,0.83304,-0.591576,-0.779412,0.942495,-0.528217,-0.951885,0.105579,-0.506305,1.06195,0.9317,0.0345647,-0.0672278,0.355276,-0.0697649,0.103482,0.0204149,-0.0224569,0.0628772,0.020627,0.246421,-0.308863,1.46958,-3.39868,0.213903,-2.07771,-3.39868,0.183738,-2.07771,-0.794752,0.785599,-0.250019,-0.621563,0.449476,-0.190322,-0.519621,1
1.11434,-0.448056,-1.87256,-0.93113,2.77957,1.04031,-1.57719,1.11434,-0.448056,-1.87256,-0.93113,2.77957,1.04031,-1.57719,1.19327,-0.52554,-1.84822,-0.866186,2.73456,1.05724,-1.52502,-0.855966,0.826857,-0.514219,-0.832681,0.921556,-0.493751,-0.953659,-0.855966,0.826857,-0.514219,-0.832681,0.921556,-0.493751,-0.953659,0.105524,-0.505669,1.06203,0.934287,0.0390011,-0.0648537,0.348396,-0.0348457,0.114766,0.00748423,0.0119061,0.0735692,0.00700987,0.213461,-0.306682,1.448,-3.29602,0.218129,-2.15789,-3.29602,0.192765,-2.15789,-0.78923,0.774835,-0.243346,-0.649436,0.450055,-0.169298,-0.521714,1
1.10629,-0.440577,-1.87035,-0.940784,2.7895,1.04109,-1.58751,1.10629,-0.440577,-1.87035,-0.940784,2.7895,1.04109,-1.58751,1.18488,-0.517332,-1.85277,-0.875287,2.74367,1.05248,-1.53459,-0.84657,0.806244,-0.454132,-0.925473,0.911854,-0.465361,-0.958141,-0.84657,0.806244,-0.454132,-0.925473,0.911854,-0.465361,-0.958141,0.106076,-0.504908,1.0619,0.936582,0.0435685,-0.062393,0.342087,0.00262528,0.107065,-0.0269287,0.0506995,0.061918,-0.0283716,0.180385,-0.304478,1.42584,-3.30753,0.220394,-2.2164,-3.30753,0.206552,-2.2164,-0.785991,0.767551,-0.175841,-0.654971,0.458345,-0.113905,-0.529146,1
1.09745,-0.433954,-1.86509,-0.950347,2.79905,1.03926,-1.59769,1.09745,-0.433954,-1.86509,-0.950347,2.79905,1.03926,-1.59769,1.17602,-0.509418,-1.8573,-0.884603,2.75274,1.04841,-1.54417,-0.889365,0.796202,-0.443418,-0.944839,0.903858,-0.386207,-0.956175,-0.889365,0.796202,-0.443418,-0.944839,0.903858,-0.386207,-0.956175,0.106291,-0.504373,1.0615,0.938904,0.0480128,-0.0600955,0.335472,-0.0201123,0.100142,-0.0415689,0.0242949,0.0574831,-0.0435781,0.146966,-0.302733,1.4025,-3.34193,0.174451,-2.33319,-3.34193,0.211835,-2.33319,-0.785751,0.754636,-0.0778892,-0.657443,0.463137,-0.0914747,-0.535177,1
1.09045,-0.428494,-1.86084,-0.96108,2.80415,1.04206,-1.60725,1.09045,-0.428494,-1.86084,-0.96108,2.80415,1.04206,-1.60725,1.1674,-0.501097,-1.86155,-0.894699,2.76129,1.04517,-1.55368,-0.856769,0.839224,-0.427851,-1.02693,0.844667,-0.306082,-0.947763,-0.856769,0.839224,-0.427851,-1.02693,0.844667,-0.306082,-0.947763,0.107029,-0.503461,1.06102,0.941117,0.0521545,-0.057454,0.329056,0.0345763,0.131891,-0.0527589,0.082935,0.0938878,-0.0543762,0.113549,-0.300472,1.37819,-3.3417,0.226149,-2.43193,-3.3417,0.212758,-2.43193,-0.769513,0.726032,0.00710678,-0.66381,0.428517,-0.0310811,-0.535754,1
1.08201,-0.425586,-1.84839,-0.97275,2.81071,1.05204,-1.61521,1.08201,-0.425586,-1.84839,-0.97275,2.81071,1.05204,-1.61521,1.15841,-0.492761,-1.86633,-0.904865,2.76961,1.04259,-1.56317,-0.913105,0.83594,-0.484355,-1.02128,0.826087,-0.235101,-0.949824,-0.913105,0.83594,-0.484355,-1.02128,0.826087,-0.235101,-0.949824,0.107468,-0.502654,1.06039,0.943462,0.0560723,-0.0547334,0.322086,-0.0107915,0.114062,-0.0666864,0.0349927,0.0793327,-0.0685332,0.0807546,-0.298119,1.3525,-3.27945,0.235316,-2.56859,-3.27945,0.212076,-2.56859,-0.763928,0.671758,0.179372,-0.678846,0.411,0.0945566,-0.52042,1
1.07536,-0.424602,-1.82623,-0.982047,2.82325,1.05384,-1.62525,1.07536,-0.424602,-1.82623,-0.982047,2.82325,1.05384,-1.62525,1.14951,-0.483961,-1.87006,-0.915525,2.77785,1.04072,-1.57276,-0.879095,0.897214,-0.321398,-1.07473,0.821351,-0.173384,-0.964816,-0.879095,0.897214,-0.321398,-1.07473,0.821351,-0.173384,-0.964816,0.108319,-0.501309,1.05986,0.945613,0.0595666,-0.0519987,0.315538,0.0595713,0.185934,-0.0428727,0.103708,0.156544,-0.0444868,0.0480129,-0.295804,1.3261,-3.27417,0.23146,-2.63948,-3.27417,0.21539,-2.63948,-0.741503,0.593583,0.438339,-0.665216,0.453934,0.131283,-0.524869,1
1.06886,-0.431293,-1.81689,-0.990661,2.83244,1.0658,-1.63188,1.06886,-0.431293,-1.81689,-0.990661,2.83244,1.0658,-1.63188,1.14021,-0.475474,-1.87209,-0.92615,2.78636,1.03961,-1.58254,-0.957074,0.819882,-0.17487,-1.07223,0.857399,-0.0880221,-0.981054,-0.957074,0.819882,-0.17487,-1.07223,0.857399,-0.0880221,-0.981054,0.108963,-0.499788,1.05939,0.947557,0.0626338,-0.0498676,0.309396,0.0139167,0.165054,-0.059618,0.0463287,0.135109,-0.0623243,0.0162654,-0.292793,1.29872,-3.17475,0.301093,-2.73882,-3.17475,0.227243,-2.73882,-0.713564,0.441806,0.551955,-0.645108,0.460831,0.261856,-0.493453,1
1.06489,-0.461872,-1.82753,-0.999153,2.81735,1.09056,-1.63677,1.06489,-0.461872,-1.82753,-0.999153,2.81735,1.09056,-1.63677,1.13075,-0.467663,-1.87219,-0.937093,2.79473,1.03961,-1.5924,-0.927162,0.778885,0.067937,-1.0914,0.823077,0.0400144,-0.98538,-0.927162,0.778885,0.067937,-1.0914,0.823077,0.0400144,-0.98538,0.109619,-0.498196,1.05875,0.949237,0.0653237,-0.0482796,0.303895,0.0590733,0.207152,-0.053371,0.0831101,0.18357,-0.0557705,-0.0176628,-0.290918,1.27057,-3.39282,0.187516,-2.815,-3.39282,0.232956,-2.815,-0.658586,0.0579116,0.446557,-0.620592,0.226259,0.509557,-0.443707,1
1.07248,-0.462934,-1.83319,-1.01741,2.79506,1.09842,-1.63353,1.07248,-0.462934,-1.83319,-1.01741,2.79506,1.09842,-1.63353,1.12141,-0.460244,-1.86985,-0.948052,2.80271,1.04087,-1.60213,-0.947931,0.716305,0.284283,-1.11225,0.796252,0.149979,-0.967668,-0.947931,0.716305,0.284283,-1.11225,0.796252,0.149979,-0.967668,0.110524,-0.496088,1.05824,0.950582,0.0672392,-0.0471734,0.299412,0.0729667,0.223648,-0.0598078,0.0889089,0.203856,-0.0621405,-0.0513161,-0.288771,1.24121,-3.36533,0.214705,-2.93576,-3.36533,0.236859,-2.93576,-0.489329,-0.0268986,0.366583,-0.693605,-0.0764578,0.575451,-0.314002,1
1.05847,-0.444144,-1.82988,-1.02973,2.7884,1.10461,-1.6414,1.05847,-0.444144,-1.82988,-1.02973,2.7884,1.10461,-1.6414,1.11193,-0.453531,-1.86473,-0.95918,2.8108,1.0432,-1.61172,-0.938403,0.655486,0.602481,-1.09977,0.817382,0.272695,-0.953395,-0.938403,0.655486,0.602481,-1.09977,0.817382,0.272695,-0.953395,0.111545,-0.4937,1.05774,0.951522,0.0686736,-0.0468359,0.296137,0.106319,0.271205,-0.0402507,0.108683,0.25692,-0.0424295,-0.084561,-0.287043,1.21122,-3.3245,0.172809,-2.99934,-3.3245,0.228102,-2.99934,-0.534601,0.0938731,0.348494,-0.705525,-0.223964,0.614141,-0.29676,1
1.03016,-0.444688,-1.82848,-1.04031,2.77656,1.11089,-1.66278,1.03016,-0.444688,-1.82848,-1.04031,2.77656,1.11089,-1.66278,1.10242,-0.447956,-1.85701,-0.970269,2.81889,1.04745,-1.62091,-0.961674,0.518378,0.805312,-1.11606,0.78885,0.495488,-0.901895,-0.961674,0.518378,0.805312,-1.11606,0.78885,0.495488,-0.901895,0.112427,-0.491149,1.05714,0.952073,0.0693086,-0.0475303,0.294098,0.0882037,0.256505,-0.0718941,0.0760468,0.247992,-0.0738884,-0.11712,-0.285602,1.18063,-3.25591,0.144145,-3.05865,-3.25591,0.211059,-3.05865,-0.722626,0.032684,0.285351,-0.700433,-0.423336,0.634391,-0.418663,1
1.01903,-0.445814,-1.83446,-1.04992,2.76869,1.12229,-1.67528,1.01903,-0.445814,-1.83446,-1.04992,2.76869,1.12229,-1.67528,1.09301,-0.443417,-1.84881,-0.981017,2.82365,1.05491,-1.629,-0.921993,0.44296,0.806103,-1.06252,0.337062,0.830108,-0.767489,-0.921993,0.44296,0.806103,-1.06252,0.337062,0.830108,-0.767489,0.1131,-0.48826,1.05641,0.952792,0.068181,-0.0478618,0.291973,0.0859985,0.285498,-0.0755659,0.0772068,0.309055,-0.0722527,-0.149111,-0.285029,1.14864,-3.19905,0.057286,-3.19879,-3.19905,0.180662,-3.19879,-0.73976,-0.0239605,0.143469,-0.689047,-0.549579,0.673852,-0.462848,1
1.01235,-0.436451,-1.87602,-1.05194,2.75829,1.13589,-1.6783,1.01235,-0.436451,-1.87602,-1.05194,2.75829,1.13589,-1.6783,1.08464,-0.439109,-1.84227,-0.991916,2.82239,1.06522,-1.63506,-0.809626,0.432593,0.607412,-1.09754,-0.271406,1.08896,-0.559665,-0.809626,0.432593,0.607412,-1.09754,-0.271406,1.08896,-0.559665,0.114494,-0.484783,1.05546,0.953915,0.0652418,-0.0460069,0.289264,0.146868,0.308098,-0.1111,0.16269,0.363272,-0.101855,-0.182189,-0.282486,1.11606,-3.30788,0.254318,-3.25807,-3.30788,0.163828,-3.25807,-0.722868,0.0265838,-0.337481,-0.600193,-0.641015,0.7067,-0.432405,1
1.00258,-0.434524,-1.8885,-1.06406,2.74773,1.14541,-1.68473,1.00258,-0.434524,-1.8885,-1.06406,2.74773,1.14541,-1.68473,1.07699,-0.43456,-1.83701,-1.0027,2.81623,1.07722,-1.64016,-0.759783,0.457665,0.492923,-1.08057,-0.721507,1.2165,-0.514424,-0.759783,0.457665,0.492923,-1.08057,-0.721507,1.2165,-0.514424,0.116558,-0.480604,1.05454,0.955442,0.0608355,-0.0421478,0.28575,0.183902,0.345212,-0.110034,0.219356,0.424968,-0.0970764,-0.214707,-0.280598,1.08226,-3.25171,0.188711,-3.37986,-3.25171,0.16266,-3.37986,-0.744119,0.000357355,-0.514895,-0.61365,-0.684962,0.68192,-0.445766,1
0.997688,-0.435448,-1.89166,-1.08013,2.73792,1.15753,-1.6898,0.997688,-0.435448,-1.89166,-1.08013,2.73792,1.15753,-1.6898,1.06958,-0.430412,-1.83328,-1.01388,2.80654,1.08956,-1.64641,-0.733009,0.398234,0.32496,-1.13118,-1.04426,1.24253,-0.672056,-0.733009,0.398234,0.32496,-1.13118,-1.04426,1.24253,-0.672056,0.118966,-0.476672,1.05313,0.957497,0.0562631,-0.0366548,0.280518,0.191347,0.293315,-0.173272,0.246302,0.378626,-0.160084,-0.247933,-0.27864,1.04731,-3.3226,0.195843,-3.49491,-3.3226,0.165709,-3.49491,-0.718964,-0.050364,-0.583798,-0.662493,-0.686155,0.679643,-0.433899,1
0.99259,-0.435095,-1.89193,-1.09068,2.72731,1.16982,-1.69475,0.99259,-0.435095,-1.89193,-1.09068,2.72731,1.16982,-1.69475,1.06239,-0.426895,-1.83165,-1.02468,2.7948,1.102,-1.65449,-0.722535,0.329634,0.0876189,-1.07822,-1.20428,1.24309,-0.845676,-0.722535,0.329634,0.0876189,-1.07822,-1.20428,1.24309,-0.845676,0.121068,-0.47336,1.0513,0.960101,0.0516747,-0.030282,0.273165,0.129369,0.214252,-0.216375,0.193135,0.300875,-0.204353,-0.279895,-0.276123,1.01183,-3.19621,0.251716,-3.54879,-3.19621,0.18255,-3.54879,-0.698019,-0.0820012,-0.602796,-0.660008,-0.67482,0.678183,-0.402583,1
0.984783,-0.436561,-1.89501,-1.10021,2.71504,1.18164,-1.70162,0.984783,-0.436561,-1.89501,-1.10021,2.71504,1.18164,-1.70162,1.05531,-0.423843,-1.83364,-1.03533,2.78216,1.11478,-1.66334,-0.693412,0.313887,-0.287904,-1.03861,-1.28192,1.28246,-0.890222,-0.693412,0.313887,-0.287904,-1.03861,-1.28192,1.28246,-0.890222,0.122486,-0.471087,1.04879,0.963151,0.0473329,-0.0233019,0.263738,0.0579212,0.129933,-0.265136,0.130465,0.217231,-0.2546,-0.312376,-0.274081,0.975368,-3.24812,0.204164,-3.64574,-3.24812,0.20078,-3.64574,-0.705231,-0.127179,-0.613659,-0.648792,-0.671253,0.668572,-0.382784,1
0.977181,-0.452976,-1.90417,-1.1112,2.70241,1.19347,-1.70886,0.977181,-0.452976,-1.90417,-1.1112,2.70241,1.19347,-1.70886,1.04899,-0.420533,-1.83919,-1.0453,2.7691,1.12775,-1.67201,-0.616723,0.334224,-0.653696,-1.00615,-1.3065,1.30425,-0.855096,-0.616723,0.334224,-0.653696,-1.00615,-1.3065,1.30425,-0.855096,0.123549,-0.469324,1.04604,0.96637,0.0429149,-0.0157522,0.253061,0.0177797,0.0671089,-0.303297,0.0995143,0.153342,-0.294708,-0.345071,-0.272096,0.938148,-3.26953,0.198543,-3.72195,-3.26953,0.214583,-3.72195,-0.718046,-0.324437,-0.649855,-0.658934,-0.666904,0.657219,-0.368514,1
0.972241,-0.465697,-1.91687,-1.12415,2.69059,1.20736,-1.71481,0.972241,-0.465697,-1.91687,-1.12415,2.69059,1.20736,-1.71481,1.04329,-0.417068,-1.84791,-1.05551,2.7561,1.14069,-1.68005,-0.550102,0.356635,-0.92101,-1.01782,-1.29063,1.29311,-0.784998,-0.550102,0.356635,-0.92101,-1.01782,-1.29063,1.29311,-0.784998,0.124465,-0.468278,1.04274,0.969539,0.0389502,-0.00768355,0.241699,0.00118156,0.0173597,-0.342829,0.0918033,0.0979131,-0.336783,-0.376561,-0.270356,0.89955,-3.14897,0.174007,-3.85976,-3.14897,0.206977,-3.85976,-0.710537,-0.486293,-0.689665,-0.686429,-0.655162,0.666697,-0.347548,1
0.96835,-0.469939,-1.92797,-1.13486,2.67937,1.22074,-1.72379,0.96835,-0.469939,-1.92797,-1.13486,2.67937,1.22074,-1.72379,1.03805,-0.413389,-1.85776,-1.06599,2.74351,1.15373,-1.68737,-0.522645,0.36355,-0.99577,-1.06898,-1.24871,1.30378,-0.714469,-0.522645,0.36355,-0.99577,-1.06898,-1.24871,1.30378,-0.714469,0.12545,-0.467442,1.03917,0.972409,0.0351699,0.000498957,0.230615,0.00514609,-0.00238808,-0.37462,0.0995888,0.0724668,-0.371132,-0.409086,-0.267437,0.860335,-3.25253,0.291845,-3.9215,-3.25253,0.214569,-3.9215,-0.696976,-0.565499,-0.702111,-0.688626,-0.641424,0.670046,-0.364195,1
0.963103,-0.473461,-1.93884,-1.14761,2.66848,1.23234,-1.73162,0.963103,-0.473461,-1.93884,-1.14761,2.66848,1.23234,-1.73162,1.03274,-0.410128,-1.86727,-1.07708,2.73128,1.16647,-1.69412,-0.543402,0.30817,-0.944213,-1.10516,-1.21939,1.27379,-0.667334,-0.543402,0.30817,-0.944213,-1.10516,-1.21939,1.27379,-0.667334,0.126458,-0.46699,1.03521,0.974895,0.0319214,0.00854947,0.220199,-0.00866728,-0.0326862,-0.404958,0.0858069,0.0333215,-0.403999,-0.442101,-0.265053,0.819272,-3.30145,0.238469,-4.1064,-3.30145,0.220925,-4.1064,-0.696329,-0.63333,-0.71568,-0.705255,-0.627995,0.658721,-0.375009,1
0.95562,-0.478042,-1.94893,-1.15999,2.65778,1.2442,-1.73535,0.95562,-0.478042,-1.94893,-1.15999,2.65778,1.2442,-1.73535,1.02672,-0.408075,-1.87679,-1.08839,2.71924,1.17889,-1.70061,-0.611954,0.164727,-0.944548,-1.1447,-1.20156,1.22183,-0.643892,-0.611954,0.164727,-0.944548,-1.1447,-1.20156,1.22183,-0.643892,0.126731,-0.467482,1.03068,0.977175,0.0293866,0.0162198,0.209766,-0.0813262,-0.128812,-0.472817,0.012085,-0.0790905,-0.474416,-0.474405,-0.262995,0.778417,-3.23042,0.20577,-4.08546,-3.23042,0.221785,-4.08546,-0.711022,-0.699675,-0.721346,-0.71598,-0.614602,0.653183,-0.347397,1
0.947837,-0.482519,-1.95933,-1.1723,2.64617,1.25506,-1.73469,0.947837,-0.482519,-1.95933,-1.1723,2.64617,1.25506,-1.73469,1.02057,-0.407871,-1.88596,-1.09977,2.70721,1.19126,-1.70696,-0.619786,-0.0222542,-0.922225,-1.13791,-1.20428,1.24039,-0.637211,-0.619786,-0.0222542,-0.922225,-1.13791,-1.20428,1.24039,-0.637211,0.126307,-0.469016,1.02548,0.979204,0.0275307,0.0232501,0.199652,-0.150896,-0.218188,-0.534834,-0.0641429,-0.179609,-0.538024,-0.506952,-0.261033,0.735227,-3.25466,0.196135,-4.319,-3.25466,0.223743,-4.319,-0.727349,-0.746479,-0.733761,-0.725322,-0.610384,0.637923,-0.277285,1
0.939839,-0.486467,-1.9694,-1.18422,2.63423,1.26652,-1.73364,0.939839,-0.486467,-1.9694,-1.18422,2.63423,1.26652,-1.73364,1.01424,-0.409402,-1.89555,-1.11152,2.69517,1.20343,-1.71348,-0.633484,-0.192798,-0.965595,-1.18839,-1.19667,1.22245,-0.658159,-0.633484,-0.192798,-0.965595,-1.18839,-1.19667,1.22245,-0.658159,0.125159,-0.471769,1.01944,0.981084,0.026637,0.0299025,0.189398,-0.216672,-0.321735,-0.621726,-0.131876,-0.29988,-0.626678,-0.539554,-0.259034,0.692106,-3.26027,0.199911,-4.3121,-3.26027,0.222396,-4.3121,-0.744009,-0.770654,-0.738469,-0.727031,-0.609422,0.630924,-0.201586,1
0.931409,-0.4916,-1.97965,-1.19599,2.62277,1.27781,-1.73167,0.931409,-0.4916,-1.97965,-1.19599,2.62277,1.27781,-1.73167,1.00772,-0.412026,-1.90554,-1.12307,2.68333,1.21584,-1.72025,-0.660735,-0.280676,-1.01192,-1.15932,-1.18139,1.23122,-0.680724,-0.660735,-0.280676,-1.01192,-1.15932,-1.18139,1.23122,-0.680724,0.123256,-0.475181,1.01298,0.982857,0.0260613,0.0361009,0.178912,-0.28713,-0.37101,-0.653079,-0.206045,-0.35588,-0.659033,-0.570857,-0.257481,0.647889,-3.13032,0.155333,-4.42164,-3.13032,0.212317,-4.42164,-0.763073,-0.795732,-0.741133,-0.72917,-0.605542,0.619698,-0.114143,1
0.923268,-0.49637,-1.99046,-1.20843,2.612,1.29085,-1.73394,0.923268,-0.49637,-1.99046,-1.20843,2.612,1.29085,-1.73394,1.00104,-0.415315,-1.91583,-1.13512,2.67174,1.22825,-1.7268,-0.666919,-0.345905,-1.02578,-1.19889,-1.15673,1.25321,-0.636528,-0.666919,-0.345905,-1.02578,-1.19889,-1.15673,1.25321,-0.636528,0.121,-0.479102,1.006,0.984435,0.0260581,0.0421351,0.168623,-0.317695,-0.401818,-0.697496,-0.238597,-0.394221,-0.704506,-0.602424,-0.256716,0.602388,-3.15671,0.0765502,-4.55017,-3.15671,0.183102,-4.55017,-0.777713,-0.810551,-0.746373,-0.733017,-0.597368,0.626046,-0.0713735,1
0.91579,-0.500947,-2.00056,-1.22084,2.60168,1.30395,-1.73874,0.91579,-0.500947,-2.00056,-1.22084,2.60168,1.30395,-1.73874,0.994468,-0.419166,-1.92588,-1.14726,2.66033,1.2406,-1.73208,-0.655474,-0.400911,-1.0096,-1.23553,-1.13964,1.22508,-0.48523,-0.655474,-0.400911,-1.0096,-1.23553,-1.13964,1.22508,-0.48523,0.118552,-0.483226,0.998761,0.985709,0.0263808,0.0479077,0.159333,-0.32664,-0.421319,-0.734025,-0.248061,-0.4225,-0.742199,-0.634589,-0.254248,0.557757,-3.21645,0.246793,-4.46309,-3.21645,0.173306,-4.46309,-0.786781,-0.817813,-0.746771,-0.735813,-0.586492,0.633455,-0.066571,1
0.907945,-0.506779,-2.01044,-1.23286,2.59248,1.31657,-1.74192,0.907945,-0.506779,-2.01044,-1.23286,2.59248,1.31657,-1.74192,0.987658,-0.423582,-1.93633,-1.15951,2.64897,1.25284,-1.73551,-0.689856,-0.453053,-1.04736,-1.20605,-1.13554,1.21989,-0.293295,-0.689856,-0.453053,-1.04736,-1.20605,-1.13554,1.21989,-0.293295,0.115642,-0.487734,0.991148,0.986728,0.0271767,0.0535639,0.150864,-0.386384,-0.445501,-0.753492,-0.309881,-0.451722,-0.762504,-0.665852,-0.253458,0.510186,-3.12634,0.0789225,-4.75712,-3.12634,0.158928,-4.75712,-0.79713,-0.831966,-0.741098,-0.733415,-0.564877,0.637241,-0.0640674,1
0.901197,-0.511549,-2.02036,-1.24478,2.58112,1.32875,-1.74655,0.901197,-0.511549,-2.02036,-1.24478,2.58112,1.32875,-1.74655,0.980922,-0.428368,-1.94632,-1.1718,2.63751,1.26487,-1.73721,-0.666715,-0.486381,-0.985213,-1.2386,-1.14503,1.20706,-0.137803,-0.666715,-0.486381,-0.985213,-1.2386,-1.14503,1.20706,-0.137803,0.112688,-0.492245,0.983383,0.987455,0.0282406,0.0591042,0.143669,-0.370328,-0.435892,-0.774994,-0.294029,-0.446386,-0.785012,-0.698516,-0.250403,0.46357,-3.26635,0.305563,-4.66158,-3.26635,0.165277,-4.66158,-0.797251,-0.831808,-0.740423,-0.729842,-0.563897,0.638745,-0.0934739,1
0.89387,-0.517616,-2.0304,-1.2566,2.5708,1.34064,-1.74764,0.89387,-0.517616,-2.0304,-1.2566,2.5708,1.34064,-1.74764,0.973972,-0.433928,-1.95634,-1.18367,2.6261,1.2769,-1.73811,-0.704968,-0.593397,-1.00792,-1.18766,-1.13063,1.19934,-0.082917,-0.704968,-0.593397,-1.00792,-1.18766,-1.13063,1.19934,-0.082917,0.109133,-0.497031,0.97542,0.98806,0.0295317,0.0642906,0.136864,-0.451101,-0.478406,-0.803978,-0.380887,-0.496049,-0.814288,-0.73319,-0.252088,0.412567,-3.4674,-0.168514,-5.10032,-3.4674,0.136618,-5.10032,-0.80102,-0.83688,-0.740662,-0.729319,-0.553019,0.637356,-0.0953417,1
0.88609,-0.524697,-2.04075,-1.26759,2.56128,1.35265,-1.74561,0.88609,-0.524697,-2.04075,-1.26759,2.56128,1.35265,-1.74561,0.966679,-0.440438,-1.9668,-1.19565,2.61494,1.28899,-1.73902,-0.73603,-0.662293,-1.05622,-1.17741,-1.11439,1.21308,-0.0971059,-0.73603,-0.662293,-1.05622,-1.17741,-1.11439,1.21308,-0.0971059,0.10486,-0.502349,0.966936,0.988609,0.0313928,0.0691258,0.129953,-0.514541,-0.505619,-0.839257,-0.44786,-0.529563,-0.850095,-0.765743,-0.250068,0.363025,-3.25532,0.202024,-4.95411,-3.25532,0.126215,-4.95411,-0.805898,-0.842581,-0.739462,-0.71938,-0.536565,0.636612,-0.0658406,1
0.873745,-0.529557,-2.0191,-1.14902,2.57533,1.36394,-1.72633,0.873745,-0.529557,-2.0191,-1.14902,2.57533,1.36394,-1.72633,0.959329,-0.447614,-1.9774,-1.20765,2.60415,1.30101,-1.74034,-0.730182,-0.739566,-1.06092,-1.2211,-1.06582,1.19909,-0.147978,-0.730182,-0.739566,-1.06092,-1.2211,-1.06582,1.19909,-0.147978,0.100142,-0.507926,0.958111,0.989099,0.0336753,0.0736003,0.123009,-0.540573,-0.529642,-0.891693,-0.478198,-0.564178,-0.903116,-0.765743,-0.250068,0.363025,0,0,0,0,0.105979,0,-0.855841,-0.819433,-0.417046,0.586232,-0.288277,0.629265,0.140092,1
0.867548,-0.534459,-2.02494,-1.15271,2.55178,1.3758,-1.7352,0.867548,-0.534459,-2.02494,-1.15271,2.55178,1.3758,-1.7352,0.952136,-0.455454,-1.98815,-1.21988,2.59363,1.31304,-1.74218,-0.723459,-0.79474,-1.09036,-1.22003,-1.04653,1.1924,-0.195015,-0.723459,-0.79474,-1.09036,-1.22003,-1.04653,1.1924,-0.195015,0.0951592,-0.513725,0.948846,0.989515,0.0364062,0.0778042,0.116106,-0.572663,-0.540629,-0.924383,-0.513332,-0.581478,-0.936402,-0.765743,-0.250068,0.363025,0,0,0,0,0.0702015,0,-0.845875,-0.790049,-0.367922,0.671724,-0.418481,0.627567,0.069812,1
0.860628,-0.54522,-2.03784,-1.18216,2.53596,1.38782,-1.7371,0.860628,-0.54522,-2.03784,-1.18216,2.53596,1.38782,-1.7371,0.94484,-0.463621,-1.99923,-1.23225,2.58331,1.32477,-1.74409,-0.722297,-0.821092,-1.0924,-1.23706,-1.02623,1.18216,-0.181677,-0.722297,-0.821092,-1.0924,-1.23706,-1.02623,1.18216,-0.181677,0.0898598,-0.51966,0.939258,0.989846,0.0396212,0.0819081,0.109206,-0.586939,-0.533333,-0.949423,-0.529727,-0.579305,-0.96219,-0.765743,-0.250068,0.363025,0,0,0,0,0.0459379,0,-0.842117,-0.81599,-0.386097,0.500854,-0.473529,0.630455,0.0699261,1
0.853682,-0.55524,-2.04918,-1.19462,2.52958,1.39832,-1.75239,0.853682,-0.55524,-2.04918,-1.19462,2.52958,1.39832,-1.75239,0.937662,-0.471816,-2.00958,-1.24382,2.57344,1.33642,-1.74469,-0.725832,-0.820253,-1.01343,-1.11786,-0.95304,1.14883,0.00572834,-0.725832,-0.820253,-1.01343,-1.11786,-0.95304,1.14883,0.00572834,0.084442,-0.52517,0.93001,0.990041,0.0426052,0.0855218,0.103386,-0.606953,-0.4948,-0.898321,-0.559267,-0.537739,-0.909891,-0.765743,-0.250068,0.363025,0,0,0,0,0.0180206,0,-0.839799,-0.83424,-0.39601,0.492067,-0.438596,0.619049,-0.0770118,1
0.845866,-0.563436,-2.05427,-1.19369,2.52752,1.4084,-1.7557,0.845866,-0.563436,-2.05427,-1.19369,2.52752,1.4084,-1.7557,0.929958,-0.480411,-2.01737,-1.25242,2.56604,1.34773,-1.7432,-0.792692,-0.875266,-0.695773,-0.748397,-0.685093,1.12071,0.172325,-0.792692,-0.875266,-0.695773,-0.748397,-0.685093,1.12071,0.172325,0.0780445,-0.530026,0.922189,0.99026,0.0447083,0.0869452,0.0991292,-0.685704,-0.432359,-0.728188,-0.674341,-0.460058,-0.732299,-0.765743,-0.250068,0.363025,0,0,0,0,0.0216454,0,-0.840915,-0.830245,-0.369057,0.587257,-0.385196,0.606712,-0.125043,1
0.83718,-0.573475,-2.05698,-1.19605,2.52661,1.4187,-1.75005,0.83718,-0.573475,-2.05698,-1.19605,2.52661,1.4187,-1.75005,0.921355,-0.490597,-2.02319,-1.25654,2.55935,1.35818,-1.74177,-0.865558,-1.08128,-0.55903,-0.31469,-0.68283,1.02362,0.128546,-0.865558,-1.08128,-0.55903,-0.31469,-0.68283,1.02362,0.128546,0.0699136,-0.534779,0.915775,0.990705,0.0457623,0.0865944,0.0943918,-0.842663,-0.462508,-0.628401,-0.852922,-0.482484,-0.628029,-0.765743,-0.250068,0.363025,0,0,0,0,0,0,-0.841752,-0.828779,-0.337899,0.604912,-0.327455,0.605238,-0.0827357,1
0.829989,-0.585274,-2.05817,-1.19797,2.51608,1.42868,-1.74622,0.829989,-0.585274,-2.05817,-1.19797,2.51608,1.42868,-1.74622,0.91374,-0.502365,-2.02828,-1.25612,2.55128,1.36825,-1.74128,-0.719083,-1.18278,-0.492576,0.17332,-0.848351,0.999713,0.00500955,-0.719083,-1.18278,-0.492576,0.17332,-0.848351,0.999713,0.00500955,0.061091,-0.539338,0.910511,0.99131,0.0453173,0.0856888,0.0889278,-0.865347,-0.435177,-0.484829,-0.881888,-0.429207,-0.481376,-0.765743,-0.250068,0.363025,0,0,0,0,0,0,-0.83751,-0.829097,-0.298908,0.581524,-0.351981,0.604304,-0.0493522,1
0.822987,-0.595835,-2.0598,-1.19113,2.50562,1.43677,-1.74545,0.822987,-0.595835,-2.0598,-1.19113,2.50562,1.43677,-1.74545,0.907022,-0.514097,-2.03405,-1.2509,2.54207,1.37805,-1.74252,-0.663271,-1.17279,-0.614818,0.620343,-0.937861,0.982683,-0.159634,-0.663271,-1.17279,-0.614818,0.620343,-0.937861,0.982683,-0.159634,0.0516371,-0.543296,0.906836,0.992119,0.0429387,0.0849089,0.0815279,-0.953905,-0.411427,-0.34793,-0.970844,-0.384134,-0.342919,-0.765743,-0.250068,0.363025,0,0,0,0,0,0,-0.840351,-0.817381,-0.257442,0.597721,-0.364518,0.587249,-0.0293486,1
0.817856,-0.606198,-2.0634,-1.18296,2.49345,1.44476,-1.74321,0.817856,-0.606198,-2.0634,-1.18296,2.49345,1.44476,-1.74321,0.901368,-0.525136,-2.04018,-1.24284,2.53279,1.38787,-1.74462,-0.526384,-1.07862,-0.59611,0.833583,-0.906222,0.974138,-0.213253,-0.526384,-1.07862,-0.59611,0.833583,-0.906222,0.974138,-0.213253,0.042246,-0.546525,0.904329,0.992974,0.039167,0.0841997,0.0733383,-0.896493,-0.344238,-0.238453,-0.913934,-0.300082,-0.232444,-0.765743,-0.250068,0.363025,0,0,0,0,0,0,-0.835113,-0.810619,-0.232187,0.598847,-0.393352,0.56893,0.0141405,1
0.812038,-0.616858,-2.06448,-1.17343,2.48649,1.45637,-1.74811,0.812038,-0.616858,-2.06448,-1.17343,2.48649,1.45637,-1.74811,0.896077,-0.535539,-2.04617,-1.2342,2.52526,1.39779,-1.74619,-0.548891,-1.02987,-0.60565,0.836795,-0.708813,0.997184,-0.131374,-0.548891,-1.02987,-0.60565,0.836795,-0.708813,0.997184,-0.131374,0.032869,-0.549329,0.90226,0.99378,0.0351158,0.0828699,0.0655818,-0.920993,-0.320182,-0.226139,-0.947066,-0.276619,-0.219042,-0.765743,-0.250068,0.363025,0,0,0,0,0,0,-0.84039,-0.813189,-0.183159,0.607693,-0.387651,0.58584,-0.0192166,1
0.805658,-0.625725,-2.06808,-1.16281,2.47924,1.46745,-1.75366,0.805658,-0.625725,-2.06808,-1.16281,2.47924,1.46745,-1.75366,0.88973,-0.545163,-2.05168,-1.22683,2.51902,1.40799,-1.74684,-0.668521,-0.939838,-0.517959,0.726669,-0.603215,1.02821,-0.0419818,-0.668521,-0.939838,-0.517959,0.726669,-0.603215,1.02821,-0.0419818,0.0233831,-0.551766,0.900051,0.994487,0.0313431,0.0813233,0.0583143,-0.924222,-0.266038,-0.220271,-0.95171,-0.22194,-0.213287,-0.765743,-0.250068,0.363025,0,0,0,0,0,0,-0.840724,-0.805628,-0.16393,0.640201,-0.397857,0.594659,-0.0682039,1
0.797664,-0.634908,-2.07196,-1.1538,2.4751,1.47787,-1.75548,0.797664,-0.634908,-2.07196,-1.1538,2.4751,1.47787,-1.75548,0.881849,-0.554489,-2.05617,-1.21955,2.51286,1.41829,-1.7468,-0.821671,-0.945171,-0.426793,0.720929,-0.627586,1.02958,0.0188756,-0.821671,-0.945171,-0.426793,0.720929,-0.627586,1.02958,0.0188756,0.0134255,-0.553756,0.898033,0.995131,0.0273539,0.0797376,0.0510614,-0.982308,-0.2386,-0.216731,-1.0089,-0.193066,-0.210236,-0.765743,-0.250068,0.363025,0,0,0,0,0,0,-0.841846,-0.804189,-0.157867,0.65752,-0.377614,0.595817,-0.0867315,1
0.789272,-0.644945,-2.07385,-1.14693,2.46922,1.48712,-1.75232,0.789272,-0.644945,-2.07385,-1.14693,2.46922,1.48712,-1.75232,0.873155,-0.564239,-2.0599,-1.21194,2.50586,1.4284,-1.7467,-0.88145,-0.985068,-0.363335,0.780852,-0.724805,0.999042,-0.00113853,-0.88145,-0.985068,-0.363335,0.780852,-0.724805,0.999042,-0.00113853,0.00314691,-0.555583,0.895987,0.995699,0.02327,0.078353,0.0436105,-1.01306,-0.223956,-0.21091,-1.03519,-0.176053,-0.205447,-0.765743,-0.250068,0.363025,0,0,0,0,0,0,-0.838825,-0.807064,-0.139498,0.650029,-0.366388,0.587235,-0.0561455,1
0.780388,-0.655547,-2.07721,-1.14134,2.46143,1.49684,-1.74867,0.780388,-0.655547,-2.07721,-1.14134,2.46143,1.49684,-1.74867,0.864154,-0.574519,-2.06346,-1.20453,2.49807,1.43819,-1.74695,-0.895747,-1.03263,-0.344759,0.730457,-0.795734,0.979867,-0.0380868,-0.895747,-1.03263,-0.344759,0.730457,-0.795734,0.979867,-0.0380868,-0.00723623,-0.557487,0.893552,0.99617,0.0195176,0.0773058,0.0359037,-1.01219,-0.225549,-0.256414,-1.02873,-0.182428,-0.252355,-0.765743,-0.250068,0.363025,0,0,0,0,0,0,-0.837668,-0.810277,-0.137536,0.631862,-0.366482,0.586415,-0.0172287,1
0.772167,-0.664349,-2.07696,-1.13397,2.44992,1.50503,-1.74439,0.772167,-0.664349,-2.07696,-1.13397,2.44992,1.50503,-1.74439,0.855535,-0.584236,-2.06618,-1.19683,2.48979,1.44816,-1.74788,-0.860932,-0.9538,-0.257452,0.791362,-0.828408,1.00439,-0.113038,-0.860932,-0.9538,-0.257452,0.791362,-0.828408,1.00439,-0.113038,-0.0169803,-0.558755,0.891522,0.996547,0.015112,0.0765933,0.0282607,-0.956623,-0.161259,-0.192458,-0.968961,-0.105423,-0.189082,-0.765743,-0.250068,0.363025,0,0,0,0,0,0,-0.833682,-0.80113,-0.107747,0.628608,-0.398679,0.568763,0.0348364,1
0.762778,-0.673425,-2.0808,-1.12459,2.44133,1.5158,-1.74799,0.762778,-0.673425,-2.0808,-1.12459,2.44133,1.5158,-1.74799,0.846342,-0.593772,-2.06905,-1.18862,2.48189,1.4585,-1.74919,-0.932947,-0.951751,-0.289342,0.833248,-0.773548,1.0512,-0.126005,-0.932947,-0.951751,-0.289342,0.833248,-0.773548,1.0512,-0.126005,-0.0272154,-0.559698,0.88965,0.99687,0.0103575,0.0757904,0.0199501,-1.02286,-0.140235,-0.189799,-1.03696,-0.0817729,-0.186594,-0.765743,-0.250068,0.363025,0,0,0,0,0,0,-0.835644,-0.79653,-0.11755,0.640293,-0.405568,0.572983,0.0120309,1
0.754226,-0.682404,-2.08514,-1.11382,2.43239,1.52528,-1.75697,0.754226,-0.682404,-2.08514,-1.11382,2.43239,1.52528,-1.75697,0.837396,-0.60273,-2.07133,-1.17944,2.47459,1.46908,-1.74994,-0.877573,-0.88414,-0.212284,0.953096,-0.711578,1.05126,-0.053736,-0.877573,-0.88414,-0.212284,0.953096,-0.711578,1.05126,-0.053736,-0.0373054,-0.560011,0.888417,0.997118,0.00486074,0.0747535,0.012004,-0.985673,-0.0847754,-0.109871,-1.00217,-0.0142275,-0.106818,-0.765743,-0.250068,0.363025,0,0,0,0,0,0,-0.831701,-0.796739,-0.138118,0.656143,-0.421999,0.562045,-0.0702233,1
0.745371,-0.692896,-2.09016,-1.10444,2.42963,1.53544,-1.75739,0.745371,-0.692896,-2.09016,-1.10444,2.42963,1.53544,-1.75739,0.828579,-0.6121,-2.07404,-1.1698,2.46778,1.4795,-1.74984,-0.882318,-0.959387,-0.290791,0.957074,-0.679385,1.03533,0.0292648,-0.882318,-0.959387,-0.290791,0.957074,-0.679385,1.03533,0.0292648,-0.0477467,-0.560407,0.886996,0.997285,-0.000396433,0.0735146,0.00425291,-1.03773,-0.1087,-0.165685,-1.05472,-0.0462201,-0.163257,-0.765743,-0.250068,0.363025,0,0,0,0,0,0,-0.832081,-0.807958,-0.161206,0.653576,-0.381566,0.559381,-0.07545,1
0.738284,-0.703206,-2.08506,-1.09648,2.42528,1.5434,-1.74962,0.738284,-0.703206,-2.08506,-1.09648,2.42528,1.5434,-1.74962,0.820426,-0.621625,-2.07635,-1.16012,2.4607,1.48945,-1.74945,-0.790893,-0.943233,-0.210258,0.983343,-0.723351,0.979616,0.0332555,-0.790893,-0.943233,-0.210258,0.983343,-0.723351,0.979616,0.0332555,-0.0577039,-0.560752,0.885491,0.997354,-0.0054841,0.0724296,-0.00293029,-0.960456,-0.0868886,-0.143354,-0.973195,-0.0218988,-0.142185,-0.765743,-0.250068,0.363025,0,0,0,0,0,0,-0.821422,-0.815815,-0.087084,0.636448,-0.354197,0.539544,-0.00167169,1
0.730165,-0.712858,-2.08664,-1.08907,2.41622,1.55308,-1.7452,0.730165,-0.712858,-2.08664,-1.08907,2.41622,1.55308,-1.7452,0.812436,-0.631434,-2.07878,-1.15054,2.45309,1.49922,-1.74964,-0.8122,-0.996286,-0.266511,0.942861,-0.773722,0.980946,-0.0411769,-0.8122,-0.996286,-0.266511,0.942861,-0.773722,0.980946,-0.0411769,-0.0675485,-0.561128,0.883689,0.997321,-0.0103574,0.0716705,-0.0103837,-0.988669,-0.09903,-0.202339,-0.995777,-0.0408133,-0.202439,-0.765743,-0.250068,0.363025,0,0,0,0,0,0,-0.82271,-0.814242,-0.0786413,0.614745,-0.368647,0.538609,0.0444109,1
0.722486,-0.722083,-2.09375,-1.07882,2.40718,1.56062,-1.74382,0.722486,-0.722083,-2.09375,-1.07882,2.40718,1.56062,-1.74382,0.804356,-0.641028,-2.08144,-1.14087,2.44499,1.50892,-1.75044,-0.798179,-0.935108,-0.254671,0.986255,-0.816979,0.966949,-0.0890527,-0.798179,-0.935108,-0.254671,0.986255,-0.816979,0.966949,-0.0890527,-0.0773159,-0.561301,0.881858,0.997164,-0.0152776,0.071379,-0.0183442,-0.961871,-0.0607116,-0.1663,-0.961255,0.00232071,-0.168164,-0.765743,-0.250068,0.363025,0,0,0,0,0,0,-0.818693,-0.810546,-0.123183,0.620478,-0.378119,0.517041,0.0662568,1
0.71445,-0.731602,-2.09544,-1.06885,2.39985,1.57118,-1.74562,0.71445,-0.731602,-2.09544,-1.06885,2.39985,1.57118,-1.74562,0.796448,-0.650455,-2.08386,-1.13119,2.43716,1.51882,-1.75117,-0.794967,-0.947727,-0.244832,0.947942,-0.767721,0.995123,-0.0514111,-0.794967,-0.947727,-0.244832,0.947942,-0.767721,0.995123,-0.0514111,-0.0868985,-0.561217,0.880066,0.996923,-0.0203566,0.0710576,-0.0260942,-0.958971,-0.050943,-0.190859,-0.959993,0.010707,-0.19301,-0.765743,-0.250068,0.363025,0,0,0,0,0,0,-0.819984,-0.811476,-0.115806,0.623431,-0.373119,0.523573,0.0554688,1
0.706537,-0.741063,-2.09953,-1.05862,2.39328,1.58097,-1.74826,0.706537,-0.741063,-2.09953,-1.05862,2.39328,1.58097,-1.74826,0.788225,-0.659643,-2.08608,-1.12164,2.43002,1.52858,-1.75104,-0.830524,-0.905735,-0.208784,0.971994,-0.696833,0.970376,0.0315298,-0.830524,-0.905735,-0.208784,0.971994,-0.696833,0.970376,0.0315298,-0.0965962,-0.560911,0.87831,0.996624,-0.0253123,0.0705724,-0.0334713,-0.969571,-0.0167907,-0.16253,-0.971971,0.0463351,-0.165104,-0.765743,-0.250068,0.363025,0,0,0,0,0,0,-0.816879,-0.814198,-0.13453,0.630226,-0.367443,0.523887,0.0278232,1
0.698507,-0.750676,-2.10116,-1.04841,2.38859,1.59003,-1.74819,0.698507,-0.750676,-2.10116,-1.04841,2.38859,1.59003,-1.74819,0.779995,-0.668911,-2.08774,-1.1121,2.42334,1.5384,-1.75036,-0.819223,-0.939278,-0.163905,0.935311,-0.670392,0.984206,0.0793098,-0.819223,-0.939278,-0.163905,0.935311,-0.670392,0.984206,0.0793098,-0.106265,-0.560409,0.876551,0.996281,-0.0303144,0.0698218,-0.0403671,-0.95788,-0.0119291,-0.189451,-0.962662,0.0497569,-0.192184,-0.765743,-0.250068,0.363025,0,0,0,0,0,0,-0.814875,-0.817651,-0.134167,0.63684,-0.347496,0.516233,0.0217199,1
0.690496,-0.760627,-2.10179,-1.03983,2.38265,1.59861,-1.74365,0.690496,-0.760627,-2.10179,-1.03983,2.38265,1.59861,-1.74365,0.771721,-0.678479,-2.08974,-1.10249,2.41654,1.54791,-1.74942,-0.834718,-0.947655,-0.210546,0.983487,-0.684389,0.93784,0.0913417,-0.834718,-0.947655,-0.210546,0.983487,-0.684389,0.93784,0.0913417,-0.116096,-0.559981,0.874512,0.995863,-0.0349561,0.0692385,-0.0473307,-0.988348,-0.00462602,-0.194915,-0.988552,0.0535241,-0.198598,-0.765743,-0.250068,0.363025,0,0,0,0,0,0,-0.812251,-0.821482,-0.120475,0.626583,-0.338944,0.506993,0.0577369,1
0.682048,-0.769841,-2.10335,-1.03123,2.37433,1.60765,-1.73852,0.682048,-0.769841,-2.10335,-1.03123,2.37433,1.60765,-1.73852,0.763222,-0.687891,-2.09195,-1.09254,2.40957,1.55734,-1.74877,-0.850729,-0.942226,-0.225778,0.976285,-0.699863,0.950675,0.053005,-0.850729,-0.942226,-0.225778,0.976285,-0.699863,0.950675,0.053005,-0.126049,-0.559317,0.872526,0.995327,-0.0396825,0.0689375,-0.0547538,-0.994327,0.0136029,-0.206187,-0.990152,0.071154,-0.21095,-0.765743,-0.250068,0.363025,0,0,0,0,0,0,-0.81174,-0.819505,-0.113938,0.61304,-0.352479,0.50304,0.102517,1
0.674369,-0.77908,-2.10827,-1.02206,2.36669,1.61568,-1.73399,0.674369,-0.77908,-2.10827,-1.02206,2.36669,1.61568,-1.73399,0.754978,-0.697141,-2.09448,-1.08265,2.40246,1.56664,-1.74847,-0.815364,-0.912015,-0.260172,1.00634,-0.713035,0.921446,0.0234286,-0.815364,-0.912015,-0.260172,1.00634,-0.713035,0.921446,0.0234286,-0.135773,-0.558565,0.870441,0.994684,-0.0442875,0.0689609,-0.0623434,-0.975385,0.0287821,-0.196364,-0.965296,0.0854665,-0.202392,-0.765743,-0.250068,0.363025,0,0,0,0,0,0,-0.806088,-0.819391,-0.137863,0.605908,-0.357679,0.490331,0.144811,1
0.666471,-0.788493,-2.10979,-1.01174,2.3611,1.62418,-1.73443,0.666471,-0.788493,-2.10979,-1.01174,2.3611,1.62418,-1.73443,0.746926,-0.706393,-2.09713,-1.07261,2.39557,1.57591,-1.74813,-0.802445,-0.937852,-0.262353,0.975098,-0.681264,0.929044,0.0459704,-0.802445,-0.937852,-0.262353,0.975098,-0.681264,0.929044,0.0459704,-0.145448,-0.557708,0.868299,0.993964,-0.0488465,0.069007,-0.0699057,-0.971941,0.0303654,-0.227042,-0.962861,0.0838029,-0.23311,-0.765743,-0.250068,0.363025,0,0,0,0,0,0,-0.804544,-0.820994,-0.126581,0.608688,-0.344679,0.482746,0.136951,1
0.659413,-0.798251,-2.11287,-1.00161,2.3566,1.63171,-1.73646,0.659413,-0.798251,-2.11287,-1.00161,2.3566,1.63171,-1.73646,0.739094,-0.715746,-2.09949,-1.06297,2.38894,1.5851,-1.74721,-0.77982,-0.924154,-0.225742,0.979436,-0.658465,0.910984,0.112386,-0.77982,-0.924154,-0.225742,0.979436,-0.658465,0.910984,0.112386,-0.154896,-0.556825,0.865965,0.993232,-0.0531812,0.0689572,-0.0768546,-0.947853,0.0465592,-0.218562,-0.93876,0.100422,-0.225101,-0.765743,-0.250068,0.363025,0,0,0,0,0,0,-0.796808,-0.825055,-0.133828,0.613559,-0.323468,0.466164,0.107548,1
0.651105,-0.808113,-2.11422,-0.991093,2.35462,1.6408,-1.73968,0.651105,-0.808113,-2.11422,-0.991093,2.35462,1.6408,-1.73968,0.730988,-0.725052,-2.10174,-1.05299,2.38245,1.59413,-1.74539,-0.825314,-0.943853,-0.234441,0.978201,-0.647874,0.905311,0.20714,-0.825314,-0.943853,-0.234441,0.978201,-0.647874,0.905311,0.20714,-0.164515,-0.555715,0.863701,0.992447,-0.0575182,0.0689696,-0.0835708,-0.980627,0.0607962,-0.238008,-0.970344,0.111562,-0.244836,-0.765743,-0.250068,0.363025,0,0,0,0,0,0,-0.798831,-0.830613,-0.124758,0.619004,-0.278288,0.466683,0.0570898,1
0.643523,-0.817803,-2.11548,-0.981033,2.34827,1.64968,-1.73716,0.643523,-0.817803,-2.11548,-0.981033,2.34827,1.64968,-1.73716,0.722757,-0.734481,-2.10409,-1.04327,2.37584,1.60317,-1.74282,-0.812622,-0.928225,-0.224278,0.985871,-0.664844,0.892176,0.26771,-0.812622,-0.928225,-0.224278,0.985871,-0.664844,0.892176,0.26771,-0.174138,-0.554545,0.861193,0.991629,-0.0616239,0.0691755,-0.0899361,-0.9629,0.0778297,-0.233332,-0.948836,0.128357,-0.241097,-0.765743,-0.250068,0.363025,0,0,0,0,0,0,-0.792341,-0.833212,-0.113905,0.6224,-0.275705,0.465159,0.0565912,1
0.63536,-0.826989,-2.11994,-0.972559,2.34048,1.65815,-1.72579,0.63536,-0.826989,-2.11994,-0.972559,2.34048,1.65815,-1.72579,0.714706,-0.743662,-2.10634,-1.03317,2.36921,1.61183,-1.74035,-0.81448,-0.93816,-0.24011,0.995303,-0.658899,0.867847,0.234609,-0.81448,-0.93816,-0.24011,0.995303,-0.658899,0.867847,0.234609,-0.183583,-0.553184,0.858873,0.990732,-0.0657675,0.0695582,-0.0963683,-0.970766,0.0860785,-0.245619,-0.954815,0.133187,-0.253675,-0.765743,-0.250068,0.363025,0,0,0,0,0,0,-0.793458,-0.833269,-0.136021,0.606069,-0.287279,0.463178,0.145537,1
0.626985,-0.836172,-2.11954,-0.965096,2.33288,1.66478,-1.71567,0.626985,-0.836172,-2.11954,-0.965096,2.33288,1.66478,-1.71567,0.70635,-0.753369,-2.10906,-1.02344,2.36298,1.6204,-1.73877,-0.831246,-0.962896,-0.265182,0.981688,-0.609178,0.848432,0.126293,-0.831246,-0.962896,-0.265182,0.981688,-0.609178,0.848432,0.126293,-0.193422,-0.551953,0.856011,0.989756,-0.0693649,0.0697995,-0.103436,-0.993737,0.0912294,-0.273991,-0.979402,0.133047,-0.28146,-0.765743,-0.250068,0.363025,0,0,0,0,0,0,-0.793654,-0.828031,-0.104753,0.58348,-0.30101,0.443784,0.230991,1
0.619842,-0.844692,-2.12232,-0.954554,2.32522,1.67107,-1.7123,0.619842,-0.844692,-2.12232,-0.954554,2.32522,1.67107,-1.7123,0.698374,-0.762557,-2.11121,-1.01345,2.35741,1.62875,-1.73797,-0.79274,-0.926907,-0.207117,0.989035,-0.536849,0.83616,0.0741842,-0.79274,-0.926907,-0.207117,0.989035,-0.536849,0.83616,0.0741842,-0.202886,-0.5504,0.853553,0.988699,-0.0732679,0.069802,-0.110609,-0.955238,0.112593,-0.246966,-0.944416,0.157817,-0.254647,-0.765743,-0.250068,0.363025,0,0,0,0,0,0,-0.785322,-0.821343,-0.111056,0.588945,-0.321883,0.423191,0.256706,1
0.611134,-0.854452,-2.12354,-0.943647,2.32345,1.67932,-1.71534,0.611134,-0.854452,-2.12354,-0.943647,2.32345,1.67932,-1.71534,0.690068,-0.772224,-2.11375,-1.00373,2.35237,1.6372,-1.737,-0.840582,-0.96787,-0.266847,0.983306,-0.498844,0.849727,0.116549,-0.840582,-0.96787,-0.266847,0.983306,-0.498844,0.849727,0.116549,-0.212772,-0.548871,0.850626,0.987604,-0.07677,0.0696051,-0.117897,-1.00778,0.123121,-0.289135,-0.997008,0.163361,-0.296409,-0.765743,-0.250068,0.363025,0,0,0,0,0,0,-0.789335,-0.822276,-0.0978636,0.600835,-0.289257,0.421219,0.216605,1
0.604843,-0.864378,-2.12529,-0.932141,2.32244,1.68391,-1.72188,0.604843,-0.864378,-2.12529,-0.932141,2.32244,1.68391,-1.72188,0.682099,-0.781424,-2.11588,-0.993657,2.34722,1.64555,-1.7347,-0.776657,-0.918865,-0.188037,0.998035,-0.522238,0.832193,0.271665,-0.776657,-0.918865,-0.188037,0.998035,-0.522238,0.832193,0.271665,-0.222217,-0.547032,0.848049,0.986507,-0.0805573,0.0696552,-0.124349,-0.936261,0.142083,-0.250036,-0.92278,0.187101,-0.258732,-0.765743,-0.250068,0.363025,0,0,0,0,0,0,-0.772562,-0.829539,-0.0940637,0.615161,-0.247725,0.38365,0.128151,1
0.595805,-0.874737,-2.12393,-0.922755,2.31657,1.69721,-1.72557,0.595805,-0.874737,-2.12393,-0.922755,2.31657,1.69721,-1.72557,0.674089,-0.791058,-2.11808,-0.983989,2.34161,1.65377,-1.73066,-0.821527,-0.973838,-0.244017,0.977218,-0.572151,0.814288,0.441078,-0.821527,-0.973838,-0.244017,0.977218,-0.572151,0.814288,0.441078,-0.231637,-0.545305,0.84503,0.985497,-0.0838597,0.0699893,-0.129867,-0.97646,0.142037,-0.304571,-0.958282,0.178023,-0.312969,-0.765743,-0.250068,0.363025,0,0,0,0,0,0,-0.782835,-0.836788,-0.0585116,0.612338,-0.250368,0.434348,0.0508606,1
0.588112,-0.884314,-2.13652,-0.911865,2.30319,1.70495,-1.7213,0.588112,-0.884314,-2.13652,-0.911865,2.30319,1.70495,-1.7213,0.665884,-0.80039,-2.12019,-0.974045,2.3355,1.66161,-1.72569,-0.806127,-0.92481,-0.183555,0.988735,-0.618574,0.779246,0.499407,-0.806127,-0.92481,-0.183555,0.988735,-0.618574,0.779246,0.499407,-0.240938,-0.543331,0.842192,0.984451,-0.0871213,0.0708116,-0.135096,-0.932566,0.166448,-0.269544,-0.909313,0.204014,-0.279304,-0.765743,-0.250068,0.363025,0,0,0,0,0,0,-0.777723,-0.839241,-0.163333,0.621802,-0.323091,0.433398,0.0438795,1
0.579577,-0.893857,-2.13774,-0.905008,2.30317,1.70855,-1.70136,0.579577,-0.893857,-2.13774,-0.905008,2.30317,1.70855,-1.70136,0.657854,-0.810018,-2.12196,-0.964431,2.32955,1.66917,-1.72169,-0.815031,-0.974929,-0.19524,0.970578,-0.57566,0.749033,0.344891,-0.815031,-0.974929,-0.19524,0.970578,-0.57566,0.749033,0.344891,-0.250117,-0.541434,0.839112,0.983379,-0.0900984,0.071418,-0.140529,-0.954462,0.1629,-0.309848,-0.935024,0.194053,-0.318186,-0.765743,-0.250068,0.363025,0,0,0,0,0,0,-0.782769,-0.83839,-0.157845,0.594229,-0.263802,0.393766,0.203328,1
0.573028,-0.902056,-2.12115,-0.900093,2.29725,1.70631,-1.68694,0.573028,-0.902056,-2.12115,-0.900093,2.29725,1.70631,-1.68694,0.64952,-0.819563,-2.12386,-0.954466,2.32444,1.67641,-1.71977,-0.826537,-0.947077,-0.167819,0.993816,-0.492343,0.724944,0.140027,-0.826537,-0.947077,-0.167819,0.993816,-0.492343,0.724944,0.140027,-0.259633,-0.539292,0.836114,0.98209,-0.093053,0.071686,-0.147312,-0.957565,0.19157,-0.286978,-0.941475,0.224288,-0.295201,-0.765743,-0.250068,0.363025,0,0,0,0,0,0,-0.764915,-0.824934,0.0270988,0.543733,-0.271928,0.299033,0.328371,1
0.565212,-0.911142,-2.13093,-0.89523,2.30208,1.69975,-1.68838,0.565212,-0.911142,-2.13093,-0.89523,2.30208,1.69975,-1.68838,0.64147,-0.829287,-2.12538,-0.944789,2.31977,1.68391,-1.71937,-0.806978,-0.984852,-0.178138,0.976918,-0.470388,0.753407,0.0250357,-0.806978,-0.984852,-0.178138,0.976918,-0.470388,0.753407,0.0250357,-0.268967,-0.537092,0.832945,0.980702,-0.0960924,0.0715655,-0.154492,-0.955553,0.191586,-0.321898,-0.94111,0.222968,-0.329802,-0.765743,-0.250068,0.363025,0,0,0,0,0,0,-0.762572,-0.818553,-0.055489,0.495598,-0.176961,0.158464,0.309959,1
0.556958,-0.920937,-2.12038,-0.878786,2.30418,1.70156,-1.69838,0.556958,-0.920937,-2.12038,-0.878786,2.30418,1.70156,-1.69838,0.633431,-0.838908,-2.12791,-0.934598,2.31455,1.69163,-1.71877,-0.794752,-0.951514,-0.26294,1.02363,-0.538894,0.775446,0.0965427,-0.794752,-0.951514,-0.26294,1.02363,-0.538894,0.775446,0.0965427,-0.278329,-0.534719,0.829683,0.979142,-0.0991325,0.0721599,-0.162009,-0.949125,0.213907,-0.315311,-0.922578,0.244171,-0.325385,-0.765743,-0.250068,0.363025,0,0,0,0,0,0,-0.764733,-0.820295,0.0753789,0.558123,-0.103755,0.0993063,0.203973,1
0.550995,-0.931975,-2.11707,-0.87296,2.31037,1.70586,-1.7111,0.550995,-0.931975,-2.11707,-0.87296,2.31037,1.70586,-1.7111,0.625693,-0.848369,-2.13032,-0.924724,2.30908,1.69925,-1.71599,-0.769418,-0.935491,-0.217449,0.988256,-0.543918,0.737672,0.34775,-0.769418,-0.935491,-0.217449,0.988256,-0.543918,0.737672,0.34775,-0.287269,-0.532336,0.826369,0.977744,-0.101968,0.0730875,-0.16816,-0.908785,0.216396,-0.313064,-0.882377,0.244333,-0.322939,-0.765743,-0.250068,0.363025,0,0,0,0,0,0,-0.746975,-0.836059,0.132531,0.51764,0.0128651,0.0660729,0.0488792,1
0.541723,-0.940944,-2.11257,-0.870031,2.29753,1.70241,-1.70226,0.541723,-0.940944,-2.11257,-0.870031,2.29753,1.70241,-1.70226,0.617834,-0.857415,-2.13129,-0.915071,2.30382,1.70495,-1.71045,-0.799689,-0.912446,-0.0708491,0.946085,-0.505262,0.501193,0.612668,-0.799689,-0.912446,-0.0708491,0.946085,-0.505262,0.501193,0.612668,-0.295911,-0.529926,0.823527,0.976677,-0.10418,0.0738239,-0.172625,-0.88854,0.217969,-0.281904,-0.871045,0.235466,-0.288382,-0.765743,-0.250068,0.363025,0,0,0,0,0,0,-0.761104,-0.835282,0.187222,0.450405,-0.0628893,-0.0254155,0.0819136,1
0.531116,-0.950675,-2.11151,-0.8759,2.31045,1.69188,-1.69506,0.531116,-0.950675,-2.11151,-0.8759,2.31045,1.69188,-1.69506,0.609396,-0.867453,-2.13192,-0.906204,2.30024,1.70828,-1.70404,-0.84953,-1.01636,-0.0583019,0.882642,-0.302437,0.282246,0.613387,-0.84953,-1.01636,-0.0583019,0.882642,-0.302437,0.282246,0.613387,-0.305402,-0.527989,0.820073,0.975923,-0.104629,0.0733601,-0.176766,-0.960995,0.193202,-0.35309,-0.965969,0.19194,-0.351931,-0.765743,-0.250068,0.363025,0,0,0,0,0,0,-0.782797,-0.832222,0.204129,0.303035,0.102062,-0.16394,0.0898281,1
0.525759,-0.958153,-2.08965,-0.872066,2.31643,1.66719,-1.67659,0.525759,-0.958153,-2.08965,-0.872066,2.31643,1.66719,-1.67659,0.601305,-0.876826,-2.13106,-0.897384,2.29896,1.70991,-1.70012,-0.799258,-0.914579,0.139817,0.87532,-0.0684907,0.13452,0.304968,-0.799258,-0.914579,0.139817,0.87532,-0.0684907,0.13452,0.304968,-0.314706,-0.525901,0.81734,0.975127,-0.105047,0.0713776,-0.181654,-0.894161,0.213122,-0.2553,-0.918926,0.220288,-0.252086,-0.765743,-0.250068,0.363025,0,0,0,0,0,0,-0.755465,-0.813265,0.414057,0.253186,0.174682,-0.427229,0.235327,1
0.51643,-0.965479,-2.08584,-0.883624,2.32584,1.66001,-1.66786,0.51643,-0.965479,-2.08584,-0.883624,2.32584,1.66001,-1.66786,0.592697,-0.886801,-2.12915,-0.889157,2.2993,1.71051,-1.69918,-0.882474,-1.02737,0.204398,0.809276,0.0344562,0.0347535,0.0568399,-0.882474,-1.02737,0.204398,0.809276,0.0344562,0.0347535,0.0568399,-0.324586,-0.523796,0.814339,0.9742,-0.104987,0.067911,-0.187881,-0.965303,0.213388,-0.327758,-1.00702,0.211494,-0.320011,-0.765743,-0.250068,0.363025,0,0,0,0,0,0,-0.762663,-0.786781,0.4331,0.0553294,0.265374,-0.505048,0.313153,1
0.507997,-0.973024,-2.08155,-0.895834,2.32597,1.65222,-1.66943,0.507997,-0.973024,-2.08155,-0.895834,2.32597,1.65222,-1.66943,0.584277,-0.89674,-2.12595,-0.881217,2.29941,1.70983,-1.6988,-0.817545,-0.971647,0.363653,0.771479,0.0266906,-0.108239,0.0439811,-0.817545,-0.971647,0.363653,0.771479,0.0266906,-0.108239,0.0439811,-0.334137,-0.521769,0.811519,0.973315,-0.104612,0.0640886,-0.193926,-0.880351,0.202154,-0.27644,-0.928131,0.200835,-0.268052,-0.765743,-0.250068,0.363025,0,0,0,0,0,0,-0.762805,-0.762841,0.444007,-0.146169,0.265522,-0.576092,0.293734,1
0.496699,-0.979136,-2.07147,-0.87914,2.33258,1.65333,-1.66371,0.496699,-0.979136,-2.07147,-0.87914,2.33258,1.65333,-1.66371,0.576044,-0.906943,-2.12182,-0.874952,2.30119,1.70741,-1.69764,-0.845012,-1.03767,0.431159,0.579903,0.233045,-0.296447,0.157637,-0.845012,-1.03767,0.431159,0.579903,0.233045,-0.296447,0.157637,-0.343635,-0.52022,0.808328,0.972818,-0.103049,0.058968,-0.198817,-0.895123,0.165992,-0.352686,-0.969594,0.149965,-0.337835,-0.765743,-0.250068,0.363025,0,0,0,0,0,0,-0.793445,-0.721931,0.503486,-0.0418861,0.313876,-0.540872,0.339253,1
0.488591,-0.983127,-2.06224,-0.891313,2.34993,1.64268,-1.66152,0.488591,-0.983127,-2.06224,-0.891313,2.34993,1.64268,-1.66152,0.56692,-0.916595,-2.11652,-0.870577,2.30479,1.70187,-1.69416,-0.920056,-0.939494,0.580035,0.372054,0.399267,-0.643694,0.415424,-0.920056,-0.939494,0.580035,0.372054,0.399267,-0.643694,0.415424,-0.353366,-0.518842,0.805279,0.972811,-0.0998515,0.052716,-0.202209,-0.865089,0.163196,-0.316537,-0.960534,0.130912,-0.296806,-0.765743,-0.250068,0.363025,0,0,0,0,0,0,-0.783282,-0.66532,0.54276,-0.207364,0.451417,-0.591897,0.326471,1
0.480594,-0.989929,-2.05937,-0.914777,2.36042,1.62808,-1.67581,0.480594,-0.989929,-2.05937,-0.914777,2.36042,1.62808,-1.67581,0.557676,-0.925996,-2.10934,-0.868961,2.31011,1.69331,-1.68839,-0.942777,-0.946504,0.737277,0.085829,0.566409,-0.919768,0.618755,-0.942777,-0.946504,0.737277,0.085829,0.566409,-0.919768,0.618755,-0.362778,-0.51809,0.802095,0.973482,-0.0949495,0.0449556,-0.203213,-0.822291,0.112495,-0.363633,-0.946485,0.0627502,-0.339143,-0.765743,-0.250068,0.363025,0,0,0,0,0,0,-0.770816,-0.639331,0.499635,-0.458153,0.503061,-0.652233,0.125736,1
0.468802,-0.998167,-2.06318,-0.914451,2.35467,1.62111,-1.67002,0.468802,-0.998167,-2.06318,-0.914451,2.35467,1.62111,-1.67002,0.547495,-0.935287,-2.10168,-0.869609,2.31628,1.68308,-1.68193,-1.03474,-0.906394,0.79571,-0.0844749,0.624929,-1.03843,0.649614,-1.03474,-0.906394,0.79571,-0.0844749,0.624929,-1.03843,0.649614,-0.372381,-0.517538,0.79847,0.974374,-0.0887451,0.0364986,-0.203441,-0.821787,0.128134,-0.3756,-0.955448,0.070123,-0.351655,-0.765743,-0.250068,0.363025,0,0,0,0,0,0,-0.786927,-0.628803,0.385067,-0.448416,0.38393,-0.619681,0.119053,1
0.458645,-1.0015,-2.05451,-0.903581,2.33415,1.62492,-1.63464,0.458645,-1.0015,-2.05451,-0.903581,2.33415,1.62492,-1.63464,0.537005,-0.944245,-2.09315,-0.870793,2.32286,1.67284,-1.67557,-1.05543,-0.907377,0.842472,-0.150315,0.671945,-1.01767,0.628702,-1.05543,-0.907377,0.842472,-0.150315,0.671945,-1.01767,0.628702,-0.381887,-0.516661,0.795003,0.975195,-0.0828849,0.0275831,-0.203381,-0.815377,0.142755,-0.388948,-0.955625,0.0884656,-0.368191,-0.765743,-0.250068,0.363025,0,0,0,0,0,0,-0.783604,-0.572598,0.386338,-0.327886,0.112884,-0.479254,0.409311,1
0.452267,-1.01352,-2.03196,-0.909443,2.34594,1.62,-1.61428,0.452267,-1.01352,-2.03196,-0.909443,2.34594,1.62,-1.61428,0.526943,-0.95366,-2.08499,-0.873107,2.33059,1.66282,-1.67047,-0.966877,-0.935383,0.826401,-0.277956,0.813125,-1.01161,0.438157,-0.966877,-0.935383,0.826401,-0.277956,0.813125,-1.01161,0.438157,-0.39136,-0.516093,0.790812,0.975929,-0.0766966,0.0178498,-0.203376,-0.766168,0.0967499,-0.447708,-0.921128,0.0408478,-0.429284,-0.765743,-0.250068,0.363025,0,0,0,0,0,0,-0.746754,-0.598561,0.530334,-0.363363,0.153482,-0.428211,0.561846,1
0.448246,-1.02397,-2.02014,-0.918305,2.36625,1.59542,-1.60956,0.448246,-1.02397,-2.02014,-0.918305,2.36625,1.59542,-1.60956,0.518215,-0.962692,-2.07666,-0.878011,2.33977,1.65237,-1.66813,-0.873552,-0.899618,0.809818,-0.567036,0.941485,-1.05506,0.192435,-0.873552,-0.899618,0.809818,-0.567036,0.941485,-1.05506,0.192435,-0.399704,-0.516406,0.786142,0.976652,-0.0698174,0.00713768,-0.203042,-0.654309,0.0217,-0.509807,-0.823065,-0.045055,-0.493599,-0.765743,-0.250068,0.363025,0,0,0,0,0,0,-0.699688,-0.612736,0.565235,-0.40294,0.264766,-0.569495,0.585682,1
0.433579,-1.03544,-2.0164,-0.921475,2.38019,1.58642,-1.61381,0.433579,-1.03544,-2.0164,-0.921475,2.38019,1.58642,-1.61381,0.508167,-0.971167,-2.06987,-0.884679,2.34798,1.64218,-1.66624,-1.04644,-0.807673,0.65795,-0.667514,0.728352,-1.00318,0.224374,-1.04644,-0.807673,0.65795,-0.667514,0.728352,-1.00318,0.224374,-0.408079,-0.516508,0.780944,0.977146,-0.062223,-0.00252569,-0.203244,-0.681727,0.0924259,-0.516771,-0.825671,0.0163918,-0.504421,-0.765743,-0.250068,0.363025,0,0,0,0,0,0,-0.74588,-0.64276,0.534652,-0.367958,0.322055,-0.557651,0.524294,1
0.419188,-1.04327,-2.01593,-0.936893,2.39065,1.5778,-1.64592,0.419188,-1.04327,-2.01593,-0.936893,2.39065,1.5778,-1.64592,0.497609,-0.978326,-2.0631,-0.890741,2.35158,1.63337,-1.66139,-1.04642,-0.715188,0.675352,-0.60251,0.255261,-0.835417,0.589734,-1.04642,-0.715188,0.675352,-0.60251,0.255261,-0.835417,0.589734,-0.415365,-0.515895,0.776622,0.977682,-0.055804,-0.00924328,-0.202332,-0.597419,0.132588,-0.441257,-0.700668,0.0657801,-0.4332,-0.765743,-0.250068,0.363025,0,0,0,0,0,0,-0.784207,-0.649419,0.47163,-0.46152,0.390706,-0.555689,0.154657,1
0.408104,-1.04797,-2.00824,-0.916467,2.37317,1.58367,-1.65124,0.408104,-1.04797,-2.00824,-0.916467,2.37317,1.58367,-1.65124,0.487772,-0.98627,-2.05674,-0.896707,2.35322,1.62569,-1.65225,-0.951044,-0.81931,0.640309,-0.591424,0.167477,-0.768136,1.01544,-0.951044,-0.81931,0.640309,-0.591424,0.167477,-0.768136,1.01544,-0.422181,-0.515562,0.771715,0.97861,-0.0496258,-0.0150899,-0.199076,-0.571188,0.0892436,-0.511006,-0.673451,0.0215826,-0.504995,-0.765743,-0.250068,0.363025,0,0,0,0,0,0,-0.796686,-0.617032,0.484964,-0.197597,0.199541,-0.420121,0.0101442,1
0.401553,-1.05619,-2.0042,-0.903584,2.3239,1.65017,-1.59792,0.401553,-1.05619,-2.0042,-0.903584,2.3239,1.65017,-1.59792,0.479502,-0.994639,-2.04926,-0.903071,2.35593,1.61702,-1.64033,-0.805048,-0.839983,0.785549,-0.64388,0.322393,-0.900589,1.22282,-0.805048,-0.839983,0.785549,-0.64388,0.322393,-0.900589,1.22282,-0.428347,-0.515993,0.766667,0.979956,-0.0432656,-0.0220818,-0.193201,-0.486171,0.0172558,-0.504941,-0.609515,-0.050569,-0.501872,-0.765743,-0.250068,0.363025,0,0,0,0,0,0,-0.779491,-0.615536,0.450598,-0.00512926,-0.320277,0.331536,0.424092,1
0.400502,-1.06326,-1.98989,-0.929591,2.3302,1.66542,-1.57259,0.400502,-1.06326,-1.98989,-0.929591,2.3302,1.66542,-1.57259,0.47087,-1.00357,-2.04076,-0.909723,2.36132,1.60743,-1.62984,-0.888065,-0.906413,0.867092,-0.679822,0.611978,-0.976379,0.927147,-0.888065,-0.906413,0.867092,-0.679822,0.611978,-0.976379,0.927147,-0.435231,-0.51628,0.761368,0.981033,-0.0368292,-0.0310899,-0.187754,-0.561654,0.0484981,-0.539396,-0.712517,-0.0163939,-0.541074,-0.765743,-0.250068,0.363025,0,0,0,0,0,0,-0.703679,-0.596864,0.508716,-0.198678,-0.311183,0.579961,0.572547,1
0.398353,-1.00899,-2.02199,-0.895583,2.32959,1.5766,-1.5732,0.398353,-1.00899,-2.02199,-0.895583,2.32959,1.5766,-1.5732,0.461732,-1.01198,-2.032,-0.915986,2.36897,1.59741,-1.62573,-0.916924,-0.805444,0.872473,-0.576731,0.788697,-0.999988,0.240338,-0.916924,-0.805444,0.872473,-0.576731,0.788697,-0.999988,0.240338,-0.442631,-0.515981,0.756479,0.981269,-0.0307788,-0.0412608,-0.185635,-0.587423,0.10838,-0.451885,-0.742301,0.0553458,-0.458676,-0.765743,-0.250068,0.363025,0,0,0,0,0,0,-0.633791,0.0298932,0.100021,0.204025,-0.393847,-0.208083,0.52531,1
0.381487,-1.06351,-2.03262,-0.865055,2.33002,1.62235,-1.56519,0.381487,-1.06351,-2.03262,-0.865055,2.33002,1.62235,-1.56519,0.452497,-1.02012,-2.02388,-0.920047,2.37426,1.58982,-1.62619,-0.915546,-0.840642,0.784974,-0.361729,0.382335,-0.618293,-0.0636019,-0.915546,-0.840642,0.784974,-0.361729,0.382335,-0.618293,-0.0636019,-0.44995,-0.514727,0.752134,0.98079,-0.0264088,-0.0498175,-0.186741,-0.598036,0.177745,-0.437435,-0.713564,0.147295,-0.445492,-0.765743,-0.250068,0.363025,0,0,0,0,0,0,-0.710099,-0.433867,-0.0874047,0.549912,-0.442432,0.325261,0.609985,1
0.390432,-1.10635,-2.03268,-0.900815,2.33014,1.5983,-1.56073,0.390432,-1.10635,-2.03268,-0.900815,2.33014,1.5983,-1.56073,0.444602,-1.02886,-2.01653,-0.922193,2.37205,1.58954,-1.62392,-0.737827,-0.869609,0.72317,-0.160221,-0.4264,0.180727,0.35648,-0.737827,-0.869609,0.72317,-0.160221,-0.4264,0.180727,0.35648,-0.455477,-0.512809,0.747808,0.980546,-0.0254871,-0.0541298,-0.18695,-0.444827,0.20101,-0.410742,-0.486653,0.21138,-0.415546,-0.765743,-0.250068,0.363025,0,0,0,0,0,0,-0.541699,-0.774851,-0.161422,0.213779,-0.419085,0.0876746,0.631878,1
0.382866,-1.12017,-2.02373,-0.939876,2.32304,1.57701,-1.63761,0.382866,-1.12017,-2.02373,-0.939876,2.32304,1.57701,-1.63761,0.438084,-1.03767,-2.0101,-0.92342,2.36314,1.5968,-1.61583,-0.64267,-0.896826,0.595823,-0.13201,-1.00281,0.869561,0.9506,-0.64267,-0.896826,0.595823,-0.13201,-1.00281,0.869561,0.9506,-0.458913,-0.510325,0.743559,0.98094,-0.0280157,-0.0543109,-0.184451,-0.330222,0.220697,-0.444694,-0.316547,0.258012,-0.446187,-0.765743,-0.250068,0.363025,0,0,0,0,0,0,-0.552181,-0.824995,-0.136343,-0.164552,-0.400993,-0.197874,-0.217816,1
