Afshin1997/kuka_rl_ros2/src/catch_and_throw/output_files/tm/nn_ema5.00_jvws1_realball_D23H11M08S38/recorded_data.csv
pure_target_joint_0,pure_target_joint_1,pure_target_joint_2,pure_target_joint_3,pure_target_joint_4,pure_target_joint_5,pure_target_joint_6,target_joint_0,target_joint_1,target_joint_2,target_joint_3,target_joint_4,target_joint_5,target_joint_6,pos_joint_0,pos_joint_1,pos_joint_2,pos_joint_3,pos_joint_4,pos_joint_5,pos_joint_6,vel_joint_0,vel_joint_1,vel_joint_2,vel_joint_3,vel_joint_4,vel_joint_5,vel_joint_6,vel_smooth_joint_0,vel_smooth_joint_1,vel_smooth_joint_2,vel_smooth_joint_3,vel_smooth_joint_4,vel_smooth_joint_5,vel_smooth_joint_6,ee_pos_x,ee_pos_y,ee_pos_z,ee_or_w,ee_or_x,ee_or_y,ee_or_z,ee_vel_x,ee_vel_y,ee_vel_z,ball_pos_x,ball_pos_y,ball_pos_z,ball_raw_vx,ball_raw_vy,ball_raw_vz,ball_ema_vx,ball_ema_vy,ball_ema_vz,action_0,action_1,action_2,action_3,action_4,action_5,action_6,command_published
1.84645,-1.06264,-1.75929,-1.14343,2.01332,1.15782,-0.871523,1.84645,-1.06264,-1.75929,-1.14343,2.01332,1.15782,-0.871523,1.78024,-1.06467,-1.81505,-1.11695,1.93724,1.1169,-0.916367,0,0,0,0,0,0,0,0,0,0,0,0,0,0,0.53103,-0.454445,0.694334,0.574584,0.175124,0.152568,0.784798,0,0,0,0.7,0,0.56435,0,0,0,1.19209e-06,0,-0.25,0.662097,0.0202344,0.557603,-0.264836,0.76076,0.409255,0.448443,1
1.84587,-1.11006,-1.75926,-1.10006,2.01199,1.1559,-0.889995,1.84587,-1.11006,-1.75926,-1.10006,2.01199,1.1559,-0.889995,1.78024,-1.06467,-1.81505,-1.11695,1.93724,1.1169,-0.916367,0,0,0,0,0,0,0,0,0,0,0,0,0,0,0.53103,-0.454445,0.694334,0.574584,0.175124,0.152568,0.784798,0,0,0,0.7,0,0.56435,0,0,0,1.19209e-06,0,-0.25,0.656223,-0.45394,0.557822,0.168924,0.747519,0.390068,0.263721,1
1.78543,-1.10654,-1.7903,-1.14069,2.01208,1.15045,-0.894119,1.78543,-1.10654,-1.7903,-1.14069,2.01208,1.15045,-0.894119,1.78024,-1.06467,-1.81505,-1.11695,1.93724,1.1169,-0.916367,0,0,0,0,0,0,0,0,0,0,0,0,0,0,0.53103,-0.454445,0.694334,0.574584,0.175124,0.152568,0.784798,0,0,0,0.7,0,0.56435,0,0,0,1.19209e-06,0,-0.5,0.0518599,-0.418767,0.247518,-0.237414,0.748421,0.335577,0.222487,1
1.81496,-1.03914,-1.77017,-1.10344,2.01445,1.15052,-0.887637,1.81496,-1.03914,-1.77017,-1.10344,2.01445,1.15052,-0.887637,1.78024,-1.06467,-1.81505,-1.11695,1.93724,1.1169,-0.916367,0,0,0,0,0,0,0,0,0,0,0,0,0,0,0.53103,-0.454445,0.694334,0.574584,0.175124,0.152568,0.784798,0,0,0,0.7,0,0.56435,0,0,0,1.19209e-06,0,-0.25,0.347195,0.255247,0.448797,0.135052,0.772111,0.336206,0.287307,1
1.82276,-1.12963,-1.76017,-1.15076,2.02633,1.1634,-0.896757,1.82276,-1.12963,-1.76017,-1.15076,2.02633,1.1634,-0.896757,1.78128,-1.07301,-1.81011,-1.12168,1.95216,1.12358,-0.911934,0.0976036,-0.788157,0.46585,-0.446832,1.40859,0.631585,0.418739,0.0976036,-0.788157,0.46585,-0.446832,1.40859,0.631585,0.418739,0.530911,-0.455849,0.691229,0.568171,0.176845,0.141222,0.791179,0.0291406,-0.0679675,-0.316963,0.7,0,0.56435,0,0,0,1.19209e-06,0,-0.25,0.414779,-0.566213,0.499424,-0.290778,0.741782,0.398141,0.15177,1
1.84152,-1.05003,-1.73777,-1.11101,2.03925,1.18327,-0.868616,1.84152,-1.05003,-1.73777,-1.11101,2.03925,1.18327,-0.868616,1.78799,-1.06626,-1.80215,-1.11804,1.96457,1.12895,-0.907093,0.634003,0.637447,0.751848,0.343217,1.1725,0.506916,0.457297,0.634003,0.637447,0.751848,0.343217,1.1725,0.506916,0.457297,0.53079,-0.451274,0.699493,0.563704,0.170504,0.134359,0.796941,0.0543319,0.436551,0.743841,0.7,0,0.56435,0,0,0,1.19209e-06,0,-0.25,0.5353,0.162333,0.643879,0.0703633,0.746763,0.543173,0.384762,1
1.84128,-1.14144,-1.74444,-1.12187,2.04947,1.14335,-0.888713,1.84128,-1.14144,-1.74444,-1.12187,2.04947,1.14335,-0.888713,1.79492,-1.07889,-1.79379,-1.12456,1.97688,1.13582,-0.905033,0.654317,-1.19268,0.790144,-0.615659,1.16246,0.648325,0.194522,0.654317,-1.19268,0.790144,-0.615659,1.16246,0.648325,0.194522,0.53375,-0.449457,0.694715,0.554333,0.171955,0.122763,0.805031,0.319753,0.235181,-0.471476,0.7,0,0.56435,0,0,0,1.19209e-06,0,-0.25,0.463576,-0.625481,0.493459,0.0269554,0.725933,0.075318,0.163197,1
1.86225,-1.08915,-1.71646,-1.10916,2.06307,1.20417,-0.881977,1.86225,-1.08915,-1.71646,-1.10916,2.06307,1.20417,-0.881977,1.8042,-1.07314,-1.78263,-1.12186,1.9893,1.14527,-0.897777,0.928613,0.575085,1.11632,0.27009,1.24278,0.945568,0.725651,0.928613,0.575085,1.11632,0.27009,1.24278,0.945568,0.725651,0.533972,-0.442832,0.703518,0.546754,0.163252,0.114203,0.813244,0.225258,1.3247,1.66457,0.7,0,0.56435,0,0,0,1.19209e-06,0,-0.25,0.580476,-0.160135,0.661689,0.127005,0.737672,0.588981,0.157998,1
1.86332,-1.13282,-1.7175,-1.08957,2.07733,1.15593,-0.876418,1.86332,-1.13282,-1.7175,-1.08957,2.07733,1.15593,-0.876418,1.81159,-1.08675,-1.77502,-1.12186,2.00129,1.14489,-0.895971,0.697717,-1.28544,0.718632,-0.000100207,1.13237,-0.0362091,0.170578,0.697717,-1.28544,0.718632,-0.000100207,1.13237,-0.0362091,0.170578,0.537225,-0.444102,0.698901,0.53949,0.167497,0.102569,0.818765,0.330526,-0.035333,-0.449063,0.7,0,0.56435,0,0,0,1.19209e-06,0,-0.25,0.517267,-0.460755,0.57516,0.322912,0.760342,0.110431,0.195523,1
1.87434,-1.12938,-1.69715,-1.08291,2.087,1.19684,-0.895911,1.87434,-1.12938,-1.69715,-1.08291,2.087,1.19684,-0.895911,1.82169,-1.08723,-1.76335,-1.11933,2.0136,1.1567,-0.893182,1.00948,-0.0479048,1.16689,0.253094,1.23101,1.18126,0.278846,1.00948,-0.0479048,1.16689,0.253094,1.23101,1.18126,0.278846,0.537808,-0.439126,0.704374,0.532509,0.1596,0.091842,0.826152,0.309133,1.03632,1.00402,0.7,0,0.56435,0,0,0,1.19209e-06,0,-0.25,0.526559,-0.421572,0.661998,0.364223,0.733953,0.40145,-0.0272863,1
1.876,-1.0841,-1.69594,-1.07426,2.09754,1.20226,-0.864701,1.876,-1.0841,-1.69594,-1.07426,2.09754,1.20226,-0.864701,1.82606,-1.09202,-1.75853,-1.1162,2.0203,1.15662,-0.891419,0.875587,-0.958968,0.964241,0.625908,1.34023,-0.0161813,0.352573,0.875587,-0.958968,0.964241,0.625908,1.34023,-0.0161813,0.352573,0.537808,-0.439126,0.704374,0.532509,0.1596,0.091842,0.826152,0,0,0,0.7,0,0.56435,0,0,0,1.19209e-06,0,-0.25,0.499332,0.0792332,0.62587,0.419464,0.772385,0.456453,0.267178,1
1.88059,-1.11498,-1.69066,-1.08174,2.10951,1.20704,-0.892416,1.88059,-1.11498,-1.69066,-1.08174,2.10951,1.20704,-0.892416,1.83349,-1.10015,-1.75035,-1.1109,2.03167,1.15648,-0.88843,0.742331,-0.813021,0.817491,0.53065,1.13626,-0.0137186,0.298914,0.742331,-0.813021,0.817491,0.53065,1.13626,-0.0137186,0.298914,0.540698,-0.441108,0.703858,0.523871,0.161328,0.074701,0.833038,0.443639,-0.109729,-0.104619,0.7,0,0.56435,0,0,0,1.19209e-06,0,-0.25,0.471009,-0.148293,0.596917,0.291535,0.778397,0.505592,-0.0398544,1
1.8892,-1.13495,-1.67429,-1.08623,2.12148,1.21825,-0.867245,1.8892,-1.13495,-1.67429,-1.08623,2.12148,1.21825,-0.867245,1.84524,-1.10368,-1.73514,-1.10205,2.04846,1.16849,-0.887269,0.745877,-0.045003,0.961373,0.590021,1.09749,0.776697,0.194813,0.745877,-0.045003,0.961373,0.590021,1.09749,0.776697,0.194813,0.540465,-0.439107,0.710002,0.517728,0.152977,0.0588255,0.839699,0.079702,0.411635,0.925728,0.7,0,0.56435,0,0,0,1.19209e-06,0,-0.25,0.439531,-0.312747,0.608496,0.158267,0.730184,0.497584,0.200234,1
1.89096,-1.09898,-1.66639,-1.09797,2.12575,1.22445,-0.852833,1.89096,-1.09898,-1.66639,-1.09797,2.12575,1.22445,-0.852833,1.84848,-1.10162,-1.73102,-1.09913,2.05362,1.17204,-0.884896,0.646825,0.411752,0.824515,0.58461,1.03228,0.710256,0.474627,0.646825,0.411752,0.824515,0.58461,1.03228,0.710256,0.474627,0.539936,-0.437778,0.713466,0.515539,0.149563,0.0549303,0.841922,-0.026077,0.284367,0.6653,0.7,0,0.56435,0,0,0,1.19209e-06,0,-0.25,0.4248,0.0264125,0.646353,0.0116231,0.721302,0.52403,0.320625,1
1.90167,-1.14365,-1.66601,-1.06477,2.13882,1.20659,-0.876109,1.90167,-1.14365,-1.66601,-1.06477,2.13882,1.20659,-0.876109,1.85487,-1.10428,-1.72298,-1.09567,2.06476,1.17902,-0.886394,0.604339,-0.251511,0.75958,0.327226,1.05174,0.658626,-0.141529,0.604339,-0.251511,0.75958,0.327226,1.05174,0.658626,-0.141529,0.539944,-0.436872,0.715889,0.512256,0.145755,0.0454254,0.845154,0.0638139,0.128074,0.208707,0.7,0,0.56435,0,0,0,1.19209e-06,0,-0.25,0.467979,-0.393698,0.569724,0.308912,0.74061,0.275669,0.102846,1
1.91421,-1.14937,-1.65001,-1.07971,2.15157,1.2299,-0.859789,1.91421,-1.14937,-1.65001,-1.07971,2.15157,1.2299,-0.859789,1.86171,-1.11039,-1.71328,-1.09378,2.07606,1.18684,-0.882578,0.645939,-0.577246,0.916285,0.17765,1.06754,0.738411,0.360394,0.645939,-0.577246,0.916285,0.17765,1.06754,0.738411,0.360394,0.540418,-0.436188,0.716555,0.505322,0.142778,0.0339411,0.85036,0.122853,0.136873,0.0536862,0.7,0,0.56435,0,0,0,1.19209e-06,0,-0.25,0.524953,-0.389729,0.632708,0.140713,0.755099,0.430639,0.227889,1
1.90655,-1.11961,-1.64041,-1.05832,2.16704,1.24119,-0.848004,1.90655,-1.11961,-1.64041,-1.05832,2.16704,1.24119,-0.848004,1.87113,-1.11185,-1.69995,-1.09148,2.09152,1.19562,-0.876594,0.634115,-0.266245,0.840112,0.274477,1.02346,0.482804,0.285608,0.634115,-0.266245,0.840112,0.274477,1.02346,0.482804,0.285608,0.540646,-0.432785,0.721154,0.495662,0.137175,0.0207851,0.857362,0.186748,0.31809,0.395204,0.7,0,0.56435,0,0,0,1.19209e-06,0,-0.25,0.354212,-0.0775256,0.59535,0.331563,0.75523,0.455728,0.285904,1
1.92315,-1.16074,-1.63152,-1.07593,2.17767,1.24534,-0.85421,1.92315,-1.16074,-1.63152,-1.07593,2.17767,1.24534,-0.85421,1.87971,-1.11933,-1.68999,-1.08913,2.10349,1.20245,-0.873246,0.858406,-0.747453,0.995088,0.234461,1.19656,0.683085,0.334856,0.858406,-0.747453,0.995088,0.234461,1.19656,0.683085,0.334856,0.542019,-0.432108,0.72095,0.487939,0.135162,0.00860993,0.862306,0,0,0,0.7,0,0.56435,0,0,0,1.19209e-06,0,-0.25,0.434395,-0.414075,0.584756,0.132028,0.741875,0.428925,0.190358,1
1.93481,-1.15511,-1.62183,-1.07548,2.18831,1.25923,-0.835135,1.93481,-1.15511,-1.62183,-1.07548,2.18831,1.25923,-0.835135,1.88578,-1.12218,-1.68102,-1.08501,2.11469,1.20911,-0.869325,0.606826,-0.285572,0.897722,0.412679,1.12085,0.665721,0.392071,0.606826,-0.285572,0.897722,0.412679,1.12085,0.665721,0.392071,0.54164,-0.431898,0.723312,0.482258,0.131447,-0.00190588,0.866109,0,0,0,0.7,0,0.56435,0,0,0,1.19209e-06,0,-0.25,0.490317,-0.329266,0.591909,0.0953185,0.736116,0.501246,0.341903,1
1.93673,-1.17369,-1.61003,-1.07127,2.20082,1.25719,-0.836992,1.93673,-1.17369,-1.61003,-1.07127,2.20082,1.25719,-0.836992,1.89323,-1.12987,-1.67115,-1.0832,2.12724,1.21633,-0.866313,0.744671,-0.768192,0.986319,0.180851,1.25493,0.722034,0.301188,0.744671,-0.768192,0.986319,0.180851,1.25493,0.722034,0.301188,0.54164,-0.431898,0.723312,0.482258,0.131447,-0.00190588,0.866109,0,0,0,0.7,0,0.56435,0,0,0,1.19209e-06,0,-0.25,0.435025,-0.438278,0.611279,0.119316,0.735785,0.408615,0.293207,1
1.94863,-1.1732,-1.60217,-1.06991,2.20674,1.27197,-0.833493,1.94863,-1.1732,-1.60217,-1.06991,2.20674,1.27197,-0.833493,1.8976,-1.13252,-1.66597,-1.08239,2.13367,1.22084,-0.863034,0.874644,-0.530962,1.03749,0.162442,1.2843,0.90239,0.655765,0.874644,-0.530962,1.03749,0.162442,1.2843,0.90239,0.655765,0.543013,-0.431147,0.723061,0.470037,0.127869,-0.0207615,0.873088,0.157792,0.22859,0.076909,0.7,0,0.56435,0,0,0,1.19209e-06,0,-0.25,0.510284,-0.406743,0.637929,0.12478,0.730741,0.51131,0.295412,1
1.95675,-1.17849,-1.59069,-1.052,2.22586,1.28174,-0.83002,1.95675,-1.17849,-1.59069,-1.052,2.22586,1.28174,-0.83002,1.90853,-1.14263,-1.6511,-1.07959,2.15165,1.23132,-0.855496,0.701725,-0.773088,1.02219,0.207088,1.22369,0.643863,0.460457,0.701725,-0.773088,1.02219,0.207088,1.22369,0.643863,0.460457,0.544217,-0.43091,0.722634,0.457717,0.124709,-0.0390503,0.879442,0.276624,0.0698577,-0.156239,0.7,0,0.56435,0,0,0,1.19209e-06,0,-0.25,0.482177,-0.358646,0.604133,0.275939,0.742114,0.504206,0.254754,1
1.952,-1.1822,-1.59047,-1.06107,2.23088,1.28332,-0.83175,1.952,-1.1822,-1.59047,-1.06107,2.23088,1.28332,-0.83175,1.9115,-1.14589,-1.64678,-1.07871,2.15682,1.23404,-0.85355,0.593096,-0.653412,0.863956,0.17503,1.03426,0.544191,0.389177,0.593096,-0.653412,0.863956,0.17503,1.03426,0.544191,0.389177,0.544217,-0.43091,0.722634,0.457717,0.124709,-0.0390503,0.879442,0,0,0,0.7,0,0.56435,0,0,0,1.19209e-06,0,-0.25,0.404976,-0.363022,0.563113,0.176484,0.74057,0.492873,0.217998,1
1.96569,-1.19444,-1.57732,-1.07302,2.24133,1.29436,-0.822126,1.96569,-1.19444,-1.57732,-1.07302,2.24133,1.29436,-0.822126,1.91975,-1.15189,-1.63669,-1.07508,2.16878,1.24262,-0.849188,0.825301,-0.599706,1.00967,0.363837,1.19579,0.85858,0.436177,0.825301,-0.599706,1.00967,0.363837,1.19579,0.85858,0.436177,0.545117,-0.430944,0.722641,0.446678,0.120637,-0.0569547,0.884693,0,0,0,0.7,0,0.56435,0,0,0,1.19209e-06,0,-0.25,0.459381,-0.425515,0.593699,0.0205182,0.725551,0.517339,0.270622,1
1.97222,-1.19376,-1.56741,-1.05132,2.25282,1.30147,-0.819647,1.97222,-1.19376,-1.56741,-1.05132,2.25282,1.30147,-0.819647,1.92712,-1.15719,-1.62752,-1.07048,2.18015,1.25042,-0.845369,0.737257,-0.53005,0.916548,0.459909,1.13744,0.779393,0.381942,0.737257,-0.53005,0.916548,0.459909,1.13744,0.779393,0.381942,0.545329,-0.43146,0.723131,0.440274,0.117374,-0.0687861,0.887497,0.172092,0.0395672,0.100282,0.7,0,0.56435,0,0,0,1.19209e-06,0,-0.25,0.45098,-0.365658,0.601094,0.19154,0.726699,0.510583,0.257216,1
1.97797,-1.20376,-1.56043,-1.05354,2.26904,1.30963,-0.820261,1.97797,-1.20376,-1.56043,-1.05354,2.26904,1.30963,-0.820261,1.93561,-1.16557,-1.61564,-1.06907,2.19563,1.2609,-0.840496,0.587491,-0.574636,0.798957,0.0420508,1.01442,0.702788,0.34404,0.587491,-0.574636,0.798957,0.0420508,1.01442,0.702788,0.34404,0.54606,-0.431619,0.72197,0.430553,0.114512,-0.084316,0.891292,0.0614731,-0.00054379,-0.0366027,0.7,0,0.56435,0,0,0,1.19209e-06,0,-0.25,0.423571,-0.381962,0.552095,0.155278,0.734057,0.487278,0.20235,1
1.98737,-1.20724,-1.55076,-1.06017,2.27434,1.32129,-0.816036,1.98737,-1.20724,-1.55076,-1.06017,2.27434,1.32129,-0.816036,1.93946,-1.16853,-1.61056,-1.0672,2.20164,1.26517,-0.838304,0.769954,-0.592909,1.01427,0.373201,1.20289,0.853292,0.438512,0.769954,-0.592909,1.01427,0.373201,1.20289,0.853292,0.438512,0.546226,-0.431789,0.721992,0.42682,0.112855,-0.0906588,0.892676,0.0984034,0.0457723,0.0145607,0.7,0,0.56435,0,0,0,1.19209e-06,0,-0.25,0.479084,-0.38712,0.598002,0.0702645,0.726909,0.56117,0.222678,1
1.9961,-1.21953,-1.54038,-1.05068,2.28627,1.32023,-0.806334,1.9961,-1.21953,-1.54038,-1.05068,2.28627,1.32023,-0.806334,1.9466,-1.17461,-1.60123,-1.06427,2.21355,1.27326,-0.834651,0.737425,-0.685191,0.95905,0.252216,1.30417,0.854806,0.338201,0.737425,-0.685191,0.95905,0.252216,1.30417,0.854806,0.338201,0.546689,-0.432266,0.721463,0.419776,0.110206,-0.102867,0.89502,0.120061,0.025242,-0.088317,0.7,0,0.56435,0,0,0,1.19209e-06,0,-0.25,0.495035,-0.44923,0.608474,0.135929,0.727246,0.469707,0.283163,1
2.00579,-1.22412,-1.53063,-1.05021,2.29843,1.33258,-0.807846,2.00579,-1.22412,-1.53063,-1.05021,2.29843,1.33258,-0.807846,1.95384,-1.18079,-1.59208,-1.06283,2.22516,1.28174,-0.831339,0.788202,-0.621855,0.971156,0.0624044,1.15575,0.929608,0.359675,0.788202,-0.621855,0.971156,0.0624044,1.15575,0.929608,0.359675,0.54745,-0.432131,0.720508,0.412358,0.10778,-0.114719,0.897321,0.150332,0.162842,-0.0758539,0.7,0,0.56435,0,0,0,1.19209e-06,0,-0.25,0.519494,-0.43338,0.614502,0.12618,0.732645,0.508414,0.234928,1
2.01133,-1.21976,-1.52028,-1.02675,2.31619,1.3448,-0.81034,2.01133,-1.21976,-1.52028,-1.02675,2.31619,1.3448,-0.81034,1.96508,-1.19074,-1.5783,-1.06018,2.24148,1.29274,-0.825068,0.729049,-0.676901,0.891264,0.223464,1.05282,0.646278,0.440321,0.729049,-0.676901,0.891264,0.223464,1.05282,0.646278,0.440321,0.549105,-0.432056,0.718569,0.400629,0.104903,-0.132084,0.900581,0.311088,0.199683,-0.209198,0.7,0,0.56435,0,0,0,1.19209e-06,0,-0.25,0.462479,-0.290243,0.580228,0.334307,0.747102,0.520585,0.147277,1
2.01682,-1.23553,-1.51554,-1.04717,2.32017,1.34983,-0.805351,2.01682,-1.23553,-1.51554,-1.04717,2.32017,1.34983,-0.805351,1.96936,-1.19425,-1.57329,-1.05914,2.24747,1.29693,-0.823257,0.856073,-0.702225,1.00256,0.209745,1.19768,0.837895,0.362201,0.856073,-0.702225,1.00256,0.209745,1.19768,0.837895,0.362201,0.549105,-0.432056,0.718569,0.400629,0.104903,-0.132084,0.900581,0,0,0,0.7,0,0.56435,0,0,0,1.19209e-06,0,-0.25,0.474575,-0.412791,0.577481,0.119609,0.727045,0.529064,0.179056,1
2.03496,-1.23447,-1.49689,-1.03745,2.3375,1.36154,-0.799933,2.03496,-1.23447,-1.49689,-1.03745,2.3375,1.36154,-0.799933,1.98079,-1.20185,-1.55914,-1.05193,2.26545,1.30947,-0.819386,0.759932,-0.445774,0.966905,0.626552,1.26258,0.879144,0.225088,0.759932,-0.445774,0.966905,0.626552,1.26258,0.879144,0.225088,0.550151,-0.433171,0.717633,0.38742,0.0990386,-0.156866,0.903045,0.0995488,-0.0978081,0.119492,0.7,0,0.56435,0,0,0,1.19209e-06,0,-0.25,0.541697,-0.326212,0.622442,0.144833,0.720522,0.520732,0.194523,1
2.03415,-1.25236,-1.49607,-1.03134,2.34386,1.35882,-0.795585,2.03415,-1.25236,-1.49607,-1.03134,2.34386,1.35882,-0.795585,1.98458,-1.20539,-1.55455,-1.05143,2.27121,1.31371,-0.81791,0.757722,-0.708332,0.916839,0.100047,1.15085,0.848963,0.295161,0.757722,-0.708332,0.916839,0.100047,1.15085,0.848963,0.295161,0.550763,-0.43315,0.716612,0.38363,0.0981617,-0.162896,0.903691,0.16548,0.0885519,-0.175538,0.7,0,0.56435,0,0,0,1.19209e-06,0,-0.25,0.495743,-0.469691,0.584772,0.200953,0.726504,0.451056,0.223248,1
2.05574,-1.2473,-1.47746,-1.02129,2.36156,1.38578,-0.798251,2.05574,-1.2473,-1.47746,-1.02129,2.36156,1.38578,-0.798251,1.99733,-1.21372,-1.53978,-1.04829,2.28854,1.32628,-0.81327,0.93635,-0.516294,1.0672,0.269712,1.21846,0.877351,0.33189,0.93635,-0.516294,1.0672,0.269712,1.21846,0.877351,0.33189,0.552488,-0.432207,0.715291,0.37193,0.0943993,-0.180786,0.905579,0.336843,0.350424,-0.0208982,0.7,0,0.56435,0,0,0,1.19209e-06,0,-0.25,0.584076,-0.335794,0.623204,0.269986,0.730212,0.594952,0.150196,1
2.04244,-1.25712,-1.48038,-1.0179,2.36803,1.37637,-0.794498,2.04244,-1.25712,-1.48038,-1.0179,2.36803,1.37637,-0.794498,2.00121,-1.21778,-1.53518,-1.0465,2.29436,1.32971,-0.81141,0.774399,-0.812598,0.919145,0.356499,1.1634,0.684236,0.371952,0.774399,-0.812598,0.919145,0.356499,1.1634,0.684236,0.371952,0.553186,-0.432875,0.713961,0.368345,0.0938796,-0.187105,0.905815,0.177561,-0.0421611,-0.229769,0.7,0,0.56435,0,0,0,1.19209e-06,0,-0.25,0.412308,-0.39335,0.548036,0.286012,0.736676,0.466612,0.169125,1
2.06084,-1.26069,-1.46438,-1.03134,2.37938,1.39306,-0.80155,2.06084,-1.26069,-1.46438,-1.03134,2.37938,1.39306,-0.80155,2.01004,-1.22414,-1.52543,-1.04243,2.30608,1.33834,-0.808537,0.883552,-0.635741,0.975041,0.407909,1.17252,0.863631,0.287311,0.883552,-0.635741,0.975041,0.407909,1.17252,0.863631,0.287311,0.554333,-0.433235,0.712518,0.361307,0.0914084,-0.199732,0.906206,0,0,0,0.7,0,0.56435,0,0,0,1.19209e-06,0,-0.25,0.50795,-0.365484,0.610501,0.110817,0.732965,0.547175,0.0698717,1
2.05547,-1.26069,-1.45985,-1.00311,2.39109,1.39705,-0.806278,2.05547,-1.26069,-1.45985,-1.00311,2.39109,1.39705,-0.806278,2.01775,-1.22979,-1.51618,-1.03786,2.31782,1.3468,-0.806093,0.580256,-0.642353,0.841439,0.468991,1.18005,0.694808,0.27252,0.580256,-0.642353,0.841439,0.468991,1.18005,0.694808,0.27252,0.554958,-0.434227,0.711272,0.355291,0.0888193,-0.212053,0.906043,0.148993,0.123015,-0.0123794,0.7,0,0.56435,0,0,0,1.19209e-06,0,-0.25,0.37717,-0.309056,0.563306,0.347447,0.732684,0.502417,-0.00185454,1
2.08349,-1.2722,-1.44554,-1.01389,2.40686,1.40493,-0.813739,2.08349,-1.2722,-1.44554,-1.01389,2.40686,1.40493,-0.813739,2.02841,-1.23825,-1.50284,-1.03488,2.33431,1.35851,-0.804211,0.806846,-0.558476,0.957117,0.0879845,1.12149,0.85974,0.0662241,0.806846,-0.558476,0.957117,0.0879845,1.12149,0.85974,0.0662241,0.555107,-0.4353,0.710344,0.352978,0.0880997,-0.217486,0.905729,0.0671877,-0.13776,-0.149206,0.7,0,0.56435,0,0,0,1.19209e-06,0,-0.25,0.550754,-0.339535,0.57306,0.209859,0.725432,0.464185,-0.0952751,1
2.0802,-1.25867,-1.43619,-0.989671,2.41889,1.40335,-0.818361,2.0802,-1.25867,-1.43619,-0.989671,2.41889,1.40335,-0.818361,2.0338,-1.24272,-1.49428,-1.02855,2.34563,1.36619,-0.804623,0.50915,-0.422467,0.809194,0.597869,1.06853,0.725272,-0.0389024,0.50915,-0.422467,0.809194,0.597869,1.06853,0.725272,-0.0389024,0.555919,-0.437095,0.707923,0.343403,0.0836703,-0.24058,0.903989,0.0021064,-0.173467,-0.0432528,0.7,0,0.56435,0,0,0,1.19209e-06,0,-0.25,0.463998,-0.159493,0.58084,0.388785,0.732677,0.371645,-0.137378,1
2.10125,-1.28492,-1.42677,-0.981487,2.43194,1.41421,-0.819011,2.10125,-1.28492,-1.42677,-0.981487,2.43194,1.41421,-0.819011,2.0437,-1.24859,-1.48456,-1.02563,2.35783,1.37391,-0.80644,0.935068,-0.554824,0.917261,0.275828,1.15235,0.729082,-0.171556,0.935068,-0.554824,0.917261,0.275828,1.15235,0.729082,-0.171556,0.557988,-0.436356,0.706045,0.337476,0.082846,-0.252592,0.903019,0.224945,0.151105,-0.13428,0.7,0,0.56435,0,0,0,1.19209e-06,0,-0.25,0.575441,-0.363248,0.577926,0.441417,0.741117,0.402995,-0.12571,1
2.10054,-1.23115,-1.41638,-0.973617,2.44519,1.42811,-0.803853,2.10054,-1.23115,-1.41638,-0.973617,2.44519,1.42811,-0.803853,2.05098,-1.2506,-1.47492,-1.01846,2.36999,1.37978,-0.808815,0.727297,-0.200758,0.963877,0.716509,1.21683,0.586733,-0.23755,0.727297,-0.200758,0.963877,0.716509,1.21683,0.586733,-0.23755,0.557988,-0.436356,0.706045,0.337476,0.082846,-0.252592,0.903019,0,0,0,0.7,0,0.56435,0,0,0,1.19209e-06,0,-0.25,0.495639,0.194509,0.585487,0.448465,0.75192,0.483387,0.0496179,1
2.09255,-1.2773,-1.42186,-0.966078,2.45104,1.41758,-0.823656,2.09255,-1.2773,-1.42186,-0.966078,2.45104,1.41758,-0.823656,2.05405,-1.25145,-1.47085,-1.01544,2.37514,1.38226,-0.809819,0.61471,-0.16968,0.814666,0.605591,1.02846,0.495905,-0.200777,0.61471,-0.16968,0.814666,0.605591,1.02846,0.495905,-0.200777,0.557996,-0.438094,0.707114,0.333019,0.0795854,-0.268495,0.900375,0,0,0,0.7,0,0.56435,0,0,0,1.19209e-06,0,-0.25,0.385033,-0.258489,0.489869,0.493584,0.758988,0.353234,-0.138371,1
2.13248,-1.21474,-1.39716,-0.991122,2.46859,1.45344,-0.789312,2.13248,-1.21474,-1.39716,-0.991122,2.46859,1.45344,-0.789312,2.06729,-1.25022,-1.45628,-1.00424,2.39388,1.39408,-0.809404,0.827478,0.474622,0.993127,0.762151,1.27681,0.846846,0.138134,0.827478,0.474622,0.993127,0.762151,1.27681,0.846846,0.138134,0.558988,-0.438773,0.705742,0.330928,0.0793938,-0.274829,0.899251,0.230911,-0.0452521,-0.218407,0.7,0,0.56435,0,0,0,1.19209e-06,0,-0.25,0.651944,0.354782,0.591213,0.131227,0.747158,0.593527,0.200924,1
2.10908,-1.30822,-1.40962,-0.942293,2.47932,1.4173,-0.81798,2.10908,-1.30822,-1.40962,-0.942293,2.47932,1.4173,-0.81798,2.07232,-1.25562,-1.44943,-0.996639,2.40527,1.39877,-0.812244,0.503436,-0.539514,0.685866,0.760521,1.13894,0.468164,-0.283986,0.503436,-0.539514,0.685866,0.760521,1.13894,0.468164,-0.283986,0.557771,-0.437575,0.71065,0.325706,0.073345,-0.284962,0.898517,0,0,0,0.7,0,0.56435,0,0,0,1.19209e-06,0,-0.25,0.367584,-0.525993,0.398079,0.543465,0.740544,0.185361,-0.0573616,1
2.14101,-1.21711,-1.3791,-1.0057,2.48581,1.46747,-0.759751,2.14101,-1.21711,-1.3791,-1.0057,2.48581,1.46747,-0.759751,2.07865,-1.25132,-1.44393,-0.996059,2.41193,1.40452,-0.809833,1.26532,0.859677,1.09922,0.116048,1.33193,1.14988,0.482326,1.26532,0.859677,1.09922,0.116048,1.33193,1.14988,0.482326,0.558071,-0.441259,0.708205,0.324734,0.0733063,-0.295875,0.895339,0,0,0,0.7,0,0.56435,0,0,0,1.19209e-06,0,-0.25,0.623637,0.34205,0.648258,-0.0963896,0.73879,0.629573,0.500812,1
2.11307,-1.31041,-1.44308,-0.94366,2.50691,1.4109,-0.813724,2.11307,-1.31041,-1.44308,-0.94366,2.50691,1.4109,-0.813724,2.08925,-1.25958,-1.43315,-0.98493,2.43013,1.41118,-0.809728,0.493591,-1.2104,0.585711,1.06102,1.22418,0.152281,-0.205354,0.493591,-1.2104,0.585711,1.06102,1.22418,0.152281,-0.205354,0.560232,-0.441417,0.707658,0.313778,0.0699582,-0.317285,0.892177,0.389932,-1.23979,-1.31102,0.7,0,0.56435,0,0,0,1.19209e-06,0,-0.25,0.238193,-0.508306,-0.0992817,0.41269,0.767807,-0.00278639,-0.0399594,1
2.16067,-1.26892,-1.36433,-1.02911,2.50796,1.48257,-0.747912,2.16067,-1.26892,-1.36433,-1.02911,2.50796,1.48257,-0.747912,2.09469,-1.25511,-1.42747,-0.987114,2.43598,1.4171,-0.804472,1.08879,0.893104,1.13683,-0.436813,1.17106,1.18392,1.05114,1.08879,0.893104,1.13683,-0.436813,1.17106,1.18392,1.05114,0.56034,-0.436895,0.711211,0.306186,0.0660335,-0.321099,0.893748,0,0,0,0.7,0,0.56435,0,0,0,1.19209e-06,0,-0.25,0.659763,-0.138089,0.631367,-0.419986,0.719806,0.654691,0.565605,1
2.16934,-1.28328,-1.37155,-0.994227,2.50507,1.49448,-0.747769,2.16934,-1.28328,-1.37155,-0.994227,2.50507,1.49448,-0.747769,2.10392,-1.24754,-1.41783,-0.990817,2.44591,1.42714,-0.795561,0.871834,0.715142,0.910302,-0.349772,0.937709,0.948013,0.84169,0.871834,0.715142,0.910302,-0.349772,0.937709,0.948013,0.84169,0.560405,-0.432845,0.714362,0.299365,0.062548,-0.324502,0.895079,0.0419918,0.845079,0.658762,0.7,0,0.56435,0,0,0,1.19209e-06,0,-0.25,0.654184,-0.357353,0.462841,-0.0341021,0.591564,0.673437,0.477919,1
2.18084,-1.31176,-1.36075,-1.04268,2.53539,1.49138,-0.758206,2.18084,-1.31176,-1.36075,-1.04268,2.53539,1.49138,-0.758206,2.116,-1.25709,-1.4093,-0.994477,2.46341,1.43682,-0.787596,1.11157,-0.294294,1.11895,-0.861901,1.10867,1.13858,0.987532,1.11157,-0.294294,1.11895,-0.861901,1.10867,1.13858,0.987532,0.56233,-0.433675,0.711753,0.295437,0.0638697,-0.331869,0.893588,0.34373,-0.809225,-1.02697,0.7,0,0.56435,0,0,0,1.19209e-06,0,-0.25,0.648437,-0.546639,0.485484,-0.482048,0.719775,0.545614,0.293902,1
2.16639,-1.31293,-1.3457,-1.03403,2.54054,1.50672,-0.743821,2.16639,-1.31293,-1.3457,-1.03403,2.54054,1.50672,-0.743821,2.12663,-1.26231,-1.40178,-0.994427,2.47171,1.44831,-0.77966,1.06289,-0.521695,0.752216,0.00497736,0.830034,1.14905,0.793596,1.06289,-0.521695,0.752216,0.00497736,0.830034,1.14905,0.793596,0.565487,-0.426432,0.710777,0.279525,0.0615035,-0.341885,0.895096,0,0,0,0.7,0,0.56435,0,0,0,1.19209e-06,0,-0.25,0.397593,-0.506156,0.560741,-0.39606,0.688322,0.584171,0.358386,1
2.19693,-1.32074,-1.34346,-0.978453,2.5525,1.52485,-0.799499,2.19693,-1.32074,-1.34346,-0.978453,2.5525,1.52485,-0.799499,2.13743,-1.27216,-1.3936,-1.00404,2.4844,1.45689,-0.775385,1.0803,-0.985295,0.817501,-0.961535,1.26885,0.858242,0.427502,1.0803,-0.985295,0.817501,-0.961535,1.26885,0.858242,0.427502,0.573551,-0.418111,0.701501,0.256889,0.0623584,-0.36265,0.893647,0.987699,1.23862,-1.14289,0.7,0,0.56435,0,0,0,1.19209e-06,0,-0.25,0.594976,-0.485799,0.50137,0.255895,0.680986,0.67955,-0.241141,1
2.20181,-1.33568,-1.34655,-1.02567,2.55777,1.53224,-0.743936,2.20181,-1.33568,-1.34655,-1.02567,2.55777,1.53224,-0.743936,2.1432,-1.28029,-1.38406,-1.01002,2.49559,1.46682,-0.769095,0.576992,-0.812246,0.954452,-0.597604,1.11873,0.993019,0.628944,0.576992,-0.812246,0.954452,-0.597604,1.11873,0.993019,0.628944,0.573551,-0.418111,0.701501,0.256889,0.0623584,-0.36265,0.893647,0,0,0,0.7,0,0.56435,0,0,0,1.19209e-06,0,-0.25,0.586097,-0.55397,0.375099,-0.156543,0.621863,0.654185,0.251595,1
2.18863,-1.3343,-1.32746,-1.04724,2.56814,1.53336,-0.730349,2.18863,-1.3343,-1.32746,-1.04724,2.56814,1.53336,-0.730349,2.14564,-1.28372,-1.38002,-1.01254,2.50032,1.47102,-0.766438,0.487648,-0.686475,0.806662,-0.50507,0.945504,0.839257,0.531557,0.487648,-0.686475,0.806662,-0.50507,0.945504,0.839257,0.531557,0.576334,-0.415777,0.694715,0.242561,0.0620691,-0.378668,0.891023,0,0,0,0.7,0,0.56435,0,0,0,1.19209e-06,0,-0.25,0.429874,-0.505827,0.525594,-0.346931,0.678223,0.62348,0.360889,1
2.21007,-1.33655,-1.32144,-0.969905,2.57819,1.53221,-0.77307,2.21007,-1.33655,-1.32144,-0.969905,2.57819,1.53221,-0.77307,2.15586,-1.2911,-1.37274,-1.00575,2.51071,1.48174,-0.773026,0.965262,-0.696809,0.68804,0.641591,0.982094,1.01305,-0.622215,0.965262,-0.696809,0.68804,0.641591,0.982094,1.01305,-0.622215,0.577579,-0.416186,0.692286,0.242321,0.0622905,-0.384959,0.888373,0.274439,0.000786389,-0.40493,0.7,0,0.56435,0,0,0,1.19209e-06,0,-0.25,0.542076,-0.454559,0.513037,0.358454,0.674751,0.504622,-0.000439894,1
2.22352,-1.34935,-1.33516,-0.981082,2.58495,1.56432,-0.785715,2.22352,-1.34935,-1.33516,-0.981082,2.58495,1.56432,-0.785715,2.16363,-1.29984,-1.36551,-1.01199,2.52118,1.49192,-0.7658,0.587519,-0.810057,0.894269,-0.82846,1.10364,0.974014,0.833226,0.587519,-0.810057,0.894269,-0.82846,1.10364,0.974014,0.833226,0.581976,-0.413543,0.684273,0.231761,0.063255,-0.400867,0.884076,0.393565,0.383706,-0.58694,0.7,0,0.56435,0,0,0,1.19209e-06,0,-0.25,0.59891,-0.495125,0.303559,0.309057,0.637683,0.724018,-0.199146,1
2.21786,-1.30893,-1.32632,-0.960458,2.60071,1.56771,-0.787175,2.21786,-1.30893,-1.32632,-0.960458,2.60071,1.56771,-0.787175,2.17086,-1.30694,-1.3573,-1.01088,2.53159,1.50006,-0.763229,0.921373,-0.695984,0.84288,0.963031,1.09511,0.755537,-0.231294,0.921373,-0.695984,0.84288,0.963031,1.09511,0.755537,-0.231294,0.583045,-0.412255,0.682019,0.226639,0.0633441,-0.405557,0.883259,0.194972,0.31984,-0.384231,0.7,0,0.56435,0,0,0,1.19209e-06,0,-0.25,0.469974,-0.0198758,0.309778,0.504221,0.691119,0.676549,-0.239467,1
2.24072,-1.36912,-1.31997,-0.951501,2.60865,1.53524,-0.77399,2.24072,-1.36912,-1.31997,-0.951501,2.60865,1.53524,-0.77399,2.18009,-1.31419,-1.35159,-1.00389,2.54159,1.50984,-0.766519,1.02073,-0.82642,0.386327,0.536063,1.01908,1.28052,-0.451156,1.02073,-0.82642,0.386327,0.536063,1.01908,1.28052,-0.451156,0.584956,-0.414403,0.677973,0.225179,0.0634716,-0.417123,0.878222,0.200619,-0.134051,-0.31015,0.7,0,0.56435,0,0,0,1.19209e-06,0,-0.25,0.606259,-0.549338,0.316277,0.523892,0.670649,0.254023,-0.0747078,1
2.25184,-1.30654,-1.30166,-0.941668,2.62718,1.58307,-0.759953,2.25184,-1.30654,-1.30166,-0.941668,2.62718,1.58307,-0.759953,2.19181,-1.3199,-1.34601,-0.995256,2.55554,1.52564,-0.772114,0.714875,-0.2019,0.386026,0.623577,0.938834,1.00711,-0.35763,0.714875,-0.2019,0.386026,0.623577,0.938834,1.00711,-0.35763,0.587838,-0.414439,0.671789,0.225101,0.0644943,-0.42759,0.873119,0.287326,0.0610396,-0.514216,0.7,0,0.56435,0,0,0,1.19209e-06,0,-0.25,0.600356,0.133674,0.443432,0.535883,0.716402,0.574249,0.121608,1
2.2539,-1.3676,-1.36888,-0.924963,2.63846,1.58752,-0.793428,2.2539,-1.3676,-1.36888,-0.924963,2.63846,1.58752,-0.793428,2.20155,-1.32971,-1.34082,-0.986537,2.56612,1.52756,-0.772488,0.974594,-0.980715,0.518857,0.871873,1.05842,0.191327,-0.0373796,0.974594,-0.980715,0.518857,0.871873,1.05842,0.191327,-0.0373796,0.593146,-0.416514,0.662589,0.222919,0.0676629,-0.446371,0.863992,0.844332,-0.215999,-1.25358,0.7,0,0.56435,0,0,0,1.19209e-06,0,-0.25,0.523524,-0.378904,-0.280613,0.615742,0.723374,0.599608,-0.209398,1
2.26904,-1.32346,-1.28542,-0.954975,2.64452,1.60925,-0.729743,2.26904,-1.32346,-1.28542,-0.954975,2.64452,1.60925,-0.729743,2.21157,-1.32509,-1.33302,-0.977597,2.57829,1.53862,-0.76999,0.946494,0.436166,0.736921,0.844483,1.14913,1.04478,0.235911,0.946494,0.436166,0.736921,0.844483,1.14913,1.04478,0.235911,0.593127,-0.415637,0.664008,0.220509,0.0649766,-0.451513,0.862143,0.0397179,0.226277,0.35578,0.7,0,0.56435,0,0,0,1.19209e-06,0,-0.25,0.574699,0.0163472,0.475921,0.226215,0.662277,0.706323,0.402476,1
2.26452,-1.37823,-1.35785,-0.906178,2.64306,1.57678,-0.738462,2.26452,-1.37823,-1.35785,-0.906178,2.64306,1.57678,-0.738462,2.22001,-1.33356,-1.34016,-0.967109,2.59028,1.54836,-0.774661,0.843511,-0.847032,-0.714622,1.04879,1.19899,0.974383,-0.467022,0.843511,-0.847032,-0.714622,1.04879,1.19899,0.974383,-0.467022,0.593113,-0.414842,0.665251,0.218349,0.0626002,-0.456113,0.860445,0,0,0,0.7,0,0.56435,0,0,0,1.19209e-06,0,-0.25,0.445124,-0.446622,-0.176838,0.609308,0.527812,0.284213,0.361985,1
2.29063,-1.37022,-1.28477,-0.97349,2.65386,1.63494,-0.708015,2.29063,-1.37022,-1.28477,-0.97349,2.65386,1.63494,-0.708015,2.22978,-1.33155,-1.32925,-0.964691,2.60109,1.56049,-0.76571,0.977078,0.201357,1.09073,0.241779,1.08076,1.21328,0.895045,0.977078,0.201357,1.09073,0.241779,1.08076,1.21328,0.895045,0.597669,-0.413716,0.657224,0.214042,0.0611822,-0.474499,0.851642,0,0,0,0.7,0,0.56435,0,0,0,1.19209e-06,0,-0.25,0.608527,-0.38671,0.444866,-0.0879925,0.527735,0.744465,0.576949,1
2.24704,-1.34606,-1.38113,-0.888626,2.57065,1.63929,-0.79158,2.24704,-1.34606,-1.38113,-0.888626,2.57065,1.63929,-0.79158,2.23343,-1.33646,-1.33226,-0.958538,2.6055,1.56221,-0.762845,0.730677,-0.98167,-0.601318,1.23063,0.882771,0.342574,0.573072,0.730677,-0.98167,-0.601318,1.23063,0.882771,0.342574,0.573072,0.599858,-0.415575,0.652357,0.214816,0.0627257,-0.477926,0.849415,0.434159,-0.328941,-0.915408,0.481173,-0.403273,0.71113,-22.2842,-41.0672,14.9473,-4.37654,-8.06546,2.68559,0.136063,-0.0959969,-0.4887,0.699114,-0.348511,0.770808,-0.287351,1
2.21115,-1.34679,-1.38254,-0.884261,2.58664,1.64883,-0.788703,2.21115,-1.34679,-1.38254,-0.884261,2.58664,1.64883,-0.788703,2.24237,-1.34394,-1.32967,-0.955183,2.61412,1.57123,-0.754784,1.13424,-0.617706,1.05545,-0.43028,0.934012,1.49747,1.09923,1.13424,-0.617706,1.05545,-0.43028,0.934012,1.49747,1.09923,0.603284,-0.41443,0.645951,0.209578,0.0627128,-0.486537,0.845829,0.288831,0.612959,-0.315422,0.481173,-0.403273,0.71113,0,0,0,-6.56481,-12.0982,4.15339,-0.31222,-0.0285149,-0.528685,0.709218,-0.27483,0.776011,-0.339182,1
2.21348,-1.36685,-1.38557,-0.878555,2.57534,1.65964,-0.78075,2.21348,-1.36685,-1.38557,-0.878555,2.57534,1.65964,-0.78075,2.24741,-1.34664,-1.33086,-0.949906,2.61329,1.58438,-0.754253,-0.00860651,0.013565,-1.18154,1.44029,-1.00216,1.29051,-0.877309,-0.00860651,0.013565,-1.18154,1.44029,-1.00216,1.29051,-0.877309,0.604607,-0.411936,0.644126,0.204296,0.0614898,-0.491508,0.844335,0.25579,0.550142,-0.283235,0.481173,-0.403273,0.71113,0,0,0,-6.56481,-12.0982,4.15339,-0.339213,-0.202155,-0.547103,0.713518,-0.379497,0.752645,-0.264968,1
2.21814,-1.3519,-1.39671,-0.866264,2.56182,1.67046,-0.794567,2.21814,-1.3519,-1.39671,-0.866264,2.56182,1.67046,-0.794567,2.24733,-1.34652,-1.34088,-0.937696,2.60479,1.59532,-0.761691,-0.00689188,0.0108625,-0.94615,1.15335,-0.802506,1.03341,-0.702528,-0.00689188,0.0108625,-0.94615,1.15335,-0.802506,1.03341,-0.702528,0.601092,-0.418086,0.641311,0.22685,0.0539563,-0.487536,0.84139,-0.127799,-0.387219,-0.18801,0.493244,-0.404284,0.695357,1.11736,-0.0936077,-1.45998,-4.13512,-8.08569,2.37015,-0.291933,-0.0538464,-0.558343,0.714313,-0.429708,0.751377,-0.328766,1
2.16617,-1.31469,-1.41703,-0.860419,2.5709,1.6531,-0.817533,2.16617,-1.31469,-1.41703,-0.860419,2.5709,1.6531,-0.817533,2.24037,-1.34868,-1.3495,-0.926448,2.59999,1.60712,-0.766237,-0.631894,-0.427008,-0.847856,1.1257,-0.579327,1.23454,-0.341115,-0.631894,-0.427008,-0.847856,1.1257,-0.579327,1.23454,-0.341115,0.598443,-0.422299,0.640212,0.234454,0.0508572,-0.487417,0.839565,-0.422446,-0.863112,-0.226325,0.493244,-0.404284,0.695357,0,0,0,0.362129,-0.0303376,-0.723171,-0.742018,0.339891,-0.675306,0.660289,-0.290886,0.459817,-0.512963,1
2.16391,-1.33582,-1.42393,-0.851081,2.54512,1.64372,-0.811253,2.16391,-1.33582,-1.42393,-0.851081,2.54512,1.64372,-0.811253,2.2355,-1.35073,-1.35786,-0.915612,2.59365,1.61872,-0.770582,-0.408071,-0.0275698,-0.913242,1.15989,-0.7482,1.216,-0.563766,-0.408071,-0.0275698,-0.913242,1.15989,-0.7482,1.216,-0.563766,0.592143,-0.433232,0.634635,0.255552,0.0420306,-0.486785,0.834246,-0.323077,-0.629865,-0.211819,0.493244,-0.404284,0.695357,0,0,0,0.362129,-0.0303376,-0.723171,-0.715925,0.149087,-0.660697,0.645311,-0.485307,0.249949,-0.406717,1
2.15612,-1.32493,-1.4336,-0.840842,2.53694,1.66795,-0.815624,2.15612,-1.32493,-1.4336,-0.840842,2.53694,1.66795,-0.815624,2.22511,-1.34715,-1.37101,-0.901009,2.58558,1.63156,-0.779796,-0.85612,0.370392,-0.906455,0.941381,-0.472144,0.739953,-0.669192,-0.85612,0.370392,-0.906455,0.941381,-0.472144,0.739953,-0.669192,0.590213,-0.435877,0.633785,0.262022,0.0391097,-0.485938,0.832874,-0.293305,-0.56007,-0.187756,0.493244,-0.404284,0.695357,0,0,0,0.24142,-0.020225,-0.565448,-0.689889,0.22219,-0.625967,0.601671,-0.486409,0.363832,-0.358282,1
2.1495,-1.34069,-1.44426,-0.832637,2.53784,1.68708,-0.817011,2.1495,-1.34069,-1.44426,-0.832637,2.53784,1.68708,-0.817011,2.21891,-1.34374,-1.37585,-0.89674,2.58404,1.63383,-0.783764,-1.23982,0.682653,-0.967935,0.853711,-0.308898,0.453009,-0.793712,-1.23982,0.682653,-0.967935,0.853711,-0.308898,0.453009,-0.793712,0.584309,-0.442841,0.63469,0.276073,0.0331497,-0.482876,0.83037,0,0,0,0.493244,-0.404284,0.695357,0,0,0,-5.96046e-07,0,-0.250001,-0.694163,0.0305332,-0.684135,0.641034,-0.461982,0.532509,-0.332469,1
2.24705,-1.38019,-1.34011,-0.884989,2.62652,1.66865,-0.801356,2.24705,-1.38019,-1.34011,-0.884989,2.62652,1.66865,-0.801356,2.20714,-1.34102,-1.38644,-0.886566,2.57542,1.63835,-0.789702,-1.19897,0.37803,-1.10844,1.07471,-0.904487,0.695724,-0.609295,-1.19897,0.37803,-1.10844,1.07471,-0.904487,0.695724,-0.609295,0.57356,-0.455677,0.636844,0.299274,0.0239721,-0.475397,0.826957,-0.666877,-0.933917,0.0762934,0.614385,-0.409675,0.648115,12.364,-0.550197,-4.82173,2.42283,-0.107815,-1.19486,0.399178,-0.391697,0.463321,0.0157612,0.510993,0.303047,-0.116546,1
2.24912,-1.38123,-1.33902,-0.832246,2.63636,1.64785,-0.80428,2.24912,-1.38123,-1.33902,-0.832246,2.63636,1.64785,-0.80428,2.19697,-1.33781,-1.39584,-0.877454,2.56776,1.64425,-0.794867,-1.01645,0.320482,-0.939702,0.911104,-0.766795,0.589812,-0.516541,-1.01645,0.320482,-0.939702,0.911104,-0.766795,0.589812,-0.516541,0.56691,-0.462954,0.637931,0.313319,0.0174529,-0.470627,0.824643,0,0,0,0.614385,-0.409675,0.648115,0,0,0,3.63424,-0.161723,-1.66728,0.521454,-0.434216,0.568228,0.452086,0.685998,0.0360059,-0.0941321,1
2.25654,-1.37057,-1.3361,-0.904102,2.6467,1.68893,-0.76401,2.25654,-1.37057,-1.3361,-0.904102,2.6467,1.68893,-0.76401,2.19777,-1.34254,-1.39454,-0.874029,2.57112,1.65084,-0.797633,1.15837,-0.884894,1.27922,-0.257607,1.3022,0.418595,-0.0875066,1.15837,-0.884894,1.27922,-0.257607,1.3022,0.418595,-0.0875066,0.563711,-0.46704,0.636896,0.32076,0.0143993,-0.469098,0.822711,-0.546519,-0.86738,-0.232746,0.614385,-0.409675,0.648115,0,0,0,3.63424,-0.161723,-1.66728,0.58771,-0.280283,0.584379,-0.300725,0.755807,0.380876,0.336234,1
2.24987,-1.36267,-1.36126,-0.824017,2.66356,1.72206,-0.834485,2.24987,-1.36267,-1.36126,-0.824017,2.66356,1.72206,-0.834485,2.21215,-1.35342,-1.37889,-0.866626,2.58879,1.65175,-0.799271,0.919864,-0.692158,0.992233,0.855557,1.18379,-0.0970325,-0.124648,0.919864,-0.692158,0.992233,0.855557,1.18379,-0.0970325,-0.124648,0.572348,-0.464788,0.626494,0.30871,0.0238219,-0.491334,0.814077,0.451191,0.408691,-0.432939,0.614385,-0.409675,0.648115,0,0,0,2.42283,-0.107815,-1.19485,0.377223,-0.0925348,0.176301,0.426096,0.74774,0.703131,-0.352141,1
2.26869,-1.39027,-1.39223,-0.84492,2.65264,1.72834,-0.765121,2.26869,-1.39027,-1.39223,-0.84492,2.65264,1.72834,-0.765121,2.21682,-1.35522,-1.37439,-0.870567,2.59488,1.65566,-0.795563,0.933631,-0.360663,0.900036,-0.78821,1.21814,0.782103,0.74164,0.933631,-0.360663,0.900036,-0.78821,1.21814,0.782103,0.74164,0.572348,-0.464788,0.626494,0.30871,0.0238219,-0.491334,0.814077,0,0,0,0.614385,-0.409675,0.648115,0,0,0,0,0,-0.25,0.518713,-0.350454,-0.178338,0.256471,0.577678,0.726869,0.304422,1
2.28849,-1.38668,-1.37004,-0.805186,2.66104,1.74001,-0.779022,2.28849,-1.38668,-1.37004,-0.805186,2.66104,1.74001,-0.779022,2.22675,-1.358,-1.36855,-0.864115,2.61293,1.67169,-0.800662,0.575416,-0.116301,0.181392,0.99785,1.26001,1.25343,-0.841695,0.575416,-0.116301,0.181392,0.99785,1.26001,1.25343,-0.841695,0.576361,-0.458998,0.623778,0.297295,0.0250888,-0.500007,0.813006,0.342,0.604236,-0.184268,0.614385,-0.409675,0.648115,0,0,0,0,0,-0.25,0.617381,-0.286822,-0.0149196,0.589292,0.481103,0.683205,0.216396,1
2.19317,-1.40258,-1.42863,-0.794015,2.59026,1.75431,-0.784822,2.19317,-1.40258,-1.42863,-0.794015,2.59026,1.75431,-0.784822,2.23511,-1.36443,-1.37327,-0.860291,2.62084,1.68298,-0.79358,0.835709,-0.642996,-0.471748,0.382488,0.791425,1.12889,0.708199,0.835709,-0.642996,-0.471748,0.382488,0.791425,1.12889,0.708199,0.575965,-0.460774,0.620558,0.302387,0.0243422,-0.509265,0.805369,0,0,0,0.614385,-0.409675,0.648115,0,0,0,0,0,-0.25,-0.419345,-0.381505,-0.553615,0.662758,-0.305791,0.713309,0.0875798,1
2.23819,-1.40658,-1.42504,-0.809083,2.56431,1.7578,-0.824316,2.23819,-1.40658,-1.42504,-0.809083,2.56431,1.7578,-0.824316,2.23511,-1.36443,-1.37327,-0.860291,2.62084,1.68298,-0.79358,0.835709,-0.642996,-0.471748,0.382488,0.791425,1.12889,0.708199,0.835709,-0.642996,-0.471748,0.382488,0.791425,1.12889,0.708199,0.579388,-0.459084,0.613299,0.300994,0.0242302,-0.514627,0.80248,0,0,0,0.614385,-0.409675,0.648115,0,0,0,0,0,-0.25,0.0308159,-0.42148,-0.51768,0.512077,-0.565333,0.748218,-0.307364,1
2.17683,-1.37038,-1.44843,-0.771626,2.57429,1.76766,-0.843515,2.17683,-1.37038,-1.44843,-0.771626,2.57429,1.76766,-0.843515,2.24424,-1.37408,-1.37827,-0.839343,2.62782,1.70495,-0.788966,-0.150613,-0.522238,-0.564641,0.99671,-0.10292,1.06035,0.171288,-0.150613,-0.522238,-0.564641,0.99671,-0.10292,1.06035,0.171288,0.581773,-0.458487,0.608121,0.301291,0.0225895,-0.52225,0.797477,0.256814,0.08594,-0.426903,0.614385,-0.409675,0.648115,0,0,0,0,0,-0.25,-0.674064,0.037033,-0.701587,0.677176,-0.535323,0.627142,-0.545486,1
2.17424,-1.35778,-1.45833,-0.77156,2.57872,1.76452,-0.837344,2.17424,-1.35778,-1.45833,-0.77156,2.57872,1.76452,-0.837344,2.24303,-1.38056,-1.38759,-0.833313,2.61517,1.71548,-0.79601,-0.120536,-0.647438,-0.931839,0.602978,-1.26559,1.05318,-0.704396,-0.120536,-0.647438,-0.931839,0.602978,-1.26559,1.05318,-0.704396,0.577783,-0.46597,0.597455,0.322186,0.0153502,-0.519649,0.791155,-0.181511,-0.564178,-1.12103,0.614385,-0.409675,0.648115,0,0,0,0,0,-0.25,-0.687896,0.22777,-0.70742,0.61753,-0.3645,0.490383,-0.413336,1
2.16851,-1.38103,-1.46527,-0.758821,2.55309,1.76864,-0.84293,2.16851,-1.38103,-1.46527,-0.758821,2.55309,1.76864,-0.84293,2.23562,-1.38194,-1.39751,-0.824546,2.60608,1.72495,-0.803669,-0.741756,-0.137799,-0.992176,0.876729,-0.908441,0.947013,-0.765929,-0.741756,-0.137799,-0.992176,0.876729,-0.908441,0.947013,-0.765929,0.572407,-0.472151,0.595364,0.3372,0.00993244,-0.515354,0.787787,0,0,0,0.614385,-0.409675,0.648115,0,0,0,0,0,-0.25,-0.67104,0.00907182,-0.677571,0.657256,-0.529869,0.436901,-0.392603,1
2.15873,-1.38117,-1.47255,-0.751841,2.55712,1.77837,-0.849516,2.15873,-1.38117,-1.47255,-0.751841,2.55712,1.77837,-0.849516,2.22916,-1.3794,-1.40391,-0.818974,2.6032,1.72911,-0.807211,-1.29075,0.508019,-1.27915,1.11438,-0.575541,0.832183,-0.708226,-1.29075,0.508019,-1.27915,1.11438,-0.575541,0.832183,-0.708226,0.572407,-0.472151,0.595364,0.3372,0.00993244,-0.515354,0.787787,0,0,0,0.614385,-0.409675,0.648115,0,0,0,0,0,-0.25,-0.704351,-0.0177568,-0.686441,0.671336,-0.460815,0.492598,-0.423053,1
2.13929,-1.34084,-1.48814,-0.743056,2.54786,1.78012,-0.862765,2.13929,-1.34084,-1.48814,-0.743056,2.54786,1.78012,-0.862765,2.21245,-1.3779,-1.42072,-0.802995,2.59116,1.73997,-0.816866,-1.09345,-0.0778328,-1.10865,1.09928,-0.947175,0.713474,-0.648606,-1.09345,-0.0778328,-1.10865,1.09928,-0.947175,0.713474,-0.648606,0.563965,-0.480615,0.597012,0.353186,0.00195686,-0.510205,0.784185,-0.701515,-0.863189,0.114727,0.614385,-0.409675,0.648115,0,0,0,0,0,-0.25,-0.731653,0.370599,-0.674215,0.59939,-0.432988,0.401485,-0.458996,1
2.13561,-1.38758,-1.49611,-0.731564,2.5422,1.78338,-0.861402,2.13561,-1.38758,-1.49611,-0.731564,2.5422,1.78338,-0.861402,2.2068,-1.37825,-1.42617,-0.797616,2.58758,1.74401,-0.820299,-1.12993,-0.068782,-1.09016,1.07587,-0.715805,0.80765,-0.686694,-1.12993,-0.068782,-1.09016,1.07587,-0.715805,0.80765,-0.686694,0.552853,-0.493516,0.594499,0.377638,-0.00759633,-0.502521,0.777691,0,0,0,0.614385,-0.409675,0.648115,0,0,0,0,0,-0.25,-0.711887,-0.0933471,-0.699424,0.660523,-0.453742,0.393789,-0.41103,1
2.11472,-1.33015,-1.50737,-0.727985,2.53325,1.77735,-0.870178,2.11472,-1.33015,-1.50737,-0.727985,2.53325,1.77735,-0.870178,2.1893,-1.37104,-1.44242,-0.78289,2.5771,1.75409,-0.831221,-1.24459,0.751451,-1.13765,0.991248,-0.727644,0.647535,-0.784967,-1.24459,0.751451,-1.13765,0.991248,-0.727644,0.647535,-0.784967,0.549393,-0.497374,0.593696,0.384874,-0.0104322,-0.50048,0.775424,-0.607586,-0.836437,-0.19457,0.614385,-0.409675,0.648115,0,0,0,0,0,-0.25,-0.745857,0.408863,-0.64947,0.549047,-0.438439,0.232556,-0.389567,1
2.10878,-1.37883,-1.52234,-0.708763,2.52673,1.79911,-0.877078,2.10878,-1.37883,-1.52234,-0.708763,2.52673,1.79911,-0.877078,2.1786,-1.37434,-1.45312,-0.772662,2.57014,1.75993,-0.837235,-1.06979,-0.32961,-1.06981,1.02274,-0.695326,0.583639,-0.601394,-1.06979,-0.32961,-1.06981,1.02274,-0.695326,0.583639,-0.601394,0.540215,-0.50454,0.597939,0.400092,-0.0191082,-0.493629,0.77194,0,0,0,0.614385,-0.409675,0.648115,0,0,0,0,0,-0.25,-0.698265,-0.0449009,-0.692156,0.63899,-0.434132,0.391772,-0.398429,1
2.09716,-1.34801,-1.53186,-0.702395,2.51595,1.81656,-0.883453,2.09716,-1.34801,-1.53186,-0.702395,2.51595,1.81656,-0.883453,2.16587,-1.36553,-1.46393,-0.76376,2.56279,1.7634,-0.843799,-1.27304,0.880391,-1.08098,0.890255,-0.735095,0.347099,-0.656427,-1.27304,0.880391,-1.08098,0.890255,-0.735095,0.347099,-0.656427,0.533362,-0.513043,0.594486,0.41521,-0.0234971,-0.489106,0.766696,0,0,0,0.614385,-0.409675,0.648115,0,0,0,0,0,-0.25,-0.687169,0.175247,-0.679274,0.613644,-0.468395,0.531534,-0.396534,1
2.09551,-1.35007,-1.53396,-0.702603,2.52105,1.8174,-0.881425,2.09551,-1.35007,-1.53396,-0.702603,2.52105,1.8174,-0.881425,2.16587,-1.36553,-1.46393,-0.76376,2.56279,1.7634,-0.843799,-1.27304,0.880391,-1.08098,0.890255,-0.735095,0.347099,-0.656427,-1.27304,0.880391,-1.08098,0.890255,-0.735095,0.347099,-0.656427,0.524204,-0.519546,0.600035,0.428636,-0.0317482,-0.481399,0.763884,0,0,0,0.614385,-0.409675,0.648115,0,0,0,0,0,-0.25,-0.703647,0.154597,-0.700335,0.611568,-0.41747,0.539987,-0.376252,1
2.07058,-1.3718,-1.55656,-0.678489,2.5056,1.81418,-0.900078,2.07058,-1.3718,-1.55656,-0.678489,2.5056,1.81418,-0.900078,2.14307,-1.36416,-1.48679,-0.742757,2.54771,1.77969,-0.857011,-1.14257,0.401988,-1.12164,1.0044,-0.790148,0.917374,-0.65801,-1.14257,0.401988,-1.12164,1.0044,-0.790148,0.917374,-0.65801,0.507325,-0.534508,0.598859,0.459321,-0.0458027,-0.469747,0.752506,0,0,0,0.614385,-0.409675,0.648115,0,0,0,0,0,-0.25,-0.724893,-0.0764218,-0.697756,0.642679,-0.421056,0.344896,-0.430671,1
2.06487,-1.34676,-1.56348,-0.671733,2.49367,1.83344,-0.906872,2.06487,-1.34676,-1.56348,-0.671733,2.49367,1.83344,-0.906872,2.13359,-1.36135,-1.49619,-0.734756,2.54239,1.7872,-0.861875,-0.94771,0.280734,-0.940079,0.800102,-0.531217,0.751402,-0.486468,-0.94771,0.280734,-0.940079,0.800102,-0.531217,0.751402,-0.486468,0.507325,-0.534508,0.598859,0.459321,-0.0458027,-0.469747,0.752506,0,0,0,0.614385,-0.409675,0.648115,0,0,0,0,0,-0.25,-0.687177,0.14596,-0.672984,0.630231,-0.487204,0.462365,-0.449966,1
2.04561,-1.31178,-1.56824,-0.735776,2.56506,1.7514,-0.888132,2.04561,-1.31178,-1.56824,-0.735776,2.56506,1.7514,-0.888132,2.12104,-1.36344,-1.50822,-0.723544,2.53506,1.79258,-0.869488,-1.25559,-0.208221,-1.20304,1.12119,-0.733155,0.537521,-0.761229,-1.25559,-0.208221,-1.20304,1.12119,-0.733155,0.537521,-0.761229,0.491251,-0.548464,0.597495,0.487135,-0.0575628,-0.458618,0.740982,-1.61668,-1.90027,-0.565885,0.614385,-0.409675,0.648115,0,0,0,0,0,-0.25,-0.754266,0.516556,-0.60024,-0.12232,0.299997,-0.411818,-0.186445,1
2.05274,-1.30582,-1.49267,-0.754152,2.53224,1.74559,-0.841164,2.05274,-1.30582,-1.49267,-0.754152,2.53224,1.74559,-0.841164,2.10985,-1.36011,-1.51923,-0.71322,2.52682,1.80072,-0.876937,-1.11909,0.332333,-1.10128,1.03241,-0.824723,0.814213,-0.744932,-1.11909,0.332333,-1.10128,1.03241,-0.824723,0.814213,-0.744932,0.482205,-0.554491,0.599138,0.501603,-0.0656001,-0.451658,0.734912,-1.6687,-1.41164,0.240196,0.614385,-0.409675,0.648115,0,0,0,0,0,-0.25,-0.571011,0.54288,0.26557,-0.409317,0.0542107,-0.551326,0.357736,1
2.1329,-1.3462,-1.49845,-0.7691,2.5899,1.81011,-0.87952,2.1329,-1.3462,-1.49845,-0.7691,2.5899,1.81011,-0.87952,2.09705,-1.35048,-1.529,-0.717714,2.53444,1.79089,-0.879168,-1.20891,0.909613,-0.922389,-0.424505,0.719806,-0.928273,-0.210693,-1.20891,0.909613,-0.922389,-0.424505,0.719806,-0.928273,-0.210693,0.477196,-0.558424,0.604419,0.504767,-0.0639449,-0.447332,0.735538,-0.49102,-0.386853,0.462089,0.614385,-0.409675,0.648115,0,0,0,0,0,-0.25,0.358501,0.0428572,0.305414,-0.51386,0.554585,0.192155,-0.00351814,1
2.13373,-1.30272,-1.49382,-0.787343,2.6033,1.84143,-0.837165,2.13373,-1.30272,-1.49382,-0.787343,2.6033,1.84143,-0.837165,2.08822,-1.34158,-1.52176,-0.724975,2.534,1.78187,-0.871595,-0.882759,0.889852,0.723784,-0.726055,-0.0438363,-0.902744,0.757285,-0.882759,0.889852,0.723784,-0.726055,-0.0438363,-0.902744,0.757285,0.473402,-0.559165,0.612234,0.498755,-0.0666326,-0.446173,0.74009,-0.779497,-0.131326,1.55076,0.614385,-0.409675,0.648115,0,0,0,0,0,-0.25,0.455096,0.388599,0.279354,-0.623681,0.692981,0.595609,0.344305,1
2.12976,-1.39672,-1.57762,-0.671517,2.51809,1.86316,-0.915046,2.12976,-1.39672,-1.57762,-0.671517,2.51809,1.86316,-0.915046,2.09712,-1.3425,-1.51711,-0.733768,2.54514,1.78749,-0.873174,0.840831,-0.0868131,0.438573,-0.830439,1.05198,0.53153,-0.149141,0.840831,-0.0868131,0.438573,-0.830439,1.05198,0.53153,-0.149141,0.479247,-0.553424,0.610383,0.491548,-0.0629502,-0.453358,0.740867,0.528661,0.611977,-0.124988,0.520197,-0.495837,0.573023,-9.38491,-8.58518,-7.48214,-1.88376,-1.72324,-1.75183,0.326403,-0.542179,-0.605025,0.622503,-0.270457,0.756671,-0.418716,1
2.09414,-1.34467,-1.56858,-0.682972,2.52267,1.87797,-0.89562,2.09414,-1.34467,-1.56858,-0.682972,2.52267,1.87797,-0.89562,2.10441,-1.33458,-1.51247,-0.744443,2.55673,1.79824,-0.865999,0.68894,0.748639,0.438351,-1.00829,1.09457,1.01502,0.677698,0.68894,0.748639,0.438351,-1.00829,1.09457,1.01502,0.677698,0.482637,-0.545415,0.614497,0.480391,-0.06666,-0.459123,0.744303,0.319886,0.79928,0.433665,0.520197,-0.495837,0.573023,0,0,0,-2.82564,-2.58485,-2.50275,-0.102758,-0.100986,-0.561077,0.614712,-0.340531,0.797303,-0.296213,1
2.06922,-1.39739,-1.59018,-0.668991,2.49881,1.88491,-0.880435,2.06922,-1.39739,-1.59018,-0.668991,2.49881,1.88491,-0.880435,2.10947,-1.34696,-1.52545,-0.729912,2.54903,1.81118,-0.875772,0.477005,-1.16955,-1.226,1.37246,-0.727107,1.2218,-0.923061,0.477005,-1.16955,-1.226,1.37246,-0.727107,1.2218,-0.923061,0.483178,-0.548185,0.604297,0.494444,-0.0669843,-0.456265,0.736791,0.0867608,-0.305627,-0.983771,0.506505,-0.53355,0.551832,-1.34145,-3.69487,-2.07615,-3.09948,-3.33911,-2.92656,-0.402475,-0.504328,-0.647221,0.609211,-0.502187,0.737319,-0.0466268,1
2.06784,-1.34003,-1.59478,-0.65547,2.48686,1.8993,-0.900095,2.06784,-1.34003,-1.59478,-0.65547,2.48686,1.8993,-0.900095,2.10641,-1.3465,-1.53405,-0.720558,2.54378,1.82449,-0.879727,-0.305398,0.0455218,-0.85936,0.935335,-0.525147,1.33096,-0.395499,-0.305398,0.0455218,-0.85936,0.935335,-0.525147,1.33096,-0.395499,0.47823,-0.550564,0.603529,0.504273,-0.0747261,-0.452775,0.731519,-0.851134,-0.634321,-0.186768,0.506505,-0.53355,0.551832,0,0,0,-2.29452,-2.85462,-2.38755,-0.385728,0.0647813,-0.607334,0.650888,-0.569195,0.748131,-0.203681,1
2.03347,-1.35121,-1.61021,-0.642798,2.48257,1.90083,-0.927315,2.03347,-1.35121,-1.61021,-0.642798,2.48257,1.90083,-0.927315,2.099,-1.35664,-1.54523,-0.710283,2.53482,1.83653,-0.879868,-0.699981,-0.95771,-1.05634,0.970502,-0.846282,1.13714,-0.0133187,-0.699981,-0.95771,-1.05634,0.970502,-0.846282,1.13714,-0.0133187,0.472503,-0.557164,0.595397,0.516865,-0.080037,-0.448043,0.725053,-0.492685,-0.696938,-0.795811,0.506505,-0.53355,0.551832,0,0,0,-0.410757,-1.13138,-0.885723,-0.655287,0.0543388,-0.649828,0.674848,-0.522417,0.643011,-0.474472,1
2.02437,-1.33208,-1.62112,-0.638144,2.46578,1.89783,-0.925481,2.02437,-1.33208,-1.62112,-0.638144,2.46578,1.89783,-0.925481,2.09279,-1.35333,-1.55511,-0.699361,2.52526,1.84903,-0.883898,-0.620934,0.331138,-0.987327,1.09222,-0.955648,1.25084,-0.403049,-0.620934,0.331138,-0.987327,1.09222,-0.955648,1.25084,-0.403049,0.465326,-0.560153,0.597185,0.528231,-0.0902965,-0.441201,0.719833,-1.29102,-0.822424,0.285087,0.506505,-0.53355,0.551832,0,0,0,-0.273838,-0.754255,-0.673815,-0.684249,0.212539,-0.660133,0.612167,-0.594755,0.487902,-0.41583,1
2.00473,-1.3427,-1.63697,-0.634644,2.47882,1.85751,-0.938633,2.00473,-1.3427,-1.63697,-0.634644,2.47882,1.85751,-0.938633,2.08097,-1.35291,-1.56609,-0.68809,2.51675,1.85936,-0.89255,-1.11639,0.0399469,-1.03716,1.0645,-0.803333,0.974737,-0.817101,-1.11639,0.0399469,-1.03716,1.0645,-0.803333,0.974737,-0.817101,0.45564,-0.56657,0.596811,0.543508,-0.0984441,-0.434438,0.711457,-0.853794,-0.714788,-0.0692136,0.506505,-0.53355,0.551832,0,0,0,0,0,-0.25,-0.762385,0.102075,-0.70884,0.534456,-0.379372,-0.0184913,-0.460831,1
1.99501,-1.33007,-1.64274,-0.629114,2.46444,1.8494,-0.941093,1.99501,-1.33007,-1.64274,-0.629114,2.46444,1.8494,-0.941093,2.06969,-1.34876,-1.57705,-0.678137,2.5066,1.86702,-0.899112,-1.0653,0.392037,-1.0357,0.939979,-0.959248,0.723999,-0.619772,-1.0653,0.392037,-1.0357,0.939979,-0.959248,0.723999,-0.619772,0.446453,-0.571365,0.599464,0.556521,-0.107254,-0.425734,0.70536,-0.818462,-0.568084,0.205382,0.506505,-0.53355,0.551832,0,0,0,0,0,-0.25,-0.74685,0.186902,-0.656838,0.490237,-0.421598,-0.176191,-0.419811,1
1.9847,-1.29665,-1.64815,-0.667558,2.50332,1.82509,-0.947394,1.9847,-1.29665,-1.64815,-0.667558,2.50332,1.82509,-0.947394,2.05675,-1.34755,-1.58899,-0.669471,2.50106,1.86512,-0.906987,-1.2944,0.120687,-1.19395,0.866659,-0.553566,-0.189594,-0.787507,-1.2944,0.120687,-1.19395,0.866659,-0.553566,-0.189594,-0.787507,0.438154,-0.578414,0.599956,0.569414,-0.109535,-0.417995,0.699321,-1.63974,-1.58263,-0.00246191,0.506505,-0.53355,0.551832,0,0,0,0,0,-0.25,-0.720499,0.509014,-0.591535,0.0191284,0.0225493,-0.400399,-0.404072,1
1.98428,-1.30041,-1.63652,-0.691697,2.45726,1.80946,-0.944034,1.98428,-1.30041,-1.63652,-0.691697,2.45726,1.80946,-0.944034,2.04444,-1.34407,-1.5997,-0.661429,2.49376,1.86199,-0.913783,-1.23027,0.348376,-1.07093,0.804167,-0.729782,-0.313304,-0.679605,-1.23027,0.348376,-1.07093,0.804167,-0.729782,-0.313304,-0.679605,0.430101,-0.58429,0.602507,0.580851,-0.112537,-0.40937,0.694524,-1.59888,-1.35407,0.400842,0.506505,-0.53355,0.551832,0,0,0,0,0,-0.25,-0.601646,0.4366,-0.368148,-0.302676,-0.364999,-0.525354,-0.302507,1
1.98067,-1.3364,-1.61008,-0.685511,2.52339,1.79933,-0.936397,1.98067,-1.3364,-1.61008,-0.685511,2.52339,1.79933,-0.936397,2.03254,-1.33462,-1.60935,-0.66265,2.49567,1.85464,-0.92048,-1.19054,0.944857,-0.965315,-0.122125,0.190353,-0.735415,-0.669745,-1.19054,0.944857,-0.965315,-0.122125,0.190353,-0.735415,-0.669745,0.424124,-0.58756,0.60836,0.587085,-0.112461,-0.40343,0.692768,-1.22093,-0.740674,1.0831,0.506505,-0.53355,0.551832,0,0,0,0,0,-0.25,-0.518657,-0.0178234,-0.00721006,-0.228605,0.277257,-0.553124,-0.159169,1
1.96603,-1.29665,-1.66755,-0.667006,2.46145,1.89112,-0.90471,1.96603,-1.29665,-1.66755,-0.667006,2.46145,1.89112,-0.90471,2.02292,-1.3278,-1.61477,-0.668438,2.48801,1.84563,-0.925174,-0.908282,0.643889,-0.511206,-0.546678,-0.722788,-0.850349,-0.443293,-0.908282,0.643889,-0.511206,-0.546678,-0.722788,-0.850349,-0.443293,0.421173,-0.588358,0.613731,0.590664,-0.111271,-0.395163,0.694681,-0.311534,-0.110868,0.447651,0.506505,-0.53355,0.551832,0,0,0,0,0,-0.25,-0.568885,0.311534,-0.527844,0.0143284,-0.265658,0.454847,0.204639,1
1.98334,-1.33861,-1.65937,-0.628039,2.55706,1.90498,-0.932342,1.98334,-1.33861,-1.65937,-0.628039,2.55706,1.90498,-0.932342,2.01848,-1.32871,-1.61427,-0.670234,2.49173,1.84076,-0.926354,-0.888577,-0.180859,0.0986669,-0.359066,0.744058,-0.973964,-0.236051,-0.888577,-0.180859,0.0986669,-0.359066,0.744058,-0.973964,-0.236051,0.419594,-0.590893,0.612956,0.591393,-0.108426,-0.39645,0.693777,0,0,0,0.506505,-0.53355,0.551832,0,0,0,0,0,-0.25,-0.351367,-0.0990128,-0.451019,0.42195,0.653212,0.642158,-0.0598786,1
1.95119,-1.29912,-1.61729,-0.701897,2.49633,1.80448,-0.936929,1.95119,-1.29912,-1.61729,-0.701897,2.49633,1.80448,-0.936929,2.00485,-1.32297,-1.62454,-0.670877,2.48837,1.84731,-0.922887,-0.965822,0.654917,-1.07043,0.0963386,-0.669827,1.09022,0.452334,-0.965822,0.654917,-1.07043,0.0963386,-0.669827,1.09022,0.452334,0.411314,-0.59382,0.615764,0.59713,-0.116057,-0.389251,0.691701,-1.30229,-0.350148,0.622087,0.506505,-0.53355,0.551832,0,0,0,0,0,-0.25,-0.536537,0.238449,0.0724668,-0.310201,0.0796584,-0.428266,-0.140426,1
1.94207,-1.33178,-1.69046,-0.674172,2.55931,1.8314,-0.939774,1.94207,-1.33178,-1.69046,-0.674172,2.55931,1.8314,-0.939774,2.00056,-1.32608,-1.63148,-0.662341,2.50205,1.8588,-0.924771,-0.428472,-0.311671,-0.694213,0.853605,1.36874,1.14918,-0.188404,-0.428472,-0.311671,-0.694213,0.853605,1.36874,1.14918,-0.188404,0.405419,-0.598847,0.610978,0.603346,-0.119674,-0.394242,0.682806,-1.06591,-1.04461,-0.872388,0.506505,-0.53355,0.551832,0,0,0,0,0,-0.25,-0.584912,-0.0569402,-0.589844,-0.118311,0.572561,-0.273993,-0.150036,1
1.93017,-1.27019,-1.64534,-0.707819,2.56501,1.80921,-0.875926,1.93017,-1.27019,-1.64534,-0.707819,2.56501,1.80921,-0.875926,1.98976,-1.32414,-1.63635,-0.667307,2.50754,1.85081,-0.927493,-1.07967,0.193835,-0.486765,-0.496648,0.548269,-0.799279,-0.272194,-1.07967,0.193835,-0.486765,-0.496648,0.548269,-0.799279,-0.272194,0.401342,-0.602892,0.611437,0.606363,-0.115771,-0.392926,0.681565,-0.860853,-0.795167,0.0545142,0.506505,-0.53355,0.551832,0,0,0,0,0,-0.25,-0.595909,0.539592,-0.08998,-0.405112,0.57477,-0.415974,0.515671,1
1.94917,-1.30486,-1.67975,-0.699132,2.56347,1.86409,-0.898775,1.94917,-1.30486,-1.67975,-0.699132,2.56347,1.86409,-0.898775,1.98475,-1.32495,-1.64204,-0.668029,2.51298,1.84877,-0.928784,-1.0031,-0.160522,-1.13817,-0.144375,1.08888,-0.40815,-0.258303,-1.0031,-0.160522,-1.13817,-0.144375,1.08888,-0.40815,-0.258303,0.39916,-0.605706,0.609687,0.609107,-0.113531,-0.39271,0.679616,-0.453051,-0.559691,-0.362531,0.506505,-0.53355,0.551832,0,0,0,0,0,-0.25,-0.355761,0.200894,-0.377095,-0.311028,0.504944,0.153226,0.300096,1
1.99668,-1.28876,-1.58954,-0.724708,2.59494,1.90131,-0.929371,1.99668,-1.28876,-1.58954,-0.724708,2.59494,1.90131,-0.929371,1.97028,-1.31461,-1.64677,-0.676475,2.52725,1.83942,-0.919177,-0.998049,1.10551,0.0355776,-0.77998,0.939732,-0.751827,1.07631,-0.998049,1.10551,0.0355776,-0.77998,0.939732,-0.751827,1.07631,0.392678,-0.609371,0.615044,0.606185,-0.113465,-0.392646,0.682271,-0.904594,-0.196839,1.39099,0.506505,-0.53355,0.551832,0,0,0,0,0,-0.25,0.264002,0.258553,0.572373,-0.48233,0.676928,0.618893,-0.101941,1
1.9586,-1.34237,-1.65765,-0.642702,2.58918,1.90068,-0.954033,1.9586,-1.34237,-1.65765,-0.642702,2.58918,1.90068,-0.954033,1.96806,-1.31358,-1.65024,-0.678858,2.53106,1.84202,-0.917031,-0.443925,0.205111,-0.693473,-0.476516,0.761873,0.518791,0.429094,-0.443925,0.205111,-0.693473,-0.476516,0.761873,0.518791,0.429094,0.391736,-0.60958,0.614658,0.606086,-0.114254,-0.392612,0.682247,-0.180376,-0.0506056,-0.0752883,0.506505,-0.53355,0.551832,0,0,0,0,0,-0.25,-0.0945842,-0.287876,-0.0740759,0.36156,0.581229,0.586605,-0.370014,1
2.02779,-1.35317,-1.68081,-0.684885,2.60813,1.93023,-0.944697,2.02779,-1.35317,-1.68081,-0.684885,2.60813,1.93023,-0.944697,1.97217,-1.3079,-1.64063,-0.689701,2.54652,1.85569,-0.917953,0.609866,0.476477,1.27145,-0.871142,1.20503,1.13528,-0.284139,0.609866,0.476477,1.27145,-0.871142,1.20503,1.13528,-0.284139,0.393566,-0.604355,0.616762,0.598504,-0.117917,-0.403446,0.681997,0.626382,1.2009,0.653427,0.506505,-0.53355,0.551832,0,0,0,0,0,-0.25,0.556129,-0.45272,-0.401858,0.0481594,0.61615,0.745392,-0.267445,1
1.94343,-1.30986,-1.68878,-0.644663,2.61988,1.88666,-0.916752,1.94343,-1.30986,-1.68878,-0.644663,2.61988,1.88666,-0.916752,1.96947,-1.31477,-1.64402,-0.680336,2.55502,1.86466,-0.925142,-0.27041,-0.686843,-0.339121,0.936504,0.850109,0.896391,-0.718922,-0.27041,-0.686843,-0.339121,0.936504,0.850109,0.896391,-0.718922,0.38884,-0.609415,0.610506,0.606066,-0.119087,-0.408521,0.672022,-0.850858,-1.03859,-1.17622,0.506505,-0.53355,0.551832,0,0,0,0,0,-0.25,-0.260436,0.0490941,-0.447564,0.356733,0.648629,0.220033,0.0839013,1
2.03462,-1.36621,-1.70083,-0.616922,2.57853,1.94636,-0.909948,2.03462,-1.36621,-1.70083,-0.616922,2.57853,1.94636,-0.909948,1.98109,-1.32242,-1.65135,-0.681242,2.5656,1.87772,-0.929039,1.16204,-0.765236,-0.733179,-0.0906513,1.05836,1.30667,-0.389661,1.16204,-0.765236,-0.733179,-0.0906513,1.05836,1.30667,-0.389661,0.395592,-0.606324,0.602177,0.606081,-0.115819,-0.413626,0.669451,1.35498,0.710814,-1.6067,0.506505,-0.53355,0.551832,0,0,0,0,0,-0.25,0.53535,-0.437892,-0.494817,0.643202,0.129267,0.686345,0.190909,1
1.90541,-1.29277,-1.69477,-0.672074,2.64074,1.92365,-0.90828,1.90541,-1.29277,-1.69477,-0.672074,2.64074,1.92365,-0.90828,1.97358,-1.31992,-1.65881,-0.673953,2.57642,1.8795,-0.926591,-0.750506,0.25031,-0.745734,0.728899,1.08158,0.178075,0.244828,-0.750506,0.25031,-0.745734,0.728899,1.08158,0.178075,0.244828,0.388655,-0.611343,0.602196,0.610371,-0.119229,-0.414619,0.664321,-1.32586,-1.06511,0.035856,0.506505,-0.53355,0.551832,0,0,0,0,0,-0.25,-0.681763,0.271542,-0.359582,0.0187963,0.643234,0.4415,0.183107,1
1.94981,-1.38064,-1.71374,-0.601097,2.60638,1.94812,-0.964758,1.94981,-1.38064,-1.71374,-0.601097,2.60638,1.94812,-0.964758,1.98575,-1.32914,-1.66718,-0.662589,2.57684,1.89282,-0.923274,1.2163,-0.922432,-0.837389,1.13642,0.0420639,1.33215,0.331626,1.2163,-0.922432,-0.837389,1.13642,0.0420639,1.33215,0.331626,0.392835,-0.609998,0.594483,0.612557,-0.121594,-0.414911,0.661693,0.876134,0.240703,-1.52688,0.506505,-0.53355,0.551832,0,0,0,0,0,-0.25,-0.359421,-0.51499,-0.465607,0.614926,0.295446,0.552949,-0.414839,1
1.90071,-1.28014,-1.71064,-0.704931,2.61502,1.85432,-0.946115,1.90071,-1.28014,-1.71064,-0.704931,2.61502,1.85432,-0.946115,1.96974,-1.3219,-1.67268,-0.664479,2.58957,1.89897,-0.920287,-1.60086,0.72489,-0.549652,-0.188992,1.27335,0.614299,0.298783,-1.60086,0.72489,-0.549652,-0.188992,1.27335,0.614299,0.298783,0.382032,-0.614755,0.597157,0.616015,-0.128258,-0.416171,0.656412,-2.06343,-1.03547,0.580203,0.506505,-0.53355,0.551832,0,0,0,0,0,-0.25,-0.690307,0.417511,-0.379636,-0.404519,0.254502,-0.446499,-0.258282,1
1.90123,-1.32472,-1.74991,-0.626477,2.61365,1.88481,-0.952156,1.90123,-1.32472,-1.74991,-0.626477,2.61365,1.88481,-0.952156,1.96577,-1.3336,-1.68086,-0.651849,2.59292,1.90876,-0.929148,-0.375148,-1.10563,-0.772827,1.19286,0.316384,0.925036,-0.836957,-0.375148,-1.10563,-0.772827,1.19286,0.316384,0.925036,-0.836957,0.3764,-0.621018,0.587704,0.627501,-0.12892,-0.417596,0.644388,-0.500153,-0.630116,-0.881633,0.506505,-0.53355,0.551832,0,0,0,0,0,-0.25,-0.64534,0.088845,-0.690495,0.253728,0.207226,-0.239495,-0.230079,1
1.90325,-1.29666,-1.72671,-0.63584,2.65449,1.93191,-0.907421,1.90325,-1.29666,-1.72671,-0.63584,2.65449,1.93191,-0.907421,1.9528,-1.32295,-1.6868,-0.662427,2.59733,1.89791,-0.932529,-1.2244,1.00606,-0.560477,-0.998994,0.415928,-1.02464,-0.319312,-1.2244,1.00606,-0.560477,-0.998994,0.415928,-1.02464,-0.319312,0.371928,-0.622756,0.594174,0.628853,-0.126086,-0.413594,0.646209,-0.451527,-0.161194,0.573328,0.506505,-0.53355,0.551832,0,0,0,0,0,-0.25,-0.495505,0.262901,-0.399087,0.26586,0.571675,0.339973,0.251075,1
1.9391,-1.28243,-1.70711,-0.701773,2.64425,1.87905,-0.894897,1.9391,-1.28243,-1.70711,-0.701773,2.64425,1.87905,-0.894897,1.94253,-1.3233,-1.69937,-0.655263,2.60058,1.8953,-0.93644,-1.0276,-0.0352197,-1.25765,0.716349,0.325172,-0.261052,-0.391096,-1.0276,-0.0352197,-1.25765,0.716349,0.325172,-0.261052,-0.391096,0.364491,-0.628783,0.592824,0.637832,-0.126162,-0.40941,0.640029,-1.49562,-1.30698,-0.32502,0.506505,-0.53355,0.551832,0,0,0,0,0,-0.25,-0.0342695,0.408738,-0.0773221,-0.465097,0.436678,-0.162501,0.415434,1
1.87813,-1.31535,-1.70075,-0.66547,2.66652,1.93774,-0.960687,1.87813,-1.31535,-1.70075,-0.66547,2.66652,1.93774,-0.960687,1.9347,-1.31799,-1.70482,-0.651393,2.61132,1.9026,-0.930658,-0.739142,0.501406,-0.51439,0.365532,1.01469,0.688957,0.546126,-0.739142,0.501406,-0.51439,0.365532,1.01469,0.688957,0.546126,0.356976,-0.631449,0.594699,0.639591,-0.133471,-0.410598,0.636017,-0.664792,-0.294825,0.201275,0.506505,-0.53355,0.551832,0,0,0,0,0,-0.25,-0.56575,0.0264185,0.0407044,-0.140772,0.551991,0.351428,-0.300291,1
1.92845,-1.3135,-1.72567,-0.625147,2.67222,1.97289,-0.957268,1.92845,-1.3135,-1.72567,-0.625147,2.67222,1.97289,-0.957268,1.93558,-1.31091,-1.70528,-0.661432,2.61788,1.8979,-0.923532,0.087657,0.708679,-0.0455486,-1.00388,0.656062,-0.469159,0.712585,0.087657,0.708679,-0.0455486,-1.00388,0.656062,-0.469159,0.712585,0.360146,-0.628587,0.598543,0.632798,-0.131681,-0.411139,0.6428,0.584866,0.668193,0.764727,0.506505,-0.53355,0.551832,0,0,0,0,0,-0.25,-0.071262,-0.0258908,-0.203932,0.362852,0.543414,0.749831,-0.337357,1
1.87265,-1.33175,-1.75303,-0.683934,2.67423,1.92462,-0.926722,1.87265,-1.33175,-1.75303,-0.683934,2.67423,1.92462,-0.926722,1.92413,-1.31179,-1.70437,-0.662236,2.62757,1.90584,-0.930935,-1.1448,-0.0885718,0.0901837,-0.0804683,0.969186,0.793751,-0.74036,-1.1448,-0.0885718,0.0901837,-0.0804683,0.969186,0.793751,-0.74036,0.351842,-0.632807,0.59639,0.6382,-0.134322,-0.416203,0.633588,-1.56113,-0.884896,-0.345656,0.506505,-0.53355,0.551832,0,0,0,0,0,-0.25,-0.514845,-0.199536,-0.486601,-0.216972,0.466539,0.187788,0.0421322,1
1.94099,-1.33935,-1.7309,-0.620855,2.68538,1.95895,-0.944678,1.94099,-1.33935,-1.7309,-0.620855,2.68538,1.95895,-0.944678,1.92499,-1.31213,-1.70862,-0.654846,2.63647,1.9192,-0.936182,0.0813347,-0.0320581,-0.400773,0.69803,0.840301,1.2618,-0.49557,0.0813347,-0.0320581,-0.400773,0.69803,0.840301,1.2618,-0.49557,0.3486,-0.633449,0.594435,0.64256,-0.139405,-0.419795,0.625664,-0.254035,-0.098597,-0.148118,0.506505,-0.53355,0.551832,0,0,0,0,0,-0.25,0.16,-0.272181,-0.222839,0.339909,0.489075,0.397526,-0.0849522,1
1.8734,-1.30348,-1.75585,-0.619855,2.70042,1.97924,-0.950236,1.8734,-1.30348,-1.75585,-0.619855,2.70042,1.97924,-0.950236,1.91456,-1.31604,-1.71747,-0.660642,2.64399,1.92028,-0.934297,-0.985144,-0.369138,-0.835921,-0.547432,0.710587,0.101986,0.178041,-0.985144,-0.369138,-0.835921,-0.547432,0.710587,0.101986,0.178041,0.344184,-0.637513,0.589364,0.645975,-0.13704,-0.419322,0.622981,-0.426835,-0.384729,-0.489308,0.506505,-0.53355,0.551832,0,0,0,0,0,-0.25,-0.411644,0.125639,-0.383833,0.40787,0.564243,0.589571,-0.159389,1
1.88098,-1.33128,-1.78145,-0.597485,2.70134,1.98352,-0.954797,1.88098,-1.33128,-1.78145,-0.597485,2.70134,1.98352,-0.954797,1.91983,-1.32068,-1.72014,-0.652714,2.65224,1.92799,-0.936366,0.526661,-0.464476,-0.267676,0.792806,0.824627,0.770606,-0.206841,0.526661,-0.464476,-0.267676,0.792806,0.824627,0.770606,-0.206841,0.34448,-0.63825,0.584962,0.647924,-0.138074,-0.42371,0.617737,0.122435,-0.149275,-0.811381,0.506505,-0.53355,0.551832,0,0,0,0,0,-0.25,-0.388502,-0.105975,-0.61305,0.552289,0.491019,0.555346,-0.184315,1
1.84164,-1.26241,-1.79066,-0.581938,2.5955,2.00107,-0.960803,1.84164,-1.26241,-1.79066,-0.581938,2.5955,2.00107,-0.960803,1.91058,-1.31726,-1.72726,-0.646166,2.66184,1.9382,-0.93913,-0.873871,0.323882,-0.672026,0.618432,0.906751,0.964589,-0.261054,-0.873871,0.323882,-0.672026,0.618432,0.906751,0.964589,-0.261054,0.335199,-0.641596,0.585505,0.65422,-0.145347,-0.42451,0.60882,-0.826083,-0.382672,0.0751695,0.411391,-0.578251,0.688035,-9.06583,-4.26068,12.9821,-1.90229,-0.894021,2.47405,-0.689341,0.548435,-0.634038,0.642279,-0.663377,0.628664,-0.216733,1
1.834,-1.26794,-1.80195,-0.56957,2.60622,2.01285,-0.954971,1.834,-1.26794,-1.80195,-0.56957,2.60622,2.01062,-0.954971,1.90468,-1.32005,-1.73806,-0.636466,2.66971,1.94723,-0.942252,-0.589784,-0.279496,-1.07981,0.970038,0.787124,0.903103,-0.312198,-0.589784,-0.279496,-1.07981,0.970038,0.787124,0.903103,-0.312198,0.32801,-0.645682,0.581775,0.662029,-0.14958,-0.424248,0.599464,-1.36976,-0.94449,-0.722336,0.411391,-0.578251,0.688035,0,0,0,-2.85343,-1.34103,3.83607,-0.706801,0.521138,-0.638906,0.668955,-0.634941,0.656169,-0.127194,1
1.82468,-1.25425,-1.80445,-0.560261,2.58738,2.02111,-0.91653,1.82468,-1.25425,-1.80445,-0.560261,2.58738,2.01062,-0.91653,1.89212,-1.30857,-1.74854,-0.625601,2.65493,1.95796,-0.945948,-1.25608,1.14852,-1.04824,1.08653,-1.47871,1.07274,-0.369658,-1.25608,1.14852,-1.04824,1.08653,-1.47871,1.07274,-0.369658,0.316026,-0.646251,0.590897,0.672089,-0.164902,-0.411086,0.59339,-2.33272,-0.465989,1.71343,0.411391,-0.578251,0.688035,0,0,0,-2.85343,-1.34103,3.83607,-0.674372,0.543198,-0.559085,0.653391,-0.675479,0.631496,0.294177,1
1.80742,-1.26494,-1.82153,-0.544857,2.58333,2.02883,-0.948319,1.80742,-1.26494,-1.82153,-0.544857,2.58333,2.01062,-0.948319,1.88054,-1.30047,-1.75918,-0.614436,2.64522,1.96845,-0.947746,-1.09386,0.764664,-1.00519,1.05454,-0.916703,0.991204,-0.169817,-1.09386,0.764664,-1.00519,1.05454,-0.916703,0.991204,-0.169817,0.30467,-0.647545,0.597014,0.681093,-0.178311,-0.400384,0.586523,-1.04703,-0.271704,0.544708,0.411391,-0.578251,0.688035,0,0,0,-1.90229,-0.894021,2.47405,-0.731119,0.355297,-0.623469,0.695789,-0.618934,0.603758,-0.00572834,1
1.80124,-1.28934,-1.7953,-0.60523,2.63131,1.94323,-0.94334,1.80124,-1.28934,-1.7953,-0.60523,2.63131,1.94323,-0.94334,1.86941,-1.29126,-1.7682,-0.603641,2.63369,1.97686,-0.941526,-1.05126,0.869977,-0.851947,1.01961,-1.08864,0.793694,0.587503,-1.05126,0.869977,-0.851947,1.01961,-1.08864,0.793694,0.587503,0.293885,-0.64815,0.604338,0.686786,-0.192915,-0.388337,0.583355,-1.00245,-0.203682,0.657678,0.411391,-0.578251,0.688035,0,0,0,-5.96046e-07,1.19209e-06,-0.249999,-0.681611,0.0191577,-0.27094,-0.0158941,-0.0238287,-0.336266,-0.0181387,1
1.80936,-1.24757,-1.79932,-0.650383,2.60472,1.93413,-0.95153,1.80936,-1.24757,-1.79932,-0.650383,2.60472,1.93413,-0.95153,1.8564,-1.28858,-1.77607,-0.598276,2.6287,1.9765,-0.942356,-1.30005,0.267814,-0.786741,0.536455,-0.499025,-0.0358572,-0.0829978,-1.30005,0.267814,-0.786741,0.536455,-0.499025,-0.0358572,-0.0829978,0.284396,-0.651649,0.606569,0.69369,-0.197473,-0.380979,0.578493,-1.91652,-0.870047,0.380011,0.411391,-0.578251,0.688035,0,0,0,-5.96046e-07,1.19209e-06,-0.249999,-0.470404,0.410155,-0.232501,-0.52107,-0.239852,-0.423647,-0.0917416,1
1.78989,-1.24944,-1.83649,-0.625878,2.65278,1.98342,-0.952355,1.78989,-1.24944,-1.83649,-0.625878,2.65278,1.98342,-0.952355,1.84541,-1.28873,-1.7799,-0.599662,2.62922,1.96987,-0.942552,-1.03817,-0.014348,-0.361861,-0.130879,0.0490765,-0.626132,-0.0185183,-1.03817,-0.014348,-0.361861,-0.130879,0.0490765,-0.626132,-0.0185183,0.278439,-0.655521,0.606401,0.697291,-0.195518,-0.378383,0.576528,-0.580935,-0.376238,-0.0389825,0.411391,-0.578251,0.688035,0,0,0,-5.96046e-07,1.19209e-06,-0.249999,-0.555205,0.392908,-0.565883,-0.262156,0.235609,0.13551,-0.0980318,1
1.7965,-1.25267,-1.83613,-0.62546,2.61572,2.00822,-0.926577,1.7965,-1.25267,-1.83613,-0.62546,2.61572,2.00822,-0.926577,1.83823,-1.28053,-1.78377,-0.609769,2.62434,1.96275,-0.944341,-0.718321,0.820313,-0.386948,-1.01069,-0.488289,-0.712079,-0.1789,-0.718321,0.820313,-0.386948,-1.01069,-0.488289,-0.712079,-0.1789,0.277543,-0.654418,0.611886,0.697764,-0.193534,-0.372428,0.580489,-0.253571,0.214581,0.998462,0.411391,-0.578251,0.688035,0,0,0,-5.96046e-07,1.19209e-06,-0.249999,-0.417334,0.278592,-0.523604,-0.156908,-0.0862392,0.45471,0.177636,1
1.7811,-1.29242,-1.7901,-0.643028,2.68046,1.91637,-0.918983,1.7811,-1.29242,-1.7901,-0.643028,2.68046,1.91637,-0.918983,1.8286,-1.27433,-1.79427,-0.612979,2.63001,1.96687,-0.945938,-0.963184,0.619462,-1.05049,-0.320986,0.566779,0.411912,-0.159693,-0.963184,0.619462,-1.05049,-0.320986,0.566779,0.411912,-0.159693,0.27174,-0.655115,0.614124,0.701593,-0.19654,-0.368781,0.577183,-1.16354,-0.24347,0.418136,0.411391,-0.578251,0.688035,0,0,0,-5.96046e-07,1.19209e-06,-0.249999,-0.474995,-0.180856,0.0417642,-0.300487,0.504509,-0.504941,0.269548,1
1.85375,-1.24735,-1.77573,-0.655652,2.6559,1.99499,-0.933823,1.85375,-1.24735,-1.77573,-0.655652,2.6559,1.99499,-0.933823,1.8222,-1.27002,-1.80261,-0.615466,2.62716,1.97511,-0.94208,-0.604179,0.407747,-0.787756,-0.234902,-0.268981,0.778276,0.364382,-0.604179,0.407747,-0.787756,-0.234902,-0.268981,0.778276,0.364382,0.268058,-0.654106,0.615859,0.703587,-0.202347,-0.362372,0.576808,-0.351572,0.0272814,0.142755,0.411391,-0.578251,0.688035,0,0,0,-5.96046e-07,1.19209e-06,-0.249999,0.315525,0.226649,0.268862,-0.401859,0.287399,0.198838,0.0825693,1
1.83344,-1.25649,-1.79185,-0.649839,2.70345,2.00071,-0.905462,1.83344,-1.25649,-1.79185,-0.649839,2.70345,2.00071,-0.905462,1.81401,-1.27448,-1.80012,-0.620958,2.63778,1.9634,-0.937478,-0.819027,-0.446399,0.249409,-0.549204,1.06204,-1.17035,0.460237,-0.819027,-0.446399,0.249409,-0.549204,1.06204,-1.17035,0.460237,0.264821,-0.659249,0.612127,0.70247,-0.195103,-0.367678,0.577307,-0.663126,-0.874362,-0.733405,0.411391,-0.578251,0.688035,0,0,0,-5.96046e-07,1.19209e-06,-0.249999,0.19424,0.179967,0.0827062,-0.28881,0.656743,0.373101,0.320156,1
1.85559,-1.2971,-1.82799,-0.59655,2.70967,2.04169,-0.965034,1.85559,-1.2971,-1.82799,-0.59655,2.70967,2.01062,-0.965034,1.81979,-1.27004,-1.79696,-0.62726,2.64639,1.9703,-0.933767,0.578238,0.444533,0.3165,-0.630176,0.861123,0.689581,0.37106,0.578238,0.444533,0.3165,-0.630176,0.861123,0.689581,0.37106,0.268966,-0.655541,0.613577,0.69667,-0.197247,-0.372559,0.580469,0.880481,0.809873,0.366653,0.411391,-0.578251,0.688035,0,0,0,-5.96046e-07,1.19209e-06,-0.249999,0.357975,-0.270642,-0.310306,0.307095,0.632794,0.713928,-0.312667,1
1.78493,-1.25834,-1.84391,-0.580446,2.71637,2.03958,-0.930674,1.78493,-1.25834,-1.84391,-0.580446,2.71637,2.01062,-0.930674,1.82123,-1.26861,-1.79642,-0.629634,2.65239,1.9735,-0.93079,0.286917,0.28502,0.107382,-0.474899,1.20018,0.639688,0.595327,0.286917,0.28502,0.107382,-0.474899,1.20018,0.639688,0.595327,0.269854,-0.6546,0.613559,0.694229,-0.198289,-0.375209,0.581331,0,0,0,0.411391,-0.578251,0.688035,0,0,0,-5.96046e-07,1.19209e-06,-0.249999,-0.362983,0.102683,-0.474934,0.491879,0.639802,0.660867,0.00116662,1
1.79723,-1.28694,-1.86838,-0.575049,2.71288,2.04851,-0.924748,1.79723,-1.28694,-1.86838,-0.575049,2.71288,2.01062,-0.924748,1.8291,-1.27327,-1.80232,-0.624743,2.66811,1.98319,-0.935481,0.659149,-0.593096,-0.638595,0.701578,1.03435,0.682764,-0.735416,0.659149,-0.593096,-0.638595,0.701578,1.03435,0.682764,-0.735416,0.272256,-0.654702,0.607956,0.695386,-0.19766,-0.382156,0.575609,0.361293,-0.171069,-1.06589,0.411391,-0.578251,0.688035,0,0,0,-5.96046e-07,1.19209e-06,-0.249999,-0.318719,-0.136718,-0.660554,0.496946,0.447709,0.65323,0.107327,1
1.75266,-1.23682,-1.84811,-0.660946,2.72421,1.9589,-0.935653,1.75266,-1.23682,-1.84811,-0.660946,2.72421,1.9589,-0.935653,1.8203,-1.27029,-1.81061,-0.615916,2.67772,1.98865,-0.934523,-0.880212,0.297382,-0.82869,0.882671,0.961778,0.546714,0.0957908,-0.880212,0.297382,-0.82869,0.882671,0.961778,0.546714,0.0957908,0.262851,-0.657791,0.608828,0.700211,-0.204119,-0.381426,0.567939,-1.82615,-0.755653,0.21471,0.411391,-0.578251,0.688035,0,0,0,-5.96046e-07,1.19209e-06,-0.249999,-0.676395,0.33478,-0.375018,-0.450299,0.464874,-0.297527,-0.0113023,1
1.76165,-1.24806,-1.85699,-0.630898,2.73094,2.00316,-0.94338,1.76165,-1.24806,-1.85699,-0.630898,2.73094,2.00316,-0.94338,1.81788,-1.27204,-1.81669,-0.611619,2.68142,1.99096,-0.933495,-0.485218,-0.350104,-1.21503,0.85956,0.739363,0.462081,0.205591,-0.485218,-0.350104,-1.21503,0.85956,0.739363,0.462081,0.205591,0.259895,-0.659566,0.606971,0.702852,-0.205413,-0.380462,0.564848,-0.585472,-0.407524,-0.373766,0.411391,-0.578251,0.688035,0,0,0,-5.96046e-07,1.19209e-06,-0.249999,-0.562208,0.239881,-0.402996,-0.192798,0.495155,0.121987,-0.098843,1
1.76453,-1.23738,-1.85428,-0.637396,2.72655,1.99211,-0.884938,1.76453,-1.23738,-1.85428,-0.637396,2.72655,1.99211,-0.884938,1.80908,-1.26974,-1.82486,-0.613365,2.68888,1.98944,-0.932899,-1.32595,0.773896,-0.546654,-1.11838,0.830424,-0.717854,-0.0647376,-1.32595,0.773896,-0.546654,-1.11838,0.830424,-0.717854,-0.0647376,0.254526,-0.662023,0.607023,0.705796,-0.205169,-0.379018,0.562231,-0.526457,-0.360151,-0.33225,0.411391,-0.578251,0.688035,0,0,0,-5.96046e-07,1.19209e-06,-0.249999,-0.445409,0.323659,-0.294216,-0.240312,0.376652,0.0267,0.479609,1
1.76377,-1.26491,-1.84603,-0.650114,2.75456,1.97064,-0.908367,1.76377,-1.26491,-1.84603,-0.650114,2.75456,1.97064,-0.908367,1.79488,-1.26265,-1.83322,-0.620865,2.70024,1.98961,-0.935219,-0.826698,0.363111,-0.591502,-0.249678,0.763974,0.337398,-0.203065,-0.826698,0.363111,-0.591502,-0.249678,0.763974,0.337398,-0.203065,0.252099,-0.662811,0.608532,0.706342,-0.203891,-0.37851,0.562352,-0.500231,-0.146673,0.284498,0.411391,-0.578251,0.688035,0,0,0,-5.96046e-07,1.19209e-06,-0.249999,-0.311016,-0.0225824,-0.128135,-0.29249,0.543251,-0.189666,0.268527,1
1.76741,-1.22678,-1.79985,-0.653007,2.75024,2.04867,-0.940434,1.76741,-1.22678,-1.79985,-0.653007,2.75024,2.01062,-0.940434,1.79168,-1.25999,-1.83543,-0.622604,2.703,1.98987,-0.929932,-0.638165,0.531543,-0.442968,-0.347684,0.55337,0.0527469,1.05755,-0.638165,0.531543,-0.442968,-0.347684,0.55337,0.0527469,1.05755,0.24669,-0.663962,0.609267,0.709162,-0.205797,-0.378267,0.558256,0,0,0,0.411391,-0.578251,0.688035,0,0,0,-5.96046e-07,1.19209e-06,-0.249999,-0.242794,0.332055,0.3558,-0.304037,0.472369,0.587967,-0.105026,1
1.7889,-1.24396,-1.87966,-0.603652,2.77093,2.05154,-0.939652,1.7889,-1.24396,-1.87966,-0.603652,2.77093,2.01062,-0.939652,1.78384,-1.25906,-1.83913,-0.629331,2.71526,1.98623,-0.921846,-0.499265,-0.145344,-0.171701,-0.517188,0.978033,-0.387889,0.335429,-0.499265,-0.145344,-0.171701,-0.517188,0.978033,-0.387889,0.335429,0.24134,-0.666633,0.608959,0.706634,-0.205407,-0.379584,0.560707,-0.377954,-0.40465,-0.489743,0.411391,-0.578251,0.688035,0,0,0,-5.96046e-07,1.19209e-06,-0.249999,0.0506456,0.151037,-0.405306,0.256789,0.556753,0.653159,-0.178064,1
1.74958,-1.26987,-1.87315,-0.601918,2.78574,2.02665,-0.887027,1.74958,-1.26987,-1.87315,-0.601918,2.78574,2.01062,-0.887027,1.78211,-1.25567,-1.835,-0.631821,2.71894,1.98879,-0.923801,-0.345601,0.678951,0.82614,-0.497974,0.735737,0.513157,-0.390966,-0.345601,0.678951,0.82614,-0.497974,0.735737,0.513157,-0.390966,0.240152,-0.665758,0.610878,0.705539,-0.207267,-0.382412,0.559479,0,0,0,0.411391,-0.578251,0.688035,0,0,0,-5.96046e-07,1.19209e-06,-0.249999,-0.325248,-0.141952,-0.381468,0.299027,0.668054,0.378539,0.367741,1
1.75397,-1.23449,-1.8736,-0.632878,2.79794,2.05283,-0.91968,1.75397,-1.23449,-1.8736,-0.632878,2.79794,2.01062,-0.91968,1.78222,-1.2509,-1.84094,-0.627992,2.73193,1.99498,-0.92836,0.156935,0.163194,-0.910085,0.572065,0.916623,0.367675,-0.265406,0.156935,0.163194,-0.910085,0.572065,0.916623,0.367675,-0.265406,0.237626,-0.665361,0.612337,0.707302,-0.210483,-0.385334,0.55402,-0.128717,-0.0620851,-0.0142629,0.411391,-0.578251,0.688035,0,0,0,-5.96046e-07,1.19209e-06,-0.249999,-0.282518,0.164187,-0.32658,-0.0488647,0.660055,0.578523,0.0868048,1
1.71364,-1.23642,-1.88017,-0.634885,2.80048,2.04323,-0.955414,1.71364,-1.23642,-1.88017,-0.634885,2.80048,2.01062,-0.955414,1.77572,-1.25468,-1.84736,-0.622796,2.74266,1.9981,-0.920124,-0.614287,-0.356842,-0.606136,0.490708,1.01268,0.294411,0.777893,-0.614287,-0.356842,-0.606136,0.490708,1.01268,0.294411,0.777893,0.231131,-0.669125,0.608378,0.708981,-0.213258,-0.38657,0.549937,-0.597942,-0.377286,-0.35595,0.411391,-0.578251,0.688035,0,0,0,-5.96046e-07,1.19209e-06,-0.249999,-0.620808,0.182609,-0.328144,-0.120884,0.578282,0.451312,-0.352903,1
1.73454,-1.24214,-1.8874,-0.630168,2.81112,2.0569,-0.915231,1.73454,-1.24214,-1.8874,-0.630168,2.81112,2.01062,-0.915231,1.77139,-1.25066,-1.85259,-0.624805,2.75367,2.00059,-0.920035,-0.433355,0.402449,-0.522873,-0.200896,1.10159,0.249604,0.00885196,-0.433355,0.402449,-0.522873,-0.200896,1.10159,0.249604,0.00885196,0.227927,-0.669562,0.609181,0.709671,-0.214572,-0.388182,0.547394,-0.613717,-0.106729,0.191523,0.411391,-0.578251,0.688035,0,0,0,-5.96046e-07,1.19209e-06,-0.249999,-0.368441,0.0851447,-0.348109,-0.0536279,0.574449,0.563037,0.0480466,1
1.74427,-1.23227,-1.85661,-0.662693,2.82655,1.98327,-0.880338,1.74427,-1.23227,-1.85661,-0.662693,2.82655,1.98327,-0.880338,1.75988,-1.24782,-1.85808,-0.626814,2.763,2.00259,-0.927085,-1.15069,0.283677,-0.54968,-0.200846,0.932796,0.199868,-0.704968,-1.15069,0.283677,-0.54968,-0.200846,0.932796,0.199868,-0.704968,0.220128,-0.671823,0.609334,0.714613,-0.215303,-0.389142,0.539946,-1.53853,-0.512631,0.0485659,0.411391,-0.578251,0.688035,0,0,0,-5.96046e-07,1.19209e-06,-0.249999,-0.15608,0.155543,0.014759,-0.358794,0.635479,-0.19321,0.467465,1
1.71773,-1.23085,-1.87807,-0.655899,2.83215,2.04548,-0.902454,1.71773,-1.23085,-1.87807,-0.655899,2.83215,2.01062,-0.902454,1.75483,-1.24669,-1.86392,-0.627482,2.77259,2.00419,-0.924723,-0.504878,0.113136,-0.584122,-0.0668396,0.958791,0.160041,0.236213,-0.504878,0.113136,-0.584122,-0.0668396,0.958791,0.160041,0.236213,0.216322,-0.67328,0.608416,0.715737,-0.216159,-0.390048,0.537456,-0.745345,-0.312735,-0.165017,0.411391,-0.578251,0.688035,0,0,0,-5.96046e-07,1.19209e-06,-0.249999,-0.371042,0.158395,-0.141509,-0.284166,0.59561,0.412902,0.222683,1
1.7527,-1.23876,-1.84417,-0.627122,2.85101,2.07174,-0.938216,1.7527,-1.23876,-1.84417,-0.627122,2.84842,2.01062,-0.938216,1.75273,-1.24382,-1.86247,-0.634498,2.78334,2.00002,-0.915879,-0.210404,0.287397,0.145803,-0.701624,1.07522,-0.416884,0.884415,-0.210404,0.287397,0.145803,-0.701624,1.07522,-0.416884,0.884415,0.21652,-0.673727,0.608817,0.711003,-0.21442,-0.393985,0.541549,0,0,0,0.411391,-0.578251,0.688035,0,0,0,-5.96046e-07,1.19209e-06,-0.249999,-0.000229172,0.0505483,0.182969,0.0737602,0.676713,0.717205,-0.223378,1
1.71787,-1.24286,-1.89116,-0.613201,2.85084,2.06196,-0.92353,1.71787,-1.24286,-1.89116,-0.613201,2.84842,2.01062,-0.92353,1.74905,-1.24245,-1.86411,-0.636749,2.78847,2.00114,-0.914467,-0.736113,0.272685,-0.328284,-0.450085,1.02653,0.222938,0.282333,-0.736113,0.272685,-0.328284,-0.450085,1.02653,0.222938,0.282333,0.214322,-0.674246,0.608727,0.711083,-0.215043,-0.394872,0.54055,-0.425925,-0.109724,-0.00134135,0.411391,-0.578251,0.688035,0,0,0,-5.96046e-07,1.19209e-06,-0.249999,-0.311805,-0.00406698,-0.270583,0.235474,0.623646,0.608204,-0.0906341,1
1.75753,-1.25065,-1.89469,-0.615665,2.8699,2.05971,-0.893005,1.75753,-1.25065,-1.89469,-0.615665,2.84842,2.01062,-0.893005,1.74714,-1.24074,-1.86131,-0.636443,2.8041,2.00383,-0.918188,0.130829,0.0465126,0.4029,0.219081,1.04173,0.159749,-0.470761,0.130829,0.0465126,0.4029,0.219081,1.04173,0.159749,-0.470761,0.211908,-0.67491,0.608473,0.710747,-0.215694,-0.399473,0.537341,-0.433054,-0.117289,0.017262,0.411391,-0.578251,0.688035,0,0,0,-5.96046e-07,1.19209e-06,-0.249999,0.103868,-0.0990974,-0.333839,0.207784,0.658044,0.558782,0.251823,1
1.70116,-1.23549,-1.90265,-0.594292,2.87893,2.06409,-0.930791,1.70116,-1.23549,-1.90265,-0.594292,2.84842,2.01062,-0.930791,1.74131,-1.24116,-1.86726,-0.631812,2.81293,2.00518,-0.919252,-0.583283,-0.0422295,-0.594899,0.463121,0.883148,0.13543,-0.106457,-0.583283,-0.0422295,-0.594899,0.463121,0.883148,0.13543,-0.106457,0.205578,-0.677551,0.607011,0.713683,-0.21737,-0.403811,0.529475,0,0,0,0.411391,-0.578251,0.688035,0,0,0,-5.96046e-07,1.19209e-06,-0.249999,-0.401447,0.056696,-0.353905,0.375205,0.659996,0.589036,-0.115383,1
1.7099,-1.24199,-1.90531,-0.600113,2.8762,2.06961,-0.945078,1.7099,-1.24199,-1.90531,-0.600113,2.84842,2.01062,-0.945078,1.74301,-1.24216,-1.87014,-0.630114,2.81666,2.00575,-0.916492,0.341127,-0.199537,-0.577003,0.339602,0.746399,0.11446,0.552015,0.341127,-0.199537,-0.577003,0.339602,0.746399,0.11446,0.552015,0.206022,-0.677915,0.605827,0.713293,-0.217401,-0.404324,0.529596,0,0,0,0.411391,-0.578251,0.688035,0,0,0,-5.96046e-07,1.19209e-06,-0.249999,-0.33108,0.00173284,-0.351626,0.300008,0.595429,0.638589,-0.285859,1
1.6929,-1.24192,-1.93579,-0.581552,2.8813,2.07078,-0.94153,1.6929,-1.24192,-1.93579,-0.581552,2.84842,2.01062,-0.94153,1.73589,-1.24155,-1.87869,-0.621759,2.82566,2.00713,-0.917364,-0.864336,0.150643,-0.596269,0.68353,0.566257,0.0868354,-0.334131,-0.864336,0.150643,-0.596269,0.68353,0.566257,0.0868354,-0.334131,0.206418,-0.678236,0.604769,0.712944,-0.217433,-0.40478,0.529704,0.0832063,-0.0580067,-0.20472,0.411391,-0.578251,0.688035,0,0,0,-5.96046e-07,1.19209e-06,-0.249999,-0.429973,-0.00368971,-0.571001,0.402073,0.556352,0.636451,-0.241662,1
1.69345,-1.24025,-1.94174,-0.592667,2.87627,2.07024,-0.912498,1.69345,-1.24025,-1.94174,-0.592667,2.84842,2.01062,-0.912498,1.73316,-1.24159,-1.88149,-0.619483,2.82805,2.0075,-0.920278,-0.546632,-0.00926069,-0.559826,0.455254,0.478576,0.0733895,-0.582881,-0.546632,-0.00926069,-0.559826,0.455254,0.478576,0.0733895,-0.582881,0.197982,-0.680686,0.605509,0.717855,-0.220799,-0.403732,0.522429,0,0,0,0.411391,-0.578251,0.688035,0,0,0,-5.96046e-07,1.19209e-06,-0.249999,-0.397089,0.0134785,-0.602511,0.268155,0.482171,0.627341,0.0777973,1
1.67247,-1.22945,-1.9501,-0.595653,2.86912,2.06539,-0.932889,1.67247,-1.22945,-1.9501,-0.595653,2.84842,2.01062,-0.932889,1.72674,-1.24166,-1.88944,-0.613671,2.83211,2.00812,-0.924847,-0.642281,-0.00710038,-0.795174,0.581159,0.405741,0.0622202,-0.456858,-0.642281,-0.00710038,-0.795174,0.581159,0.405741,0.0622202,-0.456858,0.188884,-0.683785,0.604826,0.72541,-0.222687,-0.401713,0.512657,0,0,0,0.411391,-0.578251,0.688035,0,0,0,-5.96046e-07,1.19209e-06,-0.249999,-0.542689,0.122157,-0.606657,0.180185,0.370105,0.572663,-0.0804186,1
1.66994,-1.2302,-1.93997,-0.600886,2.8747,2.06141,-0.961098,1.66994,-1.2302,-1.93997,-0.600886,2.84842,2.01062,-0.961098,1.72005,-1.24154,-1.8993,-0.60844,2.83536,2.00862,-0.925118,-0.625212,0.0303977,-0.997431,0.37071,0.306854,0.0470559,0.296603,-0.625212,0.0303977,-0.997431,0.37071,0.306854,0.0470559,0.296603,0.182589,-0.685804,0.60445,0.730039,-0.224727,-0.398136,0.507965,-0.559984,-0.22105,-0.0614466,0.411391,-0.578251,0.688035,0,0,0,-5.96046e-07,1.19209e-06,-0.249999,-0.501162,0.113402,-0.406721,0.0755401,0.393425,0.527867,-0.359796,1
1.67208,-1.23148,-1.95056,-0.596492,2.87547,2.06253,-0.956815,1.67208,-1.23148,-1.95056,-0.596492,2.84842,2.01062,-0.956815,1.71475,-1.24128,-1.90776,-0.605297,2.83796,2.00902,-0.922603,-0.500631,0.0243406,-0.798681,0.296841,0.245709,0.0376794,0.237501,-0.500631,0.0243406,-0.798681,0.296841,0.245709,0.0376794,0.237501,0.177914,-0.687252,0.604104,0.732993,-0.226501,-0.394732,0.505575,-0.450457,-0.173165,-0.0474708,0.411391,-0.578251,0.688035,0,0,0,-5.96046e-07,1.19209e-06,-0.249999,-0.426686,0.0979794,-0.428027,0.0880554,0.375058,0.535069,-0.342115,1
1.65808,-1.2333,-1.97689,-0.573249,2.88098,2.06644,-0.942589,1.65808,-1.2333,-1.97689,-0.573249,2.84842,2.01062,-0.942589,1.70606,-1.239,-1.91513,-0.603926,2.84004,2.00934,-0.927619,-0.86918,0.227892,-0.737287,0.137142,0.208314,0.0319449,-0.501594,-0.86918,0.227892,-0.737287,0.137142,0.208314,0.0319449,-0.501594,0.17141,-0.688543,0.605106,0.737944,-0.227738,-0.391679,0.500161,0,0,0,0.411391,-0.578251,0.688035,0,0,0,-5.96046e-07,1.19209e-06,-0.249999,-0.479798,0.0569695,-0.617603,0.30677,0.409344,0.570975,-0.149697,1
1.65442,-1.22178,-1.97442,-0.610494,2.88408,2.05706,-0.91265,1.65442,-1.22178,-1.97442,-0.610494,2.84842,2.01062,-0.91265,1.69909,-1.23738,-1.92119,-0.602858,2.84171,2.0096,-0.93384,-0.634724,0.138674,-0.690235,0.149636,0.157551,0.0241605,-0.540011,-0.634724,0.138674,-0.690235,0.149636,0.157551,0.0241605,-0.540011,0.166204,-0.689587,0.605752,0.742489,-0.228187,-0.389456,0.49494,-0.497961,-0.141934,0.0333422,0.411391,-0.578251,0.688035,0,0,0,-5.96046e-07,1.19209e-06,-0.249999,-0.446647,0.156026,-0.532298,-0.0763612,0.423704,0.474686,0.211903,1
1.64022,-1.21466,-1.97655,-0.61402,2.87636,2.05312,-0.960059,1.64022,-1.21466,-1.97655,-0.61402,2.84842,2.01062,-0.960059,1.69223,-1.2364,-1.92981,-0.599145,2.84305,2.0098,-0.936922,-0.802766,0.0727175,-1.1065,0.608679,0.126157,0.0193462,-0.133203,-0.802766,0.0727175,-1.1065,0.608679,0.126157,0.0193462,-0.133203,0.160314,-0.690937,0.606176,0.747248,-0.229635,-0.385671,0.490046,-0.446201,-0.125477,0.0301648,0.411391,-0.578251,0.688035,0,0,0,-5.96046e-07,1.19209e-06,-0.249999,-0.520147,0.217367,-0.467398,-0.148746,0.333147,0.433196,-0.231366,1
1.63981,-1.22991,-1.9655,-0.607954,2.88254,2.05783,-0.949959,1.63981,-1.22991,-1.9655,-0.607954,2.84842,2.01062,-0.949959,1.68504,-1.23457,-1.93893,-0.597902,2.84412,2.00996,-0.934903,-0.719726,0.300625,-0.834128,-0.295976,0.101019,0.0154912,0.523046,-0.719726,0.300625,-0.834128,-0.295976,0.101019,0.0154912,0.523046,0.156996,-0.691717,0.606367,0.749707,-0.230747,-0.383322,0.487606,-0.678837,-0.214909,0.0161679,0.411391,-0.578251,0.688035,0,0,0,-5.96046e-07,1.19209e-06,-0.249999,-0.45234,0.0466339,-0.265682,-0.100525,0.384202,0.478688,-0.150561,1
1.65209,-1.21353,-1.99169,-0.610306,2.89071,2.05234,-0.913038,1.65209,-1.21353,-1.99169,-0.610306,2.84842,2.01062,-0.913038,1.67745,-1.23127,-1.94623,-0.600782,2.84497,2.0101,-0.935454,-0.875052,0.390434,-0.712727,-0.311154,0.0808896,0.0124044,-0.578313,-0.875052,0.390434,-0.712727,-0.311154,0.0808896,0.0124044,-0.578313,0.150655,-0.692257,0.608157,0.753491,-0.232136,-0.376886,0.486128,-0.525128,-0.0697705,0.146373,0.411391,-0.578251,0.688035,0,0,0,-5.96046e-07,1.19209e-06,-0.249999,-0.253572,0.177411,-0.454562,-0.0952429,0.457375,0.422452,0.224164,1
1.6316,-1.21483,-1.99132,-0.61361,2.89969,2.04613,-0.91098,1.6316,-1.21483,-1.99132,-0.61361,2.84842,2.01062,-0.91098,1.67003,-1.22796,-1.95227,-0.603419,2.84566,2.0102,-0.940357,-0.700687,0.312635,-0.570708,-0.249152,0.0647713,0.00993266,-0.463077,-0.700687,0.312635,-0.570708,-0.249152,0.0647713,0.00993266,-0.463077,0.146346,-0.692517,0.60959,0.757165,-0.232183,-0.373855,0.482726,-0.421242,-0.0533528,0.116127,0.411391,-0.578251,0.688035,0,0,0,-5.96046e-07,1.19209e-06,-0.249999,-0.384263,0.131366,-0.390513,-0.101909,0.540252,0.359239,0.293768,1
1.62734,-1.21911,-1.97776,-0.604007,2.8879,2.06583,-0.964393,1.62734,-1.21911,-1.97776,-0.604007,2.84842,2.01062,-0.964393,1.6653,-1.22663,-1.95766,-0.60457,2.84621,2.01029,-0.938388,-0.31046,0.307824,-0.799716,-0.134811,0.0518648,0.00795345,0.595832,-0.31046,0.307824,-0.799716,-0.134811,0.0518648,0.00795345,0.595832,0.143463,-0.692947,0.609904,0.758801,-0.232846,-0.370869,0.482141,-0.188074,-0.00178272,0.107377,0.411391,-0.578251,0.688035,0,0,0,-5.96046e-07,1.19209e-06,-0.249999,-0.379618,0.0752218,-0.200939,0.00562873,0.416859,0.555485,-0.260059,1
1.62786,-1.21874,-1.9923,-0.584272,2.89682,2.06864,-0.95969,1.62786,-1.21874,-1.9923,-0.584272,2.84842,2.01062,-0.95969,1.65747,-1.22317,-1.96723,-0.606855,2.84683,2.01038,-0.930792,-0.643758,0.207726,-0.599452,-0.168113,0.0393455,0.00603362,0.49301,-0.643758,0.207726,-0.599452,-0.168113,0.0393455,0.00603362,0.49301,0.138813,-0.693285,0.611218,0.760437,-0.234957,-0.364779,0.483184,-0.168661,-0.00149237,0.0958322,0.411391,-0.578251,0.688035,0,0,0,-5.96046e-07,1.19209e-06,-0.249999,-0.296104,0.0443025,-0.250669,0.225824,0.499869,0.582556,-0.28898,1
1.62493,-1.22364,-2.02352,-0.582688,2.90016,2.06191,-0.919657,1.62493,-1.22364,-2.02352,-0.582688,2.84842,2.01062,-0.919657,1.65431,-1.22275,-1.96834,-0.606555,2.847,2.01041,-0.934325,-0.633824,0.0855553,-0.221293,0.0598833,0.0332547,0.0050996,-0.706735,-0.633824,0.0855553,-0.221293,0.0598833,0.0332547,0.0050996,-0.706735,0.136513,-0.693655,0.611464,0.762281,-0.235031,-0.364331,0.480575,0,0,0,0.411391,-0.578251,0.688035,0,0,0,-5.96046e-07,1.19209e-06,-0.249999,-0.293772,-0.00889597,-0.551772,0.238675,0.531602,0.515019,0.146683,1
1.60573,-1.21612,-2.01646,-0.620214,2.89818,2.04928,-0.91161,1.60573,-1.21612,-2.01646,-0.620214,2.84842,2.01062,-0.91161,1.64677,-1.22164,-1.97391,-0.6019,2.8474,2.01047,-0.941911,-0.470372,0.0721273,-0.457715,0.438679,0.0252276,0.00386864,-0.442411,-0.470372,0.0721273,-0.457715,0.438679,0.0252276,0.00386864,-0.442411,0.134454,-0.693979,0.611683,0.763922,-0.235097,-0.36393,0.478233,-0.415878,-0.090146,0.0393761,0.411391,-0.578251,0.688035,0,0,0,-5.96046e-07,1.19209e-06,-0.249999,-0.41035,0.0552634,-0.42549,-0.183133,0.507796,0.388101,0.303011,1
1.60023,-1.20578,-2.0314,-0.588196,2.87849,2.06207,-0.954783,1.60023,-1.20578,-2.0314,-0.588196,2.84842,2.01062,-0.954783,1.64478,-1.22134,-1.97584,-0.600047,2.84751,2.01048,-0.943781,-0.397557,0.0609618,-0.38686,0.37077,0.0213223,0.00326976,-0.373925,-0.397557,0.0609618,-0.38686,0.37077,0.0213223,0.00326976,-0.373925,0.129813,-0.694706,0.612494,0.767527,-0.236494,-0.361705,0.473436,0,0,0,0.411391,-0.578251,0.688035,0,0,0,-5.96046e-07,1.19209e-06,-0.249999,-0.445481,0.155601,-0.555537,0.11851,0.309815,0.51583,-0.110017,1
1.58769,-1.21522,-2.01046,-0.606479,2.89355,2.05012,-0.93793,1.58769,-1.21522,-2.01046,-0.606479,2.84842,2.01062,-0.93793,1.63713,-1.2212,-1.98861,-0.599072,2.84777,2.01052,-0.936096,-0.55582,0.0380976,-0.775844,-0.0851029,0.0161754,0.0024805,0.51477,-0.55582,0.0380976,-0.775844,-0.0851029,0.0161754,0.0024805,0.51477,0.12241,-0.696284,0.612146,0.77215,-0.238542,-0.353639,0.47098,-0.741377,-0.203337,-0.137245,0.411391,-0.578251,0.688035,0,0,0,-5.96046e-07,1.19209e-06,-0.249999,-0.494381,0.0597637,-0.218498,-0.0740725,0.45786,0.395962,-0.0183383,1
1.59175,-1.20524,-2.0459,-0.578676,2.88962,2.06232,-0.955308,1.59175,-1.20524,-2.0459,-0.578676,2.84842,2.01062,-0.955308,1.63325,-1.21958,-1.99311,-0.597928,2.84783,2.01053,-0.938061,-0.776159,0.324342,-0.89981,0.228763,0.0136714,0.00209651,-0.393022,-0.776159,0.324342,-0.89981,0.228763,0.0136714,0.00209651,-0.393022,0.12241,-0.696284,0.612146,0.77215,-0.238542,-0.353639,0.47098,0,0,0,0.411391,-0.578251,0.688035,0,0,0,-5.96046e-07,1.19209e-06,-0.249999,-0.415045,0.143368,-0.52785,0.192522,0.417856,0.517841,-0.172464,1
1.5716,-1.20992,-2.03674,-0.600498,2.89345,2.02798,-0.930053,1.5716,-1.20992,-2.03674,-0.600498,2.84842,2.01062,-0.930053,1.62535,-1.21782,-1.99854,-0.597912,2.84795,2.01055,-0.939621,-0.885114,0.0610648,-0.280248,-0.201369,0.0109467,0.00167867,0.0397419,-0.885114,0.0610648,-0.280248,-0.201369,0.0109467,0.00167867,0.0397419,0.116666,-0.696609,0.614026,0.776569,-0.240077,-0.348922,0.46643,-0.56324,-0.0779625,0.15683,0.411391,-0.578251,0.688035,0,0,0,-5.96046e-07,1.19209e-06,-0.249999,-0.537511,0.0790291,-0.382011,-0.0258596,0.455019,0.17428,0.0956855,1
1.57685,-1.19411,-2.04999,-0.629246,2.87988,2.04769,-0.928806,1.57685,-1.19411,-2.04999,-0.629246,2.84842,2.01062,-0.928806,1.61828,-1.21625,-2.00464,-0.596695,2.84804,2.01057,-0.941112,-0.623502,0.25884,-0.969641,0.423505,0.00876543,0.00134418,-0.333657,-0.623502,0.25884,-0.969641,0.423505,0.00876543,0.00134418,-0.333657,0.108656,-0.697594,0.614827,0.781076,-0.241648,-0.344213,0.461566,-0.502142,-0.0996804,-0.0189386,0.411391,-0.578251,0.688035,0,0,0,-5.96046e-07,1.19209e-06,-0.249999,-0.414238,0.221378,-0.453446,-0.325508,0.318344,0.371256,0.123055,1
1.54987,-1.20037,-2.05212,-0.599378,2.88573,2.03635,-0.945533,1.54987,-1.20037,-2.05212,-0.599378,2.84842,2.01062,-0.945533,1.60674,-1.21406,-2.01451,-0.595936,2.84815,2.01058,-0.940103,-0.874435,0.103163,-0.553162,-0.113528,0.00664991,0.00101976,0.250114,-0.874435,0.103163,-0.553162,-0.113528,0.00664991,0.00101976,0.250114,0.10615,-0.697727,0.615637,0.7831,-0.242457,-0.341889,0.459435,-0.523359,-0.0765648,0.141299,0.411391,-0.578251,0.688035,0,0,0,-5.96046e-07,1.19209e-06,-0.249999,-0.568669,0.136943,-0.376112,-0.0344214,0.375856,0.257668,-0.054295,1
1.57125,-1.20117,-2.05031,-0.594776,2.88577,2.06511,-0.95886,1.57125,-1.20117,-2.05031,-0.594776,2.84842,2.01062,-0.95886,1.6036,-1.21196,-2.01824,-0.599439,2.84818,2.01059,-0.938915,-0.628629,0.41954,-0.74609,-0.700573,0.00562022,0.000861859,0.237599,-0.628629,0.41954,-0.74609,-0.700573,0.00562022,0.000861859,0.237599,0.0994227,-0.698246,0.616404,0.786337,-0.243271,-0.335813,0.457954,-0.237362,0.0308007,0.0946992,0.411391,-0.578251,0.688035,0,0,0,-5.96046e-07,1.19209e-06,-0.249999,-0.32344,0.107938,-0.320681,0.0466258,0.375906,0.545268,-0.199444,1
1.54817,-1.20294,-2.04765,-0.648987,2.89161,1.97902,-0.902582,1.54817,-1.20294,-2.04765,-0.648987,2.84842,1.97902,-0.902582,1.59064,-1.20815,-2.02767,-0.601936,2.84824,2.0106,-0.939383,-1.01447,0.193671,-0.6086,0.0636715,0.00426379,0.000653851,-0.153047,-1.01447,0.193671,-0.6086,0.0636715,0.00426379,0.000653851,-0.153047,0.0912513,-0.698646,0.617974,0.790894,-0.244555,-0.329733,0.453823,-1.48745,-0.20933,0.170366,0.411391,-0.578251,0.688035,0,0,0,-5.96046e-07,1.19209e-06,-0.249999,-0.424701,0.0521044,-0.199843,-0.470508,0.433622,-0.315781,0.368005,1
1.54687,-1.18966,-2.08878,-0.580283,2.8938,2.05705,-0.93215,1.54687,-1.18966,-2.08878,-0.580283,2.84842,2.01062,-0.93215,1.58678,-1.20676,-2.03218,-0.60051,2.84828,2.0106,-0.943264,-0.386303,0.139084,-0.451208,0.14268,0.00341418,0.000523563,-0.388104,-0.386303,0.139084,-0.451208,0.14268,0.00341418,0.000523563,-0.388104,0.0881436,-0.698744,0.61886,0.793631,-0.244999,-0.32746,0.450439,0,0,0,0.411391,-0.578251,0.688035,0,0,0,-5.96046e-07,1.19209e-06,-0.249999,-0.399124,0.171021,-0.565993,0.202265,0.455228,0.46448,0.111141,1
1.54465,-1.18232,-2.02685,-0.645443,2.90466,2.04535,-0.91384,1.54465,-1.18232,-2.02685,-0.645443,2.84842,2.01062,-0.91384,1.57908,-1.206,-2.03526,-0.610169,2.84831,2.00431,-0.935157,-0.769294,0.0761094,-0.308304,-0.965978,0.00273386,-0.629337,0.810632,-0.769294,0.0761094,-0.308304,-0.965978,0.00273386,-0.629337,0.810632,0.0860915,-0.700165,0.617912,0.793369,-0.240842,-0.325131,0.454808,-0.459813,-0.217108,-0.2552,0.411391,-0.578251,0.688035,0,0,0,-5.96046e-07,1.19209e-06,-0.249999,-0.344385,0.236753,0.0841477,-0.352733,0.563582,0.410396,0.213176,1
1.55622,-1.21177,-2.03057,-0.644311,2.9007,2.04139,-0.949792,1.55622,-1.21177,-2.03057,-0.644311,2.84842,2.01062,-0.949792,1.5757,-1.20428,-2.04089,-0.607027,2.84832,2.00497,-0.934841,-0.677628,0.343676,-1.12554,0.628557,0.00231054,0.132802,0.0632594,-0.677628,0.343676,-1.12554,0.628557,0.00231054,0.132802,0.0632594,0.0827514,-0.700055,0.619196,0.795417,-0.242788,-0.321695,0.452635,-0.697843,-0.0509233,0.235562,0.411391,-0.578251,0.688035,0,0,0,-5.96046e-07,1.19209e-06,-0.249999,-0.194742,-0.0748652,0.103203,-0.37284,0.523791,0.364129,-0.149504,1
1.56427,-1.18583,-2.05821,-0.625363,2.9081,2.05971,-0.939169,1.56427,-1.18583,-2.05821,-0.625363,2.84842,2.01062,-0.939169,1.56995,-1.20137,-2.05043,-0.601698,2.84834,2.0061,-0.934305,-0.542602,0.275194,-0.901261,0.503309,0.00185014,0.10634,0.0506542,-0.542602,0.275194,-0.901261,0.503309,0.00185014,0.10634,0.0506542,0.0770995,-0.699814,0.621394,0.798846,-0.246071,-0.31584,0.448932,-0.558427,-0.0339425,0.191377,0.411391,-0.578251,0.688035,0,0,0,-5.96046e-07,1.19209e-06,-0.249999,-0.0568638,0.155377,-0.0777297,-0.236659,0.597628,0.536073,-0.0486392,1
1.56204,-1.17827,-2.0824,-0.588807,2.91617,2.06094,-0.917223,1.56204,-1.17827,-2.0824,-0.588807,2.84842,2.01062,-0.917223,1.56613,-1.20067,-2.04613,-0.610295,2.84835,2.007,-0.934008,-0.232781,-0.260851,0.365579,-0.799471,0.00148147,0.0851502,-0.370974,-0.232781,-0.260851,0.365579,-0.799471,0.00148147,0.0851502,-0.370974,0.077051,-0.699637,0.620633,0.797881,-0.244746,-0.31759,0.450134,0.0876083,-0.0321097,-0.299319,0.411391,-0.578251,0.688035,0,0,0,-5.96046e-07,1.19209e-06,-0.249999,-0.0408955,0.22394,-0.362741,0.214878,0.678149,0.539387,0.167848,1
1.53392,-1.21661,-2.06011,-0.607564,2.91703,2.05218,-0.914047,1.53392,-1.21661,-2.06011,-0.607564,2.84842,2.01062,-0.914047,1.565,-1.20015,-2.04593,-0.615081,2.84837,2.00772,-0.936036,-0.0172429,0.336644,-0.288484,-0.241678,0.00118627,0.068183,-0.0736374,-0.0172429,0.336644,-0.288484,-0.241678,0.00118627,0.068183,-0.0736374,0.0777361,-0.699447,0.620122,0.798099,-0.243315,-0.317997,0.450237,0.0546039,0.0889193,0.157547,0.411391,-0.578251,0.688035,0,0,0,-5.96046e-07,1.19209e-06,-0.249999,-0.310832,-0.164577,-0.141741,0.0751695,0.686599,0.444569,0.219888,1
1.54102,-1.19124,-2.06382,-0.6137,2.90483,2.06907,-0.960205,1.54102,-1.19124,-2.06382,-0.6137,2.84842,2.01062,-0.960205,1.56462,-1.1965,-2.05092,-0.613285,2.84838,2.0083,-0.934352,-0.0606711,0.428448,-0.739825,0.575313,0.000949892,0.0545967,0.402594,-0.0606711,0.428448,-0.739825,0.575313,0.000949892,0.0545967,0.402594,0.0780217,-0.699019,0.620866,0.798218,-0.243395,-0.317219,0.450532,0.0487121,0.0796875,0.140686,0.411391,-0.578251,0.688035,0,0,0,-5.96046e-07,1.19209e-06,-0.249999,-0.235983,0.0526192,-0.129012,-0.0041442,0.564521,0.607728,-0.258529,1
1.51815,-1.188,-2.08457,-0.598051,2.90505,2.04956,-0.942831,1.51815,-1.188,-2.08457,-0.598051,2.84842,2.01062,-0.942831,1.56115,-1.1969,-2.05485,-0.61038,2.84838,2.00876,-0.930605,-0.64002,-0.463186,-0.12354,0.0661978,0.000760614,0.0437176,0.389167,-0.64002,-0.463186,-0.12354,0.0661978,0.000760614,0.0437176,0.389167,0.0736058,-0.698939,0.622481,0.799759,-0.24698,-0.311999,0.449492,-0.475966,-0.187017,-0.328005,0.411391,-0.578251,0.688035,0,0,0,-5.96046e-07,1.19209e-06,-0.249999,-0.429949,0.0889972,-0.297203,0.123294,0.566696,0.407983,-0.12226,1
