Afshin1997/kuka_rl_ros2/src/catch_and_throw/input_files/idealpd/ballistic motion dataset/good trajectories/20.csv
pure_target_joint_0,pure_target_joint_1,pure_target_joint_2,pure_target_joint_3,pure_target_joint_4,pure_target_joint_5,pure_target_joint_6,target_joint_0,target_joint_1,target_joint_2,target_joint_3,target_joint_4,target_joint_5,target_joint_6,pos_joint_0,pos_joint_1,pos_joint_2,pos_joint_3,pos_joint_4,pos_joint_5,pos_joint_6,vel_joint_0,vel_joint_1,vel_joint_2,vel_joint_3,vel_joint_4,vel_joint_5,vel_joint_6,vel_smooth_joint_0,vel_smooth_joint_1,vel_smooth_joint_2,vel_smooth_joint_3,vel_smooth_joint_4,vel_smooth_joint_5,vel_smooth_joint_6,ee_pos_x,ee_pos_y,ee_pos_z,ee_or_w,ee_or_x,ee_or_y,ee_or_z,ee_vel_x,ee_vel_y,ee_vel_z,ball_pos_x,ball_pos_y,ball_pos_z,ball_raw_vx,ball_raw_vy,ball_raw_vz,ball_ema_vx,ball_ema_vy,ball_ema_vz,action_0,action_1,action_2,action_3,action_4,action_5,action_6,command_published
2.68409,-1.68061,1.69901,1.06853,1.36329,-1.34727,-2.79932,-66.1997,-18.8687,-6.14438,1.19375,-22.0807,16.0309,0.57798,2.65011,-1.60863,1.77353,1.00332,1.42838,-1.42068,-2.85376,0,0,0,0,0,0,0,0,0,0,0,0,0,0,0.700019,0.000109574,0.564352,-0.382541,9.71969e-05,0.000158438,0.923938,0,0,0,2.99241,-0.550465,0.903779,-3.53139,-0.302715,3.10797,-3.51274,-0.298678,3.14688,0.339799,-0.719736,-0.745248,0.652127,-0.650965,0.734018,0.544373,1
2.68586,-1.68102,1.69908,1.06813,1.36359,-1.34734,-2.79975,-66.2368,-18.8848,-6.15037,1.19463,-22.0499,16.0221,0.556063,2.65011,-1.60863,1.77353,1.00332,1.42838,-1.42068,-2.85376,0,0,0,0,0,0,0,0,0,0,0,0,0,0,0.700019,0.000109574,0.564352,-0.382541,9.71969e-05,0.000158438,0.923938,0,0,0,2.95815,-0.553176,0.933733,-3.30319,-0.261365,2.88747,-3.36606,-0.272559,2.96529,0.357524,-0.723884,-0.7445,0.648046,-0.647979,0.733326,0.540108,1
2.68043,-1.68103,1.69884,1.06897,1.36334,-1.34703,-2.79921,-66.2353,-18.8692,-6.14476,1.19239,-22.1196,16.0635,0.601857,2.65011,-1.60863,1.77353,1.00332,1.42838,-1.42068,-2.85376,0,0,0,0,0,0,0,0,0,0,0,0,0,0,0.700019,0.000109574,0.564352,-0.382541,9.71969e-05,0.000158438,0.923938,0,0,0,2.92338,-0.555912,0.962566,-3.63378,-0.28596,3.01379,-3.55346,-0.28194,2.99924,0.303246,-0.723972,-0.746859,0.656523,-0.650444,0.736428,0.545445,1
2.68186,-1.68138,1.69887,1.06862,1.36352,-1.34708,-2.79952,-66.2611,-18.8822,-6.15027,1.1931,-22.092,16.0536,0.582634,2.65011,-1.60863,1.77353,1.00332,1.42838,-1.42068,-2.85376,0,0,0,0,0,0,0,0,0,0,0,0,0,0,0.700019,0.000109574,0.564352,-0.382541,9.71969e-05,0.000158438,0.923938,0,0,0,2.88858,-0.558546,0.990431,-3.42081,-0.259001,2.73935,-3.46061,-0.265883,2.81732,0.317458,-0.727492,-0.746617,0.653012,-0.648647,0.735962,0.542349,1
2.6795,-1.68155,1.69874,1.06885,1.36348,-1.34695,-2.79938,-66.2693,-18.8809,-6.15081,1.19213,-22.1136,16.0692,0.596509,2.65011,-1.60863,1.77353,1.00332,1.42838,-1.42068,-2.85376,0,0,0,0,0,0,0,0,0,0,0,0,0,0,0.700019,0.000109574,0.564352,-0.382541,9.71969e-05,0.000158438,0.923938,0,0,0,2.85385,-0.561071,1.01734,-3.5342,-0.256847,2.73774,-3.51213,-0.259558,2.76161,0.293871,-0.729174,-0.747862,0.655276,-0.649088,0.737217,0.54381,1
2.67743,-1.6817,1.69863,1.06906,1.36344,-1.34685,-2.79926,-66.2764,-18.8801,-6.15152,1.19129,-22.1319,16.0825,0.608361,2.65011,-1.60863,1.77353,1.00332,1.42838,-1.42068,-2.85376,0,0,0,0,0,0,0,0,0,0,0,0,0,0,0.700019,0.000109574,0.564352,-0.382541,9.71969e-05,0.000158438,0.923938,0,0,0,2.81916,-0.563597,1.0432,-3.56283,-0.259464,2.6561,-3.54762,-0.259492,2.68775,0.273247,-0.730653,-0.748997,0.657355,-0.649483,0.738295,0.544971,1
2.68304,-1.68212,1.69886,1.06822,1.3639,-1.34705,-2.80005,-66.3193,-18.9048,-6.15903,1.19387,-22.0609,16.0498,0.559478,2.65011,-1.60863,1.77353,1.00332,1.42838,-1.42068,-2.85376,0,0,0,0,0,0,0,0,0,0,0,0,0,0,0.700019,0.000109574,0.564352,-0.382541,9.71969e-05,0.000158438,0.923938,0,0,0,2.78459,-0.566203,1.06786,-3.13629,-0.236416,2.23754,-3.25969,-0.243339,2.37261,0.329334,-0.734815,-0.746731,0.648971,-0.644812,0.736244,0.537094,1
2.67666,-1.68202,1.69855,1.06914,1.36354,-1.34675,-2.79938,-66.2999,-18.8866,-6.15421,1.19113,-22.1346,16.0899,0.609168,2.65011,-1.60863,1.77353,1.00332,1.42838,-1.42068,-2.85376,0,0,0,0,0,0,0,0,0,0,0,0,0,0,0.700019,0.000109574,0.564352,-0.382541,9.71969e-05,0.000158438,0.923938,0,0,0,2.75014,-0.568808,1.09153,-3.60174,-0.272337,2.47457,-3.49912,-0.263638,2.44398,0.265527,-0.733812,-0.749809,0.658143,-0.648469,0.739264,0.543822,1
2.67237,-1.682,1.69837,1.0697,1.36346,-1.34656,-2.79905,-66.2947,-18.8786,-6.15198,1.18929,-22.1819,16.1182,0.640554,2.65011,-1.60863,1.77353,1.00332,1.42838,-1.42068,-2.85376,0,0,0,0,0,0,0,0,0,0,0,0,0,0,0.700019,0.000109574,0.564352,-0.382541,9.71969e-05,0.000158438,0.923938,0,0,0,2.71586,-0.571464,1.11449,-3.63117,-0.281374,2.4315,-3.59155,-0.276053,2.43525,0.22262,-0.733619,-0.751619,0.663778,-0.649202,0.741187,0.547077,1
2.67948,-1.68245,1.69871,1.06878,1.36396,-1.34678,-2.7999,-66.3468,-18.9037,-6.15795,1.19258,-22.1031,16.0822,0.585926,2.65011,-1.60863,1.77353,1.00332,1.42838,-1.42068,-2.85376,0,0,0,0,0,0,0,0,0,0,0,0,0,0,0.700019,0.000109574,0.564352,-0.382541,9.71969e-05,0.000158438,0.923938,0,0,0,2.68144,-0.574127,1.13665,-3.08814,-0.238889,1.98857,-3.23916,-0.250038,2.12258,0.293677,-0.738158,-0.748179,0.654535,-0.644243,0.738926,0.538547,1
2.66844,-1.68214,1.69816,1.07004,1.3634,-1.34638,-2.7988,-66.2925,-18.8772,-6.15371,1.18758,-22.2131,16.1383,0.661447,2.65011,-1.60863,1.77353,1.00332,1.42838,-1.42068,-2.85376,0,0,0,0,0,0,0,0,0,0,0,0,0,0,0.700019,0.000109574,0.564352,-0.382541,9.71969e-05,0.000158438,0.923938,0,0,0,2.64681,-0.576889,1.15772,-3.81288,-0.304166,2.31987,-3.64077,-0.287928,2.26068,0.183349,-0.735073,-0.753709,0.667214,-0.649842,0.742998,0.549537,1
2.67914,-1.68274,1.69866,1.06868,1.36404,-1.34671,-2.79995,-66.3579,-18.911,-6.16133,1.19248,-22.0962,16.0822,0.58108,2.65011,-1.60863,1.77353,1.00332,1.42838,-1.42068,-2.85376,0,0,0,0,0,0,0,0,0,0,0,0,0,0,0.700019,0.000109574,0.564352,-0.382541,9.71969e-05,0.000158438,0.923938,0,0,0,2.61213,-0.579634,1.17767,-2.94151,-0.23283,1.6925,-3.15129,-0.249359,1.86295,0.290297,-0.741011,-0.748681,0.653579,-0.643413,0.739618,0.538128,1
2.66134,-1.68224,1.6978,1.0704,1.36316,-1.34615,-2.79829,-66.2678,-18.8737,-6.15888,1.18426,-22.2588,16.1646,0.693487,2.65011,-1.60863,1.77353,1.00332,1.42838,-1.42068,-2.85376,0,0,0,0,0,0,0,0,0,0,0,0,0,0,0.700019,0.000109574,0.564352,-0.382541,9.71969e-05,0.000158438,0.923938,0,0,0,2.57762,-0.582369,1.19645,-4.05959,-0.321697,2.2086,-3.7871,-0.299995,2.1049,0.112282,-0.736035,-0.757315,0.670807,-0.652256,0.745242,0.554721,1
2.66468,-1.68251,1.69787,1.06999,1.3633,-1.34622,-2.7986,-66.2862,-18.885,-6.16217,1.18583,-22.2188,16.1441,0.666257,2.65011,-1.60863,1.77353,1.00332,1.42838,-1.42068,-2.85376,0,0,0,0,0,0,0,0,0,0,0,0,0,0,0.700019,0.000109574,0.564352,-0.382541,9.71969e-05,0.000158438,0.923938,0,0,0,2.54302,-0.585077,1.2142,-3.5904,-0.281005,1.84177,-3.64941,-0.286702,1.92071,0.145738,-0.738784,-0.756605,0.666646,-0.65082,0.744523,0.551592,1
2.66892,-1.68284,1.69804,1.06949,1.36357,-1.34632,-2.79902,-66.315,-18.8989,-6.16506,1.18783,-22.173,16.1228,0.634661,2.65011,-1.60863,1.77353,1.00332,1.42838,-1.42068,-2.85376,0,0,0,0,0,0,0,0,0,0,0,0,0,0,0.700019,0.000109574,0.564352,-0.382541,9.71969e-05,0.000158438,0.923938,0,0,0,2.50855,-0.587739,1.23106,-3.34152,-0.258058,1.63432,-3.43389,-0.266651,1.72024,0.188123,-0.74204,-0.754893,0.661702,-0.648187,0.743595,0.547378,1
2.66543,-1.68291,1.69784,1.06962,1.36343,-1.34622,-2.79878,-66.3044,-18.8978,-6.1685,1.18619,-22.1926,16.1343,0.6485,2.65011,-1.60863,1.77353,1.00332,1.42838,-1.42068,-2.85376,0,0,0,0,0,0,0,0,0,0,0,0,0,0,0.700019,0.000109574,0.564352,-0.382541,9.71969e-05,0.000158438,0.923938,0,0,0,2.47399,-0.590318,1.24699,-3.54745,-0.264665,1.63514,-3.51338,-0.265261,1.66067,0.15325,-0.742793,-0.756898,0.662935,-0.649576,0.744524,0.549744,1
2.66448,-1.68298,1.6978,1.0697,1.36342,-1.34617,-2.79874,-66.3062,-18.8983,-6.16925,1.18579,-22.1996,16.1395,0.653151,2.65011,-1.60863,1.77353,1.00332,1.42838,-1.42068,-2.85376,0,0,0,0,0,0,0,0,0,0,0,0,0,0,0.700019,0.000109574,0.564352,-0.382541,9.71969e-05,0.000158438,0.923938,0,0,0,2.43952,-0.592992,1.26207,-3.48317,-0.270244,1.52396,-3.49223,-0.268749,1.56497,0.143734,-0.74345,-0.757325,0.663736,-0.64966,0.745053,0.550191,1
2.66545,-1.6831,1.69783,1.06961,1.36348,-1.34616,-2.79884,-66.3153,-18.9021,-6.1699,1.18629,-22.1898,16.1355,0.64624,2.65011,-1.60863,1.77353,1.00332,1.42838,-1.42068,-2.85376,0,0,0,0,0,0,0,0,0,0,0,0,0,0,0.700019,0.000109574,0.564352,-0.382541,9.71969e-05,0.000158438,0.923938,0,0,0,2.40503,-0.595746,1.27613,-3.37247,-0.269239,1.37507,-3.4084,-0.269092,1.43204,0.1534,-0.744618,-0.756972,0.662894,-0.649019,0.745116,0.5492,1
2.66382,-1.68316,1.69773,1.06965,1.3634,-1.34612,-2.79873,-66.31,-18.9026,-6.17232,1.18553,-22.1964,16.1394,0.651152,2.65011,-1.60863,1.77353,1.00332,1.42838,-1.42068,-2.85376,0,0,0,0,0,0,0,0,0,0,0,0,0,0,0.700019,0.000109574,0.564352,-0.382541,9.71969e-05,0.000158438,0.923938,0,0,0,2.37046,-0.598473,1.28916,-3.43658,-0.271197,1.29514,-3.42812,-0.270565,1.33621,0.137104,-0.7453,-0.758027,0.663248,-0.649829,0.745596,0.550288,1
2.66181,-1.68327,1.69761,1.06959,1.36332,-1.34607,-2.79862,-66.3053,-18.9046,-6.17618,1.18454,-22.2014,16.1431,0.654981,2.65011,-1.60863,1.77353,1.00332,1.42838,-1.42068,-2.85376,0,0,0,0,0,0,0,0,0,0,0,0,0,0,0.700019,0.000109574,0.564352,-0.382541,9.71969e-05,0.000158438,0.923938,0,0,0,2.33594,-0.601072,1.30106,-3.48046,-0.262073,1.19982,-3.46476,-0.264621,1.24074,0.117049,-0.746387,-0.759232,0.662676,-0.650614,0.746011,0.551368,1
2.66329,-1.68336,1.69772,1.06953,1.36345,-1.34606,-2.7988,-66.326,-18.9065,-6.17436,1.18529,-22.1966,16.1438,0.650302,2.65011,-1.60863,1.77353,1.00332,1.42838,-1.42068,-2.85376,0,0,0,0,0,0,0,0,0,0,0,0,0,0,0.700019,0.000109574,0.564352,-0.382541,9.71969e-05,0.000158438,0.923938,0,0,0,2.30165,-0.603846,1.31202,-3.32951,-0.269347,1.06387,-3.37008,-0.267929,1.11693,0.131843,-0.747251,-0.758145,0.662079,-0.649376,0.746129,0.549549,1
2.65749,-1.68328,1.69746,1.06995,1.36314,-1.34592,-2.79829,-66.2923,-18.9005,-6.17794,1.18259,-22.2355,16.1631,0.678882,2.65011,-1.60863,1.77353,1.00332,1.42838,-1.42068,-2.85376,0,0,0,0,0,0,0,0,0,0,0,0,0,0,0.700019,0.000109574,0.564352,-0.382541,9.71969e-05,0.000158438,0.923938,0,0,0,2.26754,-0.606606,1.32207,-3.58307,-0.289928,1.05635,-3.51917,-0.283328,1.07452,0.073758,-0.746482,-0.760699,0.666252,-0.652429,0.747533,0.55467,1
2.66042,-1.6834,1.69762,1.06977,1.36331,-1.34594,-2.79859,-66.3222,-18.9034,-6.17515,1.18402,-22.2213,16.159,0.667096,2.65011,-1.60863,1.77353,1.00332,1.42838,-1.42068,-2.85376,0,0,0,0,0,0,0,0,0,0,0,0,0,0,0.700019,0.000109574,0.564352,-0.382541,9.71969e-05,0.000158438,0.923938,0,0,0,2.23326,-0.609525,1.33108,-3.33522,-0.28395,0.876285,-3.39041,-0.283764,0.935757,0.103084,-0.747609,-0.759119,0.664487,-0.650755,0.747372,0.551633,1
2.65392,-1.68331,1.69734,1.07014,1.36288,-1.34582,-2.79798,-66.2778,-18.8974,-6.18091,1.18095,-22.2583,16.1757,0.6955,2.65011,-1.60863,1.77353,1.00332,1.42838,-1.42068,-2.85376,0,0,0,0,0,0,0,0,0,0,0,0,0,0,0.700019,0.000109574,0.564352,-0.382541,9.71969e-05,0.000158438,0.923938,0,0,0,2.1989,-0.612455,1.33911,-3.64889,-0.311117,0.85304,-3.57134,-0.302911,0.877855,0.0380672,-0.746721,-0.761917,0.668194,-0.655051,0.748586,0.557783,1
2.65847,-1.68355,1.69753,1.0697,1.36322,-1.34588,-2.79853,-66.3261,-18.9054,-6.1788,1.18308,-22.2281,16.1655,0.671595,2.65011,-1.60863,1.77353,1.00332,1.42838,-1.42068,-2.85376,0,0,0,0,0,0,0,0,0,0,0,0,0,0,0.700019,0.000109574,0.564352,-0.382541,9.71969e-05,0.000158438,0.923938,0,0,0,2.16444,-0.615305,1.34618,-3.31494,-0.274234,0.680011,-3.39186,-0.282837,0.739364,0.0835619,-0.749129,-0.759956,0.663751,-0.651622,0.747966,0.552331,1
2.65265,-1.68356,1.69727,1.06982,1.36278,-1.34582,-2.79799,-66.2857,-18.9033,-6.18731,1.18026,-22.2497,16.1743,0.68985,2.65011,-1.60863,1.77353,1.00332,1.42838,-1.42068,-2.85376,0,0,0,0,0,0,0,0,0,0,0,0,0,0,0.700019,0.000109574,0.564352,-0.382541,9.71969e-05,0.000158438,0.923938,0,0,0,2.1301,-0.618068,1.35229,-3.6173,-0.290979,0.643541,-3.54967,-0.288537,0.672288,0.0254461,-0.749214,-0.762618,0.664956,-0.656087,0.748568,0.557721,1
2.65445,-1.6837,1.69731,1.06952,1.36285,-1.34586,-2.79819,-66.3035,-18.9077,-6.18829,1.18106,-22.2313,16.1662,0.676304,2.65011,-1.60863,1.77353,1.00332,1.42838,-1.42068,-2.85376,0,0,0,0,0,0,0,0,0,0,0,0,0,0,0.700019,0.000109574,0.564352,-0.382541,9.71969e-05,0.000158438,0.923938,0,0,0,2.09598,-0.620816,1.35723,-3.443,-0.277256,0.498469,-3.475,-0.28064,0.550615,0.0434446,-0.750697,-0.762215,0.662008,-0.655371,0.748136,0.555647,1
2.62343,-1.68324,1.69636,1.07115,1.36123,-1.34626,-2.79704,-66.1864,-18.9142,-6.23893,1.16703,-22.362,16.2404,0.782994,2.65011,-1.60863,1.77353,1.00332,1.42838,-1.42068,-2.85376,0,0,0,0,0,0,0,0,0,0,0,0,0,0,0.700019,0.000109574,0.564352,-0.382541,9.71969e-05,0.000158438,0.923938,0,0,0,2.06201,-0.623534,1.36119,-4.63349,-0.370828,0.539493,-4.28594,-0.343771,0.54283,-0.266808,-0.746011,-0.77174,0.678319,-0.671492,0.744109,0.567197,1
2.64675,-1.6837,1.69694,1.06962,1.36219,-1.34589,-2.79764,-66.2587,-18.9066,-6.20222,1.17735,-22.2542,16.1755,0.696772,2.65011,-1.60863,1.77353,1.00332,1.42838,-1.42068,-2.85376,0,0,0,0,0,0,0,0,0,0,0,0,0,0,0.700019,0.000109574,0.564352,-0.382541,9.71969e-05,0.000158438,0.923938,0,0,0,2.02793,-0.626442,1.36414,-3.40619,-0.290598,0.295655,-3.67012,-0.30655,0.369807,-0.0336238,-0.75069,-0.765877,0.662954,-0.66194,0.747868,0.561226,1
2.65186,-1.6838,1.69713,1.06942,1.36241,-1.34587,-2.79795,-66.2873,-18.9075,-6.19529,1.1798,-22.2314,16.164,0.678573,2.65011,-1.60863,1.77353,1.00332,1.42838,-1.42068,-2.85376,0,0,0,0,0,0,0,0,0,0,0,0,0,0,0.700019,0.000109574,0.564352,-0.382541,9.71969e-05,0.000158438,0.923938,0,0,0,1.99369,-0.62947,1.36622,-3.43,-0.303361,0.208209,-3.50204,-0.304318,0.256688,0.0175416,-0.751613,-0.764022,0.661004,-0.659705,0.748053,0.55811,1
2.64851,-1.68384,1.69694,1.06929,1.36206,-1.34591,-2.7977,-66.2647,-18.9088,-6.20367,1.1781,-22.2327,16.1626,0.682022,2.65011,-1.60863,1.77353,1.00332,1.42838,-1.42068,-2.85376,0,0,0,0,0,0,0,0,0,0,0,0,0,0,0.700019,0.000109574,0.564352,-0.382541,9.71969e-05,0.000158438,0.923938,0,0,0,1.95958,-0.632401,1.36735,-3.65877,-0.314367,0.120901,-3.61175,-0.311352,0.161637,-0.0159867,-0.752072,-0.76595,0.659635,-0.663202,0.747663,0.560572,1
2.65454,-1.68403,1.6972,1.06894,1.36246,-1.34595,-2.79829,-66.3219,-18.9128,-6.19667,1.181,-22.2058,16.1541,0.659063,2.65011,-1.60863,1.77353,1.00332,1.42838,-1.42068,-2.85376,0,0,0,0,0,0,0,0,0,0,0,0,0,0,0.700019,0.000109574,0.564352,-0.382541,9.71969e-05,0.000158438,0.923938,0,0,0,1.92537,-0.635342,1.36758,-3.25856,-0.28012,0.0215289,-3.36452,-0.289489,0.0635614,0.0442735,-0.753987,-0.763314,0.656228,-0.659268,0.747274,0.554694,1
2.65415,-1.6841,1.69716,1.06879,1.36232,-1.34601,-2.79826,-66.3215,-18.9139,-6.19992,1.18077,-22.1988,16.1503,0.654971,2.65011,-1.60863,1.77353,1.00332,1.42838,-1.42068,-2.85376,0,0,0,0,0,0,0,0,0,0,0,0,0,0,0.700019,0.000109574,0.564352,-0.382541,9.71969e-05,0.000158438,0.923938,0,0,0,1.89107,-0.638272,1.3669,-3.36777,-0.287774,-0.0667579,-3.3668,-0.288289,-0.0276621,0.0404056,-0.75468,-0.76373,0.654697,-0.660642,0.746688,0.554952,1
2.65466,-1.68423,1.69712,1.06842,1.36223,-1.34616,-2.79829,-66.3187,-18.919,-6.20561,1.18088,-22.174,16.1359,0.639531,2.65011,-1.60863,1.77353,1.00332,1.42838,-1.42068,-2.85376,0,0,0,0,0,0,0,0,0,0,0,0,0,0,0.700019,0.000109574,0.564352,-0.382541,9.71969e-05,0.000158438,0.923938,0,0,0,1.85698,-0.641067,1.36486,-3.37539,-0.276725,-0.201423,-3.37281,-0.280194,-0.149295,0.0455455,-0.755926,-0.764137,0.650954,-0.661571,0.745111,0.554656,1
2.65292,-1.68426,1.69698,1.06823,1.36197,-1.34628,-2.79804,-66.2893,-18.9216,-6.21316,1.17992,-22.1609,16.1248,0.634153,2.65011,-1.60863,1.77353,1.00332,1.42838,-1.42068,-2.85376,0,0,0,0,0,0,0,0,0,0,0,0,0,0,0.700019,0.000109574,0.564352,-0.382541,9.71969e-05,0.000158438,0.923938,0,0,0,1.82299,-0.643825,1.36197,-3.49151,-0.283321,-0.296841,-3.4559,-0.282383,-0.252577,0.0281527,-0.75629,-0.765502,0.64912,-0.664186,0.743949,0.557233,1
2.65436,-1.68443,1.69697,1.06784,1.3621,-1.34639,-2.79812,-66.2844,-18.9307,-6.21777,1.18044,-22.1293,16.1068,0.613966,2.65011,-1.60863,1.77353,1.00332,1.42838,-1.42068,-2.85376,0,0,0,0,0,0,0,0,0,0,0,0,0,0,0.700019,0.000109574,0.564352,-0.382541,9.71969e-05,0.000158438,0.923938,0,0,0,1.78852,-0.646379,1.35802,-3.36597,-0.249328,-0.386133,-3.39295,-0.259244,-0.346066,0.0424972,-0.757916,-0.765574,0.645134,-0.662796,0.74285,0.556369,1
2.65362,-1.68441,1.69687,1.06779,1.36191,-1.34641,-2.7979,-66.2577,-18.9312,-6.22128,1.18003,-22.1206,16.0971,0.610605,2.65011,-1.60863,1.77353,1.00332,1.42838,-1.42068,-2.85376,0,0,0,0,0,0,0,0,0,0,0,0,0,0,0.700019,0.000109574,0.564352,-0.382541,9.71969e-05,0.000158438,0.923938,0,0,0,1.75448,-0.649117,1.35307,-3.4569,-0.278005,-0.501809,-3.43771,-0.272376,-0.455086,0.0351244,-0.757771,-0.766579,0.644643,-0.664788,0.742615,0.558577,1
2.65427,-1.68445,1.69687,1.06773,1.36185,-1.34644,-2.79793,-66.2608,-18.9315,-6.22159,1.18035,-22.1142,16.0932,0.606318,2.65011,-1.60863,1.77353,1.00332,1.42838,-1.42068,-2.85376,0,0,0,0,0,0,0,0,0,0,0,0,0,0,0.700019,0.000109574,0.564352,-0.382541,9.71969e-05,0.000158438,0.923938,0,0,0,1.72055,-0.651912,1.34733,-3.37863,-0.278365,-0.57234,-3.39635,-0.276568,-0.537164,0.0415643,-0.758111,-0.76656,0.644102,-0.665297,0.742365,0.558277,1
2.65425,-1.68441,1.69685,1.06775,1.36169,-1.34644,-2.79784,-66.2537,-18.9292,-6.22176,1.18035,-22.1134,16.0905,0.60641,2.65011,-1.60863,1.77353,1.00332,1.42838,-1.42068,-2.85376,0,0,0,0,0,0,0,0,0,0,0,0,0,0,0.700019,0.000109574,0.564352,-0.382541,9.71969e-05,0.000158438,0.923938,0,0,0,1.6868,-0.654895,1.3406,-3.39665,-0.300214,-0.67684,-3.39656,-0.29312,-0.634937,0.0413768,-0.757799,-0.766807,0.644317,-0.666909,0.742315,0.559178,1
2.65433,-1.68447,1.69681,1.06757,1.36166,-1.34649,-2.7978,-66.2447,-18.9324,-6.22481,1.1803,-22.1003,16.0818,0.598685,2.65011,-1.60863,1.77353,1.00332,1.42838,-1.42068,-2.85376,0,0,0,0,0,0,0,0,0,0,0,0,0,0,0.700019,0.000109574,0.564352,-0.382541,9.71969e-05,0.000158438,0.923938,0,0,0,1.65288,-0.657863,1.33292,-3.38324,-0.296084,-0.76671,-3.38724,-0.295195,-0.727178,0.042249,-0.758355,-0.767209,0.642508,-0.667253,0.741826,0.559535,1
2.65355,-1.68452,1.69669,1.0673,1.36154,-1.34656,-2.79764,-66.2168,-18.9372,-6.2311,1.17974,-22.0815,16.0671,0.588587,2.65011,-1.60863,1.77353,1.00332,1.42838,-1.42068,-2.85376,0,0,0,0,0,0,0,0,0,0,0,0,0,0,0.700019,0.000109574,0.564352,-0.382541,9.71969e-05,0.000158438,0.923938,0,0,0,1.61879,-0.66081,1.32424,-3.46251,-0.299325,-0.881252,-3.43993,-0.298086,-0.83503,0.0344026,-0.758851,-0.76845,0.639766,-0.668422,0.741166,0.561212,1
2.65436,-1.68465,1.69665,1.06677,1.36167,-1.34667,-2.79772,-66.2097,-18.946,-6.23661,1.17985,-22.0516,16.0501,0.569216,2.65011,-1.60863,1.77353,1.00332,1.42838,-1.42068,-2.85376,0,0,0,0,0,0,0,0,0,0,0,0,0,0,0.700019,0.000109574,0.564352,-0.382541,9.71969e-05,0.000158438,0.923938,0,0,0,1.58466,-0.663664,1.31451,-3.39491,-0.28388,-0.968138,-3.40841,-0.288142,-0.928206,0.0424819,-0.760151,-0.768791,0.634474,-0.667184,0.740047,0.560336,1
2.65876,-1.68481,1.69698,1.06618,1.36233,-1.3468,-2.79855,-66.289,-18.9523,-6.23124,1.18177,-22.0363,16.0557,0.551921,2.65011,-1.60863,1.77353,1.00332,1.42838,-1.42068,-2.85376,0,0,0,0,0,0,0,0,0,0,0,0,0,0,0.700019,0.000109574,0.564352,-0.382541,9.71969e-05,0.000158438,0.923938,0,0,0,1.55064,-0.66648,1.30367,-2.91637,-0.241439,-0.928857,-3.06398,-0.25545,-0.928662,0.0864599,-0.761705,-0.765457,0.628595,-0.660559,0.738705,0.552053,1
2.64949,-1.68473,1.69618,1.06494,1.36128,-1.34691,-2.79686,-66.0644,-18.9677,-6.26541,1.1761,-21.9684,15.9849,0.524202,2.65011,-1.60863,1.77353,1.00332,1.42838,-1.42068,-2.85376,0,0,0,0,0,0,0,0,0,0,0,0,0,0,0.700019,0.000109574,0.564352,-0.382541,9.71969e-05,0.000158438,0.923938,0,0,0,1.51663,-0.669378,1.29185,-4.0267,-0.342977,-1.39988,-3.73788,-0.316719,-1.25851,-0.00616446,-0.760977,-0.773509,0.616207,-0.671044,0.737697,0.569006,1
2.65339,-1.68494,1.69638,1.06421,1.36178,-1.34702,-2.79741,-66.1097,-18.9765,-6.26405,1.17765,-21.9381,15.976,0.499452,2.65011,-1.60863,1.77353,1.00332,1.42838,-1.42068,-2.85376,0,0,0,0,0,0,0,0,0,0,0,0,0,0,0.700019,0.000109574,0.564352,-0.382541,9.71969e-05,0.000158438,0.923938,0,0,0,1.48275,-0.67219,1.27906,-3.41623,-0.283554,-1.28907,-3.51272,-0.293503,-1.2799,0.0327606,-0.763007,-0.771518,0.608854,-0.666072,0.73655,0.563479,1
2.65913,-1.68504,1.69699,1.06418,1.36264,-1.34713,-2.7984,-66.231,-18.9754,-6.24882,1.1806,-21.9517,16.0055,0.498735,2.65011,-1.60863,1.77353,1.00332,1.42838,-1.42068,-2.85376,0,0,0,0,0,0,0,0,0,0,0,0,0,0,0.700019,0.000109574,0.564352,-0.382541,9.71969e-05,0.000158438,0.923938,0,0,0,1.4491,-0.675038,1.26543,-2.69631,-0.228189,-1.09255,-2.94123,-0.247783,-1.14875,0.0901716,-0.764078,-0.765378,0.608563,-0.657401,0.735472,0.553575,1
2.64347,-1.68482,1.69585,1.06228,1.36104,-1.34732,-2.7964,-65.9557,-18.9927,-6.29879,1.17131,-21.8829,15.9285,0.474152,2.65011,-1.60863,1.77353,1.00332,1.42838,-1.42068,-2.85376,0,0,0,0,0,0,0,0,0,0,0,0,0,0,0.700019,0.000109574,0.564352,-0.382541,9.71969e-05,0.000158438,0.923938,0,0,0,1.4153,-0.677996,1.25089,-4.44636,-0.389199,-1.91273,-3.99482,-0.346774,-1.68354,-0.0664213,-0.761881,-0.776833,0.589606,-0.673426,0.733575,0.573595,1
2.65237,-1.68511,1.69615,1.06147,1.36177,-1.34735,-2.79713,-66.0163,-19.0014,-6.28912,1.17527,-21.8325,15.9066,0.433382,2.65011,-1.60863,1.77353,1.00332,1.42838,-1.42068,-2.85376,0,0,0,0,0,0,0,0,0,0,0,0,0,0,0.700019,0.000109574,0.564352,-0.382541,9.71969e-05,0.000158438,0.923938,0,0,0,1.38146,-0.680949,1.23537,-3.44671,-0.3007,-1.58055,-3.61115,-0.314522,-1.61144,0.0226357,-0.764774,-0.773759,0.581447,-0.666182,0.733301,0.56633,1
2.65522,-1.68523,1.69629,1.06055,1.36218,-1.34751,-2.79748,-66.0313,-19.0112,-6.29121,1.1761,-21.7943,15.889,0.405599,2.65011,-1.60863,1.77353,1.00332,1.42838,-1.42068,-2.85376,0,0,0,0,0,0,0,0,0,0,0,0,0,0,0.700019,0.000109574,0.564352,-0.382541,9.71969e-05,0.000158438,0.923938,0,0,0,1.34762,-0.683817,1.21891,-3.32819,-0.282123,-1.61912,-3.41308,-0.291843,-1.61682,0.051059,-0.765978,-0.772446,0.572319,-0.662078,0.731653,0.562809,1
2.65552,-1.68529,1.69624,1.05947,1.36221,-1.34765,-2.79739,-65.9967,-19.0204,-6.29963,1.1755,-21.7509,15.8605,0.378058,2.65011,-1.60863,1.77353,1.00332,1.42838,-1.42068,-2.85376,0,0,0,0,0,0,0,0,0,0,0,0,0,0,0.700019,0.000109574,0.564352,-0.382541,9.71969e-05,0.000158438,0.923938,0,0,0,1.31372,-0.686799,1.20138,-3.40667,-0.29969,-1.76183,-3.4086,-0.297336,-1.71833,0.0540962,-0.766537,-0.772918,0.561533,-0.661756,0.730288,0.563691,1
2.65452,-1.68551,1.69608,1.05821,1.36248,-1.34782,-2.79753,-65.9736,-19.0391,-6.31392,1.17422,-21.7014,15.8332,0.346077,2.65011,-1.60863,1.77353,1.00332,1.42838,-1.42068,-2.85376,0,0,0,0,0,0,0,0,0,0,0,0,0,0,0.700019,0.000109574,0.564352,-0.382541,9.71969e-05,0.000158438,0.923938,0,0,0,1.27996,-0.689695,1.1829,-3.29133,-0.282295,-1.8013,-3.32651,-0.286807,-1.7764,0.0440599,-0.768742,-0.774505,0.548903,-0.65907,0.728548,0.562303,1
2.65505,-1.68568,1.69638,1.05812,1.36304,-1.34799,-2.7977,-66.0011,-19.047,-6.31405,1.17448,-21.698,15.8428,0.343172,2.65011,-1.60863,1.77353,1.00332,1.42838,-1.42068,-2.85376,0,0,0,0,0,0,0,0,0,0,0,0,0,0,0.700019,0.000109574,0.564352,-0.382541,9.71969e-05,0.000158438,0.923938,0,0,0,1.24605,-0.69256,1.1634,-2.72946,-0.230652,-1.56966,-2.90858,-0.247498,-1.63168,0.0494403,-0.770494,-0.771477,0.547998,-0.653426,0.7269,0.560597,1
2.63941,-1.686,1.6944,1.05068,1.36182,-1.34823,-2.7974,-65.7143,-19.1201,-6.4073,1.16185,-21.4544,15.6641,0.192881,2.65011,-1.60863,1.77353,1.00332,1.42838,-1.42068,-2.85376,0,0,0,0,0,0,0,0,0,0,0,0,0,0,0.700019,0.000109574,0.564352,-0.382541,9.71969e-05,0.000158438,0.923938,0,0,0,1.21237,-0.695522,1.14282,-4.52281,-0.397668,-2.76333,-4.03854,-0.352617,-2.42384,-0.107021,-0.773688,-0.791292,0.473616,-0.665659,0.724479,0.563572,1
2.64258,-1.68629,1.69463,1.05112,1.36267,-1.34841,-2.79793,-65.7772,-19.1294,-6.4021,1.16386,-21.4521,15.6766,0.188462,2.65011,-1.60863,1.77353,1.00332,1.42838,-1.42068,-2.85376,0,0,0,0,0,0,0,0,0,0,0,0,0,0,0.700019,0.000109574,0.564352,-0.382541,9.71969e-05,0.000158438,0.923938,0,0,0,1.17907,-0.698403,1.12144,-3.34692,-0.289633,-2.14907,-3.55441,-0.308528,-2.2315,-0.0752611,-0.776573,-0.788987,0.478026,-0.657179,0.722669,0.55832,1
2.64094,-1.68648,1.69447,1.04982,1.36293,-1.34856,-2.79809,-65.7472,-19.1498,-6.41826,1.16223,-21.4015,15.6481,0.156423,2.65011,-1.60863,1.77353,1.00332,1.42838,-1.42068,-2.85376,0,0,0,0,0,0,0,0,0,0,0,0,0,0,0.700019,0.000109574,0.564352,-0.382541,9.71969e-05,0.000158438,0.923938,0,0,0,1.14542,-0.701384,1.09897,-3.3857,-0.29995,-2.26129,-3.43631,-0.302524,-2.25235,-0.0916967,-0.778444,-0.790576,0.464934,-0.65452,0.721129,0.556639,1
2.63822,-1.68674,1.69419,1.04683,1.36326,-1.34885,-2.79819,-65.6574,-19.1876,-6.45043,1.1589,-21.2875,15.5779,0.0851035,2.65011,-1.60863,1.77353,1.00332,1.42838,-1.42068,-2.85376,0,0,0,0,0,0,0,0,0,0,0,0,0,0,0.700019,0.000109574,0.564352,-0.382541,9.71969e-05,0.000158438,0.923938,0,0,0,1.11131,-0.704144,1.07549,-3.38076,-0.273594,-2.32692,-3.39743,-0.282273,-2.30455,-0.11889,-0.781076,-0.793421,0.435123,-0.651209,0.718222,0.555733,1
2.6366,-1.68687,1.69404,1.0455,1.36336,-1.349,-2.79828,-65.6214,-19.2048,-6.46616,1.15725,-21.2373,15.5476,0.0537176,2.65011,-1.60863,1.77353,1.00332,1.42838,-1.42068,-2.85376,0,0,0,0,0,0,0,0,0,0,0,0,0,0,0.700019,0.000109574,0.564352,-0.382541,9.71969e-05,0.000158438,0.923938,0,0,0,1.07805,-0.707164,1.05142,-3.26055,-0.295948,-2.35941,-3.30161,-0.291846,-2.34295,-0.135048,-0.782306,-0.794887,0.421743,-0.650234,0.71671,0.554737,1
2.63404,-1.6871,1.69366,1.04116,1.36357,-1.34933,-2.7985,-65.5055,-19.2487,-6.50612,1.15305,-21.0828,15.4499,-0.0449919,2.65011,-1.60863,1.77353,1.00332,1.42838,-1.42068,-2.85376,0,0,0,0,0,0,0,0,0,0,0,0,0,0,0.700019,0.000109574,0.564352,-0.382541,9.71969e-05,0.000158438,0.923938,0,0,0,1.04454,-0.71015,1.02597,-3.35445,-0.298913,-2.54784,-3.33859,-0.296793,-2.48637,-0.160729,-0.784617,-0.798658,0.378388,-0.648139,0.713478,0.552587,1
2.63565,-1.68709,1.6942,1.04531,1.36408,-1.34937,-2.79843,-65.6171,-19.2247,-6.47642,1.15674,-21.2095,15.541,0.0388958,2.65011,-1.60863,1.77353,1.00332,1.42838,-1.42068,-2.85376,0,0,0,0,0,0,0,0,0,0,0,0,0,0,0.700019,0.000109574,0.564352,-0.382541,9.71969e-05,0.000158438,0.923938,0,0,0,1.01115,-0.713147,0.999622,-2.53844,-0.227886,-2.00273,-2.77849,-0.248558,-2.14782,-0.14458,-0.784536,-0.793287,0.419887,-0.643084,0.7131,0.553276,1
2.62396,-1.68748,1.6921,1.01558,1.36326,-1.35009,-2.79887,-64.7538,-19.4479,-6.70325,1.1299,-20.2256,14.8784,-0.591787,2.65011,-1.60863,1.77353,1.00332,1.42838,-1.42068,-2.85376,0,0,0,0,0,0,0,0,0,0,0,0,0,0,0.700019,0.000109574,0.564352,-0.382541,9.71969e-05,0.000158438,0.923938,0,0,0,0.977783,-0.716217,0.972418,-5.10916,-0.469978,-4.16574,-4.40996,-0.403552,-3.56037,-0.261474,-0.788453,-0.814324,0.122551,-0.65126,0.705806,0.548928,1
2.62574,-1.68758,1.69248,1.02041,1.36366,-1.35034,-2.7991,-64.9329,-19.4175,-6.67049,1.13441,-20.381,14.9929,-0.493572,2.65011,-1.60863,1.77353,1.00332,1.42838,-1.42068,-2.85376,0,0,0,0,0,0,0,0,0,0,0,0,0,0,0.700019,0.000109574,0.564352,-0.382541,9.71969e-05,0.000158438,0.923938,0,0,0,0.944257,-0.719245,0.944201,-3.32566,-0.300383,-2.79902,-3.65095,-0.331334,-3.02742,-0.243735,-0.789409,-0.810545,0.170866,-0.64724,0.703385,0.546632,1
2.62454,-1.68759,1.69242,1.01937,1.36366,-1.35055,-2.79911,-64.8909,-19.4303,-6.6838,1.13312,-20.3348,14.9634,-0.520609,2.65011,-1.60863,1.77353,1.00332,1.42838,-1.42068,-2.85376,0,0,0,0,0,0,0,0,0,0,0,0,0,0,0.700019,0.000109574,0.564352,-0.382541,9.71969e-05,0.000158438,0.923938,0,0,0,0.910612,-0.722429,0.91508,-3.34599,-0.316716,-2.896,-3.43748,-0.321102,-2.93543,-0.255737,-0.789525,-0.811084,0.160443,-0.647237,0.701246,0.546441,1
2.62291,-1.68769,1.6922,1.01232,1.36385,-1.351,-2.79932,-64.685,-19.4875,-6.73734,1.12727,-20.0853,14.8019,-0.677935,2.65011,-1.60863,1.77353,1.00332,1.42838,-1.42068,-2.85376,0,0,0,0,0,0,0,0,0,0,0,0,0,0,0.700019,0.000109574,0.564352,-0.382541,9.71969e-05,0.000158438,0.923938,0,0,0,0.877236,-0.725438,0.884865,-3.30397,-0.297852,-2.9912,-3.34402,-0.304827,-2.97447,-0.271981,-0.790594,-0.813328,0.0899796,-0.6453,0.696744,0.544362,1
2.62116,-1.68777,1.69191,1.00166,1.36422,-1.35135,-2.79968,-64.3708,-19.5691,-6.8109,1.11859,-19.721,14.5631,-0.908759,2.65011,-1.60863,1.77353,1.00332,1.42838,-1.42068,-2.85376,0,0,0,0,0,0,0,0,0,0,0,0,0,0,0.700019,0.000109574,0.564352,-0.382541,9.71969e-05,0.000158438,0.923938,0,0,0,0.843828,-0.7284,0.853718,-3.37253,-0.298945,-3.14412,-3.36398,-0.30071,-3.09323,-0.289471,-0.791339,-0.816157,-0.0166022,-0.641678,0.693271,0.54079,1
2.61958,-1.68785,1.69164,0.990667,1.36478,-1.35175,-2.80016,-64.0287,-19.6587,-6.88856,1.10967,-19.3298,14.3066,-1.15412,2.65011,-1.60863,1.77353,1.00332,1.42838,-1.42068,-2.85376,0,0,0,0,0,0,0,0,0,0,0,0,0,0,0.700019,0.000109574,0.564352,-0.382541,9.71969e-05,0.000158438,0.923938,0,0,0,0.810498,-0.731185,0.821514,-3.37582,-0.282152,-3.26176,-3.37227,-0.287719,-3.2112,-0.305264,-0.792134,-0.818931,-0.126551,-0.636063,0.689252,0.536028,1
2.62012,-1.68759,1.69188,1.00764,1.36428,-1.3517,-2.79903,-64.4324,-19.5463,-6.78931,1.12235,-19.8609,14.6479,-0.808649,2.65011,-1.60863,1.77353,1.00332,1.42838,-1.42068,-2.85376,0,0,0,0,0,0,0,0,0,0,0,0,0,0,0.700019,0.000109574,0.564352,-0.382541,9.71969e-05,0.000158438,0.923938,0,0,0,0.777242,-0.734019,0.788406,-2.53236,-0.215758,-2.52115,-2.78433,-0.237346,-2.72817,-0.299941,-0.789592,-0.816502,0.0432078,-0.641012,0.689728,0.547283,1
2.61421,-1.6881,1.6907,0.965226,1.36676,-1.35259,-2.80135,-63.0589,-19.9128,-7.09439,1.08791,-18.315,13.6288,-1.77254,2.65011,-1.60863,1.77353,1.00332,1.42838,-1.42068,-2.85376,0,0,0,0,0,0,0,0,0,0,0,0,0,0,0.700019,0.000109574,0.564352,-0.382541,9.71969e-05,0.000158438,0.923938,0,0,0,0.744014,-0.736964,0.754496,-4.74675,-0.420777,-4.84414,-4.15803,-0.365748,-4.20935,-0.358945,-0.794636,-0.82829,-0.380958,-0.616245,0.680864,0.524074,1
2.61472,-1.68799,1.69093,0.971385,1.36619,-1.3527,-2.80123,-63.3117,-19.8505,-7.04826,1.09296,-18.5607,13.7964,-1.62302,2.65011,-1.60863,1.77353,1.00332,1.42838,-1.42068,-2.85376,0,0,0,0,0,0,0,0,0,0,0,0,0,0,0.700019,0.000109574,0.564352,-0.382541,9.71969e-05,0.000158438,0.923938,0,0,0,0.710632,-0.740012,0.719668,-3.29045,-0.300452,-3.43302,-3.55072,-0.320041,-3.66592,-0.35385,-0.793542,-0.825994,-0.319366,-0.621973,0.679742,0.525287,1
2.61267,-1.68803,1.69082,0.970645,1.36673,-1.35299,-2.80144,-63.2301,-19.883,-7.07098,1.09148,-18.4872,13.7489,-1.66228,2.65011,-1.60863,1.77353,1.00332,1.42838,-1.42068,-2.85376,0,0,0,0,0,0,0,0,0,0,0,0,0,0,0.700019,0.000109574,0.564352,-0.382541,9.71969e-05,0.000158438,0.923938,0,0,0,0.677364,-0.743057,0.683818,-3.43438,-0.314281,-3.70092,-3.46929,-0.316009,-3.69042,-0.374408,-0.793967,-0.827127,-0.326763,-0.61656,0.676877,0.523188,1
2.61131,-1.68801,1.69073,0.97057,1.36732,-1.3532,-2.80148,-63.1641,-19.9069,-7.0849,1.09071,-18.4428,13.719,-1.68404,2.65011,-1.60863,1.77353,1.00332,1.42838,-1.42068,-2.85376,0,0,0,0,0,0,0,0,0,0,0,0,0,0,0.700019,0.000109574,0.564352,-0.382541,9.71969e-05,0.000158438,0.923938,0,0,0,0.64421,-0.746013,0.647025,-3.25613,-0.290346,-3.6135,-3.32008,-0.298045,-3.63657,-0.387991,-0.793785,-0.827959,-0.327513,-0.610604,0.674789,0.522767,1
2.60914,-1.68812,1.69051,0.968093,1.36822,-1.35361,-2.80183,-63.003,-19.9638,-7.1245,1.08787,-18.2846,13.6155,-1.77393,2.65011,-1.60863,1.77353,1.00332,1.42838,-1.42068,-2.85376,0,0,0,0,0,0,0,0,0,0,0,0,0,0,0.700019,0.000109574,0.564352,-0.382541,9.71969e-05,0.000158438,0.923938,0,0,0,0.611049,-0.749007,0.609141,-3.33501,-0.301093,-3.81002,-3.33053,-0.300179,-3.75799,-0.409699,-0.794873,-0.830172,-0.352282,-0.601668,0.670614,0.519273,1
2.61052,-1.68752,1.69068,0.976812,1.36758,-1.35289,-2.80033,-63.2079,-19.8726,-7.0488,1.09439,-18.6316,13.8254,-1.55744,2.65011,-1.60863,1.77353,1.00332,1.42838,-1.42068,-2.85376,0,0,0,0,0,0,0,0,0,0,0,0,0,0,0.700019,0.000109574,0.564352,-0.382541,9.71969e-05,0.000158438,0.923938,0,0,0,0.578009,-0.752098,0.570315,-2.4998,-0.233868,-2.93753,-2.74902,-0.253761,-3.18367,-0.39587,-0.788847,-0.828543,-0.265091,-0.608032,0.677862,0.534288,1
2.60594,-1.68823,1.6902,0.966547,1.36933,-1.35416,-2.80192,-62.799,-20.0323,-7.17058,1.08517,-18.117,13.5021,-1.86311,2.65011,-1.60863,1.77353,1.00332,1.42838,-1.42068,-2.85376,0,0,0,0,0,0,0,0,0,0,0,0,0,0,0.700019,0.000109574,0.564352,-0.382541,9.71969e-05,0.000158438,0.923938,0,0,0,0.545015,-0.755016,0.53052,-3.31989,-0.293632,-4.00432,-3.14863,-0.281671,-3.75813,-0.441685,-0.795963,-0.833294,-0.367745,-0.590498,0.665114,0.518391,1
2.59989,-1.69004,1.68863,0.946262,1.37445,-1.36041,-2.80661,-61.9119,-20.4101,-7.4557,1.06925,-16.8652,12.7293,-2.5961,2.65011,-1.60863,1.77353,1.00332,1.42838,-1.42068,-2.85376,0,0,0,0,0,0,0,0,0,0,0,0,0,0,0.700019,0.000109574,0.564352,-0.382541,9.71969e-05,0.000158438,0.923938,0,0,0,0.512052,-0.757921,0.48983,-6.10735,-0.538206,-7.53904,-5.21973,-0.461246,-6.40477,-0.50222,-0.814053,-0.849025,-0.570592,-0.539334,0.602653,0.471468,1
2.59951,-1.68935,1.68926,0.954889,1.37167,-1.35727,-2.80453,-62.2664,-20.2586,-7.34756,1.07479,-17.3952,13.0521,-2.28269,2.65011,-1.60863,1.77353,1.00332,1.42838,-1.42068,-2.85376,0,0,0,0,0,0,0,0,0,0,0,0,0,0,0.700019,0.000109574,0.564352,-0.382541,9.71969e-05,0.000158438,0.923938,0,0,0,0.479199,-0.760859,0.448329,-3.33618,-0.298402,-4.21428,-3.90125,-0.347255,-4.87143,-0.505995,-0.807108,-0.842685,-0.48433,-0.567169,0.634099,0.492241,1
2.59834,-1.68931,1.68923,0.955882,1.37222,-1.35715,-2.80445,-62.2363,-20.2723,-7.35089,1.07485,-17.402,13.0542,-2.27387,2.65011,-1.60863,1.77353,1.00332,1.42838,-1.42068,-2.85376,0,0,0,0,0,0,0,0,0,0,0,0,0,0,0.700019,0.000109574,0.564352,-0.382541,9.71969e-05,0.000158438,0.923938,0,0,0,0.446442,-0.763746,0.405811,-3.56013,-0.313714,-4.62107,-3.66247,-0.323776,-4.69618,-0.517672,-0.806798,-0.842977,-0.474392,-0.561633,0.635286,0.493086,1
2.59691,-1.68931,1.68917,0.956382,1.37269,-1.35719,-2.80441,-62.1847,-20.292,-7.36119,1.07449,-17.3799,13.0375,-2.28166,2.65011,-1.60863,1.77353,1.00332,1.42838,-1.42068,-2.85376,0,0,0,0,0,0,0,0,0,0,0,0,0,0,0.700019,0.000109574,0.564352,-0.382541,9.71969e-05,0.000158438,0.923938,0,0,0,0.413486,-0.766592,0.36237,-3.43701,-0.296779,-4.53039,-3.50465,-0.304878,-4.58013,-0.532009,-0.806763,-0.84365,-0.469394,-0.556957,0.634824,0.493465,1
2.59557,-1.68917,1.68917,0.958305,1.37292,-1.35681,-2.804,-62.1738,-20.2907,-7.35454,1.07504,-17.4352,13.0666,-2.24288,2.65011,-1.60863,1.77353,1.00332,1.42838,-1.42068,-2.85376,0,0,0,0,0,0,0,0,0,0,0,0,0,0,0.700019,0.000109574,0.564352,-0.382541,9.71969e-05,0.000158438,0.923938,0,0,0,0.380528,-0.769581,0.317977,-3.14036,-0.2848,-4.22999,-3.24964,-0.290824,-4.33503,-0.545349,-0.805311,-0.84359,-0.450169,-0.55469,0.638657,0.49763,1
2.59392,-1.68937,1.68898,0.956682,1.37373,-1.35747,-2.80466,-62.0721,-20.3412,-7.38974,1.07332,-17.3019,12.9847,-2.31848,2.65011,-1.60863,1.77353,1.00332,1.42838,-1.42068,-2.85376,0,0,0,0,0,0,0,0,0,0,0,0,0,0,0.700019,0.000109574,0.564352,-0.382541,9.71969e-05,0.000158438,0.923938,0,0,0,0.347739,-0.772629,0.272652,-3.32447,-0.30912,-4.59559,-3.30202,-0.303631,-4.51742,-0.561941,-0.807336,-0.845473,-0.466396,-0.546505,0.632044,0.491032,1
2.59236,-1.68959,1.68879,0.954653,1.3747,-1.35833,-2.8055,-61.9629,-20.3975,-7.42917,1.07141,-17.1463,12.8905,-2.40771,2.65011,-1.60863,1.77353,1.00332,1.42838,-1.42068,-2.85376,0,0,0,0,0,0,0,0,0,0,0,0,0,0,0.700019,0.000109574,0.564352,-0.382541,9.71969e-05,0.000158438,0.923938,0,0,0,0.314969,-0.775784,0.226423,-3.45049,-0.332152,-4.8676,-3.40595,-0.323595,-4.76254,-0.57753,-0.809538,-0.847421,-0.486689,-0.536873,0.623419,0.482591,1
2.59116,-1.68955,1.68875,0.955212,1.37531,-1.35843,-2.80546,-61.9123,-20.4168,-7.43776,1.07117,-17.1266,12.8759,-2.41419,2.65011,-1.60863,1.77353,1.00332,1.42838,-1.42068,-2.85376,0,0,0,0,0,0,0,0,0,0,0,0,0,0,0.700019,0.000109574,0.564352,-0.382541,9.71969e-05,0.000158438,0.923938,0,0,0,0.282346,-0.778879,0.179174,-3.15708,-0.299494,-4.57246,-3.23174,-0.306724,-4.62949,-0.589457,-0.809145,-0.847833,-0.481098,-0.530776,0.622433,0.482935,1
2.5899,-1.68982,1.68857,0.952452,1.37681,-1.35988,-2.80657,-61.7706,-20.4897,-7.48762,1.06892,-16.9145,12.7504,-2.53618,2.65011,-1.60863,1.77353,1.00332,1.42838,-1.42068,-2.85376,0,0,0,0,0,0,0,0,0,0,0,0,0,0,0.700019,0.000109574,0.564352,-0.382541,9.71969e-05,0.000158438,0.923938,0,0,0,0.249807,-0.781625,0.131306,-3.37155,-0.284559,-4.9599,-3.32961,-0.291209,-4.86077,-0.602072,-0.811809,-0.849589,-0.508693,-0.515722,0.607967,0.47191,1
2.58967,-1.68969,1.68855,0.951504,1.37735,-1.36008,-2.80661,-61.6942,-20.5078,-7.49803,1.06794,-16.8568,12.7107,-2.56854,2.65011,-1.60863,1.77353,1.00332,1.42838,-1.42068,-2.85376,0,0,0,0,0,0,0,0,0,0,0,0,0,0,0.700019,0.000109574,0.564352,-0.382541,9.71969e-05,0.000158438,0.923938,0,0,0,0.217298,-0.784643,0.0821534,-3.15156,-0.292534,-4.76506,-3.20498,-0.292136,-4.79377,-0.604373,-0.810559,-0.849825,-0.518178,-0.510346,0.60592,0.471477,1
2.58904,-1.68977,1.68845,0.94907,1.37828,-1.36113,-2.8077,-61.6181,-20.5516,-7.52983,1.06618,-16.713,12.6273,-2.65438,2.65011,-1.60863,1.77353,1.00332,1.42838,-1.42068,-2.85376,0,0,0,0,0,0,0,0,0,0,0,0,0,0,0.700019,0.000109574,0.564352,-0.382541,9.71969e-05,0.000158438,0.923938,0,0,0,0.184783,-0.78759,0.0320877,-3.32629,-0.301547,-5.12169,-3.2899,-0.298723,-5.02331,-0.610704,-0.811328,-0.850799,-0.542517,-0.501019,0.595432,0.460555,1
2.58853,-1.68975,1.68838,0.947387,1.37885,-1.36182,-2.80844,-61.5633,-20.5788,-7.5503,1.0649,-16.6185,12.5712,-2.71081,2.65011,-1.60863,1.77353,1.00332,1.42838,-1.42068,-2.85376,0,0,0,0,0,0,0,0,0,0,0,0,0,0,0.700019,0.000109574,0.564352,-0.382541,9.71969e-05,0.000158438,0.923938,0,0,0,0.152083,-0.790736,-0.0189666,-3.363,-0.323486,-5.25063,-3.34107,-0.316057,-5.18244,-0.615774,-0.811129,-0.851493,-0.559343,-0.495369,0.588527,0.453223,1
2.58835,-1.68949,1.6884,0.946855,1.37906,-1.3618,-2.80816,-61.4933,-20.5835,-7.55265,1.06411,-16.5931,12.548,-2.72348,2.65011,-1.60863,1.77353,1.00332,1.42838,-1.42068,-2.85376,0,0,0,0,0,0,0,0,0,0,0,0,0,0,0.700019,0.000109574,0.564352,-0.382541,9.71969e-05,0.000158438,0.923938,0,0,0,0.119715,-0.79387,-0.0709928,-3.06038,-0.296371,-4.91907,-3.14458,-0.302277,-4.99808,-0.617622,-0.808593,-0.851338,-0.564668,-0.493257,0.588748,0.456022,1
