Afshin1997/kuka_rl_ros2/src/catch_and_throw/input_files/idealpd/ballistic motion dataset/good trajectories/22.csv
pure_target_joint_0,pure_target_joint_1,pure_target_joint_2,pure_target_joint_3,pure_target_joint_4,pure_target_joint_5,pure_target_joint_6,target_joint_0,target_joint_1,target_joint_2,target_joint_3,target_joint_4,target_joint_5,target_joint_6,pos_joint_0,pos_joint_1,pos_joint_2,pos_joint_3,pos_joint_4,pos_joint_5,pos_joint_6,vel_joint_0,vel_joint_1,vel_joint_2,vel_joint_3,vel_joint_4,vel_joint_5,vel_joint_6,vel_smooth_joint_0,vel_smooth_joint_1,vel_smooth_joint_2,vel_smooth_joint_3,vel_smooth_joint_4,vel_smooth_joint_5,vel_smooth_joint_6,ee_pos_x,ee_pos_y,ee_pos_z,ee_or_w,ee_or_x,ee_or_y,ee_or_z,ee_vel_x,ee_vel_y,ee_vel_z,ball_pos_x,ball_pos_y,ball_pos_z,ball_raw_vx,ball_raw_vy,ball_raw_vz,ball_ema_vx,ball_ema_vy,ball_ema_vz,action_0,action_1,action_2,action_3,action_4,action_5,action_6,command_published
2.68965,-1.68298,1.69829,1.05704,1.36396,-1.34874,-2.80105,-66.1805,-18.9921,-6.2396,1.19003,-21.6455,15.7991,0.280443,2.65011,-1.60869,1.77353,1.00331,1.42838,-1.42068,-2.85376,0,0,0,0,0,0,0,0,0,0,0,0,0,0,0.700032,9.82113e-05,0.564318,-0.382535,0.000114994,0.000137767,0.923941,0,0,0,2.98253,-0.5219,0.834965,-3.33293,0.101427,2.78925,-3.35249,0.0998853,2.85854,0.395448,-0.742888,-0.752392,0.537282,-0.644226,0.719359,0.527086,1
2.68849,-1.68313,1.69822,1.05772,1.36393,-1.34861,-2.80096,-66.1922,-18.9911,-6.23831,1.19,-21.6669,15.8138,0.295308,2.65011,-1.60869,1.77353,1.00331,1.42838,-1.42068,-2.85376,0,0,0,0,0,0,0,0,0,0,0,0,0,0,0.700032,9.82113e-05,0.564318,-0.382535,0.000114994,0.000137767,0.923941,0,0,0,2.94927,-0.52088,0.86237,-3.35511,0.102933,2.7649,-3.35432,0.102018,2.793,0.383891,-0.744396,-0.753124,0.544094,-0.644504,0.720647,0.527979,1
2.68896,-1.68327,1.69826,1.05772,1.36407,-1.34859,-2.80114,-66.2131,-18.9953,-6.23857,1.19032,-21.6654,15.8174,0.293133,2.65011,-1.60869,1.77353,1.00331,1.42838,-1.42068,-2.85376,0,0,0,0,0,0,0,0,0,0,0,0,0,0,0.700032,9.82113e-05,0.564318,-0.382535,0.000114994,0.000137767,0.923941,0,0,0,2.9158,-0.519912,0.888823,-3.28579,0.0950241,2.59692,-3.30635,0.0971224,2.65574,0.388563,-0.745811,-0.752677,0.54409,-0.643082,0.720831,0.526226,1
2.68638,-1.68338,1.69811,1.05889,1.3638,-1.34838,-2.80073,-66.2093,-18.9878,-6.23583,1.18987,-21.7052,15.8392,0.322119,2.65011,-1.60869,1.77353,1.00331,1.42838,-1.42068,-2.85376,0,0,0,0,0,0,0,0,0,0,0,0,0,0,0.700032,9.82113e-05,0.564318,-0.382535,0.000114994,0.000137767,0.923941,0,0,0,2.88243,-0.519089,0.914335,-3.39533,0.0837757,2.59596,-3.36863,0.0877797,2.61389,0.362734,-0.746917,-0.754241,0.555772,-0.645831,0.722928,0.530259,1
2.68812,-1.68347,1.69824,1.05866,1.36407,-1.34842,-2.80109,-66.2376,-18.994,-6.23557,1.19066,-21.6937,15.8381,0.312267,2.65011,-1.60869,1.77353,1.00331,1.42838,-1.42068,-2.85376,0,0,0,0,0,0,0,0,0,0,0,0,0,0,0.700032,9.82113e-05,0.564318,-0.382535,0.000114994,0.000137767,0.923941,0,0,0,2.84912,-0.518302,0.93889,-3.23455,0.0764208,2.38419,-3.27477,0.0798285,2.4531,0.380126,-0.747857,-0.752887,0.553481,-0.643132,0.722533,0.526643,1
2.68519,-1.68358,1.69805,1.05974,1.36375,-1.34821,-2.80065,-66.2284,-18.986,-6.23349,1.18996,-21.7328,15.8585,0.34087,2.65011,-1.60869,1.77353,1.00331,1.42838,-1.42068,-2.85376,0,0,0,0,0,0,0,0,0,0,0,0,0,0,0.700032,9.82113e-05,0.564318,-0.382535,0.000114994,0.000137767,0.923941,0,0,0,2.81579,-0.517637,0.962503,-3.38913,0.0675544,2.40123,-3.35482,0.0712366,2.41679,0.350849,-0.748871,-0.754826,0.564252,-0.646369,0.724694,0.531128,1
2.68449,-1.68369,1.698,1.05999,1.36371,-1.34813,-2.8006,-66.2349,-18.9861,-6.23353,1.18984,-21.7419,15.8651,0.347036,2.65011,-1.60869,1.77353,1.00331,1.42838,-1.42068,-2.85376,0,0,0,0,0,0,0,0,0,0,0,0,0,0,0.700032,9.82113e-05,0.564318,-0.382535,0.000114994,0.000137767,0.923941,0,0,0,2.78233,-0.517014,0.985065,-3.3603,0.0626067,2.26539,-3.35866,0.0651956,2.31081,0.343885,-0.749984,-0.755324,0.566764,-0.646757,0.725459,0.531611,1
2.68453,-1.6838,1.69799,1.05992,1.36379,-1.3481,-2.80069,-66.2465,-18.9893,-6.23447,1.18988,-21.7399,15.8667,0.344906,2.65011,-1.60869,1.77353,1.00331,1.42838,-1.42068,-2.85376,0,0,0,0,0,0,0,0,0,0,0,0,0,0,0.700032,9.82113e-05,0.564318,-0.382535,0.000114994,0.000137767,0.923941,0,0,0,2.74886,-0.516382,1.00664,-3.32264,0.0626826,2.14161,-3.33344,0.0634365,2.19237,0.344273,-0.751158,-0.755402,0.566091,-0.645973,0.725752,0.530645,1
2.68305,-1.68395,1.69783,1.05988,1.36374,-1.34807,-2.80057,-66.2377,-18.9925,-6.23848,1.18916,-21.7385,15.8656,0.344827,2.65011,-1.60869,1.77353,1.00331,1.42838,-1.42068,-2.85376,0,0,0,0,0,0,0,0,0,0,0,0,0,0,0.700032,9.82113e-05,0.564318,-0.382535,0.000114994,0.000137767,0.923941,0,0,0,2.71537,-0.515729,1.02717,-3.37563,0.0659204,2.07001,-3.36297,0.0651752,2.10672,0.329482,-0.752593,-0.756966,0.565665,-0.646421,0.726081,0.53185,1
2.68193,-1.68407,1.69772,1.0598,1.36377,-1.34806,-2.80048,-66.2274,-18.9969,-6.24242,1.18858,-21.7333,15.8626,0.34244,2.65011,-1.60869,1.77353,1.00331,1.42838,-1.42068,-2.85376,0,0,0,0,0,0,0,0,0,0,0,0,0,0,0.700032,9.82113e-05,0.564318,-0.382535,0.000114994,0.000137767,0.923941,0,0,0,2.68199,-0.515088,1.04662,-3.38514,0.0649914,1.97247,-3.37849,0.0650466,2.01274,0.31823,-0.753799,-0.758133,0.564853,-0.646089,0.726115,0.532764,1
2.68299,-1.68417,1.69779,1.05937,1.36406,-1.34813,-2.80071,-66.2367,-19.0051,-6.24472,1.18887,-21.7144,15.8552,0.328761,2.65011,-1.60869,1.77353,1.00331,1.42838,-1.42068,-2.85376,0,0,0,0,0,0,0,0,0,0,0,0,0,0,0.700032,9.82113e-05,0.564318,-0.382535,0.000114994,0.000137767,0.923941,0,0,0,2.64878,-0.514417,1.06509,-3.28332,0.0663165,1.82583,-3.31187,0.0659355,1.8819,0.32888,-0.754788,-0.757436,0.560629,-0.643222,0.725437,0.530518,1
2.68233,-1.68427,1.69772,1.05926,1.36415,-1.34814,-2.80068,-66.2319,-19.0095,-6.24765,1.18849,-21.7089,15.8529,0.325573,2.65011,-1.60869,1.77353,1.00331,1.42838,-1.42068,-2.85376,0,0,0,0,0,0,0,0,0,0,0,0,0,0,0.700032,9.82113e-05,0.564318,-0.382535,0.000114994,0.000137767,0.923941,0,0,0,2.61581,-0.513743,1.08261,-3.30073,0.0674912,1.75432,-3.30407,0.0670245,1.79259,0.322254,-0.755797,-0.75805,0.559476,-0.642308,0.725379,0.530772,1
2.68155,-1.68436,1.69765,1.05913,1.36423,-1.34815,-2.80063,-66.2241,-19.0139,-6.25091,1.18804,-21.7028,15.8498,0.322173,2.65011,-1.60869,1.77353,1.00331,1.42838,-1.42068,-2.85376,0,0,0,0,0,0,0,0,0,0,0,0,0,0,0.700032,9.82113e-05,0.564318,-0.382535,0.000114994,0.000137767,0.923941,0,0,0,2.58266,-0.51306,1.09932,-3.29994,0.0679399,1.66269,-3.30118,0.0676652,1.70166,0.314477,-0.756765,-0.758777,0.558169,-0.641572,0.725292,0.531279,1
2.67895,-1.68452,1.69742,1.05886,1.36421,-1.34818,-2.80037,-66.1945,-19.0202,-6.25913,1.18657,-21.6925,15.8423,0.31784,2.65011,-1.60869,1.77353,1.00331,1.42838,-1.42068,-2.85376,0,0,0,0,0,0,0,0,0,0,0,0,0,0,0.700032,9.82113e-05,0.564318,-0.382535,0.000114994,0.000137767,0.923941,0,0,0,2.54931,-0.512264,1.11515,-3.39075,0.0809636,1.60964,-3.36388,0.0769741,1.63725,0.288415,-0.758316,-0.76105,0.555448,-0.641741,0.724924,0.533898,1
2.67987,-1.68466,1.69746,1.05794,1.3646,-1.34833,-2.80056,-66.1871,-19.0341,-6.26582,1.18643,-21.6538,15.8226,0.291667,2.65011,-1.60869,1.77353,1.00331,1.42838,-1.42068,-2.85376,0,0,0,0,0,0,0,0,0,0,0,0,0,0,0.700032,9.82113e-05,0.564318,-0.382535,0.000114994,0.000137767,0.923941,0,0,0,2.51564,-0.511336,1.12997,-3.27107,0.0901012,1.43997,-3.29891,0.0861631,1.49916,0.297647,-0.759701,-0.760707,0.546239,-0.637798,0.72344,0.531947,1
2.6776,-1.68473,1.69726,1.05816,1.36436,-1.3483,-2.80028,-66.1679,-19.0328,-6.26955,1.18548,-21.6612,15.824,0.298904,2.65011,-1.60869,1.77353,1.00331,1.42838,-1.42068,-2.85376,0,0,0,0,0,0,0,0,0,0,0,0,0,0,0.700032,9.82113e-05,0.564318,-0.382535,0.000114994,0.000137767,0.923941,0,0,0,2.48214,-0.510645,1.14356,-3.40457,0.0703142,1.38101,-3.37287,0.0750689,1.41645,0.274949,-0.760409,-0.762687,0.548438,-0.640222,0.7238,0.534805,1
2.68053,-1.68485,1.69751,1.05715,1.36504,-1.34842,-2.8008,-66.1922,-19.0476,-6.27118,1.18629,-21.6245,15.8109,0.270958,2.65011,-1.60869,1.77353,1.00331,1.42838,-1.42068,-2.85376,0,0,0,0,0,0,0,0,0,0,0,0,0,0,0.700032,9.82113e-05,0.564318,-0.382535,0.000114994,0.000137767,0.923941,0,0,0,2.44882,-0.509815,1.15603,-3.12871,0.0779311,1.17037,-3.20196,0.0770725,1.24419,0.304289,-0.761605,-0.760149,0.538399,-0.633397,0.722518,0.529578,1
2.67432,-1.68502,1.69696,1.05703,1.36456,-1.34844,-2.80016,-66.1336,-19.0499,-6.28567,1.18315,-21.6246,15.804,0.276449,2.65011,-1.60869,1.77353,1.00331,1.42838,-1.42068,-2.85376,0,0,0,0,0,0,0,0,0,0,0,0,0,0,0.700032,9.82113e-05,0.564318,-0.382535,0.000114994,0.000137767,0.923941,0,0,0,2.41528,-0.509009,1.16746,-3.54464,0.0851533,1.20818,-3.44183,0.0827291,1.21899,0.242165,-0.763346,-0.765655,0.537166,-0.638219,0.722351,0.535943,1
2.67461,-1.68504,1.69702,1.05709,1.36464,-1.3484,-2.80022,-66.1426,-19.0499,-6.28396,1.18334,-21.629,15.8084,0.278634,2.65011,-1.60869,1.77353,1.00331,1.42838,-1.42068,-2.85376,0,0,0,0,0,0,0,0,0,0,0,0,0,0,0.700032,9.82113e-05,0.564318,-0.382535,0.000114994,0.000137767,0.923941,0,0,0,2.38172,-0.508391,1.17791,-3.37123,0.0621093,1.05013,-3.39241,0.0682952,1.10078,0.245081,-0.763539,-0.765098,0.537817,-0.637408,0.722735,0.535407,1
2.67386,-1.68506,1.69698,1.05721,1.36461,-1.34836,-2.80015,-66.1406,-19.0492,-6.2842,1.18304,-21.6355,15.8121,0.283291,2.65011,-1.60869,1.77353,1.00331,1.42838,-1.42068,-2.85376,0,0,0,0,0,0,0,0,0,0,0,0,0,0,0.700032,9.82113e-05,0.564318,-0.382535,0.000114994,0.000137767,0.923941,0,0,0,2.34824,-0.507925,1.1873,-3.39056,0.0471686,0.950421,-3.39112,0.0535066,0.99553,0.237525,-0.763756,-0.765486,0.538959,-0.637767,0.723144,0.53609,1
2.6762,-1.68508,1.69719,1.05703,1.3649,-1.34837,-2.80043,-66.1642,-19.0523,-6.28061,1.1841,-21.6277,15.8119,0.275691,2.65011,-1.60869,1.77353,1.00331,1.42838,-1.42068,-2.85376,0,0,0,0,0,0,0,0,0,0,0,0,0,0,0.700032,9.82113e-05,0.564318,-0.382535,0.000114994,0.000137767,0.923941,0,0,0,2.31484,-0.507512,1.19579,-3.18657,0.0393427,0.810125,-3.24793,0.0435919,0.865747,0.260932,-0.763942,-0.763416,0.537147,-0.634849,0.723063,0.533255,1
2.67327,-1.68519,1.69694,1.05654,1.36492,-1.34837,-2.80013,-66.1201,-19.0603,-6.29001,1.18227,-21.6124,15.7996,0.268287,2.65011,-1.60869,1.77353,1.00331,1.42838,-1.42068,-2.85376,0,0,0,0,0,0,0,0,0,0,0,0,0,0,0.700032,9.82113e-05,0.564318,-0.382535,0.000114994,0.000137767,0.923941,0,0,0,2.28155,-0.507028,1.20339,-3.37349,0.0490861,0.770097,-3.33582,0.0474378,0.798792,0.231615,-0.765017,-0.765861,0.532298,-0.6346,0.723039,0.536288,1
2.66669,-1.68531,1.69635,1.05568,1.3649,-1.34824,-2.79922,-65.9849,-19.0783,-6.31041,1.17821,-21.576,15.7633,0.252712,2.65011,-1.60869,1.77353,1.00331,1.42838,-1.42068,-2.85376,0,0,0,0,0,0,0,0,0,0,0,0,0,0,0.700032,9.82113e-05,0.564318,-0.382535,0.000114994,0.000137767,0.923941,0,0,0,2.24837,-0.506457,1.20998,-3.68804,0.0634556,0.732539,-3.58238,0.0586503,0.752415,0.165835,-0.766198,-0.7718,0.523632,-0.634798,0.724363,0.545406,1
2.66965,-1.68542,1.69659,1.05475,1.36537,-1.3484,-2.79971,-66.0194,-19.0874,-6.31085,1.17912,-21.5455,15.7539,0.228533,2.65011,-1.60869,1.77353,1.00331,1.42838,-1.42068,-2.85376,0,0,0,0,0,0,0,0,0,0,0,0,0,0,0.700032,9.82113e-05,0.564318,-0.382535,0.000114994,0.000137767,0.923941,0,0,0,2.21525,-0.505805,1.21562,-3.35126,0.0659737,0.570952,-3.42059,0.0637767,0.625391,0.195409,-0.767349,-0.769445,0.514392,-0.630173,0.72272,0.540432,1
2.67171,-1.68552,1.69676,1.05394,1.36573,-1.34854,-2.80009,-66.0435,-19.0952,-6.31204,1.17965,-21.5203,15.7457,0.208728,2.65011,-1.60869,1.77353,1.00331,1.42838,-1.42068,-2.85376,0,0,0,0,0,0,0,0,0,0,0,0,0,0,0.700032,9.82113e-05,0.564318,-0.382535,0.000114994,0.000137767,0.923941,0,0,0,2.18219,-0.505136,1.22027,-3.2411,0.0655984,0.456167,-3.29495,0.0650519,0.506934,0.216012,-0.768275,-0.767674,0.506327,-0.626512,0.721383,0.536676,1
2.66939,-1.68561,1.69654,1.0531,1.36579,-1.34854,-2.79976,-65.9828,-19.1067,-6.3233,1.17784,-21.4879,15.7212,0.190598,2.65011,-1.60869,1.77353,1.00331,1.42838,-1.42068,-2.85376,0,0,0,0,0,0,0,0,0,0,0,0,0,0,0.700032,9.82113e-05,0.564318,-0.382535,0.000114994,0.000137767,0.923941,0,0,0,2.14913,-0.504439,1.22393,-3.41401,0.0720032,0.378314,-3.37829,0.0699178,0.4169,0.192816,-0.769215,-0.769897,0.497853,-0.625976,0.721349,0.54002,1
2.66908,-1.68569,1.6965,1.05232,1.3659,-1.3486,-2.79971,-65.96,-19.1149,-6.32963,1.17714,-21.4602,15.7042,0.172877,2.65011,-1.60869,1.77353,1.00331,1.42838,-1.42068,-2.85376,0,0,0,0,0,0,0,0,0,0,0,0,0,0,0.700032,9.82113e-05,0.564318,-0.382535,0.000114994,0.000137767,0.923941,0,0,0,2.11594,-0.503745,1.22653,-3.37482,0.0705127,0.263832,-3.37586,0.0703342,0.309752,0.189722,-0.769983,-0.770309,0.490051,-0.624842,0.720707,0.540468,1
2.66947,-1.68574,1.69653,1.05174,1.36601,-1.34867,-2.79977,-65.9555,-19.1198,-6.33269,1.17695,-21.4413,15.6944,0.159946,2.65011,-1.60869,1.77353,1.00331,1.42838,-1.42068,-2.85376,0,0,0,0,0,0,0,0,0,0,0,0,0,0,0.700032,9.82113e-05,0.564318,-0.382535,0.000114994,0.000137767,0.923941,0,0,0,2.08273,-0.503084,1.22817,-3.31481,0.0660016,0.16401,-3.33312,0.0673014,0.207733,0.193649,-0.77052,-0.769962,0.484328,-0.623724,0.720025,0.53991,1
2.66951,-1.68578,1.69653,1.05131,1.36603,-1.34872,-2.79975,-65.9462,-19.1231,-6.33559,1.17667,-21.4267,15.6857,0.150424,2.65011,-1.60869,1.77353,1.00331,1.42838,-1.42068,-2.85376,0,0,0,0,0,0,0,0,0,0,0,0,0,0,0.700032,9.82113e-05,0.564318,-0.382535,0.000114994,0.000137767,0.923941,0,0,0,2.0498,-0.502514,1.22879,-3.3018,0.0571725,0.0615769,-3.31119,0.0602112,0.105424,0.194036,-0.770876,-0.76995,0.479985,-0.623555,0.719586,0.540131,1
2.67161,-1.68579,1.69674,1.05106,1.36617,-1.34882,-2.80006,-65.982,-19.1224,-6.33218,1.1776,-21.4225,15.6892,0.144638,2.65011,-1.60869,1.77353,1.00331,1.42838,-1.42068,-2.85376,0,0,0,0,0,0,0,0,0,0,0,0,0,0,0.700032,9.82113e-05,0.564318,-0.382535,0.000114994,0.000137767,0.923941,0,0,0,2.0168,-0.502028,1.22839,-3.12008,0.0459794,-0.0376287,-3.17742,0.0502489,0.005287,0.21502,-0.771028,-0.767864,0.477512,-0.622095,0.718595,0.53702,1
2.66789,-1.68588,1.69637,1.04974,1.36606,-1.34882,-2.79945,-65.8791,-19.1376,-6.35015,1.17472,-21.371,15.6477,0.116428,2.65011,-1.60869,1.77353,1.00331,1.42838,-1.42068,-2.85376,0,0,0,0,0,0,0,0,0,0,0,0,0,0,0.700032,9.82113e-05,0.564318,-0.382535,0.000114994,0.000137767,0.923941,0,0,0,1.98387,-0.501472,1.22716,-3.43403,0.0579921,-0.128145,-3.35705,0.0556692,-0.0881152,0.177819,-0.77196,-0.771625,0.464258,-0.623204,0.718528,0.543047,1
2.67227,-1.68593,1.69681,1.04931,1.36657,-1.34908,-2.79996,-65.9304,-19.1417,-6.34491,1.17668,-21.3517,15.6472,0.0997981,2.65011,-1.60869,1.77353,1.00331,1.42838,-1.42068,-2.85376,0,0,0,0,0,0,0,0,0,0,0,0,0,0,0.700032,9.82113e-05,0.564318,-0.382535,0.000114994,0.000137767,0.923941,0,0,0,1.95109,-0.500866,1.22495,-2.95015,0.0544904,-0.198532,-3.07222,0.054844,-0.165407,0.221606,-0.772421,-0.767199,0.459986,-0.618138,0.715911,0.537962,1
2.66836,-1.68609,1.69635,1.04637,1.36657,-1.34918,-2.79948,-65.8031,-19.1677,-6.37237,1.17257,-21.2545,15.5782,0.0400687,2.65011,-1.60869,1.77353,1.00331,1.42838,-1.42068,-2.85376,0,0,0,0,0,0,0,0,0,0,0,0,0,0,0.700032,9.82113e-05,0.564318,-0.382535,0.000114994,0.000137767,0.923941,0,0,0,1.91763,-0.500067,1.22148,-3.40641,0.081309,-0.35333,-3.30615,0.0733695,-0.296953,0.182575,-0.773989,-0.771836,0.430532,-0.618138,0.714968,0.542827,1
2.66803,-1.68608,1.69631,1.04602,1.36641,-1.34922,-2.79929,-65.7796,-19.1686,-6.3758,1.17215,-21.2401,15.5665,0.0321129,2.65011,-1.60869,1.77353,1.00331,1.42838,-1.42068,-2.85376,0,0,0,0,0,0,0,0,0,0,0,0,0,0,0.700032,9.82113e-05,0.564318,-0.382535,0.000114994,0.000137767,0.923941,0,0,0,1.88434,-0.499553,1.21711,-3.31541,0.0512221,-0.435826,-3.31263,0.0578663,-0.394164,0.179272,-0.773963,-0.772244,0.427087,-0.619743,0.714587,0.54466,1
2.66655,-1.68618,1.69615,1.04374,1.3664,-1.34937,-2.79899,-65.6983,-19.1856,-6.39368,1.16975,-21.1644,15.5156,-0.0152232,2.65011,-1.60869,1.77353,1.00331,1.42838,-1.42068,-2.85376,0,0,0,0,0,0,0,0,0,0,0,0,0,0,0.700032,9.82113e-05,0.564318,-0.382535,0.000114994,0.000137767,0.923941,0,0,0,1.8516,-0.498953,1.21177,-3.41821,0.0627002,-0.557276,-3.38654,0.0612501,-0.508342,0.16445,-0.774928,-0.773823,0.404321,-0.619783,0.713061,0.547668,1
2.66759,-1.68625,1.6962,1.04219,1.36663,-1.34955,-2.79901,-65.6653,-19.1981,-6.40214,1.16915,-21.1087,15.4822,-0.051867,2.65011,-1.60869,1.77353,1.00331,1.42838,-1.42068,-2.85376,0,0,0,0,0,0,0,0,0,0,0,0,0,0,0.700032,9.82113e-05,0.564318,-0.382535,0.000114994,0.000137767,0.923941,0,0,0,1.81885,-0.49829,1.20546,-3.28837,0.0664913,-0.633319,-3.31782,0.0649189,-0.595826,0.174818,-0.77562,-0.773283,0.388807,-0.617553,0.711205,0.547519,1
2.66975,-1.68626,1.69645,1.04184,1.36685,-1.34973,-2.79911,-65.6756,-19.2002,-6.40035,1.16998,-21.0921,15.4763,-0.0635938,2.65011,-1.60869,1.77353,1.00331,1.42838,-1.42068,-2.85376,0,0,0,0,0,0,0,0,0,0,0,0,0,0,0.700032,9.82113e-05,0.564318,-0.382535,0.000114994,0.000137767,0.923941,0,0,0,1.78612,-0.497637,1.19822,-3.05395,0.0609792,-0.675857,-3.13311,0.0621611,-0.651847,0.196471,-0.775712,-0.770802,0.385279,-0.615344,0.709441,0.546502,1
2.66746,-1.68637,1.69614,1.03835,1.36681,-1.3499,-2.79874,-65.5547,-19.2251,-6.42682,1.16628,-20.9795,15.3994,-0.134668,2.65011,-1.60869,1.77353,1.00331,1.42838,-1.42068,-2.85376,0,0,0,0,0,0,0,0,0,0,0,0,0,0,0.700032,9.82113e-05,0.564318,-0.382535,0.000114994,0.000137767,0.923941,0,0,0,1.75338,-0.49696,1.19006,-3.36029,0.0694429,-0.837194,-3.29214,0.0672584,-0.78159,0.173526,-0.776857,-0.773853,0.350354,-0.615775,0.707775,0.550171,1
2.66827,-1.68639,1.6962,1.03696,1.36687,-1.35006,-2.79865,-65.5186,-19.2332,-6.43374,1.16566,-20.9315,15.369,-0.165695,2.65011,-1.60869,1.77353,1.00331,1.42838,-1.42068,-2.85376,0,0,0,0,0,0,0,0,0,0,0,0,0,0,0.700032,9.82113e-05,0.564318,-0.382535,0.000114994,0.000137767,0.923941,0,0,0,1.72054,-0.496328,1.18091,-3.19652,0.0614831,-0.891137,-3.2252,0.0632157,-0.858273,0.181611,-0.77706,-0.773252,0.336515,-0.615122,0.706145,0.551095,1
2.66558,-1.68646,1.6959,1.03305,1.3665,-1.3502,-2.79817,-65.3886,-19.2535,-6.46125,1.16145,-20.8147,15.2874,-0.23951,2.65011,-1.60869,1.77353,1.00331,1.42838,-1.42068,-2.85376,0,0,0,0,0,0,0,0,0,0,0,0,0,0,0.700032,9.82113e-05,0.564318,-0.382535,0.000114994,0.000137767,0.923941,0,0,0,1.68763,-0.495886,1.17082,-3.52169,0.0473752,-1.07868,-3.43274,0.0521273,-1.01256,0.154747,-0.777703,-0.776247,0.29736,-0.618868,0.704779,0.555877,1
2.66823,-1.68643,1.69613,1.03336,1.36674,-1.35033,-2.79832,-65.4125,-19.252,-6.4548,1.16299,-20.8158,15.2915,-0.239896,2.65011,-1.60869,1.77353,1.00331,1.42838,-1.42068,-2.85376,0,0,0,0,0,0,0,0,0,0,0,0,0,0,0.700032,9.82113e-05,0.564318,-0.382535,0.000114994,0.000137767,0.923941,0,0,0,1.65485,-0.495494,1.15976,-3.11499,0.0372517,-1.05164,-3.21032,0.0417144,-1.03991,0.181256,-0.777466,-0.774032,0.300513,-0.616481,0.703481,0.554422,1
2.66557,-1.68663,1.69575,1.02872,1.36675,-1.3505,-2.79834,-65.3029,-19.2833,-6.4873,1.15836,-20.6798,15.2041,-0.329331,2.65011,-1.60869,1.77353,1.00331,1.42838,-1.42068,-2.85376,0,0,0,0,0,0,0,0,0,0,0,0,0,0,0.700032,9.82113e-05,0.564318,-0.382535,0.000114994,0.000137767,0.923941,0,0,0,1.6221,-0.495231,1.14762,-3.33958,0.0267992,-1.23775,-3.3008,0.0312738,-1.1784,0.154593,-0.779403,-0.777838,0.254057,-0.616343,0.70176,0.554149,1
2.66387,-1.68681,1.69551,1.02391,1.36701,-1.35076,-2.79842,-65.1881,-19.3182,-6.51931,1.15405,-20.5321,15.1114,-0.425827,2.65011,-1.60869,1.77353,1.00331,1.42838,-1.42068,-2.85376,0,0,0,0,0,0,0,0,0,0,0,0,0,0,0.700032,9.82113e-05,0.564318,-0.382535,0.000114994,0.000137767,0.923941,0,0,0,1.58934,-0.494873,1.13455,-3.26591,0.0357174,-1.30353,-3.27638,0.0343843,-1.26599,0.137614,-0.781172,-0.780222,0.205978,-0.613723,0.699186,0.553414,1
2.66139,-1.68699,1.69519,1.01783,1.36723,-1.35102,-2.79847,-65.033,-19.361,-6.56,1.14839,-20.3457,14.9921,-0.546671,2.65011,-1.60869,1.77353,1.00331,1.42838,-1.42068,-2.85376,0,0,0,0,0,0,0,0,0,0,0,0,0,0,0.700032,9.82113e-05,0.564318,-0.382535,0.000114994,0.000137767,0.923941,0,0,0,1.55659,-0.494526,1.12049,-3.29506,0.0348567,-1.41399,-3.28945,0.034715,-1.36959,0.112834,-0.78297,-0.783351,0.145192,-0.611567,0.696586,0.552917,1
2.65754,-1.68721,1.69478,1.00783,1.36751,-1.35137,-2.79853,-64.7664,-19.4299,-6.62572,1.13912,-20.0369,14.7931,-0.745313,2.65011,-1.60869,1.77353,1.00331,1.42838,-1.42068,-2.85376,0,0,0,0,0,0,0,0,0,0,0,0,0,0,0.700032,9.82113e-05,0.564318,-0.382535,0.000114994,0.000137767,0.923941,0,0,0,1.52374,-0.494102,1.10545,-3.38813,0.0437819,-1.5517,-3.35853,0.0410618,-1.49707,0.0743873,-0.785263,-0.787523,0.0451475,-0.608762,0.69307,0.552258,1
2.6565,-1.68733,1.69465,1.00198,1.36784,-1.35162,-2.7987,-64.6194,-19.4701,-6.66098,1.13426,-19.854,14.6773,-0.863451,2.65011,-1.60869,1.77353,1.00331,1.42838,-1.42068,-2.85376,0,0,0,0,0,0,0,0,0,0,0,0,0,0,0.700032,9.82113e-05,0.564318,-0.382535,0.000114994,0.000137767,0.923941,0,0,0,1.49105,-0.493716,1.08946,-3.2455,0.0383333,-1.58688,-3.27941,0.0391519,-1.55994,0.0639242,-0.7864,-0.788775,-0.013368,-0.605388,0.69054,0.55055,1
2.65319,-1.6875,1.69433,0.99284,1.36809,-1.35194,-2.79886,-64.3557,-19.5365,-6.72314,1.12584,-19.5564,14.484,-1.05147,2.65011,-1.60869,1.77353,1.00331,1.42838,-1.42068,-2.85376,0,0,0,0,0,0,0,0,0,0,0,0,0,0,0.700032,9.82113e-05,0.564318,-0.382535,0.000114994,0.000137767,0.923941,0,0,0,1.45852,-0.493391,1.07256,-3.33498,0.0332512,-1.73332,-3.31831,0.0350214,-1.6813,0.0308215,-0.78814,-0.79204,-0.104714,-0.602912,0.687358,0.549023,1
2.65045,-1.68766,1.69409,0.985858,1.36847,-1.35229,-2.79904,-64.136,-19.5951,-6.77521,1.11929,-19.3115,14.326,-1.20348,2.65011,-1.60869,1.77353,1.00331,1.42838,-1.42068,-2.85376,0,0,0,0,0,0,0,0,0,0,0,0,0,0,0.700032,9.82113e-05,0.564318,-0.382535,0.000114994,0.000137767,0.923941,0,0,0,1.42599,-0.493013,1.05474,-3.29409,0.038282,-1.80415,-3.30136,0.0373038,-1.7673,0.00341367,-0.789697,-0.794365,-0.174535,-0.599141,0.683901,0.547186,1
2.64811,-1.68778,1.6939,0.980574,1.36879,-1.35261,-2.79923,-63.9595,-19.6435,-6.81788,1.11421,-19.1159,14.1997,-1.32339,2.65011,-1.60869,1.77353,1.00331,1.42838,-1.42068,-2.85376,0,0,0,0,0,0,0,0,0,0,0,0,0,0,0.700032,9.82113e-05,0.564318,-0.382535,0.000114994,0.000137767,0.923941,0,0,0,1.39336,-0.492635,1.03603,-3.25474,0.0377112,-1.86623,-3.26872,0.037589,-1.83655,-0.0199247,-0.790956,-0.79631,-0.227375,-0.595936,0.680668,0.545262,1
2.64378,-1.688,1.6935,0.972605,1.36926,-1.35315,-2.79947,-63.6521,-19.7268,-6.891,1.10618,-18.7934,13.9882,-1.51695,2.65011,-1.60869,1.77353,1.00331,1.42838,-1.42068,-2.85376,0,0,0,0,0,0,0,0,0,0,0,0,0,0,0.700032,9.82113e-05,0.564318,-0.382535,0.000114994,0.000137767,0.923941,0,0,0,1.36076,-0.49216,1.01638,-3.37263,0.0491949,-2.0327,-3.34146,0.0457131,-1.97385,-0.0632416,-0.793131,-0.800272,-0.307068,-0.591192,0.675261,0.542861,1
2.64265,-1.68812,1.69331,0.9681,1.36983,-1.35364,-2.79983,-63.4917,-19.7754,-6.9298,1.10228,-18.605,13.8676,-1.6314,2.65011,-1.60869,1.77353,1.00331,1.42838,-1.42068,-2.85376,0,0,0,0,0,0,0,0,0,0,0,0,0,0,0.700032,9.82113e-05,0.564318,-0.382535,0.000114994,0.000137767,0.923941,0,0,0,1.32837,-0.491646,0.995633,-3.26453,0.051767,-2.09106,-3.28761,0.0499508,-2.0559,-0.0745396,-0.79433,-0.802163,-0.352122,-0.585502,0.670308,0.539312,1
2.64071,-1.68818,1.69306,0.963849,1.37023,-1.35407,-2.8001,-63.3173,-19.8234,-6.97036,1.09816,-18.4199,13.7456,-1.74174,2.65011,-1.60869,1.77353,1.00331,1.42838,-1.42068,-2.85376,0,0,0,0,0,0,0,0,0,0,0,0,0,0,0.700032,9.82113e-05,0.564318,-0.382535,0.000114994,0.000137767,0.923941,0,0,0,1.29565,-0.491059,0.973868,-3.25306,0.0583706,-2.1643,-3.26342,0.0558447,-2.13178,-0.093939,-0.794916,-0.804712,-0.394626,-0.581516,0.666008,0.536532,1
2.63824,-1.6882,1.69274,0.9605,1.37063,-1.35431,-2.80046,-63.1635,-19.8678,-7.00713,1.09446,-18.2668,13.6426,-1.83207,2.65011,-1.60869,1.77353,1.00331,1.42838,-1.42068,-2.85376,0,0,0,0,0,0,0,0,0,0,0,0,0,0,0.700032,9.82113e-05,0.564318,-0.382535,0.000114994,0.000137767,0.923941,0,0,0,1.26293,-0.490587,0.951063,-3.29111,0.0474953,-2.29383,-3.2828,0.0500001,-2.24522,-0.118696,-0.795099,-0.807848,-0.428114,-0.577576,0.663607,0.532963,1
2.63659,-1.68819,1.69252,0.958119,1.37095,-1.35458,-2.80082,-63.0593,-19.8995,-7.03345,1.09191,-18.1562,13.5692,-1.89751,2.65011,-1.60869,1.77353,1.00331,1.42838,-1.42068,-2.85376,0,0,0,0,0,0,0,0,0,0,0,0,0,0,0.700032,9.82113e-05,0.564318,-0.382535,0.000114994,0.000137767,0.923941,0,0,0,1.2304,-0.490142,0.927166,-3.19338,0.0436604,-2.34568,-3.22021,0.0455623,-2.31554,-0.135161,-0.795022,-0.810063,-0.451924,-0.574339,0.660952,0.529409,1
2.6335,-1.6882,1.69219,0.955347,1.37125,-1.35476,-2.80125,-62.9178,-19.9426,-7.07014,1.08841,-18.0189,13.476,-1.977,2.65011,-1.60869,1.77353,1.00331,1.42838,-1.42068,-2.85376,0,0,0,0,0,0,0,0,0,0,0,0,0,0,0.700032,9.82113e-05,0.564318,-0.382535,0.000114994,0.000137767,0.923941,0,0,0,1.19766,-0.489933,0.902313,-3.34001,0.0212806,-2.53556,-3.30407,0.0285651,-2.46956,-0.166019,-0.795091,-0.813431,-0.479648,-0.571338,0.65917,0.525064,1
2.63182,-1.68816,1.69201,0.953936,1.37138,-1.35493,-2.80159,-62.8529,-19.9635,-7.08922,1.08661,-17.9497,13.4296,-2.01732,2.65011,-1.60869,1.77353,1.00331,1.42838,-1.42068,-2.85376,0,0,0,0,0,0,0,0,0,0,0,0,0,0,0.700032,9.82113e-05,0.564318,-0.382535,0.000114994,0.000137767,0.923941,0,0,0,1.16528,-0.489895,0.876546,-3.24874,0.00381555,-2.58536,-3.26534,0.0112404,-2.55062,-0.182843,-0.794719,-0.815246,-0.49376,-0.570056,0.657405,0.521663,1
2.63209,-1.68804,1.69212,0.954884,1.3711,-1.35507,-2.80149,-62.899,-19.9463,-7.07943,1.08747,-17.9949,13.4602,-1.98991,2.65011,-1.60869,1.77353,1.00331,1.42838,-1.42068,-2.85376,0,0,0,0,0,0,0,0,0,0,0,0,0,0,0.700032,9.82113e-05,0.564318,-0.382535,0.000114994,0.000137767,0.923941,0,0,0,1.13283,-0.489804,0.849851,-2.86985,0.00807252,-2.36076,-2.9885,0.00902289,-2.41771,-0.180196,-0.793566,-0.814144,-0.484279,-0.572813,0.656007,0.522708,1
2.62693,-1.68819,1.69169,0.950678,1.37284,-1.35557,-2.80218,-62.6039,-20.0488,-7.14991,1.08181,-17.7264,13.2832,-2.14067,2.65011,-1.60869,1.77353,1.00331,1.42838,-1.42068,-2.85376,0,0,0,0,0,0,0,0,0,0,0,0,0,0,0.700032,9.82113e-05,0.564318,-0.382535,0.000114994,0.000137767,0.923941,0,0,0,1.10032,-0.489541,0.82223,-3.24727,0.0262459,-2.7591,-3.16964,0.021079,-2.65668,-0.231711,-0.795058,-0.818361,-0.526336,-0.555454,0.651093,0.515798,1
2.62306,-1.68836,1.69138,0.94706,1.37514,-1.35629,-2.80282,-62.3088,-20.1558,-7.21656,1.07712,-17.4586,13.1096,-2.28969,2.65011,-1.60869,1.77353,1.00331,1.42838,-1.42068,-2.85376,0,0,0,0,0,0,0,0,0,0,0,0,0,0,0.700032,9.82113e-05,0.564318,-0.382535,0.000114994,0.000137767,0.923941,0,0,0,1.06807,-0.488942,0.793741,-3.32515,0.0617451,-2.93725,-3.27849,0.0495453,-2.85308,-0.270462,-0.796764,-0.821485,-0.562519,-0.532419,0.643875,0.509415,1
2.62092,-1.68841,1.69125,0.945851,1.37605,-1.35666,-2.80306,-62.1829,-20.2009,-7.2461,1.07516,-17.3493,13.0384,-2.34863,2.65011,-1.60869,1.77353,1.00331,1.42838,-1.42068,-2.85376,0,0,0,0,0,0,0,0,0,0,0,0,0,0,0.700032,9.82113e-05,0.564318,-0.382535,0.000114994,0.000137767,0.923941,0,0,0,1.0357,-0.488444,0.764188,-3.23623,0.0497901,-2.95419,-3.24891,0.0497166,-2.92386,-0.291877,-0.797179,-0.822765,-0.574607,-0.523348,0.640161,0.506937,1
2.61896,-1.68848,1.69116,0.945119,1.37637,-1.357,-2.80319,-62.1,-20.2306,-7.26943,1.07378,-17.2721,12.9882,-2.38926,2.65011,-1.60869,1.77353,1.00331,1.42838,-1.42068,-2.85376,0,0,0,0,0,0,0,0,0,0,0,0,0,0,0.700032,9.82113e-05,0.564318,-0.382535,0.000114994,0.000137767,0.923941,0,0,0,1.00326,-0.488003,0.733652,-3.16496,0.043047,-2.97906,-3.19015,0.0450479,-2.9625,-0.311435,-0.797929,-0.823731,-0.581925,-0.520151,0.636724,0.505646,1
2.61682,-1.68863,1.691,0.943866,1.37697,-1.35754,-2.80351,-61.9882,-20.2744,-7.3019,1.07197,-17.1553,12.9139,-2.45277,2.65011,-1.60869,1.77353,1.00331,1.42838,-1.42068,-2.85376,0,0,0,0,0,0,0,0,0,0,0,0,0,0,0.700032,9.82113e-05,0.564318,-0.382535,0.000114994,0.000137767,0.923941,0,0,0,0.970925,-0.487576,0.702166,-3.19292,0.0421526,-3.10948,-3.19209,0.0430212,-3.06538,-0.332811,-0.799378,-0.825339,-0.594459,-0.514156,0.631305,0.50253,1
2.61431,-1.68883,1.69075,0.943014,1.37745,-1.35822,-2.8038,-61.877,-20.3204,-7.33768,1.07039,-17.036,12.8376,-2.51601,2.65011,-1.60869,1.77353,1.00331,1.42838,-1.42068,-2.85376,0,0,0,0,0,0,0,0,0,0,0,0,0,0,0.700032,9.82113e-05,0.564318,-0.382535,0.000114994,0.000137767,0.923941,0,0,0,0.938841,-0.487195,0.669733,-3.2391,0.0384589,-3.27437,-3.225,0.0398276,-3.21168,-0.357916,-0.801392,-0.827808,-0.602981,-0.509358,0.624574,0.499563,1
2.61198,-1.689,1.69054,0.942398,1.37782,-1.35889,-2.80414,-61.7901,-20.3596,-7.36925,1.0691,-16.935,12.7742,-2.56927,2.65011,-1.60869,1.77353,1.00331,1.42838,-1.42068,-2.85376,0,0,0,0,0,0,0,0,0,0,0,0,0,0,0.700032,9.82113e-05,0.564318,-0.382535,0.000114994,0.000137767,0.923941,0,0,0,0.906846,-0.486908,0.636241,-3.25765,0.0292117,-3.41003,-3.24785,0.0323965,-3.35052,-0.381307,-0.803149,-0.829849,-0.609143,-0.505608,0.617811,0.496221,1
2.61,-1.68905,1.69046,0.942265,1.37809,-1.35934,-2.80431,-61.7309,-20.3843,-7.38942,1.06822,-16.8774,12.7377,-2.59768,2.65011,-1.60869,1.77353,1.00331,1.42838,-1.42068,-2.85376,0,0,0,0,0,0,0,0,0,0,0,0,0,0,0.700032,9.82113e-05,0.564318,-0.382535,0.000114994,0.000137767,0.923941,0,0,0,0.874764,-0.486673,0.601734,-3.13535,0.0229629,-3.37237,-3.1691,0.025793,-3.36582,-0.401099,-0.80357,-0.830687,-0.610471,-0.502976,0.613383,0.494447,1
2.60793,-1.6893,1.6902,0.941165,1.37892,-1.36044,-2.8051,-61.6396,-20.4372,-7.42866,1.06684,-16.7384,12.6551,-2.67445,2.65011,-1.60869,1.77353,1.00331,1.42838,-1.42068,-2.85376,0,0,0,0,0,0,0,0,0,0,0,0,0,0,0.700032,9.82113e-05,0.564318,-0.382535,0.000114994,0.000137767,0.923941,0,0,0,0.842774,-0.486403,0.566374,-3.31811,0.0280028,-3.6676,-3.27341,0.0273398,-3.57706,-0.421769,-0.80609,-0.833317,-0.62147,-0.494596,0.602391,0.486583,1
2.60564,-1.68937,1.69012,0.941017,1.37942,-1.36092,-2.80559,-61.5899,-20.4682,-7.45157,1.0659,-16.6763,12.6187,-2.7061,2.65011,-1.60869,1.77353,1.00331,1.42838,-1.42068,-2.85376,0,0,0,0,0,0,0,0,0,0,0,0,0,0,0.700032,9.82113e-05,0.564318,-0.382535,0.000114994,0.000137767,0.923941,0,0,0,0.810746,-0.486182,0.529897,-3.16164,0.0218968,-3.60089,-3.19517,0.0235297,-3.59374,-0.444614,-0.806804,-0.834146,-0.622953,-0.489616,0.597526,0.481699,1
2.6036,-1.6895,1.68995,0.940466,1.38016,-1.36174,-2.80616,-61.5115,-20.5105,-7.4819,1.06481,-16.5751,12.5579,-2.76016,2.65011,-1.60869,1.77353,1.00331,1.42838,-1.42068,-2.85376,0,0,0,0,0,0,0,0,0,0,0,0,0,0,0.700032,9.82113e-05,0.564318,-0.382535,0.000114994,0.000137767,0.923941,0,0,0,0.778571,-0.485899,0.492643,-3.20873,0.0281458,-3.71522,-3.20466,0.026761,-3.67878,-0.465071,-0.808116,-0.835784,-0.628464,-0.4822,0.589346,0.476011,1
2.60179,-1.68957,1.68981,0.940224,1.38081,-1.36215,-2.80647,-61.4361,-20.5449,-7.50453,1.06389,-16.5031,12.5118,-2.79739,2.65011,-1.60869,1.77353,1.00331,1.42838,-1.42068,-2.85376,0,0,0,0,0,0,0,0,0,0,0,0,0,0,0.700032,9.82113e-05,0.564318,-0.382535,0.000114994,0.000137767,0.923941,0,0,0,0.746455,-0.485838,0.454387,-3.1992,0.00609483,-3.81086,-3.20084,0.0122947,-3.77123,-0.483121,-0.808818,-0.837217,-0.630874,-0.475776,0.58528,0.472836,1
2.60002,-1.6897,1.68963,0.939603,1.38184,-1.36307,-2.80726,-61.3627,-20.5911,-7.53503,1.0629,-16.3964,12.4495,-2.8557,2.65011,-1.60869,1.77353,1.00331,1.42838,-1.42068,-2.85376,0,0,0,0,0,0,0,0,0,0,0,0,0,0,0.700032,9.82113e-05,0.564318,-0.382535,0.000114994,0.000137767,0.923941,0,0,0,0.714468,-0.485675,0.415223,-3.25787,0.016643,-3.98884,-3.24076,0.0153385,-3.92356,-0.500812,-0.810125,-0.839014,-0.63709,-0.465456,0.576097,0.464978,1
2.59837,-1.68971,1.68953,0.939461,1.38256,-1.36344,-2.80754,-61.2892,-20.6231,-7.55474,1.06207,-16.3329,12.4087,-2.88796,2.65011,-1.60869,1.77353,1.00331,1.42838,-1.42068,-2.85376,0,0,0,0,0,0,0,0,0,0,0,0,0,0,0.700032,9.82113e-05,0.564318,-0.382535,0.000114994,0.000137767,0.923941,0,0,0,0.682449,-0.485499,0.375107,-3.15835,0.0173586,-3.95701,-3.18307,0.0167526,-3.94697,-0.517362,-0.810247,-0.839991,-0.63851,-0.458265,0.572313,0.462159,1
2.59679,-1.68978,1.6894,0.938914,1.38364,-1.36431,-2.80838,-61.2283,-20.6652,-7.5812,1.06118,-16.2396,12.3555,-2.93927,2.65011,-1.60869,1.77353,1.00331,1.42838,-1.42068,-2.85376,0,0,0,0,0,0,0,0,0,0,0,0,0,0,0.700032,9.82113e-05,0.564318,-0.382535,0.000114994,0.000137767,0.923941,0,0,0,0.65052,-0.485328,0.333909,-3.2208,0.0172529,-4.15576,-3.20948,0.0171028,-4.09313,-0.533148,-0.810962,-0.841337,-0.64398,-0.447389,0.563693,0.453767,1
2.59534,-1.68977,1.68931,0.938839,1.38423,-1.36467,-2.80858,-61.1606,-20.6922,-7.59818,1.06048,-16.1842,12.319,-2.96699,2.65011,-1.60869,1.77353,1.00331,1.42838,-1.42068,-2.85376,0,0,0,0,0,0,0,0,0,0,0,0,0,0,0.700032,9.82113e-05,0.564318,-0.382535,0.000114994,0.000137767,0.923941,0,0,0,0.618332,-0.485239,0.291879,-3.1601,0.00872518,-4.12647,-3.17492,0.0112385,-4.11647,-0.547614,-0.810828,-0.842246,-0.644724,-0.441515,0.560082,0.4518,1
2.59401,-1.68981,1.6892,0.938459,1.38524,-1.36544,-2.80932,-61.1097,-20.7283,-7.62012,1.05979,-16.1067,12.2751,-3.00949,2.65011,-1.60869,1.77353,1.00331,1.42838,-1.42068,-2.85376,0,0,0,0,0,0,0,0,0,0,0,0,0,0,0.700032,9.82113e-05,0.564318,-0.382535,0.000114994,0.000137767,0.923941,0,0,0,0.586402,-0.485256,0.24899,-3.21693,-0.00170545,-4.32096,-3.20433,0.00217773,-4.25961,-0.560927,-0.811173,-0.843342,-0.648529,-0.431466,0.552351,0.444331,1
2.59282,-1.68972,1.68913,0.938936,1.38525,-1.36511,-2.80906,-61.0659,-20.7353,-7.62369,1.05944,-16.1091,12.2693,-3.00412,2.65011,-1.60869,1.77353,1.00331,1.42838,-1.42068,-2.85376,0,0,0,0,0,0,0,0,0,0,0,0,0,0,0.700032,9.82113e-05,0.564318,-0.382535,0.000114994,0.000137767,0.923941,0,0,0,0.554338,-0.485917,0.205215,-3.13792,-0.0646859,-4.28396,-3.15784,-0.0446268,-4.27666,-0.572895,-0.810365,-0.843991,-0.643762,-0.431329,0.555681,0.447003,1
2.59162,-1.68985,1.68903,0.937759,1.38762,-1.36721,-2.81095,-61.0104,-20.8041,-7.66368,1.05857,-15.9469,12.1874,-3.0973,2.65011,-1.60869,1.77353,1.00331,1.42838,-1.42068,-2.85376,0,0,0,0,0,0,0,0,0,0,0,0,0,0,0.700032,9.82113e-05,0.564318,-0.382535,0.000114994,0.000137767,0.923941,0,0,0,0.522728,-0.485716,0.160363,-3.24913,0.0206285,-4.61029,-3.22174,0.00105191,-4.5102,-0.584884,-0.811654,-0.845014,-0.655525,-0.407592,0.534613,0.428045,1
2.5904,-1.68988,1.68901,0.93811,1.38839,-1.36729,-2.81104,-60.956,-20.8294,-7.6752,1.05819,-15.9159,12.1671,-3.11086,2.65011,-1.60869,1.77353,1.00331,1.42838,-1.42068,-2.85376,0,0,0,0,0,0,0,0,0,0,0,0,0,0,0.700032,9.82113e-05,0.564318,-0.382535,0.000114994,0.000137767,0.923941,0,0,0,0.491126,-0.485526,0.114586,-2.99665,0.0180754,-4.34089,-3.06418,0.0129683,-4.39168,-0.597085,-0.811942,-0.845176,-0.652019,-0.399976,0.533881,0.427218,1
2.58927,-1.6901,1.68888,0.937066,1.39054,-1.36953,-2.81349,-60.9721,-20.8908,-7.71247,1.0578,-15.7749,12.1051,-3.19542,2.65011,-1.60869,1.77353,1.00331,1.42838,-1.42068,-2.85376,0,0,0,0,0,0,0,0,0,0,0,0,0,0,0.700032,9.82113e-05,0.564318,-0.382535,0.000114994,0.000137767,0.923941,0,0,0,0.459373,-0.485322,0.0678353,-3.38166,0.0216394,-4.97879,-3.28642,0.0190381,-4.80266,-0.608313,-0.814122,-0.846514,-0.662454,-0.378471,0.511492,0.402652,1
2.58832,-1.69024,1.68884,0.936631,1.39272,-1.3711,-2.81537,-60.9736,-20.9447,-7.7394,1.05757,-15.675,12.0629,-3.2545,2.65011,-1.60869,1.77353,1.00331,1.42838,-1.42068,-2.85376,0,0,0,0,0,0,0,0,0,0,0,0,0,0,0.700032,9.82113e-05,0.564318,-0.382535,0.000114994,0.000137767,0.923941,0,0,0,0.428041,-0.484882,0.0198786,-3.32322,0.0467064,-5.0865,-3.31218,0.0384059,-5.00135,-0.617864,-0.815475,-0.846919,-0.666808,-0.35661,0.495707,0.383879,1
2.58735,-1.69026,1.68882,0.937079,1.39324,-1.37086,-2.81554,-60.9562,-20.9598,-7.74394,1.05741,-15.675,12.0621,-3.25274,2.65011,-1.60869,1.77353,1.00331,1.42838,-1.42068,-2.85376,0,0,0,0,0,0,0,0,0,0,0,0,0,0,0.700032,9.82113e-05,0.564318,-0.382535,0.000114994,0.000137767,0.923941,0,0,0,0.396579,-0.484781,-0.0289107,-3.16923,0.010129,-4.91467,-3.21212,0.0186121,-4.94068,-0.627559,-0.815746,-0.847128,-0.662331,-0.351436,0.498144,0.382165,1
2.58649,-1.69031,1.68881,0.937393,1.39433,-1.37091,-2.81602,-60.9328,-20.9862,-7.75249,1.05723,-15.6542,12.0523,-3.26336,2.65011,-1.60869,1.77353,1.00331,1.42838,-1.42068,-2.85376,0,0,0,0,0,0,0,0,0,0,0,0,0,0,0.700032,9.82113e-05,0.564318,-0.382535,0.000114994,0.000137767,0.923941,0,0,0,0.365374,-0.484729,-0.0783111,-3.09701,0.00520574,-4.90286,-3.13154,0.00922764,-4.91421,-0.636185,-0.816201,-0.847208,-0.65919,-0.340517,0.497643,0.377405,1
