Afshin1997/kuka_rl_ros2/src/catch_and_throw/input_files/idealpd/ballistic motion dataset/good trajectories/25.csv
pure_target_joint_0,pure_target_joint_1,pure_target_joint_2,pure_target_joint_3,pure_target_joint_4,pure_target_joint_5,pure_target_joint_6,target_joint_0,target_joint_1,target_joint_2,target_joint_3,target_joint_4,target_joint_5,target_joint_6,pos_joint_0,pos_joint_1,pos_joint_2,pos_joint_3,pos_joint_4,pos_joint_5,pos_joint_6,vel_joint_0,vel_joint_1,vel_joint_2,vel_joint_3,vel_joint_4,vel_joint_5,vel_joint_6,vel_smooth_joint_0,vel_smooth_joint_1,vel_smooth_joint_2,vel_smooth_joint_3,vel_smooth_joint_4,vel_smooth_joint_5,vel_smooth_joint_6,ee_pos_x,ee_pos_y,ee_pos_z,ee_or_w,ee_or_x,ee_or_y,ee_or_z,ee_vel_x,ee_vel_y,ee_vel_z,ball_pos_x,ball_pos_y,ball_pos_z,ball_raw_vx,ball_raw_vy,ball_raw_vz,ball_ema_vx,ball_ema_vy,ball_ema_vz,action_0,action_1,action_2,action_3,action_4,action_5,action_6,command_published
2.68221,-1.68125,1.69872,1.06783,1.36324,-1.34725,-2.79931,-66.2091,-18.8841,-6.15719,1.19264,-22.0537,16.0208,0.559808,2.65011,-1.60866,1.77353,1.00331,1.42838,-1.42068,-2.85376,0,0,0,0,0,0,0,0,0,0,0,0,0,0,0.700026,0.000105136,0.564335,-0.382538,0.000106113,0.000147728,0.92394,0,0,0,2.96854,-0.525771,0.952188,-3.58173,-0.253367,2.91808,-3.57976,-0.252392,2.95092,0.321006,-0.725857,-0.748134,0.645137,-0.651482,0.734269,0.544465,1
2.67678,-1.6812,1.69851,1.06866,1.36298,-1.34697,-2.79876,-66.2023,-18.8685,-6.15189,1.19037,-22.1219,16.0606,0.605153,2.65011,-1.60866,1.77353,1.00331,1.42838,-1.42068,-2.85376,0,0,0,0,0,0,0,0,0,0,0,0,0,0,0.700026,0.000105136,0.564335,-0.382538,0.000106113,0.000147728,0.92394,0,0,0,2.93177,-0.528477,0.98083,-3.80625,-0.280023,2.96461,-3.73831,-0.271733,2.9605,0.266643,-0.725393,-0.750206,0.653508,-0.654003,0.737073,0.549962,1
2.67659,-1.68159,1.6984,1.06831,1.36305,-1.34697,-2.79894,-66.2219,-18.8798,-6.15893,1.19027,-22.1026,16.0549,0.591607,2.65011,-1.60866,1.77353,1.00331,1.42838,-1.42068,-2.85376,0,0,0,0,0,0,0,0,0,0,0,0,0,0,0.700026,0.000105136,0.564335,-0.382538,0.000106113,0.000147728,0.92394,0,0,0,2.8947,-0.530804,1.0084,-3.69117,-0.231784,2.74564,-3.70531,-0.243769,2.8101,0.264808,-0.729292,-0.751258,0.649985,-0.653313,0.737043,0.548228,1
2.67817,-1.68202,1.69834,1.06771,1.36319,-1.34706,-2.79927,-66.2423,-18.8968,-6.16808,1.19094,-22.0597,16.035,0.56268,2.65011,-1.60866,1.77353,1.00331,1.42838,-1.42068,-2.85376,0,0,0,0,0,0,0,0,0,0,0,0,0,0,0.700026,0.000105136,0.564335,-0.382538,0.000106113,0.000147728,0.92394,0,0,0,2.8575,-0.532927,1.03447,-3.59488,-0.205175,2.51897,-3.62801,-0.216753,2.60631,0.280606,-0.733603,-0.751903,0.643986,-0.651978,0.736201,0.544842,1
2.67395,-1.68217,1.69808,1.06799,1.36305,-1.34689,-2.79897,-66.2371,-18.894,-6.17045,1.18904,-22.0903,16.0542,0.583318,2.65011,-1.60866,1.77353,1.00331,1.42838,-1.42068,-2.85376,0,0,0,0,0,0,0,0,0,0,0,0,0,0,0.700026,0.000105136,0.564335,-0.382538,0.000106113,0.000147728,0.92394,0,0,0,2.8209,-0.53494,1.05913,-3.76249,-0.206904,2.53502,-3.72215,-0.209859,2.55641,0.238384,-0.735115,-0.75449,0.646746,-0.653349,0.737832,0.547875,1
2.67628,-1.68241,1.69818,1.06775,1.36324,-1.34694,-2.79931,-66.2628,-18.9041,-6.17287,1.19023,-22.065,16.0442,0.565435,2.65011,-1.60866,1.77353,1.00331,1.42838,-1.42068,-2.85376,0,0,0,0,0,0,0,0,0,0,0,0,0,0,0.700026,0.000105136,0.564335,-0.382538,0.000106113,0.000147728,0.92394,0,0,0,2.78448,-0.537035,1.08285,-3.56324,-0.204991,2.32091,-3.61091,-0.206451,2.39156,0.261719,-0.737471,-0.753552,0.644404,-0.651435,0.737304,0.544499,1
2.66855,-1.68231,1.69785,1.06865,1.363,-1.34665,-2.79865,-66.2403,-18.8892,-6.17039,1.1868,-22.1432,16.0886,0.618391,2.65011,-1.60866,1.77353,1.00331,1.42838,-1.42068,-2.85376,0,0,0,0,0,0,0,0,0,0,0,0,0,0,0.700026,0.000105136,0.564335,-0.382538,0.000106113,0.000147728,0.92394,0,0,0,2.74793,-0.539244,1.10585,-3.87205,-0.23393,2.4364,-3.79371,-0.225686,2.42295,0.184372,-0.736458,-0.756833,0.653395,-0.653885,0.740286,0.551096,1
2.66931,-1.68238,1.69791,1.0688,1.3631,-1.34661,-2.79877,-66.2552,-18.8908,-6.16878,1.18732,-22.1447,16.092,0.618673,2.65011,-1.60866,1.77353,1.00331,1.42838,-1.42068,-2.85376,0,0,0,0,0,0,0,0,0,0,0,0,0,0,0.700026,0.000105136,0.564335,-0.382538,0.000106113,0.000147728,0.92394,0,0,0,2.71125,-0.541691,1.12803,-3.71248,-0.24777,2.24531,-3.73685,-0.241145,2.2986,0.192026,-0.73717,-0.75624,0.654825,-0.652854,0.740686,0.549919,1
2.67343,-1.68253,1.69812,1.06857,1.36335,-1.34666,-2.79921,-66.2872,-18.8993,-6.16775,1.18937,-22.1152,16.0792,0.597246,2.65011,-1.60866,1.77353,1.00331,1.42838,-1.42068,-2.85376,0,0,0,0,0,0,0,0,0,0,0,0,0,0,0.700026,0.000105136,0.564335,-0.382538,0.000106113,0.000147728,0.92394,0,0,0,2.67475,-0.544325,1.14911,-3.50476,-0.252895,2.02406,-3.57439,-0.24937,2.10642,0.233229,-0.738731,-0.754122,0.652567,-0.650372,0.740104,0.54545,1
2.67292,-1.68266,1.69807,1.06855,1.36337,-1.34662,-2.79922,-66.2924,-18.9021,-6.1693,1.18917,-22.1155,16.0812,0.597218,2.65011,-1.60866,1.77353,1.00331,1.42838,-1.42068,-2.85376,0,0,0,0,0,0,0,0,0,0,0,0,0,0,0.700026,0.000105136,0.564335,-0.382538,0.000106113,0.000147728,0.92394,0,0,0,2.6383,-0.546905,1.16903,-3.53383,-0.250058,1.93092,-3.546,-0.249852,1.98357,0.22813,-0.740018,-0.754557,0.652395,-0.650131,0.740578,0.54539,1
2.67001,-1.68277,1.69788,1.06865,1.36326,-1.34652,-2.799,-66.2828,-18.9018,-6.17247,1.1878,-22.1305,16.0899,0.607894,2.65011,-1.60866,1.77353,1.00331,1.42838,-1.42068,-2.85376,0,0,0,0,0,0,0,0,0,0,0,0,0,0,0.700026,0.000105136,0.564335,-0.382538,0.000106113,0.000147728,0.92394,0,0,0,2.60197,-0.549366,1.18776,-3.63981,-0.246559,1.87683,-3.61167,-0.247547,1.90885,0.198963,-0.741052,-0.756471,0.653352,-0.651233,0.74151,0.547543,1
2.66752,-1.68294,1.69771,1.06857,1.36321,-1.34647,-2.79888,-66.2786,-18.9051,-6.17741,1.18657,-22.1359,16.0947,0.611973,2.65011,-1.60866,1.77353,1.00331,1.42838,-1.42068,-2.85376,0,0,0,0,0,0,0,0,0,0,0,0,0,0,0.700026,0.000105136,0.564335,-0.382538,0.000106113,0.000147728,0.92394,0,0,0,2.5657,-0.551607,1.20559,-3.66614,-0.226574,1.80235,-3.6498,-0.232866,1.8343,0.174114,-0.74279,-0.758192,0.652567,-0.651785,0.742084,0.548776,1
2.66882,-1.68314,1.69777,1.06836,1.36335,-1.34647,-2.79907,-66.2957,-18.912,-6.1791,1.1872,-22.1202,16.0894,0.600624,2.65011,-1.60866,1.77353,1.00331,1.42838,-1.42068,-2.85376,0,0,0,0,0,0,0,0,0,0,0,0,0,0,0.700026,0.000105136,0.564335,-0.382538,0.000106113,0.000147728,0.92394,0,0,0,2.52924,-0.553896,1.22272,-3.48687,-0.218891,1.63756,-3.53575,-0.223084,1.69658,0.187122,-0.744743,-0.757595,0.650448,-0.650342,0.742009,0.546896,1
2.65968,-1.68308,1.69735,1.06889,1.36296,-1.34627,-2.79839,-66.2592,-18.9027,-6.18445,1.18289,-22.1837,16.1242,0.645373,2.65011,-1.60866,1.77353,1.00331,1.42838,-1.42068,-2.85376,0,0,0,0,0,0,0,0,0,0,0,0,0,0,0.700026,0.000105136,0.564335,-0.382538,0.000106113,0.000147728,0.92394,0,0,0,2.49258,-0.556123,1.23893,-3.88135,-0.235828,1.71693,-3.77767,-0.232005,1.71083,0.0956699,-0.74415,-0.761798,0.655771,-0.654257,0.744063,0.553683,1
2.66246,-1.68306,1.69751,1.06905,1.36306,-1.34625,-2.79852,-66.2721,-18.9019,-6.17936,1.18439,-22.1774,16.1208,0.640412,2.65011,-1.60866,1.77353,1.00331,1.42838,-1.42068,-2.85376,0,0,0,0,0,0,0,0,0,0,0,0,0,0,0.700026,0.000105136,0.564335,-0.382538,0.000106113,0.000147728,0.92394,0,0,0,2.45619,-0.558837,1.25398,-3.6006,-0.268538,1.48908,-3.65372,-0.257578,1.5556,0.123509,-0.744033,-0.760195,0.65738,-0.653265,0.744271,0.552359,1
2.66241,-1.68318,1.69748,1.06891,1.36307,-1.34623,-2.79854,-66.2737,-18.9055,-6.18159,1.18433,-22.1702,16.1176,0.635597,2.65011,-1.60866,1.77353,1.00331,1.42838,-1.42068,-2.85376,0,0,0,0,0,0,0,0,0,0,0,0,0,0,0.700026,0.000105136,0.564335,-0.382538,0.000106113,0.000147728,0.92394,0,0,0,2.41976,-0.561429,1.26768,-3.617,-0.257316,1.3597,-3.62802,-0.257395,1.41847,0.123016,-0.745171,-0.760499,0.65599,-0.653146,0.744427,0.55215,1
2.66061,-1.68316,1.6974,1.06912,1.36295,-1.34616,-2.79836,-66.264,-18.9027,-6.18187,1.18355,-22.1855,16.1253,0.646571,2.65011,-1.60866,1.77353,1.00331,1.42838,-1.42068,-2.85376,0,0,0,0,0,0,0,0,0,0,0,0,0,0,0.700026,0.000105136,0.564335,-0.382538,0.000106113,0.000147728,0.92394,0,0,0,2.38374,-0.564182,1.28018,-3.65672,-0.279412,1.26961,-3.64811,-0.272807,1.31427,0.105027,-0.744964,-0.761263,0.658082,-0.654324,0.745185,0.553963,1
2.65819,-1.68316,1.69733,1.06935,1.36286,-1.34607,-2.79818,-66.2572,-18.9005,-6.18276,1.18248,-22.2051,16.137,0.660341,2.65011,-1.60866,1.77353,1.00331,1.42838,-1.42068,-2.85376,0,0,0,0,0,0,0,0,0,0,0,0,0,0,0.700026,0.000105136,0.564335,-0.382538,0.000106113,0.000147728,0.92394,0,0,0,2.34803,-0.566927,1.29197,-3.67194,-0.282361,1.21162,-3.66479,-0.279495,1.24241,0.080806,-0.745037,-0.762031,0.660357,-0.655231,0.74602,0.555809,1
2.66062,-1.68337,1.69746,1.06906,1.3631,-1.3461,-2.79847,-66.2845,-18.9075,-6.1827,1.18361,-22.1854,16.1308,0.645323,2.65011,-1.60866,1.77353,1.00331,1.42838,-1.42068,-2.85376,0,0,0,0,0,0,0,0,0,0,0,0,0,0,0.700026,0.000105136,0.564335,-0.382538,0.000106113,0.000147728,0.92394,0,0,0,2.31218,-0.569607,1.30313,-3.46335,-0.258889,1.07823,-3.52378,-0.265071,1.12748,0.105128,-0.747051,-0.760701,0.65743,-0.652866,0.745736,0.552869,1
2.65719,-1.68343,1.69732,1.06916,1.36294,-1.34603,-2.79823,-66.2728,-18.907,-6.18679,1.18199,-22.2029,16.1414,0.658226,2.65011,-1.60866,1.77353,1.00331,1.42838,-1.42068,-2.85376,0,0,0,0,0,0,0,0,0,0,0,0,0,0,0.700026,0.000105136,0.564335,-0.382538,0.000106113,0.000147728,0.92394,0,0,0,2.27594,-0.572219,1.31357,-3.60195,-0.259575,1.03734,-3.5785,-0.261224,1.06438,0.0707816,-0.747676,-0.762109,0.658481,-0.654428,0.746423,0.555253,1
2.65604,-1.68355,1.69728,1.06905,1.36287,-1.34601,-2.7982,-66.2764,-18.9091,-6.18986,1.18142,-22.2038,16.1441,0.65893,2.65011,-1.60866,1.77353,1.00331,1.42838,-1.42068,-2.85376,0,0,0,0,0,0,0,0,0,0,0,0,0,0,0.700026,0.000105136,0.564335,-0.382538,0.000106113,0.000147728,0.92394,0,0,0,2.23976,-0.574764,1.32288,-3.5719,-0.251291,0.920007,-3.57388,-0.254271,0.96332,0.0593128,-0.748895,-0.762514,0.657334,-0.65509,0.746612,0.555613,1
2.6517,-1.68361,1.69709,1.06907,1.36258,-1.34605,-2.79798,-66.266,-18.909,-6.19752,1.17934,-22.2195,16.1541,0.671251,2.65011,-1.60866,1.77353,1.00331,1.42838,-1.42068,-2.85376,0,0,0,0,0,0,0,0,0,0,0,0,0,0,0.700026,0.000105136,0.564335,-0.382538,0.000106113,0.000147728,0.92394,0,0,0,2.20355,-0.577322,1.33095,-3.68321,-0.260161,0.820111,-3.65041,-0.258394,0.863074,0.0158432,-0.749454,-0.76442,0.657609,-0.65808,0.746258,0.557742,1
2.65211,-1.68374,1.69705,1.06881,1.36251,-1.34608,-2.79801,-66.2656,-18.913,-6.20095,1.17946,-22.2034,16.1448,0.660811,2.65011,-1.60866,1.77353,1.00331,1.42838,-1.42068,-2.85376,0,0,0,0,0,0,0,0,0,0,0,0,0,0,0.700026,0.000105136,0.564335,-0.382538,0.000106113,0.000147728,0.92394,0,0,0,2.16751,-0.579855,1.33775,-3.61729,-0.254247,0.682814,-3.62723,-0.255491,0.736892,0.0200319,-0.750739,-0.764847,0.654935,-0.658704,0.745981,0.557486,1
2.65608,-1.68381,1.69723,1.06868,1.36273,-1.34603,-2.79826,-66.2885,-18.9147,-6.19529,1.18137,-22.187,16.1372,0.647541,2.65011,-1.60866,1.77353,1.00331,1.42838,-1.42068,-2.85376,0,0,0,0,0,0,0,0,0,0,0,0,0,0,0.700026,0.000105136,0.564335,-0.382538,0.000106113,0.000147728,0.92394,0,0,0,2.13174,-0.582571,1.34369,-3.41881,-0.259568,0.567769,-3.48133,-0.258345,0.618506,0.0596743,-0.751521,-0.763047,0.653716,-0.656533,0.746413,0.554968,1
2.64525,-1.68369,1.69691,1.06929,1.36217,-1.34605,-2.79772,-66.2618,-18.9081,-6.20693,1.17642,-22.2524,16.1767,0.695449,2.65011,-1.60866,1.77353,1.00331,1.42838,-1.42068,-2.85376,0,0,0,0,0,0,0,0,0,0,0,0,0,0,0.700026,0.000105136,0.564335,-0.382538,0.000106113,0.000147728,0.92394,0,0,0,2.09613,-0.585332,1.34908,-3.76235,-0.291758,0.569862,-3.67805,-0.281734,0.584455,-0.0486166,-0.750285,-0.766227,0.659802,-0.662164,0.74625,0.560404,1
2.64124,-1.68377,1.6968,1.06932,1.36198,-1.34611,-2.79765,-66.2612,-18.9112,-6.21498,1.17456,-22.2659,16.1878,0.705984,2.65011,-1.60866,1.77353,1.00331,1.42838,-1.42068,-2.85376,0,0,0,0,0,0,0,0,0,0,0,0,0,0,0.700026,0.000105136,0.564335,-0.382538,0.000106113,0.000147728,0.92394,0,0,0,2.06017,-0.588004,1.35377,-3.74381,-0.278114,0.487803,-3.72408,-0.2792,0.516799,-0.0886793,-0.751043,-0.767355,0.660119,-0.663991,0.745695,0.561084,1
2.64544,-1.68394,1.69688,1.06888,1.36209,-1.34609,-2.79778,-66.2713,-18.9146,-6.21242,1.17639,-22.2329,16.1684,0.682384,2.65011,-1.60866,1.77353,1.00331,1.42838,-1.42068,-2.85376,0,0,0,0,0,0,0,0,0,0,0,0,0,0,0.700026,0.000105136,0.564335,-0.382538,0.000106113,0.000147728,0.92394,0,0,0,2.02399,-0.59065,1.35748,-3.55433,-0.259932,0.364899,-3.60525,-0.265712,0.410469,-0.0467459,-0.752797,-0.766469,0.655622,-0.662919,0.745894,0.559758,1
2.64152,-1.68404,1.69673,1.0687,1.36195,-1.34629,-2.79769,-66.2557,-18.9226,-6.22506,1.17445,-22.2271,16.1669,0.681901,2.65011,-1.60866,1.77353,1.00331,1.42838,-1.42068,-2.85376,0,0,0,0,0,0,0,0,0,0,0,0,0,0,0.700026,0.000105136,0.564335,-0.382538,0.000106113,0.000147728,0.92394,0,0,0,1.9876,-0.593205,1.35985,-3.73045,-0.261998,0.242147,-3.69289,-0.263113,0.292644,-0.0859642,-0.753782,-0.768041,0.653844,-0.664299,0.743828,0.560674,1
2.64054,-1.68414,1.6966,1.06833,1.3619,-1.34645,-2.79754,-66.2239,-18.932,-6.23478,1.17377,-22.198,16.1472,0.666117,2.65011,-1.60866,1.77353,1.00331,1.42838,-1.42068,-2.85376,0,0,0,0,0,0,0,0,0,0,0,0,0,0,0.700026,0.000105136,0.564335,-0.382538,0.000106113,0.000147728,0.92394,0,0,0,1.9512,-0.595626,1.36073,-3.76355,-0.250316,0.0911115,-3.74235,-0.254155,0.151571,-0.0957579,-0.754836,-0.769293,0.650153,-0.664804,0.742277,0.562146,1
2.64663,-1.68433,1.69673,1.06773,1.36208,-1.34643,-2.79772,-66.235,-18.9356,-6.23005,1.17643,-22.1529,16.1197,0.633688,2.65011,-1.60866,1.77353,1.00331,1.42838,-1.42068,-2.85376,0,0,0,0,0,0,0,0,0,0,0,0,0,0,0.700026,0.000105136,0.564335,-0.382538,0.000106113,0.000147728,0.92394,0,0,0,1.91525,-0.597951,1.36079,-3.51584,-0.227338,0.00616665,-3.58379,-0.235383,0.049788,-0.034795,-0.756707,-0.76799,0.644177,-0.663036,0.742431,0.560368,1
2.64818,-1.68431,1.69677,1.06773,1.36197,-1.34641,-2.79768,-66.2334,-18.9324,-6.22734,1.17718,-22.147,16.1138,0.629653,2.65011,-1.60866,1.77353,1.00331,1.42838,-1.42068,-2.85376,0,0,0,0,0,0,0,0,0,0,0,0,0,0,0.700026,0.000105136,0.564335,-0.382538,0.000106113,0.000147728,0.92394,0,0,0,1.8791,-0.600578,1.35974,-3.52654,-0.256348,-0.102774,-3.54372,-0.250058,-0.0570054,-0.0193226,-0.756494,-0.767647,0.6442,-0.664181,0.742641,0.560815,1
2.64699,-1.68427,1.69674,1.06788,1.36182,-1.34641,-2.79753,-66.2243,-18.9303,-6.22833,1.17668,-22.1547,16.1171,0.636011,2.65011,-1.60866,1.77353,1.00331,1.42838,-1.42068,-2.85376,0,0,0,0,0,0,0,0,0,0,0,0,0,0,0.700026,0.000105136,0.564335,-0.382538,0.000106113,0.000147728,0.92394,0,0,0,1.84279,-0.603295,1.35805,-3.5407,-0.264946,-0.164746,-3.54161,-0.26048,-0.132424,-0.0311954,-0.756132,-0.767911,0.645639,-0.665593,0.742648,0.562254,1
2.64116,-1.68424,1.69654,1.06808,1.36161,-1.34652,-2.79721,-66.1883,-18.9348,-6.23993,1.17394,-22.1688,16.1242,0.65038,2.65011,-1.60866,1.77353,1.00331,1.42838,-1.42068,-2.85376,0,0,0,0,0,0,0,0,0,0,0,0,0,0,0.700026,0.000105136,0.564335,-0.382538,0.000106113,0.000147728,0.92394,0,0,0,1.80636,-0.605919,1.35539,-3.71544,-0.26757,-0.270846,-3.66329,-0.265443,-0.22932,-0.0895418,-0.755749,-0.769872,0.647625,-0.667704,0.741547,0.565455,1
2.64452,-1.6843,1.69661,1.06788,1.36165,-1.3465,-2.79728,-66.1944,-18.9341,-6.23599,1.17548,-22.1492,16.1112,0.636087,2.65011,-1.60866,1.77353,1.00331,1.42838,-1.42068,-2.85376,0,0,0,0,0,0,0,0,0,0,0,0,0,0,0.700026,0.000105136,0.564335,-0.382538,0.000106113,0.000147728,0.92394,0,0,0,1.77052,-0.608633,1.35156,-3.53535,-0.267734,-0.377684,-3.57373,-0.267047,-0.333175,-0.0559242,-0.756361,-0.769168,0.645667,-0.667377,0.74171,0.564803,1
2.64453,-1.68435,1.69654,1.06769,1.3616,-1.34656,-2.79722,-66.1802,-18.9382,-6.23997,1.17538,-22.133,16.0998,0.626759,2.65011,-1.60866,1.77353,1.00331,1.42838,-1.42068,-2.85376,0,0,0,0,0,0,0,0,0,0,0,0,0,0,0.700026,0.000105136,0.564335,-0.382538,0.000106113,0.000147728,0.92394,0,0,0,1.73463,-0.611316,1.34658,-3.59478,-0.268779,-0.498618,-3.58847,-0.268259,-0.448985,-0.055774,-0.756929,-0.769877,0.643761,-0.66785,0.74113,0.565363,1
2.64458,-1.68449,1.69644,1.06732,1.36162,-1.34665,-2.79719,-66.1621,-18.9467,-6.24671,1.17522,-22.1059,16.0824,0.610517,2.65011,-1.60866,1.77353,1.00331,1.42838,-1.42068,-2.85376,0,0,0,0,0,0,0,0,0,0,0,0,0,0,0.700026,0.000105136,0.564335,-0.382538,0.000106113,0.000147728,0.92394,0,0,0,1.69877,-0.61385,1.34064,-3.60524,-0.254705,-0.597451,-3.60021,-0.258771,-0.552911,-0.0553453,-0.758245,-0.770882,0.640092,-0.667617,0.740269,0.565665,1
2.64668,-1.68463,1.69643,1.06694,1.36172,-1.34669,-2.79725,-66.1555,-18.9534,-6.24884,1.17605,-22.0755,16.0634,0.590544,2.65011,-1.60866,1.77353,1.00331,1.42838,-1.42068,-2.85376,0,0,0,0,0,0,0,0,0,0,0,0,0,0,0.700026,0.000105136,0.564335,-0.382538,0.000106113,0.000147728,0.92394,0,0,0,1.66304,-0.616316,1.33387,-3.51956,-0.242887,-0.666599,-3.54376,-0.247653,-0.632493,-0.0343438,-0.759642,-0.771009,0.636301,-0.666599,0.739899,0.56513,1
2.64336,-1.68462,1.69628,1.06673,1.36158,-1.34678,-2.79703,-66.1239,-18.9586,-6.25834,1.17427,-22.0702,16.0584,0.590323,2.65011,-1.60866,1.77353,1.00331,1.42838,-1.42068,-2.85376,0,0,0,0,0,0,0,0,0,0,0,0,0,0,0.700026,0.000105136,0.564335,-0.382538,0.000106113,0.000147728,0.92394,0,0,0,1.62698,-0.618882,1.32615,-3.66763,-0.260985,-0.785841,-3.63046,-0.256985,-0.739836,-0.0675197,-0.759628,-0.772469,0.634145,-0.667986,0.73894,0.567263,1
2.64403,-1.68469,1.69625,1.06625,1.3616,-1.34683,-2.797,-66.1087,-18.9637,-6.26212,1.17429,-22.0459,16.0424,0.574852,2.65011,-1.60866,1.77353,1.00331,1.42838,-1.42068,-2.85376,0,0,0,0,0,0,0,0,0,0,0,0,0,0,0.700026,0.000105136,0.564335,-0.382538,0.000106113,0.000147728,0.92394,0,0,0,1.59132,-0.621481,1.31742,-3.61318,-0.263391,-0.884088,-3.61836,-0.26147,-0.840812,-0.0607753,-0.760323,-0.772793,0.629359,-0.66788,0.738482,0.567618,1
2.64645,-1.68479,1.69628,1.0655,1.36169,-1.34686,-2.79701,-66.094,-18.9697,-6.26421,1.17497,-22.0084,16.0183,0.549638,2.65011,-1.60866,1.77353,1.00331,1.42838,-1.42068,-2.85376,0,0,0,0,0,0,0,0,0,0,0,0,0,0,0.700026,0.000105136,0.564335,-0.382538,0.000106113,0.000147728,0.92394,0,0,0,1.55584,-0.624177,1.3074,-3.5511,-0.269781,-1.00272,-3.57128,-0.267288,-0.954145,-0.0366271,-0.761242,-0.772504,0.621849,-0.66693,0.738122,0.567522,1
2.64853,-1.68482,1.69632,1.06494,1.36174,-1.34688,-2.79698,-66.0796,-18.9731,-6.2649,1.1756,-21.9799,15.999,0.530609,2.65011,-1.60866,1.77353,1.00331,1.42838,-1.42068,-2.85376,0,0,0,0,0,0,0,0,0,0,0,0,0,0,0.700026,0.000105136,0.564335,-0.382538,0.000106113,0.000147728,0.92394,0,0,0,1.52018,-0.626989,1.2965,-3.48406,-0.27474,-1.06561,-3.51023,-0.272505,-1.03217,-0.0158432,-0.761636,-0.772142,0.616284,-0.666457,0.737962,0.567781,1
2.64962,-1.68491,1.69634,1.06421,1.36188,-1.34698,-2.79707,-66.0727,-18.9801,-6.26904,1.17566,-21.9499,15.9821,0.510251,2.65011,-1.60866,1.77353,1.00331,1.42838,-1.42068,-2.85376,0,0,0,0,0,0,0,0,0,0,0,0,0,0,0.700026,0.000105136,0.564335,-0.382538,0.000106113,0.000147728,0.92394,0,0,0,1.48491,-0.629769,1.28462,-3.4308,-0.270498,-1.15554,-3.45463,-0.2711,-1.11853,-0.00490937,-0.762441,-0.77194,0.608946,-0.665056,0.736953,0.566908,1
2.64531,-1.68489,1.69615,1.06379,1.36162,-1.34706,-2.79666,-66.0182,-18.9862,-6.28157,1.17321,-21.9391,15.9711,0.507852,2.65011,-1.60866,1.77353,1.00331,1.42838,-1.42068,-2.85376,0,0,0,0,0,0,0,0,0,0,0,0,0,0,0.700026,0.000105136,0.564335,-0.382538,0.000106113,0.000147728,0.92394,0,0,0,1.44949,-0.632667,1.27219,-3.65851,-0.29923,-1.28343,-3.59735,-0.290791,-1.23396,-0.0480472,-0.762311,-0.773848,0.604778,-0.667596,0.736194,0.57103,1
2.64454,-1.68507,1.69604,1.06244,1.36183,-1.34723,-2.79659,-65.9743,-19.0046,-6.2963,1.17194,-21.8819,15.9365,0.472383,2.65011,-1.60866,1.77353,1.00331,1.42838,-1.42068,-2.85376,0,0,0,0,0,0,0,0,0,0,0,0,0,0,0.700026,0.000105136,0.564335,-0.382538,0.000106113,0.000147728,0.92394,0,0,0,1.41396,-0.63522,1.25894,-3.60232,-0.258889,-1.34375,-3.60083,-0.26846,-1.31081,-0.055676,-0.764113,-0.774857,0.591279,-0.665539,0.734405,0.571671,1
2.64622,-1.68515,1.69607,1.06152,1.36197,-1.34732,-2.79662,-65.957,-19.0121,-6.30038,1.17213,-21.8431,15.9125,0.446337,2.65011,-1.60866,1.77353,1.00331,1.42838,-1.42068,-2.85376,0,0,0,0,0,0,0,0,0,0,0,0,0,0,0.700026,0.000105136,0.564335,-0.382538,0.000106113,0.000147728,0.92394,0,0,0,1.37836,-0.637883,1.24469,-3.50529,-0.262181,-1.4029,-3.53395,-0.264065,-1.37527,-0.038922,-0.764867,-0.774652,0.582058,-0.664161,0.733583,0.5714,1
2.64514,-1.68528,1.69593,1.05978,1.36203,-1.34753,-2.79646,-65.8971,-19.0302,-6.31765,1.17041,-21.7757,15.8693,0.404599,2.65011,-1.60866,1.77353,1.00331,1.42838,-1.42068,-2.85376,0,0,0,0,0,0,0,0,0,0,0,0,0,0,0.700026,0.000105136,0.564335,-0.382538,0.000106113,0.000147728,0.92394,0,0,0,1.34283,-0.640411,1.22928,-3.64614,-0.259428,-1.58188,-3.61248,-0.260819,-1.5199,-0.0496957,-0.766153,-0.775976,0.564719,-0.66358,0.731442,0.572961,1
2.6467,-1.68534,1.69597,1.0585,1.36216,-1.34767,-2.79659,-65.8866,-19.038,-6.32317,1.17031,-21.7321,15.8442,0.37428,2.65011,-1.60866,1.77353,1.00331,1.42838,-1.42068,-2.85376,0,0,0,0,0,0,0,0,0,0,0,0,0,0,0.700026,0.000105136,0.564335,-0.382538,0.000106113,0.000147728,0.92394,0,0,0,1.30728,-0.64305,1.21261,-3.53756,-0.262632,-1.65849,-3.56003,-0.262088,-1.61691,-0.0341009,-0.766834,-0.775638,0.551914,-0.662246,0.73004,0.571678,1
2.64807,-1.68541,1.69598,1.05723,1.36226,-1.34783,-2.7966,-65.8605,-19.0472,-6.33026,1.1701,-21.6826,15.8134,0.341573,2.65011,-1.60866,1.77353,1.00331,1.42838,-1.42068,-2.85376,0,0,0,0,0,0,0,0,0,0,0,0,0,0,0.700026,0.000105136,0.564335,-0.382538,0.000106113,0.000147728,0.92394,0,0,0,1.27186,-0.64576,1.19485,-3.48054,-0.266276,-1.74518,-3.50438,-0.26502,-1.7067,-0.0204529,-0.767446,-0.775548,0.5392,-0.661246,0.728407,0.571589,1
2.64492,-1.68556,1.69562,1.05596,1.36219,-1.34792,-2.79666,-65.82,-19.0646,-6.34895,1.16778,-21.6382,15.7843,0.314129,2.65011,-1.60866,1.77353,1.00331,1.42838,-1.42068,-2.85376,0,0,0,0,0,0,0,0,0,0,0,0,0,0,0.700026,0.000105136,0.564335,-0.382538,0.000106113,0.000147728,0.92394,0,0,0,1.23664,-0.648642,1.17638,-3.56451,-0.291692,-1.86921,-3.54647,-0.28369,-1.82046,-0.0519333,-0.76896,-0.77915,0.526506,-0.661935,0.727507,0.570993,1
2.6423,-1.68574,1.69534,1.05476,1.36229,-1.34805,-2.79671,-65.7778,-19.0849,-6.36733,1.16575,-21.5893,15.754,0.2844,2.65011,-1.60866,1.77353,1.00331,1.42838,-1.42068,-2.85376,0,0,0,0,0,0,0,0,0,0,0,0,0,0,0.700026,0.000105136,0.564335,-0.382538,0.000106113,0.000147728,0.92394,0,0,0,1.20155,-0.651468,1.15741,-3.50276,-0.282068,-1.89325,-3.51588,-0.282554,-1.87142,-0.0781271,-0.770785,-0.781882,0.514442,-0.660949,0.726239,0.570485,1
2.63959,-1.6859,1.69502,1.0535,1.36229,-1.34816,-2.79679,-65.7346,-19.1045,-6.38627,1.16365,-21.5395,15.7219,0.253878,2.65011,-1.60866,1.77353,1.00331,1.42838,-1.42068,-2.85376,0,0,0,0,0,0,0,0,0,0,0,0,0,0,0.700026,0.000105136,0.564335,-0.382538,0.000106113,0.000147728,0.92394,0,0,0,1.16622,-0.6545,1.13734,-3.52184,-0.302288,-2.00105,-3.52005,-0.296368,-1.96216,-0.105194,-0.772379,-0.785076,0.501832,-0.660907,0.725177,0.569674,1
2.6357,-1.6863,1.69452,1.04941,1.36268,-1.34855,-2.79688,-65.6019,-19.1592,-6.43312,1.15904,-21.3755,15.6188,0.151803,2.65011,-1.60866,1.77353,1.00331,1.42838,-1.42068,-2.85376,0,0,0,0,0,0,0,0,0,0,0,0,0,0,0.700026,0.000105136,0.564335,-0.382538,0.000106113,0.000147728,0.92394,0,0,0,1.13039,-0.65702,1.116,-3.57825,-0.25164,-2.13099,-3.56079,-0.265058,-2.08034,-0.144093,-0.776387,-0.790095,0.460952,-0.657066,0.721281,0.56879,1
2.63476,-1.68647,1.69434,1.04808,1.36287,-1.34868,-2.79713,-65.5793,-19.1775,-6.44777,1.15776,-21.3247,15.5894,0.118641,2.65011,-1.60866,1.77353,1.00331,1.42838,-1.42068,-2.85376,0,0,0,0,0,0,0,0,0,0,0,0,0,0,0.700026,0.000105136,0.564335,-0.382538,0.000106113,0.000147728,0.92394,0,0,0,1.09526,-0.659898,1.09365,-3.41803,-0.28001,-2.17476,-3.46086,-0.275524,-2.14643,-0.153535,-0.778063,-0.791903,0.447692,-0.655143,0.719949,0.56627,1
2.63086,-1.68673,1.69384,1.04354,1.36299,-1.34902,-2.79711,-65.4203,-19.2296,-6.49601,1.15275,-21.1488,15.4741,0.00975287,2.65011,-1.60866,1.77353,1.00331,1.42838,-1.42068,-2.85376,0,0,0,0,0,0,0,0,0,0,0,0,0,0,0.700026,0.000105136,0.564335,-0.382538,0.000106113,0.000147728,0.92394,0,0,0,1.05932,-0.662545,1.07029,-3.62602,-0.26707,-2.35613,-3.57647,-0.269606,-2.29322,-0.192514,-0.780689,-0.796863,0.402304,-0.653918,0.716592,0.566526,1
2.62874,-1.68691,1.69356,1.04038,1.36316,-1.34925,-2.79724,-65.3257,-19.2649,-6.52746,1.14957,-21.0298,15.3982,-0.065151,2.65011,-1.60866,1.77353,1.00331,1.42838,-1.42068,-2.85376,0,0,0,0,0,0,0,0,0,0,0,0,0,0,0.700026,0.000105136,0.564335,-0.382538,0.000106113,0.000147728,0.92394,0,0,0,1.02341,-0.665332,1.04587,-3.56095,-0.276336,-2.4227,-3.5656,-0.274317,-2.38386,-0.213755,-0.782535,-0.799728,0.370637,-0.652284,0.714281,0.565202,1
2.62678,-1.68698,1.69328,1.03811,1.36303,-1.34936,-2.79735,-65.2571,-19.2866,-6.55016,1.14709,-20.9492,15.344,-0.116023,2.65011,-1.60866,1.77353,1.00331,1.42838,-1.42068,-2.85376,0,0,0,0,0,0,0,0,0,0,0,0,0,0,0.700026,0.000105136,0.564335,-0.382538,0.000106113,0.000147728,0.92394,0,0,0,0.987858,-0.668499,1.02079,-3.6212,-0.322655,-2.55454,-3.60452,-0.308154,-2.50334,-0.233362,-0.783218,-0.802532,0.347961,-0.653536,0.713177,0.56411,1
2.62537,-1.68722,1.69311,1.03455,1.3635,-1.34966,-2.79759,-65.1619,-19.3274,-6.58273,1.14396,-20.8148,15.2622,-0.201224,2.65011,-1.60866,1.77353,1.00331,1.42838,-1.42068,-2.85376,0,0,0,0,0,0,0,0,0,0,0,0,0,0,0.700026,0.000105136,0.564335,-0.382538,0.000106113,0.000147728,0.92394,0,0,0,0.95242,-0.671424,0.994609,-3.43607,-0.283549,-2.53806,-3.48661,-0.29093,-2.52764,-0.247389,-0.785553,-0.804167,0.31234,-0.648873,0.710191,0.561684,1
2.6225,-1.68749,1.69267,1.02466,1.36376,-1.35016,-2.79786,-64.8838,-19.4118,-6.66058,1.13558,-20.4698,15.0395,-0.420938,2.65011,-1.60866,1.77353,1.00331,1.42838,-1.42068,-2.85376,0,0,0,0,0,0,0,0,0,0,0,0,0,0,0.700026,0.000105136,0.564335,-0.382538,0.000106113,0.000147728,0.92394,0,0,0,0.9171,-0.674176,0.967162,-3.64392,-0.283943,-2.83164,-3.59673,-0.286039,-2.74044,-0.276102,-0.788275,-0.808639,0.213433,-0.646223,0.70515,0.558979,1
2.62071,-1.68761,1.69239,1.01681,1.36393,-1.35054,-2.79812,-64.6641,-19.4741,-6.71898,1.12909,-20.1998,14.8644,-0.592698,2.65011,-1.60866,1.77353,1.00331,1.42838,-1.42068,-2.85376,0,0,0,0,0,0,0,0,0,0,0,0,0,0,0.700026,0.000105136,0.564335,-0.382538,0.000106113,0.000147728,0.92394,0,0,0,0.882004,-0.67689,0.938788,-3.53157,-0.273086,-2.85518,-3.55111,-0.276972,-2.82076,-0.294013,-0.789535,-0.811406,0.135016,-0.644578,0.701342,0.55639,1
2.61923,-1.68771,1.69218,1.00858,1.36429,-1.3509,-2.79837,-64.419,-19.5411,-6.77874,1.12236,-19.9116,14.6772,-0.774702,2.65011,-1.60866,1.77353,1.00331,1.42838,-1.42068,-2.85376,0,0,0,0,0,0,0,0,0,0,0,0,0,0,0.700026,0.000105136,0.564335,-0.382538,0.000106113,0.000147728,0.92394,0,0,0,0.84703,-0.679408,0.909491,-3.38283,-0.243562,-2.83381,-3.43331,-0.253585,-2.8299,-0.308844,-0.790508,-0.813483,0.0526494,-0.640961,0.697711,0.553928,1
2.61727,-1.68775,1.69182,0.996704,1.36458,-1.35108,-2.79874,-64.0529,-19.6321,-6.86055,1.11261,-19.5042,14.4061,-1.03196,2.65011,-1.60866,1.77353,1.00331,1.42838,-1.42068,-2.85376,0,0,0,0,0,0,0,0,0,0,0,0,0,0,0.700026,0.000105136,0.564335,-0.382538,0.000106113,0.000147728,0.92394,0,0,0,0.811833,-0.682147,0.879315,-3.6393,-0.283203,-3.12011,-3.57751,-0.274318,-3.03305,-0.328417,-0.790914,-0.817076,-0.066092,-0.638048,0.695911,0.550218,1
2.61569,-1.6878,1.69158,0.988783,1.36494,-1.35138,-2.79903,-63.7822,-19.7017,-6.9211,1.10596,-19.2084,14.2099,-1.21493,2.65011,-1.60866,1.77353,1.00331,1.42838,-1.42068,-2.85376,0,0,0,0,0,0,0,0,0,0,0,0,0,0,0.700026,0.000105136,0.564335,-0.382538,0.000106113,0.000147728,0.92394,0,0,0,0.776818,-0.684801,0.848365,-3.57013,-0.270576,-3.15565,-3.57234,-0.271698,-3.11887,-0.344238,-0.791399,-0.819542,-0.145303,-0.634469,0.69294,0.54732,1
2.61494,-1.68775,1.69149,0.988575,1.36481,-1.35154,-2.79913,-63.77,-19.705,-6.92709,1.10551,-19.1931,14.199,-1.22322,2.65011,-1.60866,1.77353,1.00331,1.42838,-1.42068,-2.85376,0,0,0,0,0,0,0,0,0,0,0,0,0,0,0.700026,0.000105136,0.564335,-0.382538,0.000106113,0.000147728,0.92394,0,0,0,0.74167,-0.68773,0.816203,-3.35947,-0.280025,-3.07405,-3.42333,-0.277527,-3.08749,-0.351734,-0.790885,-0.820429,-0.147374,-0.635769,0.691339,0.546329,1
2.6137,-1.68785,1.69118,0.978348,1.36563,-1.35204,-2.79981,-63.428,-19.7995,-7.00472,1.09731,-18.8012,13.9424,-1.4657,2.65011,-1.60866,1.77353,1.00331,1.42838,-1.42068,-2.85376,0,0,0,0,0,0,0,0,0,0,0,0,0,0,0.700026,0.000105136,0.564335,-0.382538,0.000106113,0.000147728,0.92394,0,0,0,0.706951,-0.690405,0.782716,-3.48214,-0.268211,-3.35864,-3.46449,-0.271006,-3.2773,-0.364129,-0.791871,-0.823461,-0.249649,-0.627571,0.686334,0.539469,1
2.6125,-1.68787,1.69095,0.97257,1.36612,-1.3524,-2.80029,-63.2175,-19.8581,-7.0529,1.09244,-18.5666,13.7875,-1.60888,2.65011,-1.60866,1.77353,1.00331,1.42838,-1.42068,-2.85376,0,0,0,0,0,0,0,0,0,0,0,0,0,0,0.700026,0.000105136,0.564335,-0.382538,0.000106113,0.000147728,0.92394,0,0,0,0.672133,-0.693188,0.748347,-3.522,-0.281573,-3.47648,-3.50475,-0.278402,-3.41672,-0.37612,-0.792126,-0.825803,-0.307425,-0.622645,0.682765,0.534634,1
2.61141,-1.68786,1.69085,0.971132,1.36622,-1.35258,-2.80044,-63.147,-19.8781,-7.07047,1.09089,-18.4954,13.7396,-1.65024,2.65011,-1.60866,1.77353,1.00331,1.42838,-1.42068,-2.85376,0,0,0,0,0,0,0,0,0,0,0,0,0,0,0.700026,0.000105136,0.564335,-0.382538,0.000106113,0.000147728,0.92394,0,0,0,0.637571,-0.696261,0.713182,-3.43419,-0.305294,-3.49411,-3.45535,-0.297226,-3.4709,-0.386978,-0.791977,-0.826838,-0.321811,-0.621639,0.680964,0.533198,1
2.60919,-1.68796,1.69067,0.967556,1.36706,-1.35295,-2.80067,-62.9436,-19.941,-7.11611,1.08713,-18.3009,13.6111,-1.76204,2.65011,-1.60866,1.77353,1.00331,1.42838,-1.42068,-2.85376,0,0,0,0,0,0,0,0,0,0,0,0,0,0,0.700026,0.000105136,0.564335,-0.382538,0.000106113,0.000147728,0.92394,0,0,0,0.60311,-0.699148,0.677397,-3.51135,-0.294159,-3.64628,-3.49455,-0.295079,-3.59366,-0.409183,-0.792981,-0.828568,-0.357568,-0.613239,0.677297,0.530907,1
2.60708,-1.68808,1.6905,0.965557,1.3678,-1.35347,-2.80094,-62.8004,-19.9924,-7.15327,1.08472,-18.1573,13.5182,-1.84226,2.65011,-1.60866,1.77353,1.00331,1.42838,-1.42068,-2.85376,0,0,0,0,0,0,0,0,0,0,0,0,0,0,0.700026,0.000105136,0.564335,-0.382538,0.000106113,0.000147728,0.92394,0,0,0,0.568488,-0.701795,0.641019,-3.44139,-0.263145,-3.61594,-3.45734,-0.272725,-3.60926,-0.430285,-0.794194,-0.830299,-0.377564,-0.605854,0.672099,0.528177,1
2.6053,-1.68818,1.69032,0.96459,1.36823,-1.35394,-2.80133,-62.7262,-20.0266,-7.17932,1.08334,-18.0684,13.4624,-1.89146,2.65011,-1.60866,1.77353,1.00331,1.42838,-1.42068,-2.85376,0,0,0,0,0,0,0,0,0,0,0,0,0,0,0.700026,0.000105136,0.564335,-0.382538,0.000106113,0.000147728,0.92394,0,0,0,0.533594,-0.704585,0.603645,-3.42476,-0.273822,-3.66816,-3.43453,-0.273493,-3.65049,-0.448082,-0.795188,-0.832086,-0.38723,-0.60152,0.667313,0.52428,1
2.60341,-1.68844,1.69003,0.961824,1.36906,-1.35477,-2.80202,-62.5799,-20.0894,-7.22611,1.08068,-17.8818,13.3454,-1.99896,2.65011,-1.60866,1.77353,1.00331,1.42838,-1.42068,-2.85376,0,0,0,0,0,0,0,0,0,0,0,0,0,0,0.700026,0.000105136,0.564335,-0.382538,0.000106113,0.000147728,0.92394,0,0,0,0.498726,-0.707269,0.565003,-3.51929,-0.270891,-3.90015,-3.49387,-0.271671,-3.82525,-0.467054,-0.797741,-0.835009,-0.414892,-0.593222,0.659029,0.517423,1
2.60196,-1.68863,1.6898,0.960214,1.36964,-1.35532,-2.80222,-62.4533,-20.1358,-7.25986,1.07892,-17.7482,13.2586,-2.07336,2.65011,-1.60866,1.77353,1.00331,1.42838,-1.42068,-2.85376,0,0,0,0,0,0,0,0,0,0,0,0,0,0,0.700026,0.000105136,0.564335,-0.382538,0.000106113,0.000147728,0.92394,0,0,0,0.464014,-0.709939,0.525121,-3.48401,-0.268038,-4.00302,-3.48697,-0.269128,-3.94969,-0.48155,-0.79967,-0.837279,-0.43099,-0.587433,0.653544,0.515397,1
2.60004,-1.68884,1.68955,0.958812,1.3701,-1.35582,-2.80261,-62.347,-20.181,-7.29387,1.07722,-17.6255,13.1796,-2.14173,2.65011,-1.60866,1.77353,1.00331,1.42838,-1.42068,-2.85376,0,0,0,0,0,0,0,0,0,0,0,0,0,0,0.700026,0.000105136,0.564335,-0.382538,0.000106113,0.000147728,0.92394,0,0,0,0.429531,-0.712862,0.484412,-3.60263,-0.305395,-4.25312,-3.56793,-0.294515,-4.16209,-0.500682,-0.801748,-0.83982,-0.445004,-0.582812,0.648552,0.511466,1
2.59863,-1.68878,1.68949,0.959944,1.37056,-1.35567,-2.80251,-62.3178,-20.1931,-7.29697,1.07727,-17.6376,13.1839,-2.12936,2.65011,-1.60866,1.77353,1.00331,1.42838,-1.42068,-2.85376,0,0,0,0,0,0,0,0,0,0,0,0,0,0,0.700026,0.000105136,0.564335,-0.382538,0.000106113,0.000147728,0.92394,0,0,0,0.39553,-0.715977,0.442702,-3.32349,-0.304434,-4.07686,-3.39682,-0.301458,-4.10243,-0.514829,-0.801216,-0.840376,-0.433688,-0.578286,0.650093,0.512468,1
2.59697,-1.68891,1.68931,0.958906,1.37108,-1.35616,-2.80268,-62.2078,-20.2338,-7.32633,1.07582,-17.5289,13.1128,-2.18819,2.65011,-1.60866,1.77353,1.00331,1.42838,-1.42068,-2.85376,0,0,0,0,0,0,0,0,0,0,0,0,0,0,0.700026,0.000105136,0.564335,-0.382538,0.000106113,0.000147728,0.92394,0,0,0,0.361096,-0.718807,0.400466,-3.3606,-0.276158,-4.12212,-3.37147,-0.283748,-4.11621,-0.531426,-0.802498,-0.842167,-0.444065,-0.572992,0.645125,0.510742,1
2.59543,-1.68903,1.68915,0.957922,1.37172,-1.35668,-2.80293,-62.1043,-20.2747,-7.35475,1.07448,-17.423,13.0446,-2.24575,2.65011,-1.60866,1.77353,1.00331,1.42838,-1.42068,-2.85376,0,0,0,0,0,0,0,0,0,0,0,0,0,0,0.700026,0.000105136,0.564335,-0.382538,0.000106113,0.000147728,0.92394,0,0,0,0.326621,-0.721555,0.357273,-3.32618,-0.265144,-4.16727,-3.33977,-0.270726,-4.15195,-0.546866,-0.803733,-0.843837,-0.453908,-0.566668,0.639929,0.508283,1
2.59366,-1.68937,1.68888,0.955088,1.3727,-1.35782,-2.80385,-61.9602,-20.3444,-7.40629,1.07198,-17.2156,12.9183,-2.36497,2.65011,-1.60866,1.77353,1.00331,1.42838,-1.42068,-2.85376,0,0,0,0,0,0,0,0,0,0,0,0,0,0,0.700026,0.000105136,0.564335,-0.382538,0.000106113,0.000147728,0.92394,0,0,0,0.292199,-0.724253,0.313017,-3.54521,-0.277913,-4.55813,-3.48358,-0.275757,-4.43628,-0.564538,-0.807104,-0.846465,-0.482249,-0.556814,0.62853,0.499033,1
2.59217,-1.68952,1.68873,0.95401,1.37346,-1.35842,-2.80436,-61.872,-20.3871,-7.43527,1.07068,-17.1079,12.8519,-2.4248,2.65011,-1.60866,1.77353,1.00331,1.42838,-1.42068,-2.85376,0,0,0,0,0,0,0,0,0,0,0,0,0,0,0.700026,0.000105136,0.564335,-0.382538,0.000106113,0.000147728,0.92394,0,0,0,0.257555,-0.727065,0.267548,-3.4998,-0.284074,-4.59328,-3.49493,-0.281579,-4.54618,-0.579401,-0.808551,-0.847985,-0.493027,-0.549268,0.62255,0.494007,1
2.59083,-1.68959,1.68861,0.953552,1.374,-1.3588,-2.80471,-61.8105,-20.4173,-7.45527,1.06984,-17.0399,12.8092,-2.46143,2.65011,-1.60866,1.77353,1.00331,1.42838,-1.42068,-2.85376,0,0,0,0,0,0,0,0,0,0,0,0,0,0,0.700026,0.000105136,0.564335,-0.382538,0.000106113,0.000147728,0.92394,0,0,0,0.22295,-0.730124,0.221308,-3.49684,-0.309131,-4.67255,-3.49627,-0.300865,-4.63464,-0.592815,-0.809315,-0.84922,-0.497607,-0.543798,0.61874,0.49052,1
2.58966,-1.68962,1.68853,0.953629,1.37452,-1.359,-2.80494,-61.7696,-20.4392,-7.46778,1.0694,-17.0042,12.7866,-2.47917,2.65011,-1.60866,1.77353,1.00331,1.42838,-1.42068,-2.85376,0,0,0,0,0,0,0,0,0,0,0,0,0,0,0.700026,0.000105136,0.564335,-0.382538,0.000106113,0.000147728,0.92394,0,0,0,0.188677,-0.733381,0.174334,-3.41137,-0.324154,-4.67565,-3.43684,-0.317168,-4.66335,-0.60452,-0.809589,-0.850053,-0.49684,-0.538677,0.616758,0.488191,1
2.5889,-1.68968,1.68844,0.952356,1.37545,-1.35964,-2.80543,-61.683,-20.4778,-7.49203,1.06818,-16.8998,12.723,-2.53829,2.65011,-1.60866,1.77353,1.00331,1.42838,-1.42068,-2.85376,0,0,0,0,0,0,0,0,0,0,0,0,0,0,0.700026,0.000105136,0.564335,-0.382538,0.000106113,0.000147728,0.92394,0,0,0,0.15476,-0.736481,0.126502,-3.35735,-0.30682,-4.73469,-3.3812,-0.309924,-4.71329,-0.612153,-0.810188,-0.850872,-0.509564,-0.529313,0.610318,0.483313,1
2.58827,-1.68986,1.68832,0.94915,1.37694,-1.36122,-2.80669,-61.5553,-20.5442,-7.5383,1.06591,-16.6872,12.5991,-2.66295,2.65011,-1.60866,1.77353,1.00331,1.42838,-1.42068,-2.85376,0,0,0,0,0,0,0,0,0,0,0,0,0,0,0.700026,0.000105136,0.564335,-0.382538,0.000106113,0.000147728,0.92394,0,0,0,0.120579,-0.739326,0.0770648,-3.52112,-0.293138,-5.09267,-3.47914,-0.298174,-4.97886,-0.618443,-0.812018,-0.852149,-0.541627,-0.514464,0.594539,0.470701,1
2.588,-1.68971,1.68829,0.948273,1.37718,-1.36149,-2.8066,-61.48,-20.5566,-7.54783,1.06498,-16.6333,12.5603,-2.69242,2.65011,-1.60866,1.77353,1.00331,1.42838,-1.42068,-2.85376,0,0,0,0,0,0,0,0,0,0,0,0,0,0,0.700026,0.000105136,0.564335,-0.382538,0.000106113,0.000147728,0.92394,0,0,0,0.0859381,-0.742177,0.0272319,-3.32466,-0.273566,-4.78276,-3.371,-0.280948,-4.84159,-0.621166,-0.810443,-0.852452,-0.550402,-0.512053,0.591876,0.471608,1
2.58742,-1.68976,1.68822,0.946003,1.37836,-1.36279,-2.80788,-61.416,-20.6019,-7.57942,1.06342,-16.4894,12.4804,-2.77829,2.65011,-1.60866,1.77353,1.00331,1.42838,-1.42068,-2.85376,0,0,0,0,0,0,0,0,0,0,0,0,0,0,0.700026,0.000105136,0.564335,-0.382538,0.000106113,0.000147728,0.92394,0,0,0,0.051842,-0.744763,-0.0237725,-3.44516,-0.261381,-5.15362,-3.42292,-0.267251,-5.06001,-0.626945,-0.810968,-0.853068,-0.573099,-0.500264,0.578832,0.458743,1
2.58694,-1.68978,1.68817,0.944232,1.37933,-1.3639,-2.80909,-61.3797,-20.6368,-7.60382,1.06226,-16.3791,12.4211,-2.84491,2.65011,-1.60866,1.77353,1.00331,1.42838,-1.42068,-2.85376,0,0,0,0,0,0,0,0,0,0,0,0,0,0,0.700026,0.000105136,0.564335,-0.382538,0.000106113,0.000147728,0.92394,0,0,0,0.0178582,-0.747477,-0.0758126,-3.52971,-0.28188,-5.40513,-3.49767,-0.277492,-5.3016,-0.631734,-0.811211,-0.853576,-0.590808,-0.490549,0.567743,0.446707,1
