Afshin1997/kuka_rl_ros2/src/catch_and_throw/input_files/idealpd/ballistic motion dataset/good trajectories/41.csv
pure_target_joint_0,pure_target_joint_1,pure_target_joint_2,pure_target_joint_3,pure_target_joint_4,pure_target_joint_5,pure_target_joint_6,target_joint_0,target_joint_1,target_joint_2,target_joint_3,target_joint_4,target_joint_5,target_joint_6,pos_joint_0,pos_joint_1,pos_joint_2,pos_joint_3,pos_joint_4,pos_joint_5,pos_joint_6,vel_joint_0,vel_joint_1,vel_joint_2,vel_joint_3,vel_joint_4,vel_joint_5,vel_joint_6,vel_smooth_joint_0,vel_smooth_joint_1,vel_smooth_joint_2,vel_smooth_joint_3,vel_smooth_joint_4,vel_smooth_joint_5,vel_smooth_joint_6,ee_pos_x,ee_pos_y,ee_pos_z,ee_or_w,ee_or_x,ee_or_y,ee_or_z,ee_vel_x,ee_vel_y,ee_vel_z,ball_pos_x,ball_pos_y,ball_pos_z,ball_raw_vx,ball_raw_vy,ball_raw_vz,ball_ema_vx,ball_ema_vy,ball_ema_vz,action_0,action_1,action_2,action_3,action_4,action_5,action_6,command_published
2.67861,-1.68314,1.69768,1.05899,1.36369,-1.34849,-2.79984,-66.1271,-18.9803,-6.24329,1.18575,-21.7352,15.849,0.347835,2.6501,-1.60867,1.77353,1.00329,1.42838,-1.42066,-2.85376,0,0,0,0,0,0,0,0,0,0,0,0,0,0,0.700034,9.13229e-05,0.564328,-0.382524,0.000115937,0.000144548,0.923945,0,0,0,2.97538,-0.572403,0.799173,-3.57266,0.22561,3.25234,-3.6051,0.225761,3.31291,0.285056,-0.744695,-0.758476,0.557011,-0.646946,0.721766,0.539165,1
2.68315,-1.68334,1.69786,1.05834,1.36402,-1.3486,-2.80049,-66.1654,-18.9944,-6.24545,1.18777,-21.6902,15.8285,0.315042,2.6501,-1.60867,1.77353,1.00329,1.42838,-1.42066,-2.85376,0,0,0,0,0,0,0,0,0,0,0,0,0,0,0.700034,9.13229e-05,0.564328,-0.382524,0.000115937,0.000144548,0.923945,0,0,0,2.9401,-0.570291,0.829969,-3.38979,0.202985,2.95903,-3.45438,0.209818,3.0652,0.330478,-0.746723,-0.75667,0.550429,-0.643676,0.720603,0.532633,1
2.68204,-1.68354,1.69784,1.05838,1.36419,-1.34853,-2.80053,-66.1802,-18.9984,-6.24661,1.18732,-21.6984,15.8386,0.319668,2.6501,-1.60867,1.77353,1.00329,1.42838,-1.42066,-2.85376,0,0,0,0,0,0,0,0,0,0,0,0,0,0,0.700034,9.13229e-05,0.564328,-0.382524,0.000115937,0.000144548,0.923945,0,0,0,2.90506,-0.568033,0.859884,-3.43464,0.221312,2.93238,-3.44056,0.217864,2.97223,0.319382,-0.748666,-0.756855,0.550907,-0.641926,0.721308,0.532313,1
2.67511,-1.68368,1.69749,1.05959,1.36372,-1.34827,-2.79976,-66.1596,-18.9869,-6.24784,1.18469,-21.762,15.8744,0.365668,2.6501,-1.60867,1.77353,1.00329,1.42838,-1.42066,-2.85376,0,0,0,0,0,0,0,0,0,0,0,0,0,0,0.700034,9.13229e-05,0.564328,-0.382524,0.000115937,0.000144548,0.923945,0,0,0,2.86982,-0.565846,0.888682,-3.65543,0.226895,2.98747,-3.59097,0.224186,2.98289,0.250069,-0.750148,-0.760354,0.562997,-0.646667,0.723922,0.53994,1
2.67691,-1.68383,1.69758,1.05929,1.36397,-1.3483,-2.80007,-66.1793,-18.9949,-6.24883,1.18548,-21.7435,15.8677,0.351709,2.6501,-1.60867,1.77353,1.00329,1.42838,-1.42066,-2.85376,0,0,0,0,0,0,0,0,0,0,0,0,0,0,0.700034,9.13229e-05,0.564328,-0.382524,0.000115937,0.000144548,0.923945,0,0,0,2.83463,-0.563656,0.916517,-3.48438,0.2168,2.75565,-3.51636,0.219016,2.82382,0.268131,-0.751563,-0.759528,0.559924,-0.644094,0.723656,0.536914,1
2.67507,-1.68398,1.69747,1.05937,1.36398,-1.34827,-2.79995,-66.1768,-18.998,-6.25235,1.18468,-21.7488,15.8727,0.356162,2.6501,-1.60867,1.77353,1.00329,1.42838,-1.42066,-2.85376,0,0,0,0,0,0,0,0,0,0,0,0,0,0,0.700034,9.13229e-05,0.564328,-0.382524,0.000115937,0.000144548,0.923945,0,0,0,2.79944,-0.561456,0.943289,-3.53791,0.22123,2.69164,-3.53144,0.220566,2.7313,0.249731,-0.75313,-0.760601,0.56078,-0.644001,0.723971,0.538057,1
2.67089,-1.68413,1.69727,1.05974,1.36387,-1.34819,-2.79962,-66.1647,-18.9978,-6.25696,1.18288,-21.7725,15.8879,0.374044,2.6501,-1.60867,1.77353,1.00329,1.42838,-1.42066,-2.85376,0,0,0,0,0,0,0,0,0,0,0,0,0,0,0.700034,9.13229e-05,0.564328,-0.382524,0.000115937,0.000144548,0.923945,0,0,0,2.7644,-0.559244,0.969099,-3.61598,0.228246,2.66383,-3.59062,0.225942,2.68407,0.207889,-0.754632,-0.762613,0.564501,-0.645158,0.724698,0.541394,1
2.67558,-1.68424,1.69747,1.0592,1.36425,-1.34826,-2.80018,-66.1958,-19.0082,-6.2556,1.18495,-21.7356,15.8704,0.346393,2.6501,-1.60867,1.77353,1.00329,1.42838,-1.42066,-2.85376,0,0,0,0,0,0,0,0,0,0,0,0,0,0,0.700034,9.13229e-05,0.564328,-0.382524,0.000115937,0.000144548,0.923945,0,0,0,2.72931,-0.557103,0.99387,-3.39809,0.207351,2.39908,-3.45585,0.212929,2.48458,0.254806,-0.755728,-0.760608,0.5591,-0.641303,0.72403,0.535796,1
2.67536,-1.68434,1.69744,1.05939,1.36429,-1.34823,-2.80018,-66.2003,-19.0106,-6.25641,1.18502,-21.7371,15.8726,0.347819,2.6501,-1.60867,1.77353,1.00329,1.42838,-1.42066,-2.85376,0,0,0,0,0,0,0,0,0,0,0,0,0,0,0.700034,9.13229e-05,0.564328,-0.382524,0.000115937,0.000144548,0.923945,0,0,0,2.69427,-0.555051,1.01764,-3.42709,0.200722,2.3245,-3.43572,0.204384,2.37252,0.25261,-0.756742,-0.760887,0.560937,-0.640923,0.7243,0.535733,1
2.66911,-1.68445,1.6971,1.05994,1.36397,-1.34811,-2.79964,-66.1724,-19.0068,-6.26252,1.18229,-21.7737,15.8925,0.375618,2.6501,-1.60867,1.77353,1.00329,1.42838,-1.42066,-2.85376,0,0,0,0,0,0,0,0,0,0,0,0,0,0,0.700034,9.13229e-05,0.564328,-0.382524,0.000115937,0.000144548,0.923945,0,0,0,2.65911,-0.553027,1.04044,-3.6068,0.207525,2.33848,-3.55548,0.206583,2.34869,0.190068,-0.757833,-0.764311,0.566424,-0.644102,0.725544,0.54123,1
2.67202,-1.68456,1.69722,1.0596,1.36429,-1.34816,-2.79997,-66.1893,-19.0154,-6.2623,1.18358,-21.7479,15.8805,0.356905,2.6501,-1.60867,1.77353,1.00329,1.42838,-1.42066,-2.85376,0,0,0,0,0,0,0,0,0,0,0,0,0,0,0.700034,9.13229e-05,0.564328,-0.382524,0.000115937,0.000144548,0.923945,0,0,0,2.62403,-0.551044,1.06223,-3.42475,0.193702,2.12817,-3.46397,0.197566,2.19433,0.219194,-0.758913,-0.763053,0.563083,-0.640883,0.725051,0.537901,1
2.66698,-1.68467,1.69695,1.05982,1.36415,-1.34809,-2.79959,-66.1644,-19.0164,-6.26934,1.18123,-21.7686,15.8921,0.373347,2.6501,-1.60867,1.77353,1.00329,1.42838,-1.42066,-2.85376,0,0,0,0,0,0,0,0,0,0,0,0,0,0,0.700034,9.13229e-05,0.564328,-0.382524,0.000115937,0.000144548,0.923945,0,0,0,2.58888,-0.549088,1.08298,-3.58241,0.199238,2.11392,-3.54688,0.198737,2.13804,0.168826,-0.760033,-0.765822,0.565259,-0.642339,0.725753,0.541638,1
2.66706,-1.68478,1.69692,1.05961,1.36431,-1.34811,-2.79967,-66.1639,-19.0228,-6.27228,1.18116,-21.7565,15.8866,0.365376,2.6501,-1.60867,1.77353,1.00329,1.42838,-1.42066,-2.85376,0,0,0,0,0,0,0,0,0,0,0,0,0,0,0.700034,9.13229e-05,0.564328,-0.382524,0.000115937,0.000144548,0.923945,0,0,0,2.55373,-0.547154,1.10273,-3.50812,0.193071,1.97184,-3.51975,0.194771,2.0217,0.169626,-0.76113,-0.766053,0.563143,-0.640757,0.725547,0.540912,1
2.66694,-1.68491,1.69689,1.05925,1.36451,-1.34815,-2.79975,-66.1613,-19.0308,-6.27657,1.1809,-21.7404,15.8792,0.354718,2.6501,-1.60867,1.77353,1.00329,1.42838,-1.42066,-2.85376,0,0,0,0,0,0,0,0,0,0,0,0,0,0,0.700034,9.13229e-05,0.564328,-0.382524,0.000115937,0.000144548,0.923945,0,0,0,2.51857,-0.54518,1.12152,-3.48235,0.19551,1.86059,-3.49357,0.195288,1.90892,0.16841,-0.762399,-0.766357,0.559559,-0.638754,0.72511,0.540078,1
2.65274,-1.68503,1.69638,1.05947,1.36432,-1.34817,-2.79898,-66.0967,-19.0387,-6.29954,1.17399,-21.789,15.9105,0.394786,2.6501,-1.60867,1.77353,1.00329,1.42838,-1.42066,-2.85376,0,0,0,0,0,0,0,0,0,0,0,0,0,0,0.700034,9.13229e-05,0.564328,-0.382524,0.000115937,0.000144548,0.923945,0,0,0,2.48318,-0.543099,1.13936,-3.73658,0.219694,1.88352,-3.66367,0.212372,1.89114,0.0263389,-0.763645,-0.771521,0.561752,-0.640651,0.724917,0.547802,1
2.64669,-1.68508,1.69627,1.05966,1.3644,-1.34818,-2.79877,-66.0766,-19.0458,-6.30939,1.17115,-21.8118,15.9278,0.413311,2.6501,-1.60867,1.77353,1.00329,1.42838,-1.42066,-2.85376,0,0,0,0,0,0,0,0,0,0,0,0,0,0,0.700034,9.13229e-05,0.564328,-0.382524,0.000115937,0.000144548,0.923945,0,0,0,2.4481,-0.541109,1.15628,-3.70023,0.209919,1.78514,-3.68926,0.210655,1.81694,-0.0341042,-0.764136,-0.772621,0.563669,-0.639781,0.724884,0.549832,1
2.65671,-1.68518,1.69646,1.059,1.3647,-1.3481,-2.79911,-66.0897,-19.0486,-6.29775,1.17563,-21.7515,15.8872,0.368868,2.6501,-1.60867,1.77353,1.00329,1.42838,-1.42066,-2.85376,0,0,0,0,0,0,0,0,0,0,0,0,0,0,0.700034,9.13229e-05,0.564328,-0.382524,0.000115937,0.000144548,0.923945,0,0,0,2.41311,-0.539177,1.17229,-3.52436,0.194597,1.6127,-3.57383,0.199414,1.67397,0.0660536,-0.765131,-0.770665,0.557096,-0.636779,0.725679,0.546463,1
2.66648,-1.68533,1.69685,1.05789,1.36535,-1.34827,-2.8001,-66.1589,-19.059,-6.28999,1.17987,-21.6891,15.8586,0.31954,2.6501,-1.60867,1.77353,1.00329,1.42838,-1.42066,-2.85376,0,0,0,0,0,0,0,0,0,0,0,0,0,0,0.700034,9.13229e-05,0.564328,-0.382524,0.000115937,0.000144548,0.923945,0,0,0,2.37813,-0.537092,1.18729,-3.28589,0.195921,1.40922,-3.37227,0.196969,1.48864,0.163797,-0.766633,-0.766749,0.545996,-0.630319,0.723945,0.536564,1
2.64807,-1.68536,1.69624,1.05832,1.3651,-1.34818,-2.79878,-66.0283,-19.0714,-6.32002,1.17087,-21.7444,15.8875,0.370028,2.6501,-1.60867,1.77353,1.00329,1.42838,-1.42066,-2.85376,0,0,0,0,0,0,0,0,0,0,0,0,0,0,0.700034,9.13229e-05,0.564328,-0.382524,0.000115937,0.000144548,0.923945,0,0,0,2.34312,-0.535107,1.20132,-3.72051,0.210906,1.49074,-3.61604,0.206725,1.49011,-0.0203369,-0.766933,-0.772901,0.550295,-0.632782,0.724807,0.549743,1
2.65828,-1.68547,1.69642,1.05731,1.36546,-1.34813,-2.79913,-66.0309,-19.0779,-6.31052,1.1752,-21.6706,15.838,0.316716,2.6501,-1.60867,1.77353,1.00329,1.42838,-1.42066,-2.85376,0,0,0,0,0,0,0,0,0,0,0,0,0,0,0.700034,9.13229e-05,0.564328,-0.382524,0.000115937,0.000144548,0.923945,0,0,0,2.30815,-0.53311,1.21433,-3.44738,0.196822,1.28179,-3.49798,0.199793,1.34429,0.0818303,-0.768019,-0.771048,0.540156,-0.629228,0.725368,0.546322,1
2.6521,-1.68551,1.69626,1.05739,1.36548,-1.34816,-2.79884,-66.0009,-19.0842,-6.32159,1.17218,-21.6884,15.8506,0.332469,2.6501,-1.60867,1.77353,1.00329,1.42838,-1.42066,-2.85376,0,0,0,0,0,0,0,0,0,0,0,0,0,0,0.700034,9.13229e-05,0.564328,-0.382524,0.000115937,0.000144548,0.923945,0,0,0,2.27315,-0.531241,1.22624,-3.58871,0.191663,1.22173,-3.56149,0.194102,1.2585,0.0199395,-0.768402,-0.772742,0.540983,-0.629005,0.725064,0.549177,1
2.65725,-1.6856,1.69633,1.05648,1.36577,-1.34815,-2.799,-65.9871,-19.093,-6.3201,1.17407,-21.6347,15.8151,0.295121,2.6501,-1.60867,1.77353,1.00329,1.42838,-1.42066,-2.85376,0,0,0,0,0,0,0,0,0,0,0,0,0,0,0.700034,9.13229e-05,0.564328,-0.382524,0.000115937,0.000144548,0.923945,0,0,0,2.23823,-0.529329,1.2371,-3.46151,0.18954,1.07621,-3.49151,0.190908,1.1309,0.071502,-0.769303,-0.771978,0.531861,-0.626167,0.725163,0.54762,1
2.65809,-1.6857,1.69634,1.05569,1.36609,-1.34821,-2.79909,-65.9713,-19.1042,-6.3251,1.17393,-21.6014,15.7961,0.272875,2.6501,-1.60867,1.77353,1.00329,1.42838,-1.42066,-2.85376,0,0,0,0,0,0,0,0,0,0,0,0,0,0,0.700034,9.13229e-05,0.564328,-0.382524,0.000115937,0.000144548,0.923945,0,0,0,2.20332,-0.527358,1.24697,-3.43623,0.194008,0.971793,-3.45281,0.193078,1.01952,0.0798428,-0.77027,-0.771916,0.523954,-0.622959,0.724547,0.546686,1
2.65868,-1.68575,1.69637,1.05538,1.36626,-1.34824,-2.79914,-65.967,-19.1092,-6.32665,1.17401,-21.5873,15.7887,0.26333,2.6501,-1.60867,1.77353,1.00329,1.42838,-1.42066,-2.85376,0,0,0,0,0,0,0,0,0,0,0,0,0,0,0.700034,9.13229e-05,0.564328,-0.382524,0.000115937,0.000144548,0.923945,0,0,0,2.16854,-0.525483,1.25579,-3.39132,0.182796,0.859807,-3.40976,0.18588,0.907722,0.0857691,-0.77078,-0.771612,0.520822,-0.621223,0.724276,0.546173,1
2.65652,-1.68583,1.69628,1.05458,1.36637,-1.34829,-2.79888,-65.9185,-19.1206,-6.33732,1.17234,-21.5585,15.7696,0.247409,2.6501,-1.60867,1.77353,1.00329,1.42838,-1.42066,-2.85376,0,0,0,0,0,0,0,0,0,0,0,0,0,0,0.700034,9.13229e-05,0.564328,-0.382524,0.000115937,0.000144548,0.923945,0,0,0,2.13365,-0.523499,1.2636,-3.44889,0.19616,0.772145,-3.43715,0.193076,0.812818,0.0641378,-0.771618,-0.772509,0.512912,-0.620095,0.723716,0.548794,1
2.65069,-1.68586,1.69615,1.05455,1.36631,-1.34837,-2.7986,-65.8887,-19.1263,-6.34913,1.16943,-21.5705,15.7786,0.2596,2.6501,-1.60867,1.77353,1.00329,1.42838,-1.42066,-2.85376,0,0,0,0,0,0,0,0,0,0,0,0,0,0,0.700034,9.13229e-05,0.564328,-0.382524,0.000115937,0.000144548,0.923945,0,0,0,2.09895,-0.521633,1.27037,-3.52978,0.18981,0.688441,-3.50199,0.19079,0.725754,0.00584457,-0.771858,-0.773823,0.512543,-0.620725,0.722934,0.551578,1
2.64726,-1.68592,1.69608,1.05394,1.36646,-1.34848,-2.79846,-65.8545,-19.1382,-6.36126,1.16732,-21.5536,15.77,0.251523,2.6501,-1.60867,1.77353,1.00329,1.42838,-1.42066,-2.85376,0,0,0,0,0,0,0,0,0,0,0,0,0,0,0.700034,9.13229e-05,0.564328,-0.382524,0.000115937,0.000144548,0.923945,0,0,0,2.06413,-0.51966,1.27628,-3.52673,0.199855,0.598455,-3.51931,0.197136,0.636645,-0.0284151,-0.772543,-0.774489,0.506489,-0.619276,0.72186,0.552947,1
2.6517,-1.68597,1.69619,1.05336,1.36662,-1.34844,-2.79854,-65.8539,-19.1396,-6.35601,1.16907,-21.5228,15.7496,0.228685,2.6501,-1.60867,1.77353,1.00329,1.42838,-1.42066,-2.85376,0,0,0,0,0,0,0,0,0,0,0,0,0,0,0.700034,9.13229e-05,0.564328,-0.382524,0.000115937,0.000144548,0.923945,0,0,0,2.02943,-0.517761,1.28121,-3.38656,0.18534,0.481595,-3.42638,0.188879,0.52811,0.0160281,-0.773004,-0.773376,0.500714,-0.617609,0.722296,0.552135,1
2.65713,-1.68602,1.69641,1.05284,1.367,-1.34845,-2.79897,-65.8895,-19.1412,-6.34785,1.1714,-21.4988,15.739,0.207586,2.6501,-1.60867,1.77353,1.00329,1.42838,-1.42066,-2.85376,0,0,0,0,0,0,0,0,0,0,0,0,0,0,0.700034,9.13229e-05,0.564328,-0.382524,0.000115937,0.000144548,0.923945,0,0,0,1.99471,-0.515821,1.28516,-3.20662,0.179189,0.364841,-3.27255,0.182096,0.413822,0.070238,-0.773517,-0.771155,0.49544,-0.61381,0.722099,0.547863,1
2.63159,-1.6861,1.6957,1.05251,1.36655,-1.34893,-2.7979,-65.7037,-19.1869,-6.41558,1.15873,-21.4956,15.7362,0.231094,2.6501,-1.60867,1.77353,1.00329,1.42838,-1.42066,-2.85376,0,0,0,0,0,0,0,0,0,0,0,0,0,0,0.700034,9.13229e-05,0.564328,-0.382524,0.000115937,0.000144548,0.923945,0,0,0,1.96011,-0.513881,1.28818,-3.91565,0.219538,0.341455,-3.72272,0.208305,0.363165,-0.185086,-0.774266,-0.778309,0.492138,-0.618344,0.717327,0.558596,1
2.64288,-1.68618,1.69601,1.05117,1.36693,-1.34875,-2.79822,-65.7543,-19.1745,-6.3922,1.16321,-21.4576,15.7141,0.193833,2.6501,-1.60867,1.77353,1.00329,1.42838,-1.42066,-2.85376,0,0,0,0,0,0,0,0,0,0,0,0,0,0,0.700034,9.13229e-05,0.564328,-0.382524,0.000115937,0.000144548,0.923945,0,0,0,1.92517,-0.511859,1.29027,-3.37335,0.195199,0.20183,-3.47816,0.199131,0.25023,-0.0722492,-0.775067,-0.775192,0.478735,-0.61452,0.719151,0.555339,1
2.63249,-1.68618,1.69572,1.05128,1.36664,-1.34897,-2.79786,-65.6785,-19.1948,-6.42144,1.15829,-21.4546,15.7109,0.203616,2.6501,-1.60867,1.77353,1.00329,1.42838,-1.42066,-2.85376,0,0,0,0,0,0,0,0,0,0,0,0,0,0,0.700034,9.13229e-05,0.564328,-0.382524,0.000115937,0.000144548,0.923945,0,0,0,1.88969,-0.510079,1.2912,-3.74929,0.188087,0.0985718,-3.66795,0.191401,0.144069,-0.176135,-0.77507,-0.778047,0.479845,-0.617422,0.716903,0.558968,1
2.64381,-1.68626,1.69603,1.0498,1.36702,-1.34881,-2.79816,-65.722,-19.1839,-6.39918,1.16269,-21.4103,15.6844,0.162553,2.6501,-1.60867,1.77353,1.00329,1.42838,-1.42066,-2.85376,0,0,0,0,0,0,0,0,0,0,0,0,0,0,0.700034,9.13229e-05,0.564328,-0.382524,0.000115937,0.000144548,0.923945,0,0,0,1.85563,-0.508193,1.29125,-3.31352,0.183514,0.00459293,-3.41985,0.18588,0.0464359,-0.0629436,-0.775899,-0.774954,0.465092,-0.61358,0.718521,0.555999,1
2.64325,-1.68629,1.69602,1.0492,1.36703,-1.34886,-2.79809,-65.7014,-19.1892,-6.40463,1.16199,-21.3901,15.6717,0.150221,2.6501,-1.60867,1.77353,1.00329,1.42838,-1.42066,-2.85376,0,0,0,0,0,0,0,0,0,0,0,0,0,0,0.700034,9.13229e-05,0.564328,-0.382524,0.000115937,0.000144548,0.923945,0,0,0,1.82095,-0.506388,1.29036,-3.39905,0.176821,-0.0872655,-3.40529,0.179538,-0.0471551,-0.0685089,-0.776217,-0.775061,0.459036,-0.613564,0.718074,0.556721,1
2.64114,-1.68634,1.69596,1.04819,1.36706,-1.34898,-2.79798,-65.6601,-19.2014,-6.41743,1.16025,-21.3552,15.6499,0.129901,2.6501,-1.60867,1.77353,1.00329,1.42838,-1.42066,-2.85376,0,0,0,0,0,0,0,0,0,0,0,0,0,0,0.700034,9.13229e-05,0.564328,-0.382524,0.000115937,0.000144548,0.923945,0,0,0,1.78625,-0.504589,1.28845,-3.43276,0.177992,-0.188771,-3.42452,0.178456,-0.146286,-0.0896053,-0.776748,-0.775697,0.448982,-0.613209,0.716882,0.557797,1
2.63667,-1.68644,1.69582,1.04644,1.3672,-1.34922,-2.79784,-65.5816,-19.227,-6.44307,1.15686,-21.2903,15.6099,0.0930193,2.6501,-1.60867,1.77353,1.00329,1.42838,-1.42066,-2.85376,0,0,0,0,0,0,0,0,0,0,0,0,0,0,0.700034,9.13229e-05,0.564328,-0.382524,0.000115937,0.000144548,0.923945,0,0,0,1.7517,-0.502696,1.2856,-3.52712,0.193271,-0.290601,-3.49634,0.188827,-0.247306,-0.134312,-0.77766,-0.777124,0.431498,-0.611877,0.71449,0.559137,1
2.64011,-1.68647,1.69591,1.04545,1.36727,-1.3492,-2.79785,-65.5774,-19.2262,-6.43945,1.15779,-21.2593,15.5899,0.0694686,2.6501,-1.60867,1.77353,1.00329,1.42838,-1.42066,-2.85376,0,0,0,0,0,0,0,0,0,0,0,0,0,0,0.700034,9.13229e-05,0.564328,-0.382524,0.000115937,0.000144548,0.923945,0,0,0,1.71715,-0.500868,1.28178,-3.36647,0.178129,-0.37216,-3.40543,0.181338,-0.334704,-0.0998954,-0.777987,-0.776219,0.421578,-0.611141,0.714645,0.559068,1
2.63427,-1.68656,1.69569,1.04329,1.36732,-1.34947,-2.79775,-65.4825,-19.2574,-6.47215,1.15347,-21.1802,15.5403,0.0245404,2.6501,-1.60867,1.77353,1.00329,1.42838,-1.42066,-2.85376,0,0,0,0,0,0,0,0,0,0,0,0,0,0,0.700034,9.13229e-05,0.564328,-0.382524,0.000115937,0.000144548,0.923945,0,0,0,1.68268,-0.499025,1.27691,-3.58394,0.191658,-0.506419,-3.53038,0.188562,-0.454905,-0.158334,-0.778898,-0.778405,0.399933,-0.610653,0.711923,0.560036,1
2.63942,-1.68657,1.69584,1.0424,1.36737,-1.34942,-2.79772,-65.49,-19.25,-6.46198,1.15527,-21.1557,15.5238,0.00347304,2.6501,-1.60867,1.77353,1.00329,1.42838,-1.42066,-2.85376,0,0,0,0,0,0,0,0,0,0,0,0,0,0,0.700034,9.13229e-05,0.564328,-0.382524,0.000115937,0.000144548,0.923945,0,0,0,1.64828,-0.497253,1.27103,-3.3419,0.172153,-0.571118,-3.39845,0.177075,-0.536254,-0.106862,-0.77899,-0.776894,0.391113,-0.610173,0.712411,0.560337,1
2.6362,-1.68663,1.69571,1.04042,1.36735,-1.34961,-2.79765,-65.4189,-19.2712,-6.48471,1.15232,-21.0878,15.4806,-0.0371868,2.6501,-1.60867,1.77353,1.00329,1.42838,-1.42066,-2.85376,0,0,0,0,0,0,0,0,0,0,0,0,0,0,0.700034,9.13229e-05,0.564328,-0.382524,0.000115937,0.000144548,0.923945,0,0,0,1.61381,-0.495511,1.26419,-3.49525,0.176607,-0.694183,-3.46621,0.176747,-0.646804,-0.139015,-0.779585,-0.778205,0.371253,-0.610295,0.710555,0.561068,1
2.63317,-1.68669,1.69559,1.03795,1.36734,-1.34982,-2.7976,-65.337,-19.2953,-6.51024,1.14913,-21.0037,15.4272,-0.0884025,2.6501,-1.60867,1.77353,1.00329,1.42838,-1.42066,-2.85376,0,0,0,0,0,0,0,0,0,0,0,0,0,0,0.700034,9.13229e-05,0.564328,-0.382524,0.000115937,0.000144548,0.923945,0,0,0,1.57935,-0.49381,1.25634,-3.57419,0.17636,-0.814184,-3.54179,0.176476,-0.76397,-0.169316,-0.780207,-0.779411,0.346597,-0.610433,0.70845,0.561605,1
2.63563,-1.68671,1.69564,1.03634,1.36738,-1.34986,-2.79753,-65.3092,-19.2987,-6.51227,1.14912,-20.9547,15.3951,-0.12268,2.6501,-1.60867,1.77353,1.00329,1.42838,-1.42066,-2.85376,0,0,0,0,0,0,0,0,0,0,0,0,0,0,0.700034,9.13229e-05,0.564328,-0.382524,0.000115937,0.000144548,0.923945,0,0,0,1.54485,-0.492109,1.24755,-3.43458,0.169405,-0.875124,-3.46674,0.171526,-0.841778,-0.144674,-0.780438,-0.778868,0.330461,-0.610065,0.708093,0.562271,1
2.63657,-1.68676,1.69561,1.03387,1.36741,-1.34997,-2.7973,-65.2281,-19.3143,-6.52619,1.14772,-20.8669,15.3358,-0.178762,2.6501,-1.60867,1.77353,1.00329,1.42838,-1.42066,-2.85376,0,0,0,0,0,0,0,0,0,0,0,0,0,0,0.700034,9.13229e-05,0.564328,-0.382524,0.000115937,0.000144548,0.923945,0,0,0,1.51039,-0.490382,1.23784,-3.41956,0.171335,-0.963721,-3.43372,0.171392,-0.927138,-0.135285,-0.780872,-0.779174,0.305779,-0.609698,0.706912,0.564616,1
2.63747,-1.68682,1.69556,1.03034,1.36752,-1.35015,-2.79705,-65.1166,-19.3379,-6.54693,1.14552,-20.7433,15.2534,-0.257762,2.6501,-1.60867,1.77353,1.00329,1.42838,-1.42066,-2.85376,0,0,0,0,0,0,0,0,0,0,0,0,0,0,0.700034,9.13229e-05,0.564328,-0.382524,0.000115937,0.000144548,0.923945,0,0,0,1.47599,-0.488583,1.22715,-3.39879,0.177791,-1.05603,-3.40927,0.175871,-1.01737,-0.126335,-0.781493,-0.779696,0.270454,-0.60865,0.705188,0.567046,1
2.63942,-1.68686,1.69555,1.02691,1.36759,-1.35029,-2.7968,-65.0143,-19.3568,-6.56301,1.14388,-20.6258,15.1744,-0.333939,2.6501,-1.60867,1.77353,1.00329,1.42838,-1.42066,-2.85376,0,0,0,0,0,0,0,0,0,0,0,0,0,0,0.700034,9.13229e-05,0.564328,-0.382524,0.000115937,0.000144548,0.923945,0,0,0,1.4417,-0.486766,1.21548,-3.34108,0.177036,-1.13657,-3.36153,0.176687,-1.10081,-0.106818,-0.781944,-0.779813,0.236183,-0.607895,0.703715,0.569628,1
2.63583,-1.68698,1.69523,1.02126,1.36759,-1.35056,-2.79664,-64.8181,-19.4064,-6.61186,1.13803,-20.4258,15.0415,-0.457481,2.6501,-1.60867,1.77353,1.00329,1.42838,-1.42066,-2.85376,0,0,0,0,0,0,0,0,0,0,0,0,0,0,0.700034,9.13229e-05,0.564328,-0.382524,0.000115937,0.000144548,0.923945,0,0,0,1.40742,-0.485009,1.20287,-3.48256,0.178501,-1.28116,-3.44625,0.177957,-1.22706,-0.142683,-0.78306,-0.78297,0.179701,-0.607931,0.701027,0.571227,1
2.63327,-1.68716,1.69485,1.01485,1.36766,-1.35082,-2.79657,-64.6004,-19.4637,-6.66496,1.13213,-20.1911,14.8853,-0.603447,2.6501,-1.60867,1.77353,1.00329,1.42838,-1.42066,-2.85376,0,0,0,0,0,0,0,0,0,0,0,0,0,0,0.700034,9.13229e-05,0.564328,-0.382524,0.000115937,0.000144548,0.923945,0,0,0,1.37317,-0.48327,1.18928,-3.48879,0.177129,-1.38418,-3.47603,0.177377,-1.33704,-0.168285,-0.784882,-0.786765,0.11556,-0.607187,0.698466,0.571891,1
2.63404,-1.68727,1.69469,1.01006,1.36782,-1.351,-2.7965,-64.4564,-19.4983,-6.69449,1.12894,-20.0221,14.7732,-0.71133,2.6501,-1.60867,1.77353,1.00329,1.42838,-1.42066,-2.85376,0,0,0,0,0,0,0,0,0,0,0,0,0,0,0.700034,9.13229e-05,0.564328,-0.382524,0.000115937,0.000144548,0.923945,0,0,0,1.33879,-0.481541,1.17466,-3.37394,0.16966,-1.43536,-3.40456,0.171975,-1.40586,-0.160645,-0.786049,-0.788374,0.0676699,-0.605643,0.696614,0.572548,1
2.63088,-1.68747,1.69428,0.99977,1.36796,-1.35139,-2.79647,-64.1089,-19.5849,-6.7743,1.1198,-19.6491,14.5254,-0.942638,2.6501,-1.60867,1.77353,1.00329,1.42838,-1.42066,-2.85376,0,0,0,0,0,0,0,0,0,0,0,0,0,0,0.700034,9.13229e-05,0.564328,-0.382524,0.000115937,0.000144548,0.923945,0,0,0,1.30447,-0.479805,1.15909,-3.48016,0.176027,-1.57831,-3.45748,0.174811,-1.52658,-0.192264,-0.787959,-0.792514,-0.0352272,-0.604194,0.692784,0.57289,1
2.63078,-1.68754,1.69418,0.996769,1.36813,-1.35159,-2.79656,-64.0174,-19.6102,-6.7959,1.11754,-19.5375,14.4531,-1.01261,2.6501,-1.60867,1.77353,1.00329,1.42838,-1.42066,-2.85376,0,0,0,0,0,0,0,0,0,0,0,0,0,0,0.700034,9.13229e-05,0.564328,-0.382524,0.000115937,0.000144548,0.923945,0,0,0,1.27025,-0.478082,1.14287,-3.32328,0.167339,-1.57577,-3.36354,0.169581,-1.56101,-0.19322,-0.788722,-0.79352,-0.0652385,-0.602551,0.690773,0.571967,1
2.62849,-1.68773,1.69384,0.987078,1.36847,-1.35204,-2.79665,-63.6756,-19.697,-6.87211,1.10921,-19.1685,14.209,-1.23914,2.6501,-1.60867,1.77353,1.00329,1.42838,-1.42066,-2.85376,0,0,0,0,0,0,0,0,0,0,0,0,0,0,0.700034,9.13229e-05,0.564328,-0.382524,0.000115937,0.000144548,0.923945,0,0,0,1.23637,-0.476346,1.12556,-3.39684,0.174026,-1.73547,-3.38685,0.172693,-1.68313,-0.216126,-0.790656,-0.796855,-0.16215,-0.599127,0.686263,0.571126,1
2.62351,-1.68802,1.69326,0.974444,1.36896,-1.35284,-2.79658,-63.1302,-19.8346,-6.99164,1.09733,-18.6228,13.8428,-1.56355,2.6501,-1.60867,1.77353,1.00329,1.42838,-1.42066,-2.85376,0,0,0,0,0,0,0,0,0,0,0,0,0,0,0.700034,9.13229e-05,0.564328,-0.382524,0.000115937,0.000144548,0.923945,0,0,0,1.20177,-0.474364,1.10694,-3.60625,0.206597,-1.94042,-3.54043,0.196426,-1.86324,-0.265928,-0.793515,-0.802671,-0.288491,-0.594219,0.678217,0.571783,1
2.62453,-1.68804,1.69325,0.973761,1.36899,-1.35289,-2.79686,-63.1515,-19.8322,-6.98974,1.09737,-18.6146,13.8403,-1.57268,2.6501,-1.60867,1.77353,1.00329,1.42838,-1.42066,-2.85376,0,0,0,0,0,0,0,0,0,0,0,0,0,0,0.700034,9.13229e-05,0.564328,-0.382524,0.000115937,0.000144548,0.923945,0,0,0,1.16778,-0.472937,1.08729,-3.40097,0.142782,-1.96599,-3.44281,0.158875,-1.93516,-0.255747,-0.793667,-0.802813,-0.295322,-0.593965,0.677743,0.568962,1
2.6237,-1.68812,1.69312,0.970191,1.36977,-1.35314,-2.7971,-62.9958,-19.8799,-7.02274,1.09421,-18.4536,13.7355,-1.66906,2.6501,-1.60867,1.77353,1.00329,1.42838,-1.42066,-2.85376,0,0,0,0,0,0,0,0,0,0,0,0,0,0,0.700034,9.13229e-05,0.564328,-0.382524,0.000115937,0.000144548,0.923945,0,0,0,1.13343,-0.47117,1.06692,-3.3357,0.171609,-1.97819,-3.36783,0.167789,-1.96528,-0.263971,-0.794535,-0.804078,-0.331017,-0.586165,0.67529,0.566618,1
2.62136,-1.68826,1.69276,0.964335,1.37091,-1.35345,-2.79749,-62.7101,-19.9649,-7.08382,1.08858,-18.1737,13.5489,-1.83426,2.6501,-1.60867,1.77353,1.00329,1.42838,-1.42066,-2.85376,0,0,0,0,0,0,0,0,0,0,0,0,0,0,0.700034,9.13229e-05,0.564328,-0.382524,0.000115937,0.000144548,0.923945,0,0,0,1.09914,-0.469416,1.04559,-3.47675,0.177853,-2.16281,-3.44408,0.174834,-2.10355,-0.287397,-0.795883,-0.80769,-0.389577,-0.574755,0.672103,0.562709,1
2.62147,-1.68831,1.69268,0.962262,1.37159,-1.35362,-2.79793,-62.6448,-19.9922,-7.10002,1.08706,-18.0866,13.4951,-1.88874,2.6501,-1.60867,1.77353,1.00329,1.42838,-1.42066,-2.85376,0,0,0,0,0,0,0,0,0,0,0,0,0,0,0.700034,9.13229e-05,0.564328,-0.382524,0.000115937,0.000144548,0.923945,0,0,0,1.06491,-0.467791,1.0231,-3.32372,0.157809,-2.18395,-3.35983,0.162916,-2.15983,-0.286306,-0.796404,-0.808503,-0.410312,-0.567894,0.670417,0.558234,1
2.61919,-1.68838,1.69232,0.958108,1.37257,-1.35396,-2.79834,-62.4134,-20.0627,-7.15048,1.08277,-17.8656,13.3465,-2.01704,2.6501,-1.60867,1.77353,1.00329,1.42838,-1.42066,-2.85376,0,0,0,0,0,0,0,0,0,0,0,0,0,0,0.700034,9.13229e-05,0.564328,-0.382524,0.000115937,0.000144548,0.923945,0,0,0,1.03062,-0.466153,0.999707,-3.47148,0.165788,-2.36823,-3.43798,0.164927,-2.30571,-0.309112,-0.797091,-0.812132,-0.451845,-0.558116,0.667038,0.554213,1
2.61706,-1.68841,1.69198,0.954446,1.37335,-1.35433,-2.79874,-62.2072,-20.1246,-7.1963,1.07896,-17.6669,13.2123,-2.13201,2.6501,-1.60867,1.77353,1.00329,1.42838,-1.42066,-2.85376,0,0,0,0,0,0,0,0,0,0,0,0,0,0,0.700034,9.13229e-05,0.564328,-0.382524,0.000115937,0.000144548,0.923945,0,0,0,0.996418,-0.464532,0.975379,-3.52456,0.167014,-2.50692,-3.49859,0.166388,-2.44656,-0.33043,-0.797447,-0.815513,-0.488467,-0.550298,0.663355,0.550204,1
2.61755,-1.68837,1.69198,0.954656,1.37327,-1.35444,-2.79892,-62.2469,-20.1153,-7.19057,1.07943,-17.6878,13.2283,-2.1217,2.6501,-1.60867,1.77353,1.00329,1.42838,-1.42066,-2.85376,0,0,0,0,0,0,0,0,0,0,0,0,0,0,0.700034,9.13229e-05,0.564328,-0.382524,0.000115937,0.000144548,0.923945,0,0,0,0.962361,-0.462905,0.950072,-3.18559,0.15221,-2.36711,-3.27949,0.156463,-2.39095,-0.325499,-0.796965,-0.815447,-0.486367,-0.551127,0.66224,0.548339,1
2.6156,-1.68846,1.69149,0.950308,1.37413,-1.35504,-2.79949,-62.0096,-20.1882,-7.24527,1.07526,-17.4442,13.0644,-2.26337,2.6501,-1.60867,1.77353,1.00329,1.42838,-1.42066,-2.85376,0,0,0,0,0,0,0,0,0,0,0,0,0,0,0.700034,9.13229e-05,0.564328,-0.382524,0.000115937,0.000144548,0.923945,0,0,0,0.928299,-0.461216,0.923802,-3.50737,0.173936,-2.70505,-3.439,0.168694,-2.61082,-0.345051,-0.797877,-0.820369,-0.529848,-0.542489,0.656241,0.542671,1
2.61485,-1.68849,1.69117,0.948033,1.37456,-1.35552,-2.79998,-61.9012,-20.2243,-7.27338,1.0733,-17.3165,12.9796,-2.33877,2.6501,-1.60867,1.77353,1.00329,1.42838,-1.42066,-2.85376,0,0,0,0,0,0,0,0,0,0,0,0,0,0,0.700034,9.13229e-05,0.564328,-0.382524,0.000115937,0.000144548,0.923945,0,0,0,0.894365,-0.459588,0.896529,-3.50273,0.167995,-2.81509,-3.48361,0.168204,-2.75381,-0.352495,-0.798208,-0.823586,-0.552598,-0.538244,0.651489,0.53781,1
2.61433,-1.68848,1.69111,0.947286,1.37509,-1.35583,-2.80032,-61.8595,-20.244,-7.28579,1.07252,-17.2643,12.9481,-2.36892,2.6501,-1.60867,1.77353,1.00329,1.42838,-1.42066,-2.85376,0,0,0,0,0,0,0,0,0,0,0,0,0,0,0.700034,9.13229e-05,0.564328,-0.382524,0.000115937,0.000144548,0.923945,0,0,0,0.860581,-0.457865,0.868288,-3.2751,0.16706,-2.73782,-3.33765,0.167403,-2.74262,-0.357751,-0.798127,-0.824211,-0.560069,-0.532926,0.648352,0.534383,1
2.61275,-1.68874,1.69061,0.945198,1.37559,-1.3569,-2.80126,-61.7602,-20.2955,-7.32831,1.07068,-17.0998,12.8457,-2.46424,2.6501,-1.60867,1.77353,1.00329,1.42838,-1.42066,-2.85376,0,0,0,0,0,0,0,0,0,0,0,0,0,0,0.700034,9.13229e-05,0.564328,-0.382524,0.000115937,0.000144548,0.923945,0,0,0,0.826679,-0.456238,0.839054,-3.59437,0.172542,-3.09945,-3.51735,0.171001,-2.9924,-0.373513,-0.800673,-0.829156,-0.580946,-0.527882,0.63762,0.525017,1
2.61177,-1.68875,1.69056,0.944943,1.37588,-1.35713,-2.80147,-61.7279,-20.3113,-7.33963,1.0701,-17.0643,12.824,-2.48306,2.6501,-1.60867,1.77353,1.00329,1.42838,-1.42066,-2.85376,0,0,0,0,0,0,0,0,0,0,0,0,0,0,0.700034,9.13229e-05,0.564328,-0.382524,0.000115937,0.000144548,0.923945,0,0,0,0.792774,-0.454642,0.808944,-3.34223,0.157263,-2.96812,-3.39476,0.161384,-2.9754,-0.383305,-0.80083,-0.829652,-0.583503,-0.524981,0.635306,0.522917,1
2.61072,-1.68877,1.6905,0.9446,1.37621,-1.35745,-2.80168,-61.6866,-20.3298,-7.35327,1.06943,-17.0189,12.796,-2.5072,2.6501,-1.60867,1.77353,1.00329,1.42838,-1.42066,-2.85376,0,0,0,0,0,0,0,0,0,0,0,0,0,0,0.700034,9.13229e-05,0.564328,-0.382524,0.000115937,0.000144548,0.923945,0,0,0,0.758911,-0.453062,0.77792,-3.23443,0.150915,-2.96331,-3.28253,0.154056,-2.96693,-0.393835,-0.801031,-0.830312,-0.586925,-0.521741,0.632163,0.520736,1
2.60966,-1.68901,1.69014,0.942796,1.37686,-1.35863,-2.80252,-61.5975,-20.3774,-7.3909,1.068,-16.8664,12.7036,-2.59506,2.6501,-1.60867,1.77353,1.00329,1.42838,-1.42066,-2.85376,0,0,0,0,0,0,0,0,0,0,0,0,0,0,0.700034,9.13229e-05,0.564328,-0.382524,0.000115937,0.000144548,0.923945,0,0,0,0.725112,-0.451514,0.745935,-3.47806,0.159322,-3.29133,-3.4194,0.157742,-3.19401,-0.404397,-0.803361,-0.833937,-0.604974,-0.515219,0.620369,0.512393,1
2.60833,-1.68913,1.68998,0.941879,1.37714,-1.35922,-2.80281,-61.5253,-20.4074,-7.41549,1.06689,-16.7759,12.6468,-2.64475,2.6501,-1.60867,1.77353,1.00329,1.42838,-1.42066,-2.85376,0,0,0,0,0,0,0,0,0,0,0,0,0,0,0.700034,9.13229e-05,0.564328,-0.382524,0.000115937,0.000144548,0.923945,0,0,0,0.691228,-0.450027,0.712953,-3.43947,0.151005,-3.34796,-3.43345,0.153026,-3.30177,-0.417765,-0.804628,-0.835513,-0.614135,-0.51245,0.614434,0.509454,1
2.60677,-1.68919,1.68991,0.941673,1.37727,-1.35956,-2.80295,-61.4778,-20.4272,-7.43222,1.06614,-16.727,12.6157,-2.66936,2.6501,-1.60867,1.77353,1.00329,1.42838,-1.42066,-2.85376,0,0,0,0,0,0,0,0,0,0,0,0,0,0,0.700034,9.13229e-05,0.564328,-0.382524,0.000115937,0.000144548,0.923945,0,0,0,0.657386,-0.448564,0.679046,-3.30595,0.142885,-3.31234,-3.3442,0.145927,-3.30917,-0.43335,-0.805197,-0.836203,-0.616202,-0.511103,0.611088,0.508065,1
2.60489,-1.68938,1.68968,0.940741,1.37794,-1.36061,-2.80344,-61.3766,-20.4744,-7.46832,1.06489,-16.5958,12.5354,-2.74032,2.6501,-1.60867,1.77353,1.00329,1.42838,-1.42066,-2.85376,0,0,0,0,0,0,0,0,0,0,0,0,0,0,0.700034,9.13229e-05,0.564328,-0.382524,0.000115937,0.000144548,0.923945,0,0,0,0.623607,-0.447119,0.644141,-3.45715,0.147859,-3.57235,-3.42327,0.14728,-3.4934,-0.452097,-0.807149,-0.838538,-0.625523,-0.504461,0.600527,0.503184,1
2.60324,-1.68946,1.68958,0.940423,1.37829,-1.36125,-2.80363,-61.3074,-20.5032,-7.49103,1.06405,-16.5206,12.4885,-2.77897,2.6501,-1.60867,1.77353,1.00329,1.42838,-1.42066,-2.85376,0,0,0,0,0,0,0,0,0,0,0,0,0,0,0.700034,9.13229e-05,0.564328,-0.382524,0.000115937,0.000144548,0.923945,0,0,0,0.58987,-0.44567,0.608342,-3.34726,0.14383,-3.55186,-3.37006,0.144865,-3.53432,-0.46865,-0.807918,-0.839519,-0.628699,-0.50088,0.594189,0.501234,1
2.60136,-1.68954,1.68949,0.940146,1.37874,-1.36191,-2.80388,-61.2346,-20.535,-7.51536,1.06314,-16.4419,12.44,-2.81906,2.6501,-1.60867,1.77353,1.00329,1.42838,-1.42066,-2.85376,0,0,0,0,0,0,0,0,0,0,0,0,0,0,0.700034,9.13229e-05,0.564328,-0.382524,0.000115937,0.000144548,0.923945,0,0,0,0.556343,-0.444179,0.571849,-3.28006,0.145862,-3.57031,-3.30706,0.145563,-3.55951,-0.487405,-0.808692,-0.840387,-0.631468,-0.496456,0.587538,0.4988,1
2.59961,-1.68975,1.68927,0.938972,1.37982,-1.36331,-2.80504,-61.166,-20.5883,-7.55381,1.06197,-16.3004,12.3606,-2.89879,2.6501,-1.60867,1.77353,1.00329,1.42838,-1.42066,-2.85376,0,0,0,0,0,0,0,0,0,0,0,0,0,0,0.700034,9.13229e-05,0.564328,-0.382524,0.000115937,0.000144548,0.923945,0,0,0,0.522458,-0.442786,0.533841,-3.53884,0.145426,-3.96934,-3.46931,0.145467,-3.84639,-0.504946,-0.810775,-0.842609,-0.643206,-0.485579,0.573525,0.487212,1
2.59776,-1.68973,1.68927,0.939437,1.37978,-1.36343,-2.80509,-61.1441,-20.5986,-7.56379,1.06157,-16.2898,12.3531,-2.9004,2.6501,-1.60867,1.77353,1.00329,1.42838,-1.42066,-2.85376,0,0,0,0,0,0,0,0,0,0,0,0,0,0,0.700034,9.13229e-05,0.564328,-0.382524,0.000115937,0.000144548,0.923945,0,0,0,0.488745,-0.441268,0.495277,-3.18613,0.143475,-3.64462,-3.27108,0.144073,-3.70515,-0.523453,-0.810594,-0.842605,-0.638563,-0.486008,0.57234,0.486639,1
2.59615,-1.68994,1.68902,0.937926,1.38133,-1.3654,-2.80681,-61.0845,-20.6618,-7.60821,1.0604,-16.1185,12.2611,-2.99889,2.6501,-1.60867,1.77353,1.00329,1.42838,-1.42066,-2.85376,0,0,0,0,0,0,0,0,0,0,0,0,0,0,0.700034,9.13229e-05,0.564328,-0.382524,0.000115937,0.000144548,0.923945,0,0,0,0.455078,-0.439731,0.455732,-3.61347,0.164932,-4.24428,-3.51075,0.158674,-4.08254,-0.539562,-0.812749,-0.845113,-0.653667,-0.470544,0.552637,0.469439,1
2.59458,-1.68995,1.68899,0.93816,1.38141,-1.36573,-2.80713,-61.0738,-20.6745,-7.6197,1.06006,-16.0971,12.2496,-3.00833,2.6501,-1.60867,1.77353,1.00329,1.42838,-1.42066,-2.85376,0,0,0,0,0,0,0,0,0,0,0,0,0,0,0.700034,9.13229e-05,0.564328,-0.382524,0.000115937,0.000144548,0.923945,0,0,0,0.421428,-0.438313,0.415166,-3.34031,0.140829,-4.02689,-3.39145,0.146183,-4.04358,-0.555238,-0.812818,-0.845406,-0.651332,-0.469757,0.549389,0.46627,1
2.59316,-1.68995,1.68895,0.93828,1.38178,-1.36612,-2.80744,-61.043,-20.6936,-7.63313,1.05963,-16.0615,12.2287,-3.02559,2.6501,-1.60867,1.77353,1.00329,1.42838,-1.42066,-2.85376,0,0,0,0,0,0,0,0,0,0,0,0,0,0,0.700034,9.13229e-05,0.564328,-0.382524,0.000115937,0.000144548,0.923945,0,0,0,0.387881,-0.436845,0.373546,-3.22777,0.141224,-4.00458,-3.27687,0.142711,-4.01628,-0.569429,-0.812779,-0.845821,-0.650126,-0.46604,0.545432,0.463139,1
2.59192,-1.69004,1.6888,0.937536,1.38296,-1.36748,-2.80864,-61.0047,-20.7363,-7.66164,1.05895,-15.954,12.1719,-3.08662,2.6501,-1.60867,1.77353,1.00329,1.42838,-1.42066,-2.85376,0,0,0,0,0,0,0,0,0,0,0,0,0,0,0.700034,9.13229e-05,0.564328,-0.382524,0.000115937,0.000144548,0.923945,0,0,0,0.354349,-0.435533,0.331016,-3.44207,0.134637,-4.36565,-3.39251,0.13706,-4.26084,-0.581799,-0.813667,-0.847246,-0.657568,-0.45426,0.531895,0.451204,1
2.59077,-1.68998,1.68876,0.937679,1.38362,-1.3676,-2.80866,-60.9374,-20.7594,-7.67315,1.05841,-15.9168,12.1455,-3.10375,2.6501,-1.60867,1.77353,1.00329,1.42838,-1.42066,-2.85376,0,0,0,0,0,0,0,0,0,0,0,0,0,0,0.700034,9.13229e-05,0.564328,-0.382524,0.000115937,0.000144548,0.923945,0,0,0,0.321083,-0.434207,0.287692,-3.23624,0.129023,-4.2147,-3.28312,0.131434,-4.22854,-0.593311,-0.813133,-0.8477,-0.656136,-0.447644,0.530615,0.450997,1
2.58969,-1.69001,1.68866,0.937174,1.3847,-1.36879,-2.80953,-60.8899,-20.7963,-7.69701,1.05783,-15.8243,12.0951,-3.15491,2.6501,-1.60867,1.77353,1.00329,1.42838,-1.42066,-2.85376,0,0,0,0,0,0,0,0,0,0,0,0,0,0,0.700034,9.13229e-05,0.564328,-0.382524,0.000115937,0.000144548,0.923945,0,0,0,0.287255,-0.43286,0.243118,-3.36162,0.133846,-4.4296,-3.33807,0.133122,-4.36928,-0.604089,-0.813383,-0.848685,-0.661194,-0.436861,0.518739,0.442317,1
2.58868,-1.68994,1.68864,0.93722,1.38581,-1.36921,-2.80974,-60.8153,-20.8272,-7.71129,1.05728,-15.77,12.0612,-3.18179,2.6501,-1.60867,1.77353,1.00329,1.42838,-1.42066,-2.85376,0,0,0,0,0,0,0,0,0,0,0,0,0,0,0.700034,9.13229e-05,0.564328,-0.382524,0.000115937,0.000144548,0.923945,0,0,0,0.254218,-0.43132,0.197643,-3.13911,0.146296,-4.32088,-3.1988,0.142344,-4.3354,-0.61425,-0.812721,-0.848869,-0.660727,-0.42573,0.514535,0.440185,1
2.5881,-1.69023,1.68857,0.935972,1.38944,-1.37215,-2.8127,-60.8055,-20.9163,-7.75718,1.05696,-15.5778,11.9765,-3.29567,2.6501,-1.60867,1.77353,1.00329,1.42838,-1.42066,-2.85376,0,0,0,0,0,0,0,0,0,0,0,0,0,0,0.700034,9.13229e-05,0.564328,-0.382524,0.000115937,0.000144548,0.923945,0,0,0,0.221044,-0.429915,0.151344,-3.67293,0.155572,-5.12611,-3.53069,0.151603,-4.88889,-0.620007,-0.81563,-0.849579,-0.673212,-0.389447,0.485161,0.410575,1
2.58687,-1.69016,1.68851,0.936954,1.38799,-1.37081,-2.81157,-60.7886,-20.8922,-7.74668,1.05685,-15.6498,12.0042,-3.24982,2.6501,-1.60867,1.77353,1.00329,1.42838,-1.42066,-2.85376,0,0,0,0,0,0,0,0,0,0,0,0,0,0,0.700034,9.13229e-05,0.564328,-0.382524,0.000115937,0.000144548,0.923945,0,0,0,0.187758,-0.428965,0.104443,-3.20584,0.091539,-4.51705,-3.3033,0.109558,-4.6286,-0.632289,-0.814867,-0.850163,-0.663391,-0.403907,0.498542,0.42187,1
2.5864,-1.69042,1.68857,0.93615,1.39313,-1.37307,-2.81449,-60.7342,-21.0033,-7.78891,1.0564,-15.4686,11.9253,-3.35631,2.6501,-1.60867,1.77353,1.00329,1.42838,-1.42066,-2.85376,0,0,0,0,0,0,0,0,0,0,0,0,0,0,0.700034,9.13229e-05,0.564328,-0.382524,0.000115937,0.000144548,0.923945,0,0,0,0.154621,-0.427251,0.0557343,-3.47924,0.179985,-5.11418,-3.42646,0.158857,-4.96851,-0.637045,-0.817525,-0.84958,-0.671427,-0.352537,0.475918,0.392686,1
2.58541,-1.69042,1.68854,0.936782,1.39293,-1.37239,-2.81423,-60.7243,-21.0033,-7.78701,1.0563,-15.4988,11.9378,-3.33683,2.6501,-1.60867,1.77353,1.00329,1.42838,-1.42066,-2.85376,0,0,0,0,0,0,0,0,0,0,0,0,0,0,0.700034,9.13229e-05,0.564328,-0.382524,0.000115937,0.000144548,0.923945,0,0,0,0.121702,-0.426074,0.00673228,-3.21857,0.115007,-4.79106,-3.28093,0.128162,-4.84429,-0.646865,-0.817495,-0.849924,-0.665109,-0.354481,0.482786,0.395231,1
2.5847,-1.69054,1.68854,0.936963,1.39521,-1.37286,-2.81562,-60.723,-21.0504,-7.80106,1.05624,-15.4549,11.9238,-3.36369,2.6501,-1.60867,1.77353,1.00329,1.42838,-1.42066,-2.85376,0,0,0,0,0,0,0,0,0,0,0,0,0,0,0.700034,9.13229e-05,0.564328,-0.382524,0.000115937,0.000144548,0.923945,0,0,0,0.0893789,-0.424907,-0.0433423,-3.24982,0.117378,-5.03464,-3.25916,0.120614,-4.97754,-0.654,-0.81867,-0.849932,-0.663299,-0.331715,0.478082,0.381385,1
2.58451,-1.69055,1.6885,0.936616,1.39615,-1.37328,-2.81622,-60.7027,-21.0728,-7.81059,1.05597,-15.4128,11.9021,-3.3887,2.6501,-1.60867,1.77353,1.00329,1.42838,-1.42066,-2.85376,0,0,0,0,0,0,0,0,0,0,0,0,0,0,0.700034,9.13229e-05,0.564328,-0.382524,0.000115937,0.000144548,0.923945,0,0,0,0.0561365,-0.423894,-0.0930543,-3.36689,0.102619,-5.03498,-3.33457,0.108017,-5.01775,-0.655954,-0.818855,-0.850253,-0.666769,-0.322347,0.473845,0.375352,1
