Afshin1997/kuka_rl_ros2/src/catch_and_throw/input_files/idealpd/ballistic motion dataset/good trajectories/52.csv
pure_target_joint_0,pure_target_joint_1,pure_target_joint_2,pure_target_joint_3,pure_target_joint_4,pure_target_joint_5,pure_target_joint_6,target_joint_0,target_joint_1,target_joint_2,target_joint_3,target_joint_4,target_joint_5,target_joint_6,pos_joint_0,pos_joint_1,pos_joint_2,pos_joint_3,pos_joint_4,pos_joint_5,pos_joint_6,vel_joint_0,vel_joint_1,vel_joint_2,vel_joint_3,vel_joint_4,vel_joint_5,vel_joint_6,vel_smooth_joint_0,vel_smooth_joint_1,vel_smooth_joint_2,vel_smooth_joint_3,vel_smooth_joint_4,vel_smooth_joint_5,vel_smooth_joint_6,ee_pos_x,ee_pos_y,ee_pos_z,ee_or_w,ee_or_x,ee_or_y,ee_or_z,ee_vel_x,ee_vel_y,ee_vel_z,ball_pos_x,ball_pos_y,ball_pos_z,ball_raw_vx,ball_raw_vy,ball_raw_vz,ball_ema_vx,ball_ema_vy,ball_ema_vz,action_0,action_1,action_2,action_3,action_4,action_5,action_6,command_published
2.56506,-1.54734,1.71061,1.08602,1.35809,-1.3775,-2.80967,-67.9859,-14.388,-3.45413,1.07421,-31.0846,20.9896,5.70307,2.65011,-1.60872,1.77353,1.00332,1.42838,-1.42066,-2.85376,0,0,0,0,0,0,0,0,0,0,0,0,0,0,0.700039,0.000100643,0.564299,-0.382538,0.000130607,0.000129031,0.92394,0,0,0,2.96756,-0.649474,0.854615,-3.21543,-0.0914602,3.96367,-53.4136,-1.47318,68.5512,-0.850501,0.613751,-0.629175,0.827001,-0.702872,0.431643,0.440896,1
2.56581,-1.55134,1.7086,1.08593,1.36073,-1.3702,-2.80648,-67.6523,-14.5662,-3.47579,1.07474,-30.9761,20.8815,5.63787,2.65011,-1.60872,1.77353,1.00332,1.42838,-1.42066,-2.85376,0,0,0,0,0,0,0,0,0,0,0,0,0,0,0.700039,0.000100643,0.564299,-0.382538,0.000130607,0.000129031,0.92394,0,0,0,2.93448,-0.650346,0.894424,-2.93647,-0.077378,3.53392,-18.0796,-0.496118,23.0391,-0.843011,0.573737,-0.649256,0.826115,-0.676563,0.504621,0.472776,1
2.56905,-1.58539,1.7016,1.08385,1.3601,-1.35206,-2.80671,-67.1015,-15.8081,-4.18223,1.0948,-29.0179,19.7009,4.506,2.65011,-1.60872,1.77353,1.00332,1.42838,-1.42066,-2.85376,0,0,0,0,0,0,0,0,0,0,0,0,0,0,0.700039,0.000100643,0.564299,-0.382538,0.000130607,0.000129031,0.92394,0,0,0,2.90143,-0.651252,0.933381,-3.78937,-0.103814,4.46546,-8.07644,-0.221506,10.0376,-0.810552,0.233306,-0.719299,0.805357,-0.682808,0.686013,0.470499,1
2.59065,-1.67762,1.69766,1.07921,1.36364,-1.34578,-2.79966,-66.3632,-18.8095,-6.14902,1.15416,-23.0284,16.6549,1.20064,2.65011,-1.60872,1.77353,1.00332,1.42838,-1.42066,-2.85376,0,0,0,0,0,0,0,0,0,0,0,0,0,0,0.700039,0.000100643,0.564299,-0.382538,0.000130607,0.000129031,0.92394,0,0,0,2.86827,-0.652165,0.971349,-3.3006,-0.0909309,3.78003,-4.73335,-0.130103,5.65729,-0.59461,-0.688986,-0.75869,0.758912,-0.647429,0.748849,0.541016,1
2.64014,-1.68079,1.69869,1.07324,1.36413,-1.34574,-2.79804,-66.3863,-18.8103,-6.12038,1.17469,-22.6076,16.4069,0.912452,2.65011,-1.60872,1.77353,1.00332,1.42838,-1.42066,-2.85376,0,0,0,0,0,0,0,0,0,0,0,0,0,0,0.700039,0.000100643,0.564299,-0.382538,0.000130607,0.000129031,0.92394,0,0,0,2.83524,-0.65311,1.00828,-3.18466,-0.0910701,3.55989,-3.64927,-0.10278,4.18911,-0.099696,-0.720712,-0.748409,0.699255,-0.642472,0.749195,0.557169,1
2.66146,-1.68171,1.69903,1.07177,1.36486,-1.34622,-2.79943,-66.4601,-18.8463,-6.12163,1.18489,-22.4113,16.295,0.778722,2.65011,-1.60872,1.77353,1.00332,1.42838,-1.42066,-2.85376,0,0,0,0,0,0,0,0,0,0,0,0,0,0,0.700039,0.000100643,0.564299,-0.382538,0.000130607,0.000129031,0.92394,0,0,0,2.80225,-0.654029,1.04414,-3.2175,-0.0896392,3.49754,-3.34703,-0.0935815,3.70501,0.113553,-0.729957,-0.744941,0.684556,-0.635239,0.744466,0.543264,1
2.65892,-1.68193,1.6989,1.07187,1.36492,-1.34612,-2.79941,-66.4675,-18.8515,-6.1258,1.1838,-22.423,16.3058,0.786446,2.65011,-1.60872,1.77353,1.00332,1.42838,-1.42066,-2.85376,0,0,0,0,0,0,0,0,0,0,0,0,0,0,0.700039,0.000100643,0.564299,-0.382538,0.000130607,0.000129031,0.92394,0,0,0,2.76913,-0.654915,1.07902,-3.35371,-0.0897701,3.53236,-3.35171,-0.0909135,3.58415,0.0880966,-0.732161,-0.746303,0.685568,-0.634624,0.745424,0.543497,1
2.66985,-1.68247,1.69916,1.07095,1.36545,-1.34639,-2.8003,-66.5019,-18.8818,-6.13186,1.18902,-22.3054,16.2407,0.70789,2.65011,-1.60872,1.77353,1.00332,1.42838,-1.42066,-2.85376,0,0,0,0,0,0,0,0,0,0,0,0,0,0,0.700039,0.000100643,0.564299,-0.382538,0.000130607,0.000129031,0.92394,0,0,0,2.736,-0.655791,1.11291,-3.01134,-0.0795895,3.08088,-3.11345,-0.0829867,3.23186,0.197462,-0.737521,-0.743637,0.676376,-0.629306,0.742733,0.534633,1
2.64634,-1.68207,1.69859,1.0727,1.36487,-1.34574,-2.79888,-66.4584,-18.851,-6.13343,1.17811,-22.5174,16.3697,0.850736,2.65011,-1.60872,1.77353,1.00332,1.42838,-1.42066,-2.85376,0,0,0,0,0,0,0,0,0,0,0,0,0,0,0.700039,0.000100643,0.564299,-0.382538,0.000130607,0.000129031,0.92394,0,0,0,2.70292,-0.65681,1.14573,-3.59471,-0.110693,3.565,-3.45034,-0.102381,3.46506,-0.0377092,-0.733481,-0.749318,0.693799,-0.6351,0.749203,0.548768,1
2.65414,-1.68253,1.69868,1.07211,1.36523,-1.3459,-2.79947,-66.4929,-18.8683,-6.13549,1.18187,-22.4412,16.3282,0.798467,2.65011,-1.60872,1.77353,1.00332,1.42838,-1.42066,-2.85376,0,0,0,0,0,0,0,0,0,0,0,0,0,0,0.700039,0.000100643,0.564299,-0.382538,0.000130607,0.000129031,0.92394,0,0,0,2.66977,-0.657668,1.17754,-3.24673,-0.084029,3.11613,-3.30781,-0.0895346,3.22081,0.0402799,-0.738143,-0.748494,0.687981,-0.631536,0.747633,0.542887,1
2.63839,-1.68238,1.69835,1.07316,1.3649,-1.3456,-2.79862,-66.4404,-18.8654,-6.14767,1.17466,-22.5468,16.3925,0.874606,2.65011,-1.60872,1.77353,1.00332,1.42838,-1.42066,-2.85376,0,0,0,0,0,0,0,0,0,0,0,0,0,0,0.700039,0.000100643,0.564299,-0.382538,0.000130607,0.000129031,0.92394,0,0,0,2.63677,-0.658628,1.20828,-3.57252,-0.103942,3.32782,-3.4931,-0.0996195,3.29572,-0.117165,-0.736589,-0.751764,0.698448,-0.634867,0.750676,0.551357,1
2.66401,-1.68307,1.6989,1.07146,1.36578,-1.34608,-2.80037,-66.5477,-18.8921,-6.13723,1.18672,-22.351,16.282,0.735892,2.65011,-1.60872,1.77353,1.00332,1.42838,-1.42066,-2.85376,0,0,0,0,0,0,0,0,0,0,0,0,0,0,0.700039,0.000100643,0.564299,-0.382538,0.000130607,0.000129031,0.92394,0,0,0,2.60372,-0.659626,1.23792,-2.89151,-0.0872977,2.59316,-3.07199,-0.0909943,2.80393,0.13899,-0.743495,-0.74623,0.681476,-0.626042,0.745831,0.533923,1
2.63339,-1.68268,1.69815,1.07344,1.36485,-1.34551,-2.7984,-66.4156,-18.8803,-6.16092,1.17255,-22.5504,16.3963,0.881798,2.65011,-1.60872,1.77353,1.00332,1.42838,-1.42066,-2.85376,0,0,0,0,0,0,0,0,0,0,0,0,0,0,0.700039,0.000100643,0.564299,-0.382538,0.000130607,0.000129031,0.92394,0,0,0,2.57067,-0.660567,1.2666,-3.72089,-0.105983,3.22919,-3.52622,-0.101487,3.10161,-0.16723,-0.739592,-0.75373,0.701255,-0.635334,0.751519,0.553608,1
2.64832,-1.68311,1.69847,1.07243,1.36556,-1.34572,-2.79948,-66.509,-18.8875,-6.1476,1.17948,-22.4607,16.3513,0.812768,2.65011,-1.60872,1.77353,1.00332,1.42838,-1.42066,-2.85376,0,0,0,0,0,0,0,0,0,0,0,0,0,0,0.700039,0.000100643,0.564299,-0.382538,0.000130607,0.000129031,0.92394,0,0,0,2.5376,-0.661533,1.29436,-3.14056,-0.0917259,2.63598,-3.25625,-0.0946541,2.77567,-0.0179247,-0.743929,-0.750605,0.691129,-0.628179,0.749466,0.542823,1
2.63591,-1.68308,1.69817,1.07317,1.36512,-1.34554,-2.79866,-66.4416,-18.8919,-6.16386,1.17382,-22.5197,16.3841,0.86034,2.65011,-1.60872,1.77353,1.00332,1.42838,-1.42066,-2.85376,0,0,0,0,0,0,0,0,0,0,0,0,0,0,0.700039,0.000100643,0.564299,-0.382538,0.000130607,0.000129031,0.92394,0,0,0,2.50464,-0.662463,1.32112,-3.49258,-0.0985369,2.83577,-3.42168,-0.0973721,2.81774,-0.142008,-0.743649,-0.753599,0.698558,-0.632593,0.75123,0.550995,1
2.6461,-1.68338,1.69839,1.07246,1.36559,-1.34566,-2.79937,-66.5047,-18.8962,-6.1543,1.17853,-22.4596,16.3539,0.813831,2.65011,-1.60872,1.77353,1.00332,1.42838,-1.42066,-2.85376,0,0,0,0,0,0,0,0,0,0,0,0,0,0,0.700039,0.000100643,0.564299,-0.382538,0.000130607,0.000129031,0.92394,0,0,0,2.4718,-0.663437,1.34675,-3.13484,-0.0929742,2.4467,-3.22089,-0.0942936,2.55801,-0.0400893,-0.746585,-0.751372,0.69146,-0.627888,0.750036,0.543881,1
2.64275,-1.68346,1.69831,1.07264,1.36554,-1.3456,-2.79916,-66.4897,-18.9001,-6.15974,1.17702,-22.4724,16.3624,0.824601,2.65011,-1.60872,1.77353,1.00332,1.42838,-1.42066,-2.85376,0,0,0,0,0,0,0,0,0,0,0,0,0,0,0.700039,0.000100643,0.564299,-0.382538,0.000130607,0.000129031,0.92394,0,0,0,2.439,-0.66443,1.37145,-3.24894,-0.098405,2.44601,-3.24052,-0.0971716,2.47961,-0.073619,-0.747453,-0.752178,0.693209,-0.628468,0.750649,0.54596,1
2.64127,-1.68375,1.69818,1.07237,1.3655,-1.34562,-2.79914,-66.4824,-18.9115,-6.16933,1.17628,-22.4537,16.3533,0.814071,2.65011,-1.60872,1.77353,1.00332,1.42838,-1.42066,-2.85376,0,0,0,0,0,0,0,0,0,0,0,0,0,0,0.700039,0.000100643,0.564299,-0.382538,0.000130607,0.000129031,0.92394,0,0,0,2.40575,-0.665086,1.39506,-3.23969,-0.0638763,2.30066,-3.23994,-0.0738649,2.35435,-0.0884265,-0.750323,-0.753459,0.690577,-0.628803,0.750408,0.546226,1
2.6383,-1.6837,1.69816,1.07276,1.36543,-1.34552,-2.79888,-66.464,-18.9107,-6.17072,1.17503,-22.4763,16.3658,0.831306,2.65011,-1.60872,1.77353,1.00332,1.42838,-1.42066,-2.85376,0,0,0,0,0,0,0,0,0,0,0,0,0,0,0.700039,0.000100643,0.564299,-0.382538,0.000130607,0.000129031,0.92394,0,0,0,2.37291,-0.666155,1.41774,-3.27467,-0.10662,2.26192,-3.26425,-0.0967935,2.28965,-0.118064,-0.749814,-0.753649,0.694434,-0.629475,0.75145,0.548784,1
2.62204,-1.68351,1.69777,1.0741,1.36493,-1.3455,-2.79815,-66.3687,-18.927,-6.19828,1.16796,-22.5388,16.3981,0.887125,2.65011,-1.60872,1.77353,1.00332,1.42838,-1.42066,-2.85376,0,0,0,0,0,0,0,0,0,0,0,0,0,0,0.700039,0.000100643,0.564299,-0.382538,0.000130607,0.000129031,0.92394,0,0,0,2.34016,-0.6672,1.4395,-3.63997,-0.116165,2.41796,-3.52725,-0.110353,2.37947,-0.280707,-0.747943,-0.757556,0.707851,-0.634542,0.751675,0.556092,1
2.63015,-1.68373,1.69796,1.07345,1.3652,-1.34541,-2.79842,-66.4169,-18.9198,-6.18416,1.17152,-22.5084,16.3833,0.859753,2.65011,-1.60872,1.77353,1.00332,1.42838,-1.42066,-2.85376,0,0,0,0,0,0,0,0,0,0,0,0,0,0,0.700039,0.000100643,0.564299,-0.382538,0.000130607,0.000129031,0.92394,0,0,0,2.30735,-0.66832,1.4603,-3.28074,-0.111962,2.0797,-3.35469,-0.11148,2.16963,-0.199587,-0.750142,-0.755613,0.701368,-0.631807,0.752512,0.553365,1
2.63405,-1.68393,1.69806,1.0731,1.36537,-1.34538,-2.79866,-66.4493,-18.9202,-6.17927,1.17328,-22.4896,16.376,0.843587,2.65011,-1.60872,1.77353,1.00332,1.42838,-1.42066,-2.85376,0,0,0,0,0,0,0,0,0,0,0,0,0,0,0.700039,0.000100643,0.564299,-0.382538,0.000130607,0.000129031,0.92394,0,0,0,2.27453,-0.669387,1.48006,-3.18075,-0.103455,1.91511,-3.23293,-0.105862,1.99147,-0.160593,-0.752167,-0.754634,0.697841,-0.630118,0.75289,0.550972,1
2.62622,-1.68395,1.69786,1.07366,1.36516,-1.34542,-2.79844,-66.4159,-18.9314,-6.19493,1.16991,-22.5142,16.3909,0.866399,2.65011,-1.60872,1.77353,1.00332,1.42838,-1.42066,-2.85376,0,0,0,0,0,0,0,0,0,0,0,0,0,0,0.700039,0.000100643,0.564299,-0.382538,0.000130607,0.000129031,0.92394,0,0,0,2.24187,-0.670395,1.49887,-3.40271,-0.104945,1.96045,-3.35177,-0.10522,1.96976,-0.238904,-0.752282,-0.756683,0.703392,-0.632237,0.752494,0.553151,1
2.63569,-1.68428,1.69811,1.07283,1.3656,-1.34537,-2.79901,-66.4904,-18.9283,-6.18069,1.17412,-22.4749,16.3755,0.831004,2.65011,-1.60872,1.77353,1.00332,1.42838,-1.42066,-2.85376,0,0,0,0,0,0,0,0,0,0,0,0,0,0,0.700039,0.000100643,0.564299,-0.382538,0.000130607,0.000129031,0.92394,0,0,0,2.20917,-0.671311,1.51672,-2.98006,-0.0835592,1.62675,-3.09157,-0.0900575,1.72965,-0.144145,-0.755614,-0.754175,0.695101,-0.627802,0.752929,0.547499,1
2.62148,-1.68414,1.69774,1.07391,1.36501,-1.34542,-2.79846,-66.4134,-18.9435,-6.20756,1.16798,-22.5228,16.4,0.875553,2.65011,-1.60872,1.77353,1.00332,1.42838,-1.42066,-2.85376,0,0,0,0,0,0,0,0,0,0,0,0,0,0,0.700039,0.000100643,0.564299,-0.382538,0.000130607,0.000129031,0.92394,0,0,0,2.17637,-0.672296,1.53358,-3.50074,-0.105037,1.79908,-3.37799,-0.100543,1.77825,-0.286248,-0.75427,-0.757819,0.705945,-0.633724,0.752414,0.552952,1
2.62376,-1.6843,1.69782,1.07367,1.36511,-1.34537,-2.7986,-66.439,-18.9426,-6.20376,1.16899,-22.5155,16.3992,0.867771,2.65011,-1.60872,1.77353,1.00332,1.42838,-1.42066,-2.85376,0,0,0,0,0,0,0,0,0,0,0,0,0,0,0.700039,0.000100643,0.564299,-0.382538,0.000130607,0.000129031,0.92394,0,0,0,2.14374,-0.673243,1.54952,-3.23129,-0.0937893,1.57834,-3.2753,-0.0958156,1.63831,-0.263494,-0.755825,-0.757074,0.703542,-0.632677,0.752975,0.551589,1
2.62105,-1.68434,1.69777,1.07389,1.36501,-1.34537,-2.79855,-66.4304,-18.9478,-6.20993,1.16788,-22.5228,16.4042,0.875059,2.65011,-1.60872,1.77353,1.00332,1.42838,-1.42066,-2.85376,0,0,0,0,0,0,0,0,0,0,0,0,0,0,0.700039,0.000100643,0.564299,-0.382538,0.000130607,0.000129031,0.92394,0,0,0,2.1109,-0.674261,1.56449,-3.31324,-0.102746,1.51035,-3.30186,-0.100667,1.54874,-0.290586,-0.756273,-0.757602,0.705691,-0.633699,0.752967,0.552109,1
2.62071,-1.68445,1.69778,1.07385,1.36508,-1.34536,-2.79858,-66.4343,-18.9519,-6.21202,1.16775,-22.5199,16.4047,0.873345,2.65011,-1.60872,1.77353,1.00332,1.42838,-1.42066,-2.85376,0,0,0,0,0,0,0,0,0,0,0,0,0,0,0.700039,0.000100643,0.564299,-0.382538,0.000130607,0.000129031,0.92394,0,0,0,2.07807,-0.675244,1.57843,-3.25901,-0.0975439,1.38437,-3.27187,-0.0984808,1.43368,-0.293959,-0.757278,-0.757444,0.705356,-0.632974,0.753005,0.551767,1
2.62036,-1.68453,1.6978,1.07383,1.36516,-1.34536,-2.7986,-66.4367,-18.9557,-6.21399,1.16761,-22.5172,16.4051,0.871925,2.65011,-1.60872,1.77353,1.00332,1.42838,-1.42066,-2.85376,0,0,0,0,0,0,0,0,0,0,0,0,0,0,0.700039,0.000100643,0.564299,-0.382538,0.000130607,0.000129031,0.92394,0,0,0,2.0452,-0.676249,1.59134,-3.24009,-0.0990998,1.27275,-3.24962,-0.0989141,1.32103,-0.297464,-0.758172,-0.757279,0.705108,-0.632251,0.753061,0.551539,1
2.61579,-1.68448,1.69769,1.07428,1.36493,-1.3454,-2.79843,-66.405,-18.9632,-6.22422,1.16574,-22.5279,16.409,0.884446,2.65011,-1.60872,1.77353,1.00332,1.42838,-1.42066,-2.85376,0,0,0,0,0,0,0,0,0,0,0,0,0,0,0.700039,0.000100643,0.564299,-0.382538,0.000130607,0.000129031,0.92394,0,0,0,2.0123,-0.67739,1.6033,-3.38956,-0.117524,1.23142,-3.34758,-0.111941,1.25831,-0.343187,-0.757669,-0.758384,0.70968,-0.63448,0.75269,0.553311,1
2.61594,-1.68453,1.69773,1.07428,1.36495,-1.34536,-2.79842,-66.4099,-18.9631,-6.22343,1.16582,-22.5298,16.4113,0.885281,2.65011,-1.60872,1.77353,1.00332,1.42838,-1.42066,-2.85376,0,0,0,0,0,0,0,0,0,0,0,0,0,0,0.700039,0.000100643,0.564299,-0.382538,0.000130607,0.000129031,0.92394,0,0,0,1.97939,-0.67864,1.61417,-3.29941,-0.125341,1.09036,-3.31386,-0.121321,1.14075,-0.341706,-0.758112,-0.758007,0.709677,-0.634287,0.753094,0.55336,1
2.61578,-1.68463,1.69773,1.0742,1.36503,-1.34537,-2.79845,-66.411,-18.9677,-6.226,1.16574,-22.5228,16.4089,0.881024,2.65011,-1.60872,1.77353,1.00332,1.42838,-1.42066,-2.85376,0,0,0,0,0,0,0,0,0,0,0,0,0,0,0.700039,0.000100643,0.564299,-0.382538,0.000130607,0.000129031,0.92394,0,0,0,1.9465,-0.679796,1.624,-3.28306,-0.115387,0.981343,-3.2923,-0.117167,1.02916,-0.343272,-0.759153,-0.757961,0.708787,-0.633558,0.752976,0.553068,1
2.61608,-1.68478,1.69774,1.074,1.36516,-1.34539,-2.79852,-66.4154,-18.9735,-6.22872,1.16582,-22.5106,16.4043,0.87293,2.65011,-1.60872,1.77353,1.00332,1.42838,-1.42066,-2.85376,0,0,0,0,0,0,0,0,0,0,0,0,0,0,0.700039,0.000100643,0.564299,-0.382538,0.000130607,0.000129031,0.92394,0,0,0,1.91386,-0.680802,1.63276,-3.24082,-0.0998821,0.86983,-3.25626,-0.105068,0.917631,-0.340312,-0.760597,-0.757855,0.706813,-0.632216,0.752705,0.552379,1
2.61576,-1.6848,1.69775,1.07404,1.36512,-1.34537,-2.79848,-66.4146,-18.9738,-6.22918,1.16571,-22.5125,16.4057,0.87454,2.65011,-1.60872,1.77353,1.00332,1.42838,-1.42066,-2.85376,0,0,0,0,0,0,0,0,0,0,0,0,0,0,0.700039,0.000100643,0.564299,-0.382538,0.000130607,0.000129031,0.92394,0,0,0,1.88146,-0.681991,1.6405,-3.23293,-0.11867,0.771908,-3.23993,-0.114589,0.815625,-0.343464,-0.760841,-0.757732,0.707232,-0.632571,0.752978,0.552753,1
2.61296,-1.68482,1.69768,1.07423,1.36501,-1.34543,-2.79841,-66.3937,-18.9816,-6.23776,1.16454,-22.5112,16.4039,0.877476,2.65011,-1.60872,1.77353,1.00332,1.42838,-1.42066,-2.85376,0,0,0,0,0,0,0,0,0,0,0,0,0,0,0.700039,0.000100643,0.564299,-0.382538,0.000130607,0.000129031,0.92394,0,0,0,1.84867,-0.683132,1.64747,-3.34306,-0.116256,0.710856,-3.31212,-0.115756,0.742287,-0.371481,-0.761004,-0.758477,0.709105,-0.633686,0.752328,0.553505,1
2.61467,-1.68491,1.69776,1.07401,1.36509,-1.34539,-2.79847,-66.4134,-18.9789,-6.2338,1.16524,-22.5087,16.4054,0.873341,2.65011,-1.60872,1.77353,1.00332,1.42838,-1.42066,-2.85376,0,0,0,0,0,0,0,0,0,0,0,0,0,0,0.700039,0.000100643,0.564299,-0.382538,0.000130607,0.000129031,0.92394,0,0,0,1.81584,-0.684349,1.65326,-3.20031,-0.118658,0.56368,-3.23386,-0.117788,0.617262,-0.354371,-0.761902,-0.757622,0.706973,-0.632886,0.752735,0.55286,1
2.61263,-1.68489,1.69775,1.07421,1.3649,-1.34545,-2.79842,-66.4074,-18.9809,-6.23865,1.16445,-22.5145,16.4089,0.879466,2.65011,-1.60872,1.77353,1.00332,1.42838,-1.42066,-2.85376,0,0,0,0,0,0,0,0,0,0,0,0,0,0,0.700039,0.000100643,0.564299,-0.382538,0.000130607,0.000129031,0.92394,0,0,0,1.783,-0.685624,1.65806,-3.32021,-0.12888,0.486138,-3.2943,-0.125552,0.525475,-0.37475,-0.761759,-0.757808,0.708908,-0.634859,0.752133,0.553354,1
2.61234,-1.68496,1.69777,1.07415,1.36486,-1.34549,-2.79845,-66.4124,-18.9827,-6.24065,1.16433,-22.512,16.4091,0.878019,2.65011,-1.60872,1.77353,1.00332,1.42838,-1.42066,-2.85376,0,0,0,0,0,0,0,0,0,0,0,0,0,0,0.700039,0.000100643,0.564299,-0.382538,0.000130607,0.000129031,0.92394,0,0,0,1.75019,-0.686837,1.66187,-3.28808,-0.121598,0.38153,-3.28994,-0.122784,0.424713,-0.377686,-0.762387,-0.75759,0.708334,-0.635188,0.75176,0.553124,1
2.61258,-1.68499,1.69779,1.07409,1.36486,-1.34547,-2.79841,-66.4129,-18.9827,-6.24042,1.16441,-22.5101,16.4084,0.876663,2.65011,-1.60872,1.77353,1.00332,1.42838,-1.42066,-2.85376,0,0,0,0,0,0,0,0,0,0,0,0,0,0,0.700039,0.000100643,0.564299,-0.382538,0.000130607,0.000129031,0.92394,0,0,0,1.71757,-0.68808,1.66474,-3.25386,-0.124041,0.286043,-3.26469,-0.123664,0.327644,-0.375323,-0.762769,-0.75734,0.707739,-0.635206,0.751985,0.553433,1
2.61502,-1.68513,1.69782,1.07359,1.36507,-1.34548,-2.79847,-66.4187,-18.9848,-6.23892,1.16526,-22.488,16.3968,0.860139,2.65011,-1.60872,1.77353,1.00332,1.42838,-1.42066,-2.85376,0,0,0,0,0,0,0,0,0,0,0,0,0,0,0.700039,0.000100643,0.564299,-0.382538,0.000130607,0.000129031,0.92394,0,0,0,1.68529,-0.689003,1.66652,-3.12099,-0.0891447,0.172643,-3.1641,-0.0995004,0.219143,-0.350921,-0.764122,-0.757014,0.702761,-0.633154,0.75184,0.552923,1
2.61118,-1.68507,1.69762,1.07393,1.36483,-1.3456,-2.79807,-66.3475,-18.9969,-6.25283,1.16361,-22.4722,16.3787,0.858468,2.65011,-1.60872,1.77353,1.00332,1.42838,-1.42066,-2.85376,0,0,0,0,0,0,0,0,0,0,0,0,0,0,0.700039,0.000100643,0.564299,-0.382538,0.000130607,0.000129031,0.92394,0,0,0,1.65284,-0.690107,1.66751,-3.36498,-0.114599,0.10229,-3.30472,-0.110069,0.137346,-0.38926,-0.763481,-0.759018,0.706175,-0.635499,0.750681,0.556876,1
2.61122,-1.68505,1.69763,1.07396,1.36473,-1.34558,-2.79799,-66.3432,-18.9947,-6.25225,1.16363,-22.4734,16.3782,0.859594,2.65011,-1.60872,1.77353,1.00332,1.42838,-1.42066,-2.85376,0,0,0,0,0,0,0,0,0,0,0,0,0,0,0.700039,0.000100643,0.564299,-0.382538,0.000130607,0.000129031,0.92394,0,0,0,1.62028,-0.691347,1.66758,-3.28604,-0.125094,0.00694196,-3.29164,-0.120586,0.0460631,-0.388934,-0.763289,-0.759004,0.706429,-0.636562,0.750865,0.557705,1
2.61119,-1.68506,1.69757,1.07385,1.36466,-1.34562,-2.79785,-66.3226,-18.9972,-6.25517,1.16354,-22.4603,16.3674,0.852778,2.65011,-1.60872,1.77353,1.00332,1.42838,-1.42066,-2.85376,0,0,0,0,0,0,0,0,0,0,0,0,0,0,0.700039,0.000100643,0.564299,-0.382538,0.000130607,0.000129031,0.92394,0,0,0,1.58746,-0.692564,1.66649,-3.29743,-0.122259,-0.109367,-3.29569,-0.121757,-0.0627376,-0.389196,-0.763405,-0.759526,0.705378,-0.637215,0.750488,0.559072,1
2.61458,-1.68509,1.69774,1.07359,1.36467,-1.34548,-2.79801,-66.3718,-18.9835,-6.24252,1.16499,-22.4737,16.3799,0.854976,2.65011,-1.60872,1.77353,1.00332,1.42838,-1.42066,-2.85376,0,0,0,0,0,0,0,0,0,0,0,0,0,0,0.700039,0.000100643,0.564299,-0.382538,0.000130607,0.000129031,0.92394,0,0,0,1.55476,-0.693949,1.66458,-3.0744,-0.130213,-0.17979,-3.14079,-0.127676,-0.144674,-0.355276,-0.763683,-0.757873,0.702753,-0.637118,0.751871,0.557465,1
2.61048,-1.6851,1.69743,1.07361,1.36449,-1.34574,-2.79749,-66.265,-19.0061,-6.26518,1.16301,-22.4244,16.3387,0.834828,2.65011,-1.60872,1.77353,1.00332,1.42838,-1.42066,-2.85376,0,0,0,0,0,0,0,0,0,0,0,0,0,0,0.700039,0.000100643,0.564299,-0.382538,0.000130607,0.000129031,0.92394,0,0,0,1.52237,-0.694969,1.66165,-3.39116,-0.106745,-0.306302,-3.31605,-0.113024,-0.257814,-0.396256,-0.763842,-0.760992,0.702902,-0.638929,0.749195,0.562636,1
2.61339,-1.68517,1.69751,1.07319,1.36451,-1.34568,-2.79759,-66.2932,-18.9988,-6.25805,1.16414,-22.4205,16.3389,0.82778,2.65011,-1.60872,1.77353,1.00332,1.42838,-1.42066,-2.85376,0,0,0,0,0,0,0,0,0,0,0,0,0,0,0.700039,0.000100643,0.564299,-0.382538,0.000130607,0.000129031,0.92394,0,0,0,1.48992,-0.69605,1.65769,-3.14002,-0.104665,-0.383469,-3.19283,-0.107173,-0.345772,-0.367201,-0.764572,-0.760133,0.698716,-0.638705,0.749843,0.561702,1
2.61005,-1.6851,1.69732,1.07342,1.36413,-1.34581,-2.79723,-66.2319,-19.0071,-6.27082,1.16269,-22.4052,16.3213,0.825338,2.65011,-1.60872,1.77353,1.00332,1.42838,-1.42066,-2.85376,0,0,0,0,0,0,0,0,0,0,0,0,0,0,0.700039,0.000100643,0.564299,-0.382538,0.000130607,0.000129031,0.92394,0,0,0,1.45735,-0.697316,1.65274,-3.4095,-0.132517,-0.517903,-3.3445,-0.124914,-0.466264,-0.400628,-0.763825,-0.762074,0.700985,-0.642517,0.748514,0.565318,1
2.61007,-1.68511,1.69726,1.07324,1.36396,-1.34586,-2.7971,-66.2149,-19.0081,-6.27385,1.16259,-22.392,16.3105,0.818059,2.65011,-1.60872,1.77353,1.00332,1.42838,-1.42066,-2.85376,0,0,0,0,0,0,0,0,0,0,0,0,0,0,0.700039,0.000100643,0.564299,-0.382538,0.000130607,0.000129031,0.92394,0,0,0,1.42474,-0.698559,1.64677,-3.35501,-0.127865,-0.614642,-3.35186,-0.12698,-0.570128,-0.400417,-0.763957,-0.762655,0.699247,-0.64417,0.748073,0.566604,1
2.61342,-1.68517,1.69737,1.07282,1.36397,-1.34575,-2.79721,-66.2515,-18.9977,-6.26416,1.16393,-22.3932,16.3141,0.81318,2.65011,-1.60872,1.77353,1.00332,1.42838,-1.42066,-2.85376,0,0,0,0,0,0,0,0,0,0,0,0,0,0,0.700039,0.000100643,0.564299,-0.382538,0.000130607,0.000129031,0.92394,0,0,0,1.39219,-0.699822,1.6398,-3.14029,-0.121828,-0.672378,-3.20376,-0.123373,-0.641703,-0.366862,-0.764572,-0.761549,0.694996,-0.644156,0.749119,0.565452,1
2.61397,-1.68522,1.69732,1.07253,1.36387,-1.3458,-2.79712,-66.2367,-18.9993,-6.26678,1.16401,-22.3755,16.3012,0.802438,2.65011,-1.60872,1.77353,1.00332,1.42838,-1.42066,-2.85376,0,0,0,0,0,0,0,0,0,0,0,0,0,0,0.700039,0.000100643,0.564299,-0.382538,0.000130607,0.000129031,0.92394,0,0,0,1.35984,-0.701009,1.63175,-3.18663,-0.116988,-0.792489,-3.19177,-0.118904,-0.747253,-0.361419,-0.764977,-0.762086,0.692168,-0.645156,0.748667,0.566433,1
2.61415,-1.68522,1.69727,1.0724,1.36368,-1.3458,-2.79702,-66.2266,-18.9982,-6.26811,1.16402,-22.3676,16.2938,0.797869,2.65011,-1.60872,1.77353,1.00332,1.42838,-1.42066,-2.85376,0,0,0,0,0,0,0,0,0,0,0,0,0,0,0.700039,0.000100643,0.564299,-0.382538,0.000130607,0.000129031,0.92394,0,0,0,1.32755,-0.702348,1.62269,-3.19936,-0.132631,-0.898411,-3.19708,-0.128513,-0.853064,-0.359589,-0.765017,-0.762608,0.690872,-0.647038,0.748597,0.567423,1
2.61704,-1.6853,1.69733,1.07201,1.36369,-1.34572,-2.79709,-66.2489,-18.9922,-6.2616,1.16516,-22.3611,16.2913,0.789611,2.65011,-1.60872,1.77353,1.00332,1.42838,-1.42066,-2.85376,0,0,0,0,0,0,0,0,0,0,0,0,0,0,0.700039,0.000100643,0.564299,-0.382538,0.000130607,0.000129031,0.92394,0,0,0,1.29508,-0.703579,1.61271,-3.00363,-0.113897,-0.922698,-3.06167,-0.118282,-0.901808,-0.330696,-0.765826,-0.761985,0.686953,-0.646877,0.749429,0.566726,1
2.60782,-1.68533,1.69662,1.0721,1.36309,-1.34627,-2.79651,-66.0858,-19.0335,-6.30714,1.16094,-22.2831,16.226,0.759081,2.65011,-1.60872,1.77353,1.00332,1.42838,-1.42066,-2.85376,0,0,0,0,0,0,0,0,0,0,0,0,0,0,0.700039,0.000100643,0.564299,-0.382538,0.000130607,0.000129031,0.92394,0,0,0,1.2628,-0.704846,1.60176,-3.85126,-0.1512,-1.30722,-3.61438,-0.141325,-1.18559,-0.422859,-0.766088,-0.769023,0.687789,-0.65293,0.743944,0.572464,1
2.61224,-1.68534,1.69687,1.07177,1.36311,-1.34604,-2.79661,-66.143,-19.0137,-6.28901,1.16278,-22.3043,16.2435,0.764502,2.65011,-1.60872,1.77353,1.00332,1.42838,-1.42066,-2.85376,0,0,0,0,0,0,0,0,0,0,0,0,0,0,0.700039,0.000100643,0.564299,-0.382538,0.000130607,0.000129031,0.92394,0,0,0,1.23058,-0.706224,1.58979,-3.23635,-0.138349,-1.20168,-3.34976,-0.139242,-1.19686,-0.378709,-0.766187,-0.766525,0.684484,-0.65276,0.74629,0.571523,1
2.6171,-1.68544,1.69702,1.07116,1.36324,-1.34588,-2.79677,-66.1872,-19.0027,-6.27624,1.1647,-22.3,16.2448,0.754296,2.65011,-1.60872,1.77353,1.00332,1.42838,-1.42066,-2.85376,0,0,0,0,0,0,0,0,0,0,0,0,0,0,0.700039,0.000100643,0.564299,-0.382538,0.000130607,0.000129031,0.92394,0,0,0,1.19842,-0.707398,1.57692,-3.01843,-0.110186,-1.20812,-3.11783,-0.118903,-1.20474,-0.330098,-0.767267,-0.765049,0.678445,-0.651416,0.747795,0.569863,1
2.6153,-1.68541,1.69685,1.07107,1.36292,-1.346,-2.79656,-66.1476,-19.0078,-6.28554,1.1638,-22.2821,16.2279,0.746857,2.65011,-1.60872,1.77353,1.00332,1.42838,-1.42066,-2.85376,0,0,0,0,0,0,0,0,0,0,0,0,0,0,0.700039,0.000100643,0.564299,-0.382538,0.000130607,0.000129031,0.92394,0,0,0,1.16612,-0.708847,1.56314,-3.29619,-0.147884,-1.40651,-3.24268,-0.13919,-1.34598,-0.348069,-0.766924,-0.766796,0.677536,-0.654636,0.746669,0.571939,1
2.6167,-1.68548,1.6968,1.07049,1.36289,-1.34602,-2.79654,-66.1379,-19.0097,-6.28737,1.16409,-22.2573,16.2114,0.729843,2.65011,-1.60872,1.77353,1.00332,1.42838,-1.42066,-2.85376,0,0,0,0,0,0,0,0,0,0,0,0,0,0,0.700039,0.000100643,0.564299,-0.382538,0.000130607,0.000129031,0.92394,0,0,0,1.13379,-0.710204,1.54821,-3.19674,-0.134178,-1.4761,-3.21052,-0.135681,-1.43706,-0.334072,-0.767626,-0.76722,0.671684,-0.654928,0.746398,0.572218,1
2.61745,-1.68557,1.69674,1.06984,1.36294,-1.3461,-2.79651,-66.1185,-19.0166,-6.29265,1.16403,-22.2256,16.191,0.709585,2.65011,-1.60872,1.77353,1.00332,1.42838,-1.42066,-2.85376,0,0,0,0,0,0,0,0,0,0,0,0,0,0,0.700039,0.000100643,0.564299,-0.382538,0.000130607,0.000129031,0.92394,0,0,0,1.10149,-0.711461,1.53255,-3.16858,-0.123387,-1.53656,-3.18116,-0.127075,-1.50671,-0.32663,-0.768519,-0.767828,0.665259,-0.654375,0.745676,0.572511,1
2.61736,-1.68572,1.6966,1.06886,1.36305,-1.34625,-2.79648,-66.0799,-19.0322,-6.30534,1.16337,-22.1733,16.1573,0.677469,2.65011,-1.60872,1.77353,1.00332,1.42838,-1.42066,-2.85376,0,0,0,0,0,0,0,0,0,0,0,0,0,0,0.700039,0.000100643,0.564299,-0.382538,0.000130607,0.000129031,0.92394,0,0,0,1.06935,-0.712525,1.51595,-3.22338,-0.106605,-1.66402,-3.21072,-0.112746,-1.61683,-0.327528,-0.769999,-0.769256,0.655406,-0.653361,0.744098,0.57275,1
2.61781,-1.6858,1.6965,1.06809,1.36303,-1.34637,-2.79644,-66.0534,-19.0401,-6.3129,1.16309,-22.1355,16.1321,0.653765,2.65011,-1.60872,1.77353,1.00332,1.42838,-1.42066,-2.85376,0,0,0,0,0,0,0,0,0,0,0,0,0,0,0.700039,0.000100643,0.564299,-0.382538,0.000130607,0.000129031,0.92394,0,0,0,1.03715,-0.713671,1.49831,-3.23441,-0.115133,-1.7725,-3.2273,-0.114417,-1.7258,-0.322961,-0.77078,-0.770254,0.647749,-0.653551,0.742956,0.573204,1
2.61831,-1.6858,1.69643,1.0676,1.36288,-1.34644,-2.79635,-66.0346,-19.0417,-6.3167,1.16301,-22.1126,16.1151,0.639404,2.65011,-1.60872,1.77353,1.00332,1.42838,-1.42066,-2.85376,0,0,0,0,0,0,0,0,0,0,0,0,0,0,0.700039,0.000100643,0.564299,-0.382538,0.000130607,0.000129031,0.92394,0,0,0,1.0048,-0.715023,1.47967,-3.25364,-0.13601,-1.87471,-3.24574,-0.129532,-1.83004,-0.317964,-0.770848,-0.77101,0.642832,-0.655046,0.74223,0.574035,1
2.6222,-1.68576,1.69657,1.06735,1.36281,-1.34635,-2.79639,-66.0665,-19.027,-6.30391,1.16466,-22.1188,16.1196,0.638099,2.65011,-1.60872,1.77353,1.00332,1.42838,-1.42066,-2.85376,0,0,0,0,0,0,0,0,0,0,0,0,0,0,0.700039,0.000100643,0.564299,-0.382538,0.000130607,0.000129031,0.92394,0,0,0,0.972589,-0.716574,1.45977,-2.99017,-0.144021,-1.84715,-3.06684,-0.139674,-1.84201,-0.279125,-0.770422,-0.769531,0.640327,-0.655688,0.743159,0.573658,1
2.61971,-1.68591,1.69617,1.06553,1.36275,-1.34668,-2.79614,-65.9564,-19.0585,-6.33415,1.16227,-22.017,16.0484,0.579224,2.65011,-1.60872,1.77353,1.00332,1.42838,-1.42066,-2.85376,0,0,0,0,0,0,0,0,0,0,0,0,0,0,0.700039,0.000100643,0.564299,-0.382538,0.000130607,0.000129031,0.92394,0,0,0,0.940625,-0.718075,1.43889,-3.44004,-0.161473,-2.24728,-3.32808,-0.154933,-2.1257,-0.303966,-0.771921,-0.773531,0.62218,-0.656347,0.739809,0.57617,1
2.62298,-1.68601,1.69634,1.06476,1.36311,-1.34667,-2.79617,-65.9609,-19.0599,-6.32991,1.16326,-21.9922,16.0363,0.559818,2.65011,-1.60872,1.77353,1.00332,1.42838,-1.42066,-2.85376,0,0,0,0,0,0,0,0,0,0,0,0,0,0,0.700039,0.000100643,0.564299,-0.382538,0.000130607,0.000129031,0.92394,0,0,0,0.908667,-0.719258,1.4171,-2.98385,-0.110482,-2.0343,-3.08712,-0.123817,-2.06172,-0.271239,-0.772937,-0.771863,0.614408,-0.652723,0.739901,0.575914,1
2.61975,-1.68604,1.69584,1.0631,1.36275,-1.34695,-2.79572,-65.8275,-19.0874,-6.36058,1.16055,-21.8942,15.9613,0.505193,2.65011,-1.60872,1.77353,1.00332,1.42838,-1.42066,-2.85376,0,0,0,0,0,0,0,0,0,0,0,0,0,0,0.700039,0.000100643,0.564299,-0.382538,0.000130607,0.000129031,0.92394,0,0,0,0.876697,-0.72081,1.39454,-3.53722,-0.171751,-2.49562,-3.40219,-0.157371,-2.36545,-0.303625,-0.773209,-0.776869,0.597835,-0.656359,0.737124,0.58038,1
2.62204,-1.68612,1.69598,1.0625,1.36307,-1.34696,-2.79548,-65.8002,-19.0919,-6.35956,1.16113,-21.8641,15.9424,0.48587,2.65011,-1.60872,1.77353,1.00332,1.42838,-1.42066,-2.85376,0,0,0,0,0,0,0,0,0,0,0,0,0,0,0.700039,0.000100643,0.564299,-0.382538,0.000130607,0.000129031,0.92394,0,0,0,0.84474,-0.722048,1.37123,-3.08219,-0.119335,-2.24895,-3.17819,-0.130746,-2.2839,-0.280666,-0.773997,-0.775447,0.591872,-0.653134,0.737015,0.582752,1
2.62193,-1.68617,1.6958,1.06105,1.36306,-1.34716,-2.79509,-65.707,-19.11,-6.37641,1.15999,-21.7854,15.8856,0.439738,2.65011,-1.60872,1.77353,1.00332,1.42838,-1.42066,-2.85376,0,0,0,0,0,0,0,0,0,0,0,0,0,0,0.700039,0.000100643,0.564299,-0.382538,0.000130607,0.000129031,0.92394,0,0,0,0.812673,-0.723398,1.34692,-3.25551,-0.137057,-2.4676,-3.23231,-0.135163,-2.41249,-0.281824,-0.774535,-0.777258,0.577286,-0.653207,0.735055,0.586686,1
2.62105,-1.68638,1.69545,1.0595,1.3632,-1.34737,-2.79495,-65.6183,-19.1388,-6.39978,1.15854,-21.6939,15.8227,0.385412,2.65011,-1.60872,1.77353,1.00332,1.42838,-1.42066,-2.85376,0,0,0,0,0,0,0,0,0,0,0,0,0,0,0.700039,0.000100643,0.564299,-0.382538,0.000130607,0.000129031,0.92394,0,0,0,0.780506,-0.724763,1.32157,-3.2033,-0.136004,-2.52491,-3.212,-0.135752,-2.49118,-0.290563,-0.776609,-0.78073,0.561796,-0.651828,0.732938,0.588099,1
2.6202,-1.68659,1.69516,1.05827,1.36337,-1.34758,-2.79506,-65.5687,-19.1632,-6.41921,1.1574,-21.624,15.7777,0.34279,2.65011,-1.60872,1.77353,1.00332,1.42838,-1.42066,-2.85376,0,0,0,0,0,0,0,0,0,0,0,0,0,0,0.700039,0.000100643,0.564299,-0.382538,0.000130607,0.000129031,0.92394,0,0,0,0.748538,-0.726214,1.29511,-3.11998,-0.141585,-2.58237,-3.14759,-0.139835,-2.55501,-0.29909,-0.778756,-0.7837,0.549532,-0.650155,0.730871,0.586961,1
2.6178,-1.68693,1.69454,1.05489,1.36354,-1.34796,-2.79519,-65.4364,-19.2149,-6.46367,1.15407,-21.4614,15.67,0.242948,2.65011,-1.60872,1.77353,1.00332,1.42838,-1.42066,-2.85376,0,0,0,0,0,0,0,0,0,0,0,0,0,0,0.700039,0.000100643,0.564299,-0.382538,0.000130607,0.000129031,0.92394,0,0,0,0.716705,-0.727631,1.26776,-3.32204,-0.147894,-2.85402,-3.2697,-0.145476,-2.76432,-0.323066,-0.782089,-0.789908,0.515747,-0.648373,0.727048,0.585636,1
2.61757,-1.68705,1.69441,1.05452,1.36366,-1.34806,-2.79532,-65.4257,-19.2255,-6.47133,1.15378,-21.4351,15.6543,0.226785,2.65011,-1.60872,1.77353,1.00332,1.42838,-1.42066,-2.85376,0,0,0,0,0,0,0,0,0,0,0,0,0,0,0.700039,0.000100643,0.564299,-0.382538,0.000130607,0.000129031,0.92394,0,0,0,0.684813,-0.729199,1.23945,-3.07157,-0.151023,-2.72653,-3.13101,-0.149359,-2.73787,-0.325419,-0.783328,-0.791194,0.512062,-0.647244,0.726004,0.584359,1
2.61563,-1.68736,1.69386,1.05053,1.36389,-1.34849,-2.79553,-65.2893,-19.2787,-6.51729,1.15022,-21.2576,15.5385,0.116247,2.65011,-1.60872,1.77353,1.00332,1.42838,-1.42066,-2.85376,0,0,0,0,0,0,0,0,0,0,0,0,0,0,0.700039,0.000100643,0.564299,-0.382538,0.000130607,0.000129031,0.92394,0,0,0,0.652889,-0.73067,1.21013,-3.25966,-0.150204,-2.99368,-3.22107,-0.149951,-2.91694,-0.344833,-0.786424,-0.79669,0.472105,-0.644912,0.721764,0.582317,1
2.61442,-1.68761,1.69347,1.04696,1.36417,-1.34887,-2.79575,-65.1786,-19.3233,-6.55511,1.14727,-21.1051,15.441,0.0205334,2.65011,-1.60872,1.77353,1.00332,1.42838,-1.42066,-2.85376,0,0,0,0,0,0,0,0,0,0,0,0,0,0,0.700039,0.000100643,0.564299,-0.382538,0.000130607,0.000129031,0.92394,0,0,0,0.621066,-0.732082,1.17994,-3.21897,-0.142794,-3.05417,-3.2196,-0.144941,-3.013,-0.356909,-0.788962,-0.800519,0.436444,-0.642118,0.717959,0.58009,1
2.61328,-1.68785,1.69312,1.04269,1.36448,-1.34927,-2.79602,-65.0553,-19.3712,-6.59623,1.14384,-20.9335,15.3317,-0.0880349,2.65011,-1.60872,1.77353,1.00332,1.42838,-1.42066,-2.85376,0,0,0,0,0,0,0,0,0,0,0,0,0,0,0.700039,0.000100643,0.564299,-0.382538,0.000130607,0.000129031,0.92394,0,0,0,0.589269,-0.733495,1.14877,-3.23335,-0.143655,-3.16897,-3.22923,-0.144041,-3.12218,-0.368271,-0.791303,-0.804072,0.393749,-0.639032,0.71392,0.577367,1
2.61255,-1.68802,1.69292,1.0402,1.36478,-1.34956,-2.79621,-64.9796,-19.4029,-6.62204,1.14181,-20.827,15.265,-0.154661,2.65011,-1.60872,1.77353,1.00332,1.42838,-1.42066,-2.85376,0,0,0,0,0,0,0,0,0,0,0,0,0,0,0.700039,0.000100643,0.564299,-0.382538,0.000130607,0.000129031,0.92394,0,0,0,0.557434,-0.734885,1.11659,-3.1085,-0.135747,-3.1423,-3.14472,-0.138235,-3.13626,-0.375628,-0.793043,-0.806058,0.368842,-0.636049,0.711083,0.575486,1
2.61101,-1.68827,1.69248,1.03179,1.36569,-1.34992,-2.79679,-64.7419,-19.4878,-6.6897,1.1351,-20.5215,15.0697,-0.350628,2.65011,-1.60872,1.77353,1.00332,1.42838,-1.42066,-2.85376,0,0,0,0,0,0,0,0,0,0,0,0,0,0,0.700039,0.000100643,0.564299,-0.382538,0.000130607,0.000129031,0.92394,0,0,0,0.525765,-0.7362,1.08349,-3.32346,-0.137969,-3.47349,-3.26984,-0.138049,-3.37232,-0.391013,-0.795499,-0.810485,0.284774,-0.6269,0.70749,0.569731,1
2.61058,-1.68833,1.6923,1.02958,1.36589,-1.35018,-2.79697,-64.6738,-19.5119,-6.71055,1.13336,-20.4302,15.0109,-0.407902,2.65011,-1.60872,1.77353,1.00332,1.42838,-1.42066,-2.85376,0,0,0,0,0,0,0,0,0,0,0,0,0,0,0.700039,0.000100643,0.564299,-0.382538,0.000130607,0.000129031,0.92394,0,0,0,0.494167,-0.737433,1.04948,-3.04854,-0.118978,-3.28194,-3.11493,-0.124699,-3.30905,-0.395294,-0.796086,-0.812247,0.262665,-0.624954,0.704839,0.567871,1
2.60948,-1.68837,1.69199,1.0234,1.36613,-1.35041,-2.79732,-64.4972,-19.5641,-6.7573,1.1284,-20.2139,14.8687,-0.546368,2.65011,-1.60872,1.77353,1.00332,1.42838,-1.42066,-2.85376,0,0,0,0,0,0,0,0,0,0,0,0,0,0,0.700039,0.000100643,0.564299,-0.382538,0.000130607,0.000129031,0.92394,0,0,0,0.462427,-0.738822,1.0146,-3.15002,-0.137855,-3.46149,-3.13949,-0.133909,-3.41576,-0.40629,-0.796536,-0.81537,0.200846,-0.622553,0.702588,0.564359,1
2.60853,-1.68844,1.69168,1.01406,1.36659,-1.35075,-2.79779,-64.229,-19.6405,-6.82452,1.12116,-19.8872,14.6555,-0.754683,2.65011,-1.60872,1.77353,1.00332,1.42838,-1.42066,-2.85376,0,0,0,0,0,0,0,0,0,0,0,0,0,0,0.700039,0.000100643,0.564299,-0.382538,0.000130607,0.000129031,0.92394,0,0,0,0.430837,-0.740156,0.978775,-3.16099,-0.13348,-3.58456,-3.15454,-0.133609,-3.53392,-0.415807,-0.797243,-0.818465,0.107432,-0.617904,0.699165,0.559674,1
2.60799,-1.68844,1.6915,1.00961,1.36663,-1.351,-2.79805,-64.1017,-19.6743,-6.85729,1.11771,-19.7294,14.5516,-0.854691,2.65011,-1.60872,1.77353,1.00332,1.42838,-1.42066,-2.85376,0,0,0,0,0,0,0,0,0,0,0,0,0,0,0.700039,0.000100643,0.564299,-0.382538,0.000130607,0.000129031,0.92394,0,0,0,0.399216,-0.741617,0.941957,-3.01772,-0.139392,-3.51369,-3.05877,-0.137657,-3.51976,-0.421185,-0.797193,-0.820239,0.0629442,-0.617554,0.696639,0.557133,1
2.60671,-1.68854,1.69106,0.989329,1.36758,-1.35146,-2.79894,-63.4738,-19.8372,-6.99784,1.10204,-19.009,14.0769,-1.30805,2.65011,-1.60872,1.77353,1.00332,1.42838,-1.42066,-2.85376,0,0,0,0,0,0,0,0,0,0,0,0,0,0,0.700039,0.000100643,0.564299,-0.382538,0.000130607,0.000129031,0.92394,0,0,0,0.367548,-0.743082,0.904305,-3.37734,-0.156316,-4.01542,-3.28177,-0.150719,-3.86672,-0.434012,-0.798249,-0.824684,-0.139874,-0.608044,0.692037,0.548232,1
2.60607,-1.6885,1.69095,0.988701,1.36754,-1.35166,-2.79916,-63.4555,-19.8446,-7.00656,1.10136,-18.9787,14.0571,-1.32636,2.65011,-1.60872,1.77353,1.00332,1.42838,-1.42066,-2.85376,0,0,0,0,0,0,0,0,0,0,0,0,0,0,0.700039,0.000100643,0.564299,-0.382538,0.000130607,0.000129031,0.92394,0,0,0,0.33584,-0.744715,0.865593,-3.10426,-0.15989,-3.78999,-3.15751,-0.157139,-3.81301,-0.440434,-0.797802,-0.825745,-0.14616,-0.608444,0.690024,0.545946,1
2.60558,-1.68854,1.69072,0.98201,1.36771,-1.35207,-2.79957,-63.2371,-19.9007,-7.05741,1.09623,-18.7215,13.887,-1.48554,2.65011,-1.60872,1.77353,1.00332,1.42838,-1.42066,-2.85376,0,0,0,0,0,0,0,0,0,0,0,0,0,0,0.700039,0.000100643,0.564299,-0.382538,0.000130607,0.000129031,0.92394,0,0,0,0.304053,-0.746446,0.825624,-3.18516,-0.17339,-4.00502,-3.17686,-0.168515,-3.94741,-0.445274,-0.798182,-0.828073,-0.213063,-0.606713,0.685987,0.541911,1
2.60507,-1.68862,1.69048,0.975902,1.368,-1.3527,-2.79997,-63.0207,-19.9591,-7.10918,1.09154,-18.4642,13.7183,-1.64223,2.65011,-1.60872,1.77353,1.00332,1.42838,-1.42066,-2.85376,0,0,0,0,0,0,0,0,0,0,0,0,0,0,0.700039,0.000100643,0.564299,-0.382538,0.000130607,0.000129031,0.92394,0,0,0,0.272605,-0.747926,0.78528,-3.15931,-0.148686,-4.05296,-3.16457,-0.154635,-4.0213,-0.450375,-0.799008,-0.830473,-0.274143,-0.603856,0.679661,0.537915,1
2.60447,-1.6888,1.69023,0.971319,1.36826,-1.35348,-2.8007,-62.8845,-20.0086,-7.15359,1.08817,-18.2581,13.5888,-1.76816,2.65011,-1.60872,1.77353,1.00332,1.42838,-1.42066,-2.85376,0,0,0,0,0,0,0,0,0,0,0,0,0,0,0.700039,0.000100643,0.564299,-0.382538,0.000130607,0.000129031,0.92394,0,0,0,0.241155,-0.749425,0.743683,-3.16724,-0.15094,-4.18915,-3.16644,-0.152048,-4.13879,-0.456383,-0.800834,-0.832971,-0.319981,-0.601242,0.671798,0.530607,1
2.60315,-1.68898,1.68999,0.969027,1.36875,-1.35419,-2.80139,-62.7964,-20.052,-7.18837,1.08615,-18.1203,13.5044,-1.8495,2.65011,-1.60872,1.77353,1.00332,1.42838,-1.42066,-2.85376,0,0,0,0,0,0,0,0,0,0,0,0,0,0,0.700039,0.000100643,0.564299,-0.382538,0.000130607,0.000129031,0.92394,0,0,0,0.209794,-0.751016,0.700947,-3.17386,-0.161069,-4.32506,-3.17163,-0.158363,-4.26918,-0.469626,-0.802627,-0.835338,-0.342899,-0.596365,0.664699,0.523657,1
2.60163,-1.68914,1.68977,0.967146,1.3693,-1.35502,-2.80201,-62.7036,-20.0964,-7.22338,1.08434,-17.9856,13.4218,-1.92708,2.65011,-1.60872,1.77353,1.00332,1.42838,-1.42066,-2.85376,0,0,0,0,0,0,0,0,0,0,0,0,0,0,0.700039,0.000100643,0.564299,-0.382538,0.000130607,0.000129031,0.92394,0,0,0,0.178337,-0.752435,0.657368,-3.13451,-0.141356,-4.34245,-3.14564,-0.146458,-4.32047,-0.48481,-0.804233,-0.837609,-0.361707,-0.590776,0.656492,0.517456,1
2.59996,-1.68913,1.68966,0.967881,1.36964,-1.35536,-2.80236,-62.6989,-20.1112,-7.23334,1.08426,-17.9757,13.4179,-1.92905,2.65011,-1.60872,1.77353,1.00332,1.42838,-1.42066,-2.85376,0,0,0,0,0,0,0,0,0,0,0,0,0,0,0.700039,0.000100643,0.564299,-0.382538,0.000130607,0.000129031,0.92394,0,0,0,0.146863,-0.753961,0.612871,-2.96417,-0.143732,-4.19068,-3.01861,-0.14455,-4.22962,-0.501466,-0.804133,-0.838617,-0.354356,-0.587382,0.653014,0.513963,1
2.59805,-1.68939,1.68938,0.964854,1.37044,-1.35615,-2.80303,-62.5415,-20.176,-7.28191,1.0814,-17.7796,13.2939,-2.04236,2.65011,-1.60872,1.77353,1.00332,1.42838,-1.42066,-2.85376,0,0,0,0,0,0,0,0,0,0,0,0,0,0,0.700039,0.000100643,0.564299,-0.382538,0.000130607,0.000129031,0.92394,0,0,0,0.115381,-0.755502,0.567488,-3.1402,-0.153705,-4.52677,-3.10372,-0.150959,-4.43762,-0.520583,-0.806727,-0.841473,-0.384626,-0.579448,0.645122,0.507252,1
2.59644,-1.68946,1.68923,0.964183,1.37104,-1.35647,-2.80316,-62.4437,-20.212,-7.30568,1.08017,-17.6947,13.2374,-2.08736,2.65011,-1.60872,1.77353,1.00332,1.42838,-1.42066,-2.85376,0,0,0,0,0,0,0,0,0,0,0,0,0,0,0.700039,0.000100643,0.564299,-0.382538,0.000130607,0.000129031,0.92394,0,0,0,0.0841642,-0.757041,0.521243,-3.0069,-0.148204,-4.45444,-3.03595,-0.14903,-4.4494,-0.536652,-0.807457,-0.842959,-0.391339,-0.57344,0.641928,0.505992,1
2.59438,-1.68996,1.68888,0.958231,1.37254,-1.35815,-2.80466,-62.1987,-20.3217,-7.38806,1.07541,-17.3401,13.0203,-2.29585,2.65011,-1.60872,1.77353,1.00332,1.42838,-1.42066,-2.85376,0,0,0,0,0,0,0,0,0,0,0,0,0,0,0.700039,0.000100643,0.564299,-0.382538,0.000130607,0.000129031,0.92394,0,0,0,0.0529087,-0.758561,0.474023,-3.42714,-0.16669,-5.17754,-3.30978,-0.161392,-4.9591,-0.557329,-0.812424,-0.8465,-0.450854,-0.5584,0.625171,0.490944,1
2.59295,-1.69001,1.68876,0.95784,1.37314,-1.3585,-2.80481,-62.1163,-20.3537,-7.40861,1.07448,-17.2683,12.9733,-2.3332,2.65011,-1.60872,1.77353,1.00332,1.42838,-1.42066,-2.85376,0,0,0,0,0,0,0,0,0,0,0,0,0,0,0.700039,0.000100643,0.564299,-0.382538,0.000130607,0.000129031,0.92394,0,0,0,0.0215557,-0.760006,0.425808,-3.18615,-0.146819,-4.89975,-3.22324,-0.151191,-4.91755,-0.571625,-0.812956,-0.847622,-0.454767,-0.552378,0.621637,0.489497,1
2.59148,-1.69022,1.68859,0.955646,1.3742,-1.35949,-2.80559,-61.9918,-20.4129,-7.44997,1.07246,-17.0996,12.8708,-2.42952,2.65011,-1.60872,1.77353,1.00332,1.42838,-1.42066,-2.85376,0,0,0,0,0,0,0,0,0,0,0,0,0,0,0.700039,0.000100643,0.564299,-0.382538,0.000130607,0.000129031,0.92394,0,0,0,-0.0097435,-0.761456,0.376685,-3.30099,-0.152969,-5.18073,-3.27766,-0.152436,-5.10178,-0.586295,-0.815032,-0.849357,-0.476705,-0.541825,0.611718,0.481677,1
2.59032,-1.69013,1.68854,0.956672,1.3745,-1.3594,-2.80529,-61.9506,-20.422,-7.45259,1.0725,-17.1068,12.8702,-2.41949,2.65011,-1.60872,1.77353,1.00332,1.42838,-1.42066,-2.85376,0,0,0,0,0,0,0,0,0,0,0,0,0,0,0.700039,0.000100643,0.564299,-0.382538,0.000130607,0.000129031,0.92394,0,0,0,-0.041071,-0.762848,0.32672,-3.01581,-0.133981,-4.81003,-3.09436,-0.139518,-4.89755,-0.597895,-0.814158,-0.849832,-0.466452,-0.5388,0.612636,0.484641,1
2.58961,-1.6902,1.68845,0.954492,1.37562,-1.36023,-2.80584,-61.8233,-20.4714,-7.48504,1.07062,-16.9573,12.7776,-2.5052,2.65011,-1.60872,1.77353,1.00332,1.42838,-1.42066,-2.85376,0,0,0,0,0,0,0,0,0,0,0,0,0,0,0.700039,0.000100643,0.564299,-0.382538,0.000130607,0.000129031,0.92394,0,0,0,-0.0719116,-0.764062,0.275836,-3.00939,-0.118452,-4.96517,-3.03488,-0.124772,-4.94488,-0.604949,-0.814786,-0.850767,-0.488243,-0.527668,0.604298,0.47918,1
