Afshin1997/kuka_rl_ros2/src/catch_and_throw/output_files/ft/old/idealpd_9/ft_received_joint_pos_np.csv
joint_0,joint_1,joint_2,joint_3,joint_4,joint_5,joint_6
0.78694,0.00468577,1.32639,1.22178,1.60576,-0.907429,1.57079
0.78694,0.00468583,1.32639,1.22178,1.60576,-0.907429,1.57079
0.78694,0.00468595,1.32639,1.22178,1.60576,-0.907429,1.57079
0.78694,0.00468523,1.32639,1.22178,1.60576,-0.907433,1.57079
0.786946,0.00468895,1.32638,1.22184,1.60572,-0.90751,1.57083
0.786958,0.00469057,1.32624,1.22214,1.60556,-0.907981,1.57087
0.787019,0.00472077,1.32606,1.22249,1.6054,-0.90883,1.57054
0.787196,0.00481664,1.32609,1.22266,1.60559,-0.909386,1.56954
0.78747,0.0049873,1.32654,1.22259,1.60639,-0.908817,1.56771
0.787796,0.00513902,1.3276,1.22219,1.60792,-0.906671,1.56514
0.788175,0.00514153,1.32948,1.22119,1.61014,-0.902905,1.56217
0.788593,0.00483336,1.33218,1.21942,1.6129,-0.897765,1.55902
0.789057,0.00406433,1.33563,1.21687,1.61602,-0.891912,1.55585
0.789619,0.00269927,1.33974,1.21355,1.61931,-0.885852,1.55272
0.790316,0.00075992,1.34434,1.20961,1.62271,-0.879783,1.5497
0.791165,-0.00160684,1.34927,1.20516,1.62618,-0.873843,1.54683
0.792296,-0.00424877,1.35455,1.20043,1.62969,-0.868217,1.54415
0.793807,-0.00695858,1.36018,1.19557,1.63321,-0.862887,1.54167
0.795634,-0.00966995,1.36594,1.19055,1.63672,-0.857866,1.5394
0.797705,-0.0124732,1.37168,1.18529,1.64023,-0.853233,1.53731
0.800066,-0.0152769,1.37748,1.17995,1.6437,-0.849003,1.5354
0.802711,-0.0180898,1.38333,1.17465,1.64711,-0.845106,1.53367
0.805503,-0.0210102,1.38907,1.16924,1.65046,-0.84152,1.53211
0.808438,-0.0240921,1.39474,1.16368,1.65379,-0.838291,1.53073
0.811607,-0.0272885,1.4005,1.15828,1.65703,-0.835429,1.52953
0.814923,-0.0306366,1.40625,1.15302,1.66019,-0.832866,1.52848
0.818317,-0.0341769,1.41192,1.14764,1.66328,-0.830572,1.52757
0.821834,-0.0378843,1.41762,1.14229,1.66632,-0.828554,1.52681
0.825395,-0.04173,1.42327,1.13711,1.66927,-0.826734,1.52619
0.828927,-0.0457936,1.42882,1.13187,1.67215,-0.825143,1.5257
0.832525,-0.050008,1.43445,1.12645,1.67497,-0.823795,1.52531
0.83622,-0.0542595,1.44023,1.12103,1.67772,-0.822651,1.52502
0.839848,-0.0585455,1.44589,1.11566,1.68041,-0.821636,1.52481
0.843315,-0.0629578,1.45132,1.11018,1.68306,-0.820738,1.52466
0.846715,-0.0674609,1.45673,1.10459,1.68567,-0.819941,1.52457
0.850114,-0.0719758,1.46223,1.09908,1.68823,-0.819236,1.52451
0.853466,-0.076522,1.46774,1.09366,1.69071,-0.818619,1.52446
0.856765,-0.0812233,1.47323,1.08813,1.69319,-0.818046,1.5244
0.859951,-0.0860467,1.47862,1.08271,1.69563,-0.817472,1.52433
0.862928,-0.0909164,1.48375,1.07748,1.69803,-0.816844,1.52423
0.865807,-0.0959,1.48884,1.07232,1.7004,-0.816219,1.52412
0.868738,-0.100929,1.49409,1.0671,1.70274,-0.815606,1.52399
0.87163,-0.106028,1.49933,1.0621,1.70506,-0.814981,1.52385
0.874298,-0.11114,1.50429,1.0573,1.70732,-0.814239,1.52368
0.876865,-0.116272,1.50917,1.05249,1.70958,-0.813433,1.52349
0.879452,-0.121367,1.51417,1.04765,1.71182,-0.812665,1.52331
0.88192,-0.126457,1.51904,1.04298,1.71403,-0.811818,1.52315
0.884163,-0.131561,1.52367,1.03847,1.71622,-0.81086,1.52301
0.886317,-0.136703,1.52833,1.0339,1.7184,-0.809897,1.52289
0.888425,-0.141869,1.53312,1.02924,1.72057,-0.808999,1.52278
0.89032,-0.14707,1.5378,1.02465,1.72274,-0.808042,1.52269
0.89193,-0.152272,1.5423,1.02009,1.72489,-0.807008,1.52257
0.89337,-0.157434,1.54681,1.01552,1.72704,-0.805977,1.52242
0.894738,-0.16258,1.55142,1.01083,1.72921,-0.804991,1.52219
0.895946,-0.167635,1.55593,1.00614,1.73137,-0.803915,1.52186
0.897007,-0.172619,1.5603,1.0015,1.73352,-0.802758,1.52144
0.898006,-0.177601,1.56466,0.996933,1.73567,-0.801588,1.52096
0.898968,-0.182618,1.56898,0.992215,1.73786,-0.800371,1.5204
0.899869,-0.187554,1.57322,0.987554,1.74002,-0.799089,1.51974
0.900741,-0.19252,1.57742,0.982957,1.74222,-0.797782,1.51898
0.90153,-0.197596,1.58151,0.978466,1.7444,-0.796424,1.51817
0.902201,-0.202725,1.58544,0.973912,1.74662,-0.794948,1.51728
0.902812,-0.207778,1.58941,0.969386,1.74884,-0.793458,1.51634
0.903411,-0.212789,1.59346,0.964888,1.75106,-0.791992,1.51535
0.903864,-0.21785,1.5974,0.960553,1.75328,-0.790433,1.51434
0.904133,-0.222884,1.60114,0.956221,1.75552,-0.788785,1.51329
0.904347,-0.227784,1.60491,0.951831,1.75774,-0.787166,1.51222
0.904609,-0.232638,1.60879,0.947511,1.75998,-0.785578,1.51117
0.904797,-0.237477,1.61252,0.943317,1.76223,-0.783918,1.51013
0.904878,-0.242239,1.61609,0.939237,1.76445,-0.782231,1.5091
0.904966,-0.246881,1.61969,0.935061,1.76668,-0.780571,1.5081
0.905043,-0.251479,1.62331,0.930862,1.76891,-0.778921,1.50709
0.905076,-0.25612,1.62681,0.926739,1.77113,-0.777277,1.5061
0.905081,-0.260702,1.63022,0.922718,1.77335,-0.77559,1.50508
0.905136,-0.265175,1.63367,0.91866,1.77556,-0.773895,1.50407
0.905214,-0.26962,1.63713,0.914488,1.77776,-0.772226,1.50302
0.90521,-0.274067,1.6404,0.910251,1.78,-0.77051,1.50197
0.905197,-0.278506,1.64358,0.906086,1.78224,-0.768756,1.5009
0.905283,-0.282781,1.64682,0.90197,1.78445,-0.767037,1.49981
0.905481,-0.287007,1.65015,0.897796,1.78669,-0.765389,1.49871
0.905644,-0.291215,1.65334,0.89352,1.78894,-0.763717,1.49762
0.905737,-0.295411,1.65636,0.889219,1.79121,-0.762012,1.49653
0.905888,-0.299487,1.65939,0.885033,1.79347,-0.760326,1.49544
0.906164,-0.303439,1.66253,0.880969,1.7957,-0.758665,1.49436
0.906485,-0.307363,1.66565,0.876874,1.79797,-0.757047,1.49328
0.906698,-0.31119,1.66861,0.872712,1.80024,-0.755348,1.49222
0.906904,-0.315,1.67158,0.868686,1.80251,-0.753677,1.49116
0.907159,-0.318688,1.6746,0.864811,1.80479,-0.751957,1.4901
0.907434,-0.322288,1.67763,0.861061,1.80705,-0.750254,1.48903
0.907651,-0.325803,1.68061,0.857279,1.80934,-0.748536,1.48793
0.907806,-0.329224,1.68357,0.853465,1.81164,-0.746813,1.48682
0.907983,-0.332602,1.68661,0.849852,1.81394,-0.745154,1.48568
0.908152,-0.335906,1.68967,0.846409,1.81625,-0.74351,1.48452
0.908266,-0.339159,1.69274,0.843112,1.81856,-0.741901,1.48334
0.908314,-0.342335,1.69585,0.839807,1.82087,-0.740333,1.48214
0.908263,-0.345395,1.69897,0.836547,1.82321,-0.73875,1.48092
0.908164,-0.34838,1.70216,0.833462,1.82556,-0.737187,1.47968
0.908045,-0.351303,1.70543,0.830633,1.8279,-0.735647,1.47844
0.907883,-0.35426,1.70877,0.827973,1.83026,-0.734117,1.47721
0.907608,-0.357174,1.71208,0.825488,1.83262,-0.732527,1.47598
0.907254,-0.359992,1.71544,0.823273,1.83499,-0.730948,1.47477
0.906844,-0.362676,1.71889,0.821556,1.83738,-0.72936,1.4736
0.906334,-0.365314,1.7224,0.820402,1.83978,-0.727773,1.4726
0.90567,-0.367959,1.72595,0.819939,1.84221,-0.72614,1.47192
0.904815,-0.370643,1.72955,0.820175,1.84466,-0.724486,1.47145
0.903687,-0.373413,1.73319,0.821079,1.84711,-0.722841,1.47101
0.902207,-0.376158,1.73683,0.822613,1.84957,-0.72118,1.47055
0.900394,-0.378839,1.7406,0.824685,1.85202,-0.719608,1.47006
0.898254,-0.381394,1.74456,0.827166,1.85447,-0.718131,1.46955
0.895735,-0.383857,1.74863,0.829911,1.8569,-0.716724,1.46901
0.892802,-0.386333,1.75276,0.832799,1.85931,-0.715329,1.46844
0.88948,-0.388803,1.75687,0.835732,1.86171,-0.713923,1.46788
0.885933,-0.391327,1.76106,0.838759,1.8641,-0.712521,1.46733
0.88231,-0.393819,1.76532,0.841927,1.86648,-0.711127,1.4668
0.878693,-0.396214,1.76959,0.845181,1.86886,-0.709666,1.46627
0.875073,-0.398554,1.77374,0.848503,1.87122,-0.708121,1.46576
0.871446,-0.400832,1.77764,0.851987,1.87359,-0.706413,1.46528
0.867954,-0.403064,1.78143,0.855895,1.87596,-0.704635,1.4648
0.864714,-0.405226,1.78526,0.860116,1.8783,-0.702847,1.46435
0.861663,-0.407367,1.78907,0.864619,1.88063,-0.701017,1.46394
0.858631,-0.409566,1.79275,0.869186,1.88296,-0.699111,1.46354
0.855492,-0.411828,1.79625,0.873806,1.88528,-0.697139,1.46315
0.852322,-0.414113,1.79969,0.878602,1.8876,-0.695141,1.46274
0.849201,-0.416327,1.80324,0.883591,1.88989,-0.693171,1.46234
0.846123,-0.418487,1.80693,0.888482,1.89218,-0.691205,1.46198
0.842969,-0.420669,1.8106,0.89337,1.89445,-0.68929,1.46163
0.839673,-0.422893,1.81418,0.898408,1.8967,-0.687381,1.46129
0.836281,-0.425113,1.8177,0.903512,1.89895,-0.685446,1.46094
0.832848,-0.427315,1.82126,0.908456,1.90119,-0.683562,1.46059
0.829383,-0.429547,1.82491,0.913345,1.90342,-0.681773,1.46026
0.82584,-0.431783,1.82856,0.918344,1.90565,-0.680013,1.45997
0.822289,-0.43395,1.83229,0.923261,1.90786,-0.678286,1.45972
0.818719,-0.435974,1.83605,0.928036,1.91005,-0.676583,1.45947
0.815108,-0.437934,1.83977,0.93274,1.91226,-0.674851,1.4592
0.811468,-0.439821,1.84344,0.937563,1.91442,-0.673134,1.45894
0.807935,-0.441662,1.84722,0.942354,1.91659,-0.671424,1.45866
0.804513,-0.443503,1.85108,0.947084,1.91876,-0.669717,1.4584
0.801098,-0.445395,1.85484,0.951696,1.92091,-0.667971,1.45817
0.797672,-0.447359,1.85845,0.956424,1.92306,-0.666206,1.45797
0.794329,-0.449361,1.86199,0.961175,1.92521,-0.664458,1.45781
0.791125,-0.451362,1.86557,0.965879,1.92735,-0.66276,1.45767
0.788041,-0.453338,1.86918,0.970501,1.92949,-0.661078,1.45753
0.785048,-0.455319,1.87279,0.975251,1.93162,-0.65939,1.4574
0.782115,-0.457283,1.87636,0.980084,1.93375,-0.657642,1.45729
0.779239,-0.459218,1.87991,0.984855,1.93588,-0.655885,1.45722
0.776399,-0.461125,1.88348,0.989454,1.93802,-0.654104,1.4572
0.773567,-0.463076,1.88705,0.994143,1.94015,-0.652324,1.45721
0.770743,-0.465039,1.89064,0.998861,1.94227,-0.65052,1.45723
0.767931,-0.46704,1.89429,1.00353,1.94439,-0.648748,1.45724
0.765114,-0.469098,1.89799,1.00803,1.94652,-0.646999,1.45726
0.762263,-0.471176,1.90171,1.01254,1.94865,-0.645272,1.45727
0.759422,-0.473215,1.90548,1.01707,1.95077,-0.643583,1.45728
0.756578,-0.475181,1.90929,1.02155,1.95287,-0.641927,1.45733
0.753706,-0.477144,1.9131,1.02586,1.95498,-0.64024,1.45747
0.750764,-0.47908,1.9169,1.03013,1.9571,-0.638577,1.45776
0.747854,-0.480989,1.92077,1.03441,1.9592,-0.636944,1.45827
0.745046,-0.482898,1.92473,1.03871,1.96131,-0.635346,1.45898
0.742269,-0.484815,1.92867,1.04294,1.96342,-0.633719,1.45993
0.739425,-0.48676,1.93245,1.04698,1.96554,-0.632062,1.46115
0.736514,-0.488714,1.93611,1.05098,1.96766,-0.630356,1.46262
0.733668,-0.490625,1.93972,1.05502,1.96979,-0.628633,1.46431
0.730915,-0.492435,1.94338,1.05912,1.97189,-0.626968,1.46613
0.728212,-0.494166,1.94701,1.06304,1.97401,-0.625349,1.46803
0.725433,-0.495811,1.95053,1.06677,1.97612,-0.623729,1.46996
0.722568,-0.497399,1.95388,1.07045,1.97821,-0.622109,1.47191
0.719672,-0.498863,1.95712,1.0741,1.98031,-0.620504,1.47385
0.716743,-0.500251,1.96029,1.07761,1.98238,-0.618951,1.47578
0.713752,-0.501583,1.96336,1.08076,1.98442,-0.617431,1.47766
0.710666,-0.502836,1.96635,1.08349,1.98643,-0.615966,1.47949
0.707571,-0.503965,1.9693,1.08593,1.98839,-0.614551,1.48118
0.70449,-0.504935,1.97216,1.08827,1.99029,-0.613181,1.48266
0.701384,-0.50581,1.97492,1.09028,1.99217,-0.61182,1.48394
0.698211,-0.506615,1.97751,1.09198,1.99401,-0.61045,1.48501
0.695038,-0.507347,1.98,1.09345,1.99581,-0.609059,1.48585
0.69192,-0.508009,1.98248,1.09479,1.99756,-0.607692,1.48652
0.688824,-0.508621,1.98495,1.09597,1.99929,-0.606347,1.48703
0.685674,-0.509199,1.9874,1.09696,2.00095,-0.605009,1.48748
0.682466,-0.509746,1.98986,1.09779,2.00255,-0.603651,1.48793
0.679216,-0.510272,1.99228,1.09862,2.00407,-0.602284,1.48843
0.67589,-0.510826,1.99465,1.09945,2.00559,-0.600887,1.48905
0.672506,-0.511412,1.997,1.10024,2.00709,-0.599485,1.48989
0.66909,-0.512016,1.9994,1.10111,2.00862,-0.598094,1.49096
0.665666,-0.512649,2.00181,1.10211,2.01019,-0.596732,1.49224
0.66216,-0.513271,2.00417,1.10328,2.01182,-0.59537,1.49368
0.65848,-0.513857,2.00644,1.10449,2.01349,-0.593976,1.49526
0.65459,-0.514408,2.00868,1.1057,2.01518,-0.592586,1.49695
0.650567,-0.514947,2.01104,1.1069,2.0169,-0.591211,1.49867
0.646486,-0.515502,2.0136,1.10811,2.01866,-0.589865,1.50042
0.642312,-0.516137,2.01631,1.10909,2.02042,-0.588553,1.50217
0.637943,-0.516919,2.01897,1.1097,2.02218,-0.587223,1.5039
0.633424,-0.517869,2.02154,1.10993,2.02399,-0.585866,1.50545
0.628968,-0.518905,2.0243,1.10977,2.02584,-0.58455,1.5063
0.624701,-0.519999,2.02719,1.10914,2.02775,-0.583343,1.50606
0.620591,-0.521174,2.03002,1.10797,2.02975,-0.582263,1.5047
0.616599,-0.522457,2.03271,1.10621,2.03183,-0.581265,1.50212
0.612858,-0.523833,2.03541,1.1039,2.03398,-0.580405,1.49837
0.609523,-0.525247,2.03833,1.10117,2.03616,-0.579683,1.49366
0.606631,-0.526709,2.04142,1.09801,2.03837,-0.579114,1.48827
0.604101,-0.528307,2.04454,1.09436,2.04059,-0.578663,1.4825
0.601844,-0.530067,2.04761,1.09031,2.04284,-0.578318,1.47658
0.599836,-0.531973,2.05065,1.08608,2.04511,-0.578081,1.47073
0.598119,-0.533982,2.05379,1.08175,2.04736,-0.578008,1.4651
0.596695,-0.536097,2.05712,1.07733,2.04961,-0.578098,1.4598
0.595482,-0.53836,2.06062,1.07272,2.05184,-0.578287,1.45491
0.594416,-0.540824,2.06427,1.06802,2.05406,-0.578579,1.45046
0.59346,-0.543522,2.06801,1.06339,2.05627,-0.578987,1.4465
0.592607,-0.546436,2.07179,1.0589,2.05846,-0.579588,1.44306
0.591867,-0.549623,2.07569,1.05443,2.06064,-0.580542,1.44012
0.591265,-0.553011,2.07978,1.04988,2.06281,-0.581979,1.43763
0.590809,-0.556482,2.08409,1.04548,2.06493,-0.584017,1.43551
0.590509,-0.560076,2.08855,1.04127,2.06702,-0.586831,1.43372
0.590281,-0.563833,2.09303,1.03729,2.0691,-0.590648,1.43225
0.590221,-0.567739,2.09756,1.03355,2.07115,-0.595606,1.43111
0.590379,-0.57179,2.10226,1.03003,2.07317,-0.601783,1.43032
0.590756,-0.575899,2.10708,1.0268,2.07515,-0.609112,1.42985
0.591388,-0.580131,2.11186,1.024,2.07712,-0.617418,1.42965
0.592241,-0.584589,2.11654,1.02168,2.07909,-0.626447,1.42966
0.593395,-0.589172,2.12122,1.01971,2.08107,-0.635809,1.42975
0.59486,-0.593786,2.12597,1.01805,2.08301,-0.645282,1.42983
0.596645,-0.598437,2.13074,1.01665,2.08494,-0.654354,1.42986
0.598717,-0.603335,2.13547,1.01556,2.0869,-0.663013,1.42984
0.601077,-0.608461,2.14017,1.0147,2.08886,-0.670985,1.42982
0.603726,-0.613589,2.14481,1.01404,2.09081,-0.678244,1.42981
0.60667,-0.618618,2.14946,1.01355,2.09277,-0.684733,1.42981
0.609899,-0.623791,2.15413,1.01316,2.09473,-0.690526,1.4298
0.613405,-0.629115,2.15881,1.01288,2.0967,-0.695718,1.4298
0.617245,-0.634319,2.16349,1.01278,2.09867,-0.70018,1.42979
0.621467,-0.639346,2.16823,1.01286,2.10063,-0.703955,1.42979
0.625967,-0.64453,2.1729,1.01301,2.1026,-0.707127,1.42979
0.630647,-0.649896,2.17741,1.0132,2.10458,-0.709699,1.42979
0.635631,-0.65516,2.18191,1.01351,2.10658,-0.711695,1.42979
0.641073,-0.660234,2.18657,1.01403,2.10856,-0.71326,1.42978
0.646801,-0.66547,2.19119,1.01468,2.11055,-0.714414,1.42976
0.652612,-0.670885,2.1955,1.01529,2.11256,-0.715186,1.42971
0.658762,-0.676157,2.19984,1.01591,2.11457,-0.715682,1.42963
0.665427,-0.68126,2.20444,1.01675,2.11654,-0.716069,1.42951
0.672224,-0.686544,2.2088,1.01768,2.11855,-0.716293,1.42935
0.679065,-0.691978,2.21283,1.01849,2.12057,-0.716395,1.42914
0.686326,-0.697187,2.21703,1.01941,2.12258,-0.71651,1.42888
0.693828,-0.702314,2.22123,1.02055,2.12458,-0.716614,1.4286
0.70142,-0.707633,2.22522,1.02167,2.12661,-0.716749,1.42829
0.709104,-0.712878,2.22905,1.02288,2.12862,-0.716889,1.42791
0.716894,-0.717929,2.23274,1.02414,2.13063,-0.717028,1.42748
0.724925,-0.722993,2.23655,1.02561,2.13266,-0.71731,1.427
0.732955,-0.72806,2.24023,1.02721,2.13464,-0.717587,1.4265
0.740975,-0.733085,2.24368,1.02866,2.13667,-0.717833,1.42596
0.749063,-0.737863,2.24711,1.03033,2.13867,-0.718048,1.42537
0.757131,-0.742643,2.25043,1.03205,2.14065,-0.718243,1.42476
0.765336,-0.747536,2.25378,1.0338,2.14267,-0.718514,1.42414
0.773442,-0.752223,2.25688,1.0357,2.14467,-0.718634,1.4235
0.781617,-0.756745,2.25988,1.03748,2.14668,-0.718714,1.42282
0.789813,-0.761225,2.2629,1.03948,2.14866,-0.718745,1.42214
0.797871,-0.765756,2.2657,1.04133,2.15068,-0.718706,1.42143
0.805977,-0.77024,2.26842,1.04325,2.15271,-0.718643,1.42071
0.813952,-0.774405,2.27102,1.04532,2.1547,-0.718452,1.42001
0.822006,-0.778571,2.27365,1.04726,2.15674,-0.718247,1.4193
0.829938,-0.782737,2.27624,1.04946,2.15874,-0.717864,1.41858
0.837715,-0.786885,2.27863,1.05151,2.16077,-0.717305,1.41789
0.845519,-0.790852,2.28109,1.05364,2.1628,-0.716674,1.41717
0.85314,-0.794588,2.28349,1.05585,2.16478,-0.715887,1.41645
0.86076,-0.798429,2.28589,1.05792,2.16681,-0.715098,1.41573
0.868203,-0.802186,2.28823,1.0602,2.16881,-0.714228,1.41499
0.875528,-0.805865,2.29043,1.06224,2.17084,-0.713312,1.41424
0.882923,-0.809388,2.29275,1.06437,2.17285,-0.712417,1.4135
0.890161,-0.812751,2.29503,1.06653,2.17483,-0.71146,1.41274
0.897338,-0.81615,2.29723,1.06848,2.17686,-0.710595,1.41198
0.904428,-0.81938,2.29946,1.07065,2.17885,-0.70975,1.4112
0.911401,-0.822516,2.30159,1.07267,2.18085,-0.708948,1.41042
0.918358,-0.825653,2.30374,1.07468,2.18287,-0.708236,1.40962
0.925252,-0.828667,2.30593,1.07677,2.18486,-0.707564,1.4088
0.93202,-0.831646,2.30794,1.0786,2.18691,-0.706978,1.40799
0.938718,-0.834491,2.31001,1.0805,2.18894,-0.706476,1.40716
0.945407,-0.837201,2.31216,1.08242,2.19094,-0.706025,1.40633
0.951933,-0.839864,2.31416,1.08421,2.19294,-0.705618,1.40548
0.958436,-0.842468,2.31627,1.08598,2.19493,-0.705365,1.40463
0.964925,-0.845026,2.31841,1.08774,2.19689,-0.705214,1.40379
0.971202,-0.847574,2.32038,1.08937,2.19885,-0.705086,1.40293
0.977461,-0.849975,2.32245,1.09092,2.2008,-0.705033,1.40207
0.983727,-0.852172,2.32459,1.09255,2.20271,-0.705013,1.40118
0.989813,-0.85432,2.32659,1.09412,2.20463,-0.705005,1.4003
0.995887,-0.856382,2.32865,1.09558,2.20653,-0.705035,1.39941
1.00202,-0.85836,2.33081,1.09706,2.20841,-0.705038,1.39852
1.00795,-0.860379,2.33278,1.09844,2.21028,-0.705031,1.39761
1.01379,-0.862377,2.33477,1.09961,2.21215,-0.705105,1.3967
1.01972,-0.864284,2.33696,1.10081,2.21401,-0.705254,1.39579
1.02549,-0.866089,2.33901,1.10201,2.21584,-0.705401,1.39487
1.0311,-0.86779,2.34098,1.10302,2.21769,-0.7056,1.39395
1.03683,-0.869338,2.3432,1.10401,2.21952,-0.705912,1.39304
1.04252,-0.870816,2.34538,1.10509,2.22132,-0.706246,1.39213
1.04799,-0.872247,2.34733,1.10598,2.22312,-0.706588,1.39122
1.05351,-0.873582,2.34943,1.10676,2.22492,-0.707122,1.39032
1.05915,-0.874878,2.35166,1.10761,2.22669,-0.707859,1.38942
1.06457,-0.876136,2.35364,1.10839,2.22844,-0.708584,1.38852
1.06988,-0.877316,2.35558,1.1089,2.2302,-0.709327,1.38762
1.07536,-0.878398,2.35778,1.10939,2.23195,-0.710223,1.38673
1.08079,-0.879384,2.3599,1.11001,2.23367,-0.711142,1.38583
1.08597,-0.880296,2.36175,1.11041,2.2354,-0.712089,1.38495
1.09118,-0.881091,2.36373,1.11065,2.23711,-0.713079,1.3841
1.09653,-0.881801,2.36583,1.11097,2.23882,-0.713949,1.38324
1.10168,-0.882456,2.36767,1.11121,2.24052,-0.714655,1.38239
1.10666,-0.883051,2.36938,1.11115,2.24221,-0.715389,1.38149
1.11175,-0.883595,2.37131,1.11105,2.2439,-0.71635,1.38061
1.11688,-0.88405,2.37327,1.11112,2.24557,-0.717569,1.3797
1.1218,-0.884402,2.37498,1.11103,2.24721,-0.719091,1.37879
1.12665,-0.884641,2.37665,1.11081,2.24884,-0.72094,1.37785
1.13166,-0.884779,2.37851,1.11069,2.25047,-0.723113,1.37693
1.13667,-0.884853,2.38026,1.1107,2.25206,-0.725434,1.37601
1.14143,-0.884913,2.3817,1.11054,2.25365,-0.727763,1.37509
1.14612,-0.88497,2.38314,1.11021,2.25522,-0.730162,1.37417
1.15096,-0.884983,2.38479,1.10996,2.2568,-0.7326,1.37326
1.15576,-0.884955,2.38633,1.10979,2.25833,-0.734983,1.37235
1.16034,-0.884884,2.38763,1.10946,2.25985,-0.737347,1.37143
1.16487,-0.884772,2.389,1.10905,2.26134,-0.739797,1.37049
1.16952,-0.884611,2.39057,1.10882,2.26284,-0.742348,1.36953
1.17413,-0.884388,2.39209,1.10874,2.26431,-0.744984,1.36855
1.1785,-0.884202,2.39345,1.10857,2.2658,-0.747744,1.36757
1.18276,-0.884078,2.39482,1.10841,2.26729,-0.750603,1.36659
1.18708,-0.883979,2.39636,1.10837,2.26879,-0.753522,1.36561
1.19138,-0.883874,2.39792,1.10845,2.2703,-0.756395,1.36466
1.19555,-0.88377,2.3993,1.10855,2.27181,-0.759164,1.36371
1.1996,-0.883682,2.4006,1.10853,2.27333,-0.761833,1.36278
1.20363,-0.883579,2.40195,1.1085,2.27486,-0.764421,1.36184
1.20772,-0.883411,2.40331,1.10858,2.2764,-0.766876,1.36094
1.21175,-0.883199,2.40452,1.10866,2.27793,-0.769146,1.36004
1.21565,-0.882976,2.40553,1.10859,2.27944,-0.771277,1.35917
1.21943,-0.882724,2.40639,1.10843,2.28096,-0.773288,1.35831
1.2232,-0.882376,2.40722,1.10828,2.28246,-0.775133,1.35747
1.22694,-0.881931,2.408,1.10814,2.28392,-0.77688,1.35667
1.23055,-0.881454,2.40861,1.10797,2.28536,-0.778497,1.35588
1.23401,-0.880966,2.4091,1.10768,2.28676,-0.780008,1.35515
1.23733,-0.880445,2.40951,1.10732,2.28815,-0.78145,1.35445
1.24053,-0.879933,2.40989,1.10701,2.28951,-0.78284,1.35381
1.24364,-0.879424,2.4103,1.10677,2.29087,-0.784208,1.35321
1.24664,-0.878908,2.41074,1.10656,2.2922,-0.78558,1.35266
1.24951,-0.878394,2.41115,1.10639,2.29354,-0.786966,1.35213
1.25226,-0.877876,2.41151,1.10633,2.2949,-0.788321,1.35165
1.2549,-0.877357,2.41185,1.10635,2.29625,-0.789704,1.35118
1.25742,-0.876872,2.41218,1.10644,2.29761,-0.791094,1.35072
1.25985,-0.87638,2.41252,1.1066,2.29897,-0.792508,1.35028
1.26219,-0.875887,2.41285,1.10687,2.30035,-0.793922,1.34988
1.26442,-0.875422,2.41315,1.1072,2.30174,-0.795352,1.34947
1.26653,-0.87498,2.41339,1.10761,2.30313,-0.796779,1.34906
1.2685,-0.874535,2.4136,1.10811,2.30453,-0.79819,1.34863
1.27034,-0.874078,2.41377,1.10868,2.30594,-0.799618,1.34821
1.27203,-0.873608,2.41392,1.10931,2.30737,-0.801031,1.34779
1.27354,-0.873139,2.41402,1.11,2.30878,-0.802452,1.34734
1.27488,-0.872676,2.41411,1.11077,2.31021,-0.803858,1.34686
1.27603,-0.872196,2.41417,1.11154,2.31163,-0.805259,1.34637
1.27702,-0.871689,2.41421,1.11237,2.31308,-0.806661,1.34587
1.27782,-0.871156,2.4142,1.11324,2.31451,-0.808051,1.34538
1.27842,-0.8706,2.41416,1.11413,2.31594,-0.809434,1.34485
1.27883,-0.870036,2.41405,1.11502,2.31735,-0.810816,1.34431
1.27906,-0.86944,2.41387,1.11591,2.31875,-0.812189,1.34381
1.27913,-0.868821,2.41361,1.11676,2.32013,-0.813572,1.34331
1.27906,-0.868159,2.4132,1.11757,2.32148,-0.814951,1.34279
1.27886,-0.867424,2.41264,1.11832,2.32279,-0.81636,1.3423
1.27856,-0.866603,2.41192,1.11908,2.32404,-0.817773,1.34186
1.27814,-0.865722,2.41106,1.11973,2.32523,-0.819231,1.34144
1.27759,-0.864755,2.41005,1.1204,2.3263,-0.820707,1.34102
1.27688,-0.86372,2.4089,1.12104,2.32722,-0.822241,1.34063
1.27601,-0.862626,2.40763,1.1217,2.32799,-0.823803,1.34026
1.27494,-0.861504,2.40621,1.12241,2.32859,-0.825391,1.33995
1.27367,-0.860351,2.40466,1.12315,2.329,-0.827018,1.33967
1.27219,-0.859167,2.403,1.12398,2.32924,-0.828646,1.33939
1.2705,-0.857998,2.40121,1.12485,2.32927,-0.830308,1.33914
1.26858,-0.856839,2.39926,1.12578,2.32913,-0.831905,1.33893
1.26643,-0.855666,2.39717,1.12678,2.32882,-0.833483,1.33878
1.2641,-0.854474,2.39497,1.12784,2.32833,-0.834997,1.33868
1.26158,-0.853219,2.39267,1.12902,2.32771,-0.836496,1.33866
1.25889,-0.851951,2.39028,1.13025,2.32703,-0.837953,1.33865
1.25606,-0.850664,2.3878,1.13158,2.32633,-0.839398,1.33865
1.2531,-0.849408,2.38526,1.13297,2.32566,-0.84081,1.33865
1.25,-0.848195,2.38262,1.13447,2.32502,-0.842219,1.33865
1.24671,-0.846998,2.37987,1.136,2.32438,-0.843599,1.33865
1.24326,-0.845862,2.37706,1.13756,2.32373,-0.844967,1.33865
1.23968,-0.844745,2.37427,1.1392,2.32305,-0.846332,1.33865
1.23606,-0.843633,2.37155,1.14097,2.32235,-0.847728,1.33866
1.23237,-0.842533,2.36887,1.14279,2.32164,-0.849108,1.33866
1.22856,-0.841463,2.36614,1.14468,2.32092,-0.8505,1.33866
1.22461,-0.840437,2.36336,1.14658,2.3202,-0.851868,1.33866
1.22056,-0.839481,2.3606,1.14852,2.31949,-0.853268,1.33867
1.21649,-0.838597,2.35798,1.15054,2.31879,-0.854662,1.33867
1.21238,-0.837796,2.35539,1.15266,2.31811,-0.85608,1.33867
1.20814,-0.837085,2.35276,1.15479,2.31746,-0.857481,1.33867
1.20376,-0.836436,2.35007,1.15683,2.31683,-0.858876,1.33866
1.19933,-0.835847,2.34748,1.15885,2.31621,-0.860303,1.33866
1.19495,-0.8353,2.34504,1.16098,2.31559,-0.861769,1.33866
1.19055,-0.834793,2.3426,1.16313,2.315,-0.863245,1.33866
1.18598,-0.834362,2.34009,1.16521,2.31442,-0.86471,1.33866
1.18127,-0.834009,2.33754,1.16721,2.31384,-0.866163,1.33866
1.17663,-0.833727,2.33513,1.16928,2.31327,-0.867651,1.33866
1.17208,-0.833492,2.33287,1.17147,2.31269,-0.869136,1.33867
1.16744,-0.833344,2.33052,1.17362,2.31212,-0.870612,1.33867
1.16266,-0.833284,2.32804,1.17561,2.31156,-0.872047,1.33868
1.15795,-0.833271,2.3257,1.17756,2.311,-0.873538,1.33869
1.15337,-0.833278,2.32352,1.17966,2.3104,-0.875036,1.33869
1.14872,-0.833323,2.32128,1.18176,2.30979,-0.876539,1.33869
1.14387,-0.833446,2.31886,1.18361,2.30918,-0.878004,1.3387
1.13902,-0.833624,2.3165,1.18544,2.30859,-0.879516,1.3387
1.13435,-0.833811,2.31432,1.18738,2.30798,-0.881067,1.3387
1.12968,-0.834004,2.31208,1.18937,2.30736,-0.882594,1.33871
1.1248,-0.834276,2.3096,1.19114,2.30674,-0.884086,1.33871
1.11993,-0.834606,2.30717,1.19277,2.30611,-0.885622,1.33874
1.11523,-0.834931,2.30494,1.19454,2.30549,-0.887212,1.3388
1.11055,-0.835281,2.30268,1.19636,2.30484,-0.888756,1.33891
1.10564,-0.835701,2.30018,1.19797,2.30416,-0.890286,1.3391
1.10066,-0.836179,2.29766,1.1994,2.30344,-0.89181,1.33937
1.09586,-0.836637,2.29534,1.20091,2.30269,-0.893396,1.33975
1.09115,-0.837077,2.29301,1.20253,2.30191,-0.894961,1.34025
1.08626,-0.837581,2.29042,1.20399,2.30109,-0.896503,1.34085
1.0813,-0.838155,2.28777,1.20527,2.30026,-0.89805,1.3415
1.07653,-0.838712,2.28534,1.20657,2.2994,-0.89965,1.34223
1.07183,-0.839233,2.28293,1.20798,2.29849,-0.901255,1.34304
1.06695,-0.839796,2.28026,1.20923,2.29753,-0.902804,1.34389
1.06196,-0.840415,2.27747,1.21024,2.29652,-0.90435,1.34484
1.05714,-0.841006,2.27485,1.21127,2.29546,-0.905929,1.34587
1.05246,-0.841509,2.27227,1.21238,2.29434,-0.907534,1.347
1.04763,-0.841993,2.26941,1.21335,2.29319,-0.909064,1.34821
1.04269,-0.842515,2.26642,1.21401,2.29203,-0.910627,1.34949
1.03788,-0.843,2.26359,1.21466,2.29078,-0.912212,1.35083
1.0332,-0.843403,2.26078,1.21538,2.28947,-0.913805,1.35221
1.02835,-0.843794,2.25771,1.21594,2.28809,-0.915332,1.35363
1.02335,-0.844221,2.25445,1.2162,2.28668,-0.916876,1.35505
1.01848,-0.844618,2.25137,1.21636,2.28521,-0.918481,1.35645
1.01379,-0.84491,2.24839,1.21657,2.28367,-0.920116,1.3578
1.00897,-0.845154,2.24517,1.21663,2.2821,-0.921685,1.35908
1.004,-0.845411,2.24177,1.21643,2.28053,-0.923257,1.36028
0.999136,-0.845615,2.23852,1.21618,2.27896,-0.924891,1.3614
0.994436,-0.84572,2.23532,1.21603,2.27736,-0.926504,1.36243
0.989638,-0.845818,2.23189,1.21578,2.27576,-0.928059,1.36335
0.984721,-0.84597,2.22833,1.21526,2.27417,-0.929628,1.36418
0.979921,-0.846121,2.22496,1.21468,2.2726,-0.931245,1.36493
0.975254,-0.846192,2.22167,1.21426,2.27101,-0.932867,1.36558
0.970445,-0.846242,2.21817,1.21379,2.26943,-0.934415,1.36616
0.965453,-0.846335,2.21452,1.21307,2.26789,-0.935965,1.36664
0.960562,-0.846411,2.21109,1.21226,2.26638,-0.937573,1.367
0.955869,-0.846395,2.20782,1.21155,2.26485,-0.939207,1.36729
0.951096,-0.846372,2.20436,1.2108,2.26334,-0.94078,1.36754
0.946137,-0.84639,2.20066,1.20981,2.26187,-0.942332,1.36778
0.941241,-0.846374,2.19704,1.20874,2.26042,-0.943928,1.36799
0.936539,-0.846282,2.19356,1.20779,2.25896,-0.945508,1.36817
0.931836,-0.84615,2.18994,1.20678,2.2575,-0.947067,1.36836
0.926976,-0.846049,2.18613,1.20554,2.25605,-0.948591,1.36857
0.922147,-0.845931,2.18237,1.20419,2.25461,-0.950167,1.36879
0.917463,-0.845715,2.17872,1.20298,2.25316,-0.951726,1.36904
0.912739,-0.845454,2.17492,1.20174,2.25169,-0.953276,1.36933
0.907855,-0.845228,2.17092,1.20029,2.25022,-0.954781,1.36967
0.903022,-0.845007,2.16705,1.1987,2.24875,-0.956374,1.37007
0.898355,-0.844688,2.16332,1.19723,2.24727,-0.957991,1.3705
0.893659,-0.844318,2.15944,1.1958,2.24577,-0.959597,1.37094
0.888767,-0.844003,2.15529,1.19423,2.24426,-0.961139,1.3714
0.883897,-0.843718,2.15121,1.19253,2.24276,-0.962732,1.37189
0.879245,-0.843368,2.1474,1.19091,2.24125,-0.964409,1.37239
0.874629,-0.842961,2.14352,1.18945,2.23972,-0.966044,1.37286
0.86981,-0.842644,2.13937,1.18789,2.23819,-0.967644,1.37332
0.864918,-0.842412,2.13521,1.18624,2.23665,-0.96924,1.37376
0.860204,-0.84214,2.13134,1.18467,2.23513,-0.970908,1.37417
0.855612,-0.841781,2.12758,1.18324,2.23356,-0.97259,1.37454
0.850857,-0.841459,2.12363,1.18172,2.23198,-0.974226,1.37485
0.845988,-0.841259,2.11958,1.18013,2.23042,-0.975869,1.37516
0.841251,-0.841079,2.1157,1.17865,2.22887,-0.977568,1.37544
0.836686,-0.840853,2.11197,1.17729,2.2273,-0.979301,1.3757
0.832054,-0.840663,2.10814,1.17586,2.22572,-0.981,1.37592
0.827296,-0.840593,2.10423,1.17432,2.22416,-0.982699,1.37611
0.822622,-0.840556,2.10045,1.17285,2.22261,-0.984447,1.37629
0.81808,-0.84049,2.09678,1.17158,2.22104,-0.986174,1.37646
0.81349,-0.840481,2.09305,1.17031,2.21946,-0.987903,1.37661
0.808804,-0.840566,2.08929,1.16889,2.21789,-0.989639,1.37677
0.804183,-0.840688,2.08567,1.1675,2.21633,-0.991401,1.37694
0.799698,-0.840785,2.08218,1.16633,2.21473,-0.993188,1.37715
0.795185,-0.840946,2.07859,1.16524,2.21313,-0.994907,1.37739
0.790543,-0.841256,2.07489,1.16404,2.21152,-0.996666,1.37765
0.785951,-0.841663,2.07137,1.16277,2.20993,-0.998461,1.3779
0.781537,-0.842074,2.06807,1.16171,2.2083,-1.00026,1.37815
0.777168,-0.842517,2.06477,1.16081,2.20664,-1.00206,1.37841
0.772651,-0.84309,2.06133,1.15985,2.20498,-1.00382,1.37869
0.768076,-0.843772,2.05793,1.15883,2.20333,-1.00559,1.37899
0.76366,-0.844449,2.05477,1.15787,2.20163,-1.00741,1.37934
0.759416,-0.845127,2.05177,1.15707,2.1999,-1.0092,1.37974
0.755113,-0.845899,2.04866,1.1563,2.19817,-1.01096,1.38016
0.750695,-0.846823,2.04547,1.15539,2.19642,-1.01274,1.38059
0.746323,-0.847788,2.04241,1.15451,2.19464,-1.01452,1.38106
0.742112,-0.848718,2.0395,1.15373,2.19283,-1.01631,1.38158
0.737964,-0.849708,2.03658,1.15298,2.191,-1.0181,1.38214
0.733739,-0.850803,2.03353,1.15204,2.18914,-1.01988,1.38268
0.72951,-0.851952,2.03047,1.151,2.18726,-1.02169,1.38325
0.72541,-0.853042,2.02751,1.14999,2.18536,-1.0235,1.38385
0.721452,-0.85412,2.02461,1.14903,2.18341,-1.02531,1.38447
0.717477,-0.855252,2.02154,1.14795,2.18145,-1.02712,1.38508
0.713428,-0.856462,2.01828,1.14667,2.17947,-1.02888,1.38571
0.709448,-0.857668,2.01502,1.14528,2.17748,-1.03068,1.38635
0.705647,-0.85882,2.01188,1.1439,2.17545,-1.03249,1.38697
0.70194,-0.859937,2.00871,1.1425,2.17341,-1.0343,1.3876
0.698191,-0.861088,2.00535,1.14097,2.17135,-1.03613,1.38825
0.69438,-0.862268,2.00182,1.13928,2.16928,-1.03791,1.38888
0.690614,-0.863429,1.99825,1.13748,2.16719,-1.0397,1.38954
0.686991,-0.864523,1.99477,1.13561,2.16509,-1.04153,1.39023
0.683483,-0.865581,1.99129,1.13369,2.16297,-1.04338,1.39093
0.67997,-0.866611,1.98767,1.13165,2.16082,-1.04522,1.39166
0.676409,-0.867612,1.98388,1.12949,2.15867,-1.04705,1.39242
0.672873,-0.868551,1.98,1.12732,2.1565,-1.04885,1.39321
0.669434,-0.869422,1.97617,1.12505,2.1543,-1.05072,1.39403
0.66612,-0.870251,1.97239,1.12271,2.15209,-1.05261,1.39486
0.66283,-0.871065,1.9685,1.12033,2.14985,-1.05448,1.3957
0.659523,-0.871868,1.96444,1.11785,2.14761,-1.05639,1.39654
0.656194,-0.872652,1.96025,1.11528,2.14536,-1.05827,1.39739
0.652904,-0.873414,1.95606,1.1126,2.14309,-1.06017,1.39824
0.649706,-0.874137,1.95197,1.10983,2.14082,-1.06213,1.39908
0.646573,-0.874837,1.94787,1.10711,2.13852,-1.0641,1.39993
0.643466,-0.875551,1.94365,1.10437,2.13623,-1.06602,1.40076
0.640355,-0.876256,1.9393,1.10159,2.13395,-1.06794,1.4016
0.637276,-0.876937,1.93495,1.09869,2.13167,-1.06987,1.4024
0.634284,-0.877585,1.9307,1.0957,2.12939,-1.07178,1.40317
0.631327,-0.878181,1.92646,1.0927,2.1271,-1.07373,1.40394
0.628396,-0.878803,1.92217,1.08969,2.12483,-1.07566,1.40467
0.625489,-0.879459,1.91786,1.08672,2.12256,-1.0776,1.40541
0.622682,-0.880105,1.91359,1.08364,2.1203,-1.07956,1.40613
0.619928,-0.880702,1.90933,1.0806,2.11804,-1.08152,1.40682
0.617182,-0.881293,1.90499,1.07748,2.1158,-1.08343,1.40752
0.614431,-0.88194,1.90063,1.07431,2.11356,-1.08537,1.40821
0.611701,-0.882601,1.89634,1.07105,2.11133,-1.08732,1.40889
0.609046,-0.883245,1.89216,1.06784,2.10912,-1.08926,1.4096
0.606445,-0.88386,1.88799,1.06464,2.1069,-1.09123,1.41029
0.603878,-0.884498,1.88376,1.06146,2.10469,-1.09317,1.411
0.601314,-0.885169,1.87945,1.05829,2.10251,-1.09508,1.41172
0.598789,-0.885836,1.8752,1.05496,2.10033,-1.09705,1.41246
0.596319,-0.886491,1.87106,1.0516,2.09815,-1.09902,1.41322
0.593859,-0.887145,1.86692,1.04831,2.09599,-1.10099,1.41399
0.5914,-0.887861,1.86275,1.04509,2.09382,-1.10296,1.41477
0.588961,-0.888614,1.8586,1.04185,2.09165,-1.10496,1.41557
0.586589,-0.889352,1.85454,1.03856,2.08949,-1.10695,1.41637
0.584283,-0.890059,1.85052,1.03523,2.08733,-1.10891,1.4172
0.581988,-0.890795,1.84646,1.03187,2.08515,-1.11093,1.41804
0.579673,-0.891608,1.84233,1.02858,2.083,-1.11288,1.41888
0.57738,-0.892474,1.83824,1.0253,2.08084,-1.11485,1.41974
0.575126,-0.893338,1.83426,1.02198,2.07867,-1.11691,1.42061
0.572876,-0.89419,1.8303,1.01866,2.07651,-1.11893,1.42152
0.570633,-0.89509,1.82634,1.01528,2.07435,-1.12095,1.42241
0.568394,-0.89603,1.82234,1.01188,2.07218,-1.12299,1.42331
0.566211,-0.897009,1.81837,1.0085,2.07002,-1.12502,1.42422
0.564122,-0.898002,1.81446,1.00517,2.06786,-1.12705,1.42514
0.562072,-0.899,1.81053,1.00186,2.0657,-1.12906,1.42605
0.560005,-0.900071,1.80656,0.998512,2.06352,-1.13108,1.42696
0.557904,-0.901188,1.8026,0.99511,2.06136,-1.1331,1.42789
0.555787,-0.902337,1.7987,0.991633,2.05921,-1.13513,1.42881
0.553694,-0.903488,1.79485,0.988216,2.05702,-1.13722,1.42973
0.551639,-0.90464,1.79104,0.984871,2.05485,-1.13929,1.43065
0.549606,-0.905803,1.78722,0.981561,2.05267,-1.14136,1.43158
0.547578,-0.906981,1.78334,0.978186,2.05048,-1.14345,1.43252
0.545608,-0.908166,1.77953,0.974718,2.04828,-1.1455,1.43346
0.543697,-0.909351,1.77575,0.971238,2.04611,-1.14758,1.43439
0.541801,-0.910593,1.77194,0.96785,2.0439,-1.14966,1.43534
0.539888,-0.911913,1.76812,0.964456,2.0417,-1.15169,1.43626
0.53792,-0.913277,1.76427,0.961062,2.03951,-1.15379,1.4372
0.535932,-0.914646,1.76045,0.957515,2.03732,-1.1559,1.43812
0.533967,-0.915997,1.75669,0.95389,2.03512,-1.158,1.43905
0.53205,-0.917352,1.75294,0.950319,2.03291,-1.16012,1.43997
0.530194,-0.918772,1.74918,0.946834,2.0307,-1.16223,1.44092
0.528355,-0.920241,1.74533,0.943355,2.02848,-1.16435,1.44184
0.526553,-0.921773,1.74148,0.939791,2.02626,-1.16642,1.44277
0.524806,-0.923319,1.73767,0.936117,2.02404,-1.16849,1.4437
0.523075,-0.924841,1.73386,0.93241,2.02182,-1.1706,1.44464
0.521348,-0.926397,1.73005,0.928779,2.01958,-1.17268,1.44559
0.519598,-0.927947,1.72621,0.925181,2.01733,-1.17474,1.44654
0.517809,-0.929491,1.72239,0.921533,2.01508,-1.17685,1.4475
0.516007,-0.931004,1.71862,0.917725,2.01284,-1.17898,1.44847
0.514198,-0.932506,1.71489,0.913859,2.01059,-1.18113,1.44945
0.512429,-0.934072,1.71115,0.910024,2.00834,-1.18327,1.45043
0.510716,-0.935711,1.70733,0.906277,2.00607,-1.18537,1.45143
0.509056,-0.937423,1.70346,0.902505,2.00381,-1.1875,1.45244
0.507461,-0.939175,1.69962,0.898652,2.00156,-1.18959,1.45346
0.505909,-0.940925,1.69581,0.894737,1.99929,-1.19166,1.45448
0.504349,-0.942688,1.69198,0.890832,1.99703,-1.19377,1.45551
0.502784,-0.944494,1.68813,0.886988,1.99477,-1.19586,1.45654
0.501197,-0.94632,1.68429,0.883133,1.99248,-1.19793,1.45757
0.499604,-0.948105,1.68052,0.879111,1.9902,-1.20005,1.4586
0.49799,-0.949832,1.6768,0.874982,1.98791,-1.20217,1.45963
0.496361,-0.95155,1.6731,0.870845,1.98562,-1.2043,1.46068
0.494783,-0.953358,1.66938,0.866786,1.98333,-1.20641,1.4617
0.493252,-0.955238,1.6656,0.862778,1.98102,-1.20847,1.46273
0.491784,-0.957161,1.66184,0.858623,1.97874,-1.21055,1.46375
0.490356,-0.959107,1.65813,0.854372,1.97646,-1.21265,1.46478
0.488956,-0.961082,1.65439,0.850189,1.97417,-1.21469,1.46578
0.487627,-0.963122,1.65065,0.846071,1.9719,-1.21673,1.46678
0.486302,-0.965162,1.64689,0.841952,1.96961,-1.21879,1.46778
0.484969,-0.967178,1.64318,0.837675,1.96733,-1.22084,1.46877
0.483582,-0.969139,1.63954,0.833356,1.96505,-1.22289,1.46975
0.482161,-0.971074,1.6359,0.829089,1.96276,-1.22495,1.47073
0.480755,-0.973064,1.63228,0.824934,1.96049,-1.22704,1.47172
0.479332,-0.975119,1.62861,0.820778,1.95821,-1.22908,1.47271
0.477888,-0.977213,1.62496,0.816441,1.95594,-1.23112,1.47368
0.476437,-0.979324,1.62133,0.812069,1.95369,-1.2332,1.47466
0.475064,-0.981481,1.61769,0.807796,1.95145,-1.23525,1.47562
0.473791,-0.983686,1.61405,0.803624,1.94919,-1.23729,1.47659
0.47257,-0.985875,1.61042,0.799388,1.94695,-1.23932,1.47754
0.471319,-0.988024,1.60682,0.795045,1.94471,-1.24137,1.4785
0.470044,-0.990154,1.60325,0.790687,1.94247,-1.24342,1.47944
0.468803,-0.992337,1.59969,0.78643,1.94024,-1.24544,1.4804
0.467581,-0.994564,1.59613,0.782262,1.93801,-1.2475,1.48134
0.466337,-0.996802,1.59258,0.777956,1.93579,-1.24956,1.48227
0.465026,-0.99905,1.58904,0.773586,1.93358,-1.25158,1.4832
0.463729,-1.00134,1.58549,0.769237,1.93136,-1.25363,1.48413
0.462503,-1.00363,1.58197,0.764985,1.92916,-1.25567,1.48505
0.46134,-1.00592,1.57846,0.760703,1.92697,-1.25772,1.48598
0.460156,-1.00816,1.57502,0.756306,1.92476,-1.25975,1.48689
0.458919,-1.01041,1.57161,0.75192,1.92256,-1.26178,1.48781
0.457676,-1.01274,1.56815,0.74758,1.92038,-1.26385,1.48873
0.456461,-1.01517,1.56469,0.743309,1.91819,-1.26589,1.48964
0.455266,-1.0176,1.56128,0.738964,1.91602,-1.2679,1.49056
0.454047,-1.02003,1.55789,0.734578,1.91387,-1.27,1.49148
0.452852,-1.02249,1.55451,0.730266,1.91171,-1.27207,1.49239
0.451732,-1.02495,1.55113,0.726052,1.90954,-1.27409,1.49329
0.450668,-1.02736,1.54777,0.721796,1.90738,-1.27615,1.49418
0.449595,-1.02971,1.5445,0.717419,1.90521,-1.27824,1.49505
0.448489,-1.03207,1.54124,0.713095,1.90305,-1.28032,1.49592
0.4474,-1.03452,1.53796,0.70883,1.90089,-1.28238,1.49677
0.446331,-1.03707,1.53471,0.704647,1.89872,-1.28451,1.49762
0.445237,-1.03967,1.53145,0.700341,1.89658,-1.2866,1.49846
0.444073,-1.04229,1.52819,0.695968,1.89443,-1.28865,1.49929
0.442924,-1.04488,1.52498,0.691614,1.89228,-1.29073,1.50014
0.44186,-1.04741,1.52182,0.687384,1.89014,-1.29283,1.50096
0.440828,-1.04991,1.51871,0.683151,1.88798,-1.29492,1.50178
0.439755,-1.05243,1.51563,0.678826,1.88583,-1.29702,1.50261
0.438606,-1.05498,1.51256,0.674507,1.88369,-1.2991,1.50343
0.437487,-1.0576,1.50948,0.670228,1.88156,-1.30122,1.50426
0.436427,-1.06033,1.50645,0.66604,1.87942,-1.30335,1.50507
0.435392,-1.06309,1.50341,0.661807,1.87731,-1.3054,1.50588
0.434333,-1.0658,1.50042,0.657466,1.87517,-1.3075,1.5067
0.433301,-1.0684,1.49752,0.653168,1.87303,-1.30962,1.50753
0.432351,-1.07101,1.49468,0.648963,1.87089,-1.31168,1.50835
0.431421,-1.07369,1.49181,0.644811,1.86873,-1.31379,1.50918
0.430469,-1.07642,1.48898,0.640538,1.86663,-1.31591,1.51002
0.429482,-1.0792,1.4862,0.636229,1.8645,-1.31803,1.51087
0.428521,-1.08203,1.48342,0.631999,1.86238,-1.32016,1.51172
0.427618,-1.08489,1.4807,0.62786,1.86027,-1.32225,1.51257
0.426745,-1.08768,1.47803,0.623668,1.85814,-1.32437,1.51344
0.425829,-1.0904,1.47548,0.619381,1.85602,-1.32652,1.51429
0.424858,-1.09311,1.47295,0.615125,1.85391,-1.32859,1.51514
0.423915,-1.0959,1.47044,0.610914,1.85179,-1.33072,1.51601
0.423019,-1.0988,1.468,0.606791,1.8497,-1.33288,1.51685
0.422121,-1.10175,1.46554,0.602583,1.84761,-1.33496,1.51771
0.421177,-1.1047,1.46312,0.598275,1.84552,-1.33707,1.51855
0.420259,-1.10758,1.46078,0.59407,1.84343,-1.33917,1.5194
0.419415,-1.11045,1.45852,0.589925,1.84132,-1.34129,1.52023
0.418596,-1.11333,1.45628,0.585834,1.83921,-1.34344,1.52104
0.417751,-1.11623,1.45409,0.581665,1.83713,-1.34552,1.52185
0.416869,-1.11918,1.45194,0.577424,1.83502,-1.34761,1.52264
0.416036,-1.12218,1.44983,0.573286,1.83295,-1.34974,1.52342
0.415273,-1.12521,1.44775,0.569241,1.83087,-1.35179,1.52418
0.414541,-1.1282,1.44573,0.565158,1.82876,-1.35385,1.52492
0.413776,-1.13115,1.44382,0.561018,1.82672,-1.35597,1.52565
0.412958,-1.1341,1.44194,0.556897,1.82465,-1.35806,1.52636
0.412188,-1.1371,1.44012,0.552877,1.82258,-1.36017,1.52707
0.411485,-1.14018,1.43839,0.548953,1.82056,-1.36225,1.52778
0.410789,-1.14329,1.43669,0.544956,1.8185,-1.36431,1.52845
0.410084,-1.14637,1.43512,0.540888,1.81647,-1.36638,1.52913
0.409371,-1.14939,1.43363,0.536886,1.81444,-1.36839,1.5298
0.408684,-1.15248,1.43224,0.532976,1.81239,-1.37045,1.53046
0.408009,-1.1556,1.43092,0.529152,1.81036,-1.37255,1.53112
0.407315,-1.15875,1.42967,0.52523,1.80833,-1.37461,1.53175
0.406585,-1.16191,1.42851,0.521243,1.80631,-1.37667,1.53237
0.405873,-1.16504,1.42741,0.517334,1.80429,-1.37871,1.53298
0.405253,-1.16818,1.4264,0.513492,1.80226,-1.3808,1.53355
0.40464,-1.17135,1.42548,0.509769,1.80026,-1.38288,1.53409
0.403988,-1.17454,1.42461,0.505949,1.79827,-1.38492,1.53463
0.403306,-1.17774,1.42381,0.502072,1.79628,-1.38701,1.53515
0.402645,-1.18095,1.42313,0.498279,1.79433,-1.38907,1.53561
0.402064,-1.18419,1.42252,0.494593,1.79233,-1.39108,1.53604
0.401537,-1.1874,1.42204,0.490963,1.79036,-1.39312,1.53645
0.40099,-1.19061,1.42169,0.487301,1.78843,-1.3952,1.53685
0.400373,-1.19385,1.42142,0.483599,1.78649,-1.39724,1.53722
0.399715,-1.1971,1.42127,0.479955,1.78458,-1.39926,1.53754
0.399108,-1.20041,1.4212,0.47645,1.78267,-1.4013,1.53785
0.398565,-1.20373,1.42122,0.473009,1.78077,-1.40334,1.53816
0.39802,-1.207,1.42129,0.469607,1.77886,-1.40531,1.53848
0.397466,-1.21027,1.42137,0.46617,1.77698,-1.40729,1.53881
0.396878,-1.21355,1.42144,0.462802,1.77513,-1.40932,1.53912
0.396276,-1.21683,1.42146,0.459533,1.77326,-1.4113,1.5394
0.395701,-1.22014,1.42146,0.456353,1.7714,-1.41326,1.53964
0.395166,-1.22342,1.42145,0.453205,1.76956,-1.41521,1.53989
0.394665,-1.22666,1.42144,0.45004,1.7677,-1.41718,1.54017
0.394184,-1.2299,1.42146,0.446874,1.76585,-1.41911,1.54045
0.39367,-1.23314,1.42144,0.443759,1.76403,-1.42104,1.54075
0.393161,-1.23637,1.42144,0.440657,1.76221,-1.42303,1.54105
0.392667,-1.23962,1.42142,0.437653,1.76039,-1.42491,1.54132
0.392211,-1.24288,1.42139,0.43458,1.75858,-1.42675,1.54158
0.391772,-1.24612,1.42136,0.431532,1.75678,-1.42865,1.54182
0.391363,-1.24936,1.42133,0.428453,1.75498,-1.4305,1.54207
0.390962,-1.25261,1.42129,0.425417,1.75319,-1.43234,1.54235
0.390556,-1.25583,1.42126,0.42236,1.75143,-1.43418,1.54263
0.390165,-1.25908,1.42122,0.41936,1.74964,-1.43601,1.5429
0.38981,-1.26233,1.42116,0.416344,1.74786,-1.43775,1.54316
0.38948,-1.26557,1.42109,0.413332,1.74609,-1.43955,1.5434
0.389185,-1.2688,1.42102,0.410314,1.74434,-1.44128,1.54361
0.388885,-1.27203,1.42094,0.407307,1.7426,-1.44301,1.54382
0.388569,-1.27524,1.42085,0.404261,1.74087,-1.44469,1.54403
0.388267,-1.27845,1.42076,0.401285,1.73916,-1.44636,1.54425
0.388012,-1.28164,1.42065,0.398325,1.73746,-1.44797,1.54449
0.387797,-1.28481,1.42054,0.395351,1.73577,-1.44954,1.54472
0.387587,-1.28798,1.42041,0.392401,1.73409,-1.4511,1.54493
0.387385,-1.29117,1.42029,0.389421,1.73245,-1.45266,1.54512
0.387184,-1.29433,1.42016,0.386448,1.73081,-1.45416,1.54532
0.387005,-1.2975,1.42004,0.383471,1.72919,-1.45562,1.54549
0.386841,-1.30067,1.4199,0.380569,1.72757,-1.45705,1.54566
0.386738,-1.30381,1.41978,0.377643,1.72599,-1.45843,1.54582
0.386654,-1.30691,1.41964,0.374767,1.7244,-1.45978,1.54599
0.386576,-1.31001,1.41949,0.371871,1.72284,-1.46108,1.54617
0.386483,-1.31311,1.41932,0.368952,1.7213,-1.46235,1.54634
0.386394,-1.31618,1.41913,0.366019,1.71979,-1.46353,1.54651
0.386317,-1.31928,1.41891,0.363153,1.71829,-1.46465,1.54665
0.386273,-1.32234,1.41868,0.360314,1.71679,-1.46572,1.54676
0.386276,-1.32533,1.41849,0.357491,1.71533,-1.46672,1.54682
0.386275,-1.32831,1.41832,0.354716,1.7139,-1.46765,1.54684
0.386268,-1.33129,1.41815,0.351924,1.71249,-1.46847,1.54685
0.386245,-1.33427,1.41794,0.349143,1.71112,-1.46909,1.54686
0.386201,-1.33727,1.41763,0.346391,1.70976,-1.46947,1.54686
0.386119,-1.34026,1.41719,0.343718,1.70846,-1.46958,1.54686
0.386026,-1.34316,1.41658,0.341133,1.7072,-1.46949,1.54684
0.385918,-1.34596,1.41583,0.338672,1.70597,-1.4693,1.54679
0.385749,-1.34872,1.41492,0.336323,1.70479,-1.4691,1.54674
0.385518,-1.35146,1.4139,0.334092,1.70366,-1.46889,1.54676
0.385247,-1.35421,1.41284,0.331939,1.70258,-1.46862,1.54676
0.384943,-1.35698,1.41176,0.329934,1.70153,-1.46823,1.54676
0.384644,-1.35976,1.4107,0.328002,1.7005,-1.46775,1.54676
0.384327,-1.36246,1.40966,0.326143,1.69947,-1.46727,1.54676
0.383994,-1.36506,1.40862,0.324319,1.69846,-1.46686,1.54676
0.383669,-1.36764,1.40758,0.322551,1.69746,-1.4665,1.54676
0.383364,-1.37023,1.40652,0.320798,1.69649,-1.46616,1.54676
0.383061,-1.37286,1.40545,0.319038,1.69556,-1.46585,1.54675
0.382744,-1.37554,1.40434,0.317252,1.69462,-1.4656,1.54674
0.382443,-1.37821,1.40322,0.315438,1.69369,-1.46545,1.54672
0.382203,-1.38079,1.4021,0.313609,1.69275,-1.46537,1.54668
0.381981,-1.38324,1.40099,0.311733,1.69182,-1.46537,1.5466
0.381712,-1.38565,1.39987,0.309805,1.6909,-1.46539,1.54648
0.381406,-1.38809,1.39874,0.307872,1.68999,-1.46543,1.54631
0.381102,-1.39055,1.39763,0.305941,1.6891,-1.4655,1.54606
0.380861,-1.39302,1.3966,0.304066,1.6882,-1.46557,1.54572
0.380714,-1.3955,1.39566,0.302221,1.68727,-1.46561,1.54532
0.38059,-1.39795,1.39476,0.300347,1.68634,-1.46564,1.54493
0.380422,-1.40028,1.39396,0.298469,1.6854,-1.46571,1.54454
0.380229,-1.40247,1.39334,0.296607,1.68444,-1.46583,1.54415
0.380072,-1.40459,1.39288,0.294794,1.68349,-1.46588,1.54374
0.379991,-1.40675,1.39247,0.293034,1.68255,-1.46591,1.54338
0.379972,-1.40891,1.39199,0.291326,1.68159,-1.46597,1.54306
0.379943,-1.41096,1.39158,0.289612,1.68064,-1.46609,1.54281
0.379829,-1.41289,1.39134,0.287892,1.67971,-1.46633,1.54248
0.379723,-1.41474,1.39132,0.286258,1.67893,-1.46636,1.54195
0.379764,-1.41653,1.39139,0.284795,1.67835,-1.46587,1.54104
0.379999,-1.41822,1.39127,0.283686,1.67809,-1.46474,1.53973
0.38026,-1.41973,1.39066,0.282921,1.67817,-1.46298,1.53824
0.380268,-1.42099,1.3894,0.282309,1.6783,-1.46063,1.53657
0.379904,-1.42199,1.3874,0.281644,1.67836,-1.45788,1.53465
0.379266,-1.42278,1.38476,0.280719,1.67854,-1.45486,1.53251
0.378644,-1.42339,1.3818,0.279578,1.67914,-1.45165,1.53025
0.378329,-1.4239,1.3788,0.27832,1.68022,-1.44835,1.52793
0.378441,-1.42439,1.37582,0.277183,1.68153,-1.44499,1.52567
0.378915,-1.42492,1.37287,0.276429,1.68261,-1.44162,1.52357
0.379424,-1.42541,1.36989,0.276112,1.68313,-1.43829,1.52171
0.379551,-1.42575,1.36671,0.276174,1.68308,-1.43503,1.52008
0.379142,-1.42593,1.36332,0.276408,1.68252,-1.43185,1.51857
0.378296,-1.42588,1.35967,0.276682,1.68147,-1.42886,1.51716
0.377285,-1.42569,1.35578,0.2768,1.68007,-1.42615,1.51585
0.376392,-1.42538,1.35168,0.276932,1.67843,-1.42374,1.51478
0.375785,-1.42498,1.34744,0.277064,1.67659,-1.42157,1.51385
0.37544,-1.42458,1.3431,0.277539,1.67457,-1.41967,1.51313
0.375212,-1.42419,1.3388,0.278515,1.67235,-1.41807,1.51264
0.374796,-1.42371,1.3346,0.279987,1.66996,-1.41686,1.51232
0.374011,-1.42309,1.33057,0.281895,1.66746,-1.41612,1.51211
0.372889,-1.42236,1.32676,0.284276,1.66491,-1.41611,1.51209
0.37158,-1.42149,1.32325,0.287135,1.66238,-1.41685,1.51238
0.370253,-1.42053,1.31997,0.290475,1.65986,-1.41806,1.51312
0.368943,-1.41954,1.31675,0.294265,1.65727,-1.41925,1.51433
0.36761,-1.41843,1.31357,0.298187,1.65463,-1.42026,1.51593
0.366198,-1.41723,1.31034,0.302266,1.65188,-1.42145,1.51776
0.364764,-1.41595,1.30708,0.306549,1.64908,-1.42287,1.51971
0.363415,-1.41461,1.30379,0.310942,1.64622,-1.42459,1.52169
0.362223,-1.41311,1.3005,0.315375,1.64335,-1.42658,1.52364
0.361164,-1.41142,1.2972,0.319692,1.6405,-1.42888,1.52553
0.360186,-1.40954,1.2939,0.323959,1.63768,-1.43144,1.52738
0.359418,-1.40754,1.29064,0.328198,1.63492,-1.43431,1.5292
0.358883,-1.40542,1.28742,0.332542,1.6322,-1.43753,1.53099
0.358611,-1.40318,1.28427,0.336716,1.62958,-1.44106,1.53278
0.358521,-1.40075,1.28123,0.340756,1.62705,-1.4449,1.53458
0.358585,-1.39821,1.27826,0.344709,1.62461,-1.44901,1.5364
0.358821,-1.39557,1.27549,0.348613,1.62224,-1.45335,1.53822
0.359275,-1.39268,1.27303,0.352483,1.61991,-1.45783,1.54005
0.359962,-1.38949,1.27104,0.356167,1.61764,-1.46237,1.54186
0.36084,-1.38613,1.2695,0.359737,1.6154,-1.46687,1.54364
0.361918,-1.38273,1.26844,0.363236,1.61319,-1.47119,1.54539
0.363217,-1.37932,1.26796,0.366749,1.61097,-1.47543,1.54714
0.364712,-1.37582,1.26811,0.370251,1.60873,-1.47955,1.54893
0.366382,-1.37211,1.26891,0.373634,1.60645,-1.48354,1.55078
0.368207,-1.36813,1.27039,0.376826,1.60413,-1.48747,1.5527
0.37018,-1.36403,1.27254,0.379974,1.60176,-1.49131,1.55467
0.372322,-1.35991,1.2753,0.383149,1.59934,-1.49511,1.55668
0.37462,-1.35575,1.27861,0.386352,1.59687,-1.49889,1.55869
0.377074,-1.35137,1.28239,0.389525,1.59434,-1.50254,1.56067
0.379721,-1.34674,1.28654,0.392609,1.59178,-1.50604,1.56258
0.382576,-1.34206,1.29099,0.395675,1.58922,-1.50938,1.5644
0.385587,-1.3374,1.29557,0.39881,1.58666,-1.51254,1.56613
0.388695,-1.33258,1.30021,0.402035,1.58409,-1.51552,1.56777
0.391881,-1.32739,1.30493,0.405166,1.58151,-1.51828,1.56931
0.395132,-1.32204,1.30973,0.408277,1.57897,-1.52088,1.57076
0.398484,-1.31678,1.31447,0.411448,1.57646,-1.52332,1.57211
0.402008,-1.3114,1.31909,0.414732,1.57399,-1.52548,1.57335
0.405747,-1.30569,1.32364,0.417954,1.5715,-1.52744,1.57452
0.409582,-1.29991,1.32821,0.421187,1.56908,-1.52928,1.57561
0.413364,-1.29421,1.33266,0.424475,1.56669,-1.53095,1.57662
0.417124,-1.28829,1.33698,0.427803,1.5643,-1.53244,1.57758
0.421074,-1.28219,1.34133,0.43114,1.56196,-1.53384,1.57852
0.425207,-1.27618,1.34565,0.434478,1.55963,-1.53515,1.57938
0.429367,-1.27004,1.34975,0.437846,1.55733,-1.53625,1.58023
0.433562,-1.26375,1.35382,0.441162,1.55504,-1.53729,1.58106
0.4378,-1.25755,1.35795,0.444608,1.55278,-1.53831,1.58187
0.442078,-1.25127,1.36198,0.448168,1.55055,-1.53923,1.58267
0.446474,-1.24471,1.36592,0.451663,1.5483,-1.54004,1.58345
0.450964,-1.2383,1.36993,0.45506,1.54611,-1.54085,1.58424
0.455377,-1.23188,1.37379,0.458536,1.54395,-1.54159,1.58505
0.459861,-1.22522,1.37758,0.462027,1.54176,-1.54225,1.58585
0.464555,-1.21867,1.38156,0.465664,1.53962,-1.54297,1.58667
0.469246,-1.21213,1.38539,0.469436,1.53745,-1.54367,1.58749
0.473839,-1.20541,1.38912,0.472898,1.5353,-1.54428,1.58833
0.478463,-1.19883,1.39299,0.476301,1.5332,-1.54495,1.58918
0.483224,-1.19223,1.3968,0.480017,1.53107,-1.54559,1.59006
0.48812,-1.18541,1.40056,0.483743,1.5289,-1.54621,1.59093
0.492989,-1.17878,1.40438,0.487363,1.52674,-1.54685,1.59181
0.497722,-1.17222,1.40814,0.491023,1.52461,-1.54751,1.59269
0.502553,-1.16541,1.41194,0.494562,1.52248,-1.54813,1.59358
0.507587,-1.15869,1.41582,0.498225,1.52033,-1.5488,1.59448
0.512578,-1.15203,1.41956,0.50205,1.51818,-1.54943,1.59539
0.517475,-1.14528,1.42329,0.50562,1.51602,-1.55004,1.59631
0.522506,-1.13868,1.4272,0.50927,1.51389,-1.55075,1.59723
0.527649,-1.13197,1.43103,0.513153,1.51174,-1.55141,1.59818
0.532756,-1.12516,1.43483,0.516789,1.50956,-1.55205,1.59912
0.537801,-1.11862,1.43873,0.52038,1.50744,-1.55276,1.60008
0.542852,-1.11201,1.44253,0.524145,1.50528,-1.55341,1.60104
0.54805,-1.10528,1.44639,0.527924,1.50309,-1.55408,1.60203
0.553306,-1.09876,1.45033,0.531702,1.50092,-1.55479,1.60301
0.558422,-1.09217,1.45415,0.535424,1.49874,-1.55544,1.60402
0.563604,-1.08549,1.45808,0.53902,1.49656,-1.55608,1.60504
0.5689,-1.07902,1.46203,0.542813,1.49436,-1.55677,1.60608
0.574097,-1.07252,1.46582,0.546657,1.49214,-1.55737,1.60713
0.579353,-1.06596,1.46977,0.550274,1.48994,-1.55796,1.6082
0.584776,-1.05952,1.47385,0.554044,1.48773,-1.55857,1.6093
0.59012,-1.053,1.47771,0.557843,1.4855,-1.55898,1.61039
0.595355,-1.04651,1.48159,0.561341,1.48327,-1.55931,1.6115
0.600696,-1.04024,1.48565,0.565007,1.48108,-1.55961,1.6126
0.606167,-1.03386,1.4896,0.568918,1.47883,-1.55971,1.61372
0.611649,-1.02737,1.49355,0.572555,1.47659,-1.55959,1.61483
0.61707,-1.02114,1.4976,0.576122,1.4744,-1.55934,1.61596
0.622453,-1.01488,1.50154,0.579844,1.47217,-1.55877,1.61711
0.627938,-1.0085,1.5055,0.583625,1.46992,-1.5576,1.61827
0.633473,-1.00233,1.50956,0.587603,1.4677,-1.55585,1.61942
0.638946,-0.996177,1.51355,0.591651,1.46547,-1.55338,1.62055
0.644409,-0.989824,1.51754,0.595625,1.46325,-1.55035,1.62166
0.649843,-0.983623,1.52157,0.599785,1.46108,-1.54703,1.62274
0.655111,-0.977575,1.52547,0.604142,1.45892,-1.54351,1.62382
0.660419,-0.971346,1.52942,0.608541,1.45677,-1.53992,1.62486
0.665897,-0.965145,1.53355,0.613084,1.45469,-1.53641,1.6259
0.671197,-0.959118,1.53752,0.617685,1.4526,-1.53298,1.62691
0.676288,-0.953039,1.5413,0.622076,1.45055,-1.52958,1.62791
0.68159,-0.947005,1.54535,0.626699,1.44857,-1.52645,1.62889
0.687099,-0.941071,1.54941,0.631634,1.44658,-1.52354,1.62985
0.692426,-0.935048,1.55324,0.636333,1.44462,-1.5207,1.63077
0.697687,-0.92906,1.55718,0.640878,1.44277,-1.5181,1.63168
0.703104,-0.923218,1.56125,0.64574,1.44093,-1.51577,1.63253
0.708533,-0.917334,1.56512,0.650708,1.43913,-1.5136,1.63338
0.713892,-0.911371,1.56901,0.655355,1.43746,-1.51163,1.63419
0.719317,-0.905528,1.57313,0.660139,1.43586,-1.51,1.63498
0.724783,-0.899725,1.57713,0.665074,1.43435,-1.50855,1.63576
0.730149,-0.893845,1.58094,0.66986,1.43295,-1.5073,1.63651
0.735549,-0.88809,1.58496,0.674442,1.43181,-1.50633,1.63726
0.741041,-0.88239,1.58908,0.679277,1.43086,-1.50563,1.63797
0.746547,-0.876599,1.59299,0.684068,1.43014,-1.50502,1.63865
0.752,-0.870874,1.59692,0.688762,1.42977,-1.50469,1.63933
0.757499,-0.865275,1.60101,0.693312,1.4299,-1.50464,1.63998
0.763012,-0.859601,1.60499,0.698046,1.43051,-1.505,1.64061
0.768544,-0.853832,1.60887,0.702713,1.43178,-1.50588,1.64123
0.774095,-0.848195,1.6129,0.707399,1.43378,-1.50778,1.64185
0.779692,-0.842619,1.61693,0.711959,1.43645,-1.51067,1.64248
0.785213,-0.836888,1.62077,0.716508,1.43966,-1.51454,1.64316
0.790691,-0.831217,1.62462,0.720933,1.44335,-1.51934,1.64388
0.796285,-0.825707,1.62865,0.725413,1.44736,-1.52485,1.64464
0.801987,-0.820115,1.63258,0.729856,1.45155,-1.53066,1.64548
0.807623,-0.814422,1.6364,0.734092,1.45584,-1.53663,1.64635
0.81316,-0.808879,1.64028,0.738172,1.46017,-1.54269,1.64723
0.818783,-0.803425,1.6442,0.742319,1.46438,-1.54863,1.64809
0.82449,-0.797803,1.64805,0.746423,1.46829,-1.55425,1.64889
0.830143,-0.792185,1.65193,0.750104,1.47192,-1.55954,1.64955
0.835661,-0.786729,1.65592,0.753287,1.47518,-1.56444,1.65001
0.841113,-0.781243,1.65981,0.755946,1.47787,-1.56872,1.65021
0.846595,-0.775695,1.66357,0.757971,1.47978,-1.57242,1.65001
0.852193,-0.770339,1.66723,0.759063,1.48083,-1.57575,1.64936
0.857943,-0.765123,1.67025,0.75939,1.4809,-1.57872,1.64805
0.863873,-0.759872,1.67226,0.759024,1.48024,-1.58071,1.64591
0.869999,-0.754515,1.67341,0.758135,1.47923,-1.58137,1.64295
0.876418,-0.749064,1.6738,0.757269,1.47816,-1.5806,1.63942
0.882871,-0.743395,1.67336,0.756724,1.47695,-1.57836,1.63563
0.888993,-0.737403,1.67244,0.756172,1.47563,-1.57456,1.63183
0.894782,-0.731272,1.67168,0.755818,1.47438,-1.56977,1.62809
0.900144,-0.725282,1.67094,0.755787,1.47331,-1.56455,1.62448
