Afshin1997/kuka_rl_ros2/src/catch_and_throw/output_files/ft/old/idealpd_8/ft_filtered_commands_np.csv
joint_0,joint_1,joint_2,joint_3,joint_4,joint_5,joint_6
0.785398,0,1.32645,1.22173,1.6057,-0.907571,1.5708
0.783408,-0.00406168,1.33488,1.21185,1.60944,-0.898921,1.56754
0.787773,-0.0136118,1.34293,1.20302,1.61697,-0.891099,1.5626
0.790795,-0.0224148,1.34964,1.19578,1.62443,-0.884342,1.55726
0.793865,-0.03022,1.3558,1.1896,1.63098,-0.878611,1.55301
0.797605,-0.0371048,1.36144,1.18412,1.63668,-0.873717,1.54957
0.801732,-0.04332,1.36656,1.17912,1.64165,-0.86951,1.54674
0.805887,-0.0490124,1.37131,1.17451,1.64601,-0.865871,1.54437
0.809869,-0.0542972,1.37577,1.17019,1.64985,-0.862707,1.54237
0.81357,-0.0592776,1.38002,1.16607,1.65328,-0.859938,1.54064
0.816992,-0.0640329,1.38411,1.16209,1.65636,-0.857494,1.53913
0.820127,-0.0686274,1.38809,1.15822,1.65916,-0.85531,1.5378
0.823017,-0.0731079,1.392,1.15441,1.66174,-0.853341,1.5366
0.82569,-0.077512,1.39585,1.15064,1.66414,-0.85155,1.53552
0.828173,-0.081869,1.39966,1.14689,1.6664,-0.849904,1.53454
0.830516,-0.0862017,1.40344,1.14314,1.66854,-0.848378,1.53364
0.832743,-0.090525,1.40721,1.1394,1.67059,-0.84695,1.53281
0.834896,-0.0948445,1.41098,1.13564,1.67257,-0.8456,1.53202
0.836984,-0.0991712,1.41476,1.13186,1.6745,-0.844309,1.53129
0.838998,-0.103519,1.41856,1.12806,1.67639,-0.843059,1.53067
0.840913,-0.107897,1.42238,1.12422,1.67825,-0.841834,1.53013
0.842714,-0.112306,1.42622,1.12036,1.68009,-0.840626,1.52967
0.844365,-0.116748,1.43007,1.11646,1.68193,-0.839428,1.52928
0.845937,-0.121215,1.43394,1.11253,1.68376,-0.838235,1.52896
0.847457,-0.125705,1.43782,1.10857,1.6856,-0.837046,1.52869
0.848939,-0.130219,1.4417,1.10459,1.68745,-0.835858,1.52847
0.85039,-0.134758,1.44559,1.10059,1.6893,-0.83467,1.52828
0.851823,-0.139322,1.44948,1.09656,1.69117,-0.833479,1.5281
0.853247,-0.143912,1.45339,1.09251,1.69307,-0.83228,1.52789
0.854629,-0.14853,1.45732,1.08843,1.69499,-0.831071,1.52764
0.855927,-0.153173,1.46126,1.08433,1.69693,-0.829851,1.52739
0.857184,-0.157831,1.46522,1.0802,1.69889,-0.82862,1.52712
0.858489,-0.162497,1.4692,1.07605,1.70088,-0.82738,1.52682
0.859861,-0.167164,1.47319,1.07187,1.7029,-0.826128,1.52647
0.861296,-0.171827,1.47721,1.06767,1.70494,-0.824861,1.52608
0.862768,-0.176487,1.48124,1.06346,1.70699,-0.82358,1.52566
0.864195,-0.181146,1.48529,1.05924,1.70906,-0.822285,1.52524
0.865566,-0.185803,1.48935,1.05501,1.71113,-0.820975,1.52483
0.866884,-0.190468,1.4934,1.05077,1.71321,-0.819656,1.52442
0.868169,-0.195148,1.49743,1.04651,1.71529,-0.818332,1.52397
0.869425,-0.19984,1.50145,1.04224,1.71739,-0.817002,1.5235
0.870525,-0.204541,1.50545,1.03797,1.71948,-0.815662,1.52305
0.871434,-0.209207,1.50946,1.0337,1.72158,-0.814299,1.52268
0.872095,-0.213826,1.51348,1.02943,1.72369,-0.812913,1.52245
0.872478,-0.218402,1.51748,1.02516,1.72579,-0.811501,1.52232
0.87269,-0.222927,1.52149,1.0209,1.72789,-0.810048,1.52216
0.872777,-0.227398,1.52549,1.01663,1.73,-0.808562,1.52197
0.873116,-0.23179,1.52951,1.01237,1.73213,-0.807045,1.52164
0.873925,-0.236085,1.53354,1.00811,1.73428,-0.805488,1.52113
0.875106,-0.240312,1.53756,1.00388,1.73646,-0.803903,1.52049
0.876415,-0.244504,1.54155,0.999648,1.73865,-0.802307,1.51975
0.877717,-0.248679,1.54553,0.995424,1.74085,-0.800708,1.51893
0.878871,-0.252819,1.5495,0.991199,1.74307,-0.799101,1.51802
0.879831,-0.256924,1.55347,0.986971,1.74529,-0.79749,1.51704
0.880555,-0.260987,1.55743,0.982741,1.74752,-0.795879,1.51601
0.881124,-0.264999,1.56138,0.978506,1.74975,-0.794267,1.51496
0.881499,-0.268943,1.56533,0.974268,1.75198,-0.792653,1.51387
0.881679,-0.272821,1.56927,0.970024,1.7542,-0.791045,1.51279
0.881752,-0.276617,1.57321,0.965784,1.75642,-0.789445,1.51175
0.881895,-0.280281,1.57713,0.96156,1.75862,-0.787847,1.51074
0.882153,-0.283778,1.58103,0.957359,1.7608,-0.786253,1.50973
0.882435,-0.287122,1.58491,0.953171,1.76298,-0.784661,1.50872
0.882701,-0.290318,1.58877,0.948991,1.76514,-0.783074,1.50775
0.882914,-0.293346,1.59259,0.944821,1.76729,-0.781493,1.50684
0.88311,-0.29621,1.59638,0.940667,1.76943,-0.779919,1.50597
0.883381,-0.298881,1.60014,0.936532,1.77155,-0.778353,1.50513
0.883815,-0.301356,1.60385,0.932421,1.77366,-0.776794,1.50428
0.884424,-0.303679,1.60755,0.928332,1.77575,-0.775238,1.50339
0.885189,-0.305896,1.61124,0.924262,1.77785,-0.773686,1.50245
0.886095,-0.308026,1.61493,0.920202,1.77996,-0.772133,1.50149
0.887158,-0.310116,1.61862,0.916152,1.78207,-0.770583,1.50048
0.888329,-0.312224,1.62231,0.912109,1.78419,-0.769036,1.49943
0.889545,-0.31438,1.626,0.90807,1.78631,-0.76749,1.49836
0.890754,-0.316546,1.62966,0.904039,1.78844,-0.765945,1.49728
0.891869,-0.318698,1.63332,0.90002,1.79056,-0.764401,1.49621
0.89287,-0.320833,1.63695,0.896014,1.79268,-0.762863,1.49519
0.893837,-0.322922,1.64053,0.892025,1.79479,-0.761332,1.49421
0.894769,-0.324957,1.64409,0.888115,1.79691,-0.759799,1.49324
0.895581,-0.326948,1.64765,0.884343,1.79902,-0.758254,1.49224
0.896207,-0.328934,1.65123,0.880709,1.80115,-0.756694,1.49125
0.896677,-0.330944,1.65483,0.877198,1.80328,-0.755123,1.4903
0.897133,-0.333007,1.65845,0.873796,1.80542,-0.753542,1.48932
0.897686,-0.335105,1.66207,0.870475,1.80757,-0.751953,1.48826
0.898282,-0.3372,1.66571,0.867199,1.80972,-0.75036,1.48716
0.898894,-0.339278,1.66936,0.863969,1.81188,-0.748767,1.48603
0.899457,-0.341319,1.67302,0.860832,1.81404,-0.747204,1.48488
0.899889,-0.343303,1.67672,0.85782,1.81622,-0.74568,1.48369
0.900213,-0.345269,1.68046,0.854948,1.81841,-0.744198,1.48248
0.900488,-0.347236,1.68425,0.852222,1.82062,-0.742746,1.48126
0.900646,-0.349202,1.68808,0.849632,1.82286,-0.741314,1.48003
0.900761,-0.351164,1.69195,0.847186,1.82511,-0.739885,1.47878
0.900851,-0.353166,1.69586,0.844871,1.82737,-0.73843,1.47756
0.900844,-0.355234,1.69979,0.842709,1.82964,-0.736948,1.47637
0.900772,-0.357383,1.70374,0.840804,1.83191,-0.735458,1.47521
0.900612,-0.35962,1.70771,0.839206,1.83419,-0.733959,1.47406
0.900283,-0.361973,1.71172,0.837984,1.83648,-0.732469,1.47296
0.899697,-0.364499,1.71572,0.837534,1.83877,-0.731016,1.47192
0.89832,-0.367348,1.71972,0.839509,1.84108,-0.72954,1.47099
0.894443,-0.370792,1.72368,0.845209,1.84342,-0.727712,1.47053
0.888217,-0.373824,1.72753,0.852013,1.8457,-0.72584,1.47155
0.882445,-0.376948,1.73121,0.858447,1.8479,-0.724027,1.47209
0.87774,-0.379745,1.73498,0.864278,1.85016,-0.722249,1.47168
0.873738,-0.382677,1.7388,0.869103,1.85235,-0.720628,1.47091
0.870347,-0.385696,1.74266,0.872941,1.85444,-0.719106,1.47007
0.867377,-0.388549,1.74654,0.876031,1.85653,-0.717583,1.46918
0.86465,-0.391173,1.75043,0.878414,1.85862,-0.716002,1.46832
0.862129,-0.393534,1.75434,0.880259,1.8608,-0.714376,1.46756
0.85977,-0.395679,1.75826,0.881755,1.86304,-0.712664,1.46689
0.857542,-0.397673,1.76218,0.883167,1.86529,-0.710896,1.4663
0.855354,-0.399515,1.76609,0.884686,1.86752,-0.709098,1.46574
0.853125,-0.401248,1.76999,0.886371,1.86976,-0.707326,1.46519
0.850801,-0.402908,1.77388,0.888325,1.872,-0.705568,1.46464
0.848345,-0.40453,1.77776,0.890674,1.87423,-0.703814,1.46414
0.84572,-0.406146,1.78161,0.893533,1.87645,-0.702063,1.4637
0.842903,-0.40776,1.78544,0.896921,1.87865,-0.70031,1.4633
0.839898,-0.409347,1.78923,0.900713,1.88084,-0.698555,1.46289
0.836863,-0.410965,1.79302,0.904656,1.88301,-0.696804,1.46241
0.833872,-0.412614,1.79682,0.908596,1.88518,-0.695068,1.46191
0.830928,-0.41434,1.80063,0.912477,1.88735,-0.693339,1.46142
0.828006,-0.416106,1.80445,0.916262,1.88952,-0.69162,1.46098
0.825078,-0.41788,1.80829,0.919965,1.89169,-0.689911,1.46058
0.822147,-0.419632,1.81212,0.923625,1.89386,-0.688213,1.46021
0.81922,-0.42139,1.81595,0.927258,1.89602,-0.686526,1.45983
0.816297,-0.423162,1.81978,0.930881,1.89819,-0.684848,1.45947
0.81337,-0.424951,1.82361,0.934514,1.90035,-0.683178,1.45912
0.810443,-0.426761,1.82744,0.938166,1.90251,-0.681515,1.45877
0.807521,-0.428601,1.83126,0.941844,1.90467,-0.679857,1.45843
0.804605,-0.430475,1.83508,0.94555,1.90682,-0.678204,1.45809
0.801695,-0.432387,1.83889,0.949289,1.90897,-0.676554,1.45775
0.798795,-0.434341,1.84271,0.95306,1.91112,-0.674907,1.45742
0.795914,-0.436336,1.84653,0.956868,1.91327,-0.673263,1.45709
0.79306,-0.438369,1.85034,0.960708,1.91542,-0.671621,1.45678
0.790216,-0.440433,1.85415,0.964565,1.91756,-0.669977,1.45652
0.787372,-0.442539,1.85797,0.968442,1.9197,-0.668329,1.4563
0.784521,-0.444716,1.86178,0.972353,1.92185,-0.666675,1.45611
0.781691,-0.44694,1.86561,0.976269,1.92401,-0.665013,1.45592
0.778894,-0.449181,1.86945,0.980166,1.92618,-0.663345,1.45574
0.776107,-0.451421,1.87331,0.984051,1.92835,-0.66167,1.4556
0.773297,-0.453658,1.87717,0.987936,1.93054,-0.65999,1.45552
0.770477,-0.455903,1.88103,0.99182,1.93272,-0.658308,1.45551
0.767652,-0.458151,1.88489,0.995702,1.93491,-0.656625,1.45556
0.76481,-0.460386,1.88875,0.999587,1.9371,-0.654942,1.45569
0.761948,-0.462602,1.89261,1.00348,1.93929,-0.65326,1.45589
0.759072,-0.464808,1.89647,1.00739,1.94147,-0.651581,1.45616
0.756198,-0.46701,1.90032,1.01131,1.94366,-0.649902,1.45651
0.753332,-0.469183,1.90417,1.01524,1.94585,-0.648226,1.45692
0.750477,-0.471328,1.90801,1.01919,1.94802,-0.646554,1.45737
0.747629,-0.473449,1.91184,1.02315,1.9502,-0.644886,1.45792
0.744735,-0.475482,1.91567,1.02708,1.95237,-0.643219,1.45862
0.741791,-0.477371,1.91949,1.03095,1.95454,-0.641553,1.45949
0.738805,-0.479112,1.92332,1.03475,1.95671,-0.639889,1.46063
0.735742,-0.48069,1.92713,1.03845,1.95887,-0.638232,1.46208
0.732521,-0.482075,1.93093,1.042,1.96102,-0.636591,1.46386
0.728983,-0.483251,1.9347,1.04539,1.96316,-0.634953,1.46601
0.725098,-0.484234,1.93845,1.04862,1.96531,-0.633313,1.46853
0.721027,-0.484969,1.942,1.05187,1.96745,-0.631688,1.47108
0.716987,-0.485424,1.94536,1.0551,1.96956,-0.630082,1.47334
0.713116,-0.485943,1.94858,1.05827,1.97165,-0.628484,1.47525
0.709385,-0.486529,1.95178,1.06133,1.97371,-0.626895,1.47701
0.705709,-0.487185,1.95486,1.06431,1.97574,-0.625325,1.47869
0.702039,-0.487915,1.95784,1.06699,1.97773,-0.62379,1.4803
0.698379,-0.48873,1.96069,1.0692,1.97968,-0.622302,1.48185
0.694701,-0.489603,1.9634,1.07089,1.98157,-0.620882,1.48341
0.690984,-0.490439,1.96589,1.07174,1.98336,-0.619547,1.48492
0.687254,-0.49083,1.96831,1.07203,1.98501,-0.618312,1.48624
0.683568,-0.49108,1.97085,1.07229,1.98659,-0.617113,1.48694
0.679817,-0.491642,1.97348,1.07271,1.98819,-0.615897,1.48744
0.676076,-0.492307,1.97622,1.07292,1.98982,-0.614621,1.48784
0.672341,-0.492796,1.97897,1.07297,1.99139,-0.613297,1.48806
0.668478,-0.493188,1.98169,1.07328,1.99288,-0.611949,1.48804
0.664482,-0.493876,1.98443,1.07398,1.99437,-0.610583,1.488
0.66044,-0.494985,1.98746,1.07472,1.99576,-0.609188,1.48809
0.656314,-0.496376,1.99064,1.07494,1.99697,-0.607788,1.48846
0.651826,-0.498211,1.99364,1.0752,1.99814,-0.606389,1.48914
0.646932,-0.500771,1.99633,1.07677,1.99926,-0.605003,1.49031
0.641981,-0.50357,1.99881,1.07956,2.00093,-0.603559,1.49212
0.637255,-0.505599,2.00086,1.08175,2.00297,-0.60198,1.4944
0.632587,-0.507057,2.00277,1.08402,2.00526,-0.600485,1.4967
0.627863,-0.508547,2.0041,1.08722,2.00762,-0.598998,1.49873
0.623181,-0.509514,2.00607,1.09047,2.00998,-0.59744,1.50091
0.618666,-0.5106,2.00753,1.09246,2.01218,-0.595891,1.50303
0.613926,-0.511806,2.01037,1.09412,2.01443,-0.594319,1.50488
0.609141,-0.513749,2.01251,1.09562,2.01659,-0.592795,1.5065
0.604258,-0.515505,2.01577,1.09712,2.01882,-0.591228,1.50809
0.599505,-0.517642,2.01847,1.09657,2.02088,-0.589716,1.50968
0.594525,-0.52033,2.02146,1.09426,2.02298,-0.588265,1.51111
0.589414,-0.52411,2.02358,1.09064,2.02499,-0.586997,1.51225
0.603502,-0.53166,2.0289,1.08612,2.02813,-0.585482,1.50479
0.615979,-0.537959,2.02947,1.07732,2.03114,-0.58488,1.49355
0.626317,-0.544624,2.0344,1.06952,2.03405,-0.584683,1.48668
0.635718,-0.550724,2.03899,1.06264,2.03672,-0.58477,1.47881
0.643281,-0.556394,2.04331,1.05658,2.03931,-0.584913,1.47168
0.649884,-0.561739,2.04723,1.05118,2.04176,-0.585223,1.46561
0.655698,-0.566661,2.05088,1.04642,2.04407,-0.585624,1.46038
0.660934,-0.571346,2.05441,1.04227,2.04634,-0.586084,1.45595
0.665732,-0.575915,2.05787,1.03856,2.04855,-0.586635,1.45229
0.670131,-0.580335,2.0613,1.03522,2.0507,-0.587251,1.44924
0.674254,-0.584632,2.06471,1.0322,2.0528,-0.587912,1.4467
0.678195,-0.588852,2.06805,1.02945,2.05487,-0.588709,1.44459
0.682056,-0.593053,2.07131,1.02698,2.05692,-0.589615,1.44288
0.685873,-0.597253,2.07462,1.02475,2.05893,-0.590719,1.44155
0.689716,-0.601439,2.07798,1.02292,2.06092,-0.592053,1.44054
0.693642,-0.605608,2.08148,1.02124,2.0629,-0.593851,1.43983
0.697657,-0.609672,2.08516,1.01962,2.06486,-0.596445,1.43933
0.701779,-0.613594,2.089,1.0181,2.06682,-0.600086,1.43891
0.705974,-0.617429,2.09296,1.01682,2.06875,-0.60588,1.43845
0.710235,-0.621269,2.09701,1.01586,2.07063,-0.61486,1.43792
0.714539,-0.625223,2.10107,1.01527,2.07245,-0.625986,1.43739
0.718733,-0.629337,2.10503,1.01547,2.07428,-0.637512,1.43719
0.722975,-0.633516,2.10897,1.01578,2.07613,-0.648314,1.43728
0.727277,-0.637504,2.11285,1.01688,2.07799,-0.657756,1.43767
0.731633,-0.641343,2.11667,1.01886,2.07989,-0.666248,1.43815
0.736093,-0.645197,2.12042,1.02105,2.08184,-0.6734,1.4386
0.740633,-0.649023,2.12427,1.02305,2.0838,-0.678949,1.43886
0.745221,-0.65281,2.1282,1.02488,2.08578,-0.683234,1.43891
0.749839,-0.656598,2.13216,1.02636,2.08778,-0.686513,1.43876
0.754469,-0.6604,2.13614,1.02764,2.08978,-0.689169,1.43843
0.759104,-0.664216,2.14012,1.02876,2.09179,-0.691351,1.43797
0.76375,-0.668028,2.1441,1.02976,2.0938,-0.693138,1.43744
0.768412,-0.671822,2.14808,1.03063,2.09582,-0.694693,1.43684
0.773092,-0.675571,2.15204,1.03149,2.09785,-0.695903,1.4362
0.777801,-0.679302,2.15598,1.03231,2.09988,-0.696959,1.43554
0.78255,-0.682993,2.1599,1.03334,2.10191,-0.697666,1.43491
0.787357,-0.686634,2.16381,1.03452,2.10394,-0.698178,1.43434
0.79222,-0.690293,2.16772,1.03579,2.10599,-0.698138,1.43382
0.797134,-0.694044,2.17161,1.03722,2.10804,-0.698129,1.43338
0.802066,-0.697833,2.1755,1.03877,2.11009,-0.697898,1.43295
0.806999,-0.701613,2.1794,1.04028,2.11213,-0.697752,1.4325
0.811933,-0.705367,2.1833,1.04177,2.11418,-0.697457,1.432
0.816862,-0.709076,2.18714,1.04324,2.1162,-0.697324,1.43146
0.821785,-0.712725,2.19091,1.04462,2.11822,-0.697387,1.43089
0.826706,-0.716306,2.19466,1.04599,2.12023,-0.697746,1.43029
0.831625,-0.71981,2.19838,1.04739,2.12223,-0.69833,1.42967
0.836544,-0.723256,2.20206,1.04883,2.12422,-0.699049,1.42903
0.841463,-0.726658,2.2057,1.05032,2.1262,-0.69988,1.42836
0.846382,-0.730014,2.20931,1.05186,2.12817,-0.700795,1.42769
0.851303,-0.733323,2.21289,1.05345,2.13013,-0.701769,1.427
0.856226,-0.73658,2.21643,1.05506,2.13209,-0.702761,1.42631
0.861152,-0.739787,2.21994,1.05669,2.13403,-0.703769,1.4256
0.866076,-0.742938,2.22341,1.0583,2.13596,-0.704782,1.42489
0.870999,-0.746028,2.22685,1.05987,2.13788,-0.705715,1.42416
0.875919,-0.749053,2.23025,1.06141,2.13979,-0.706558,1.42343
0.880838,-0.752001,2.2336,1.06295,2.14169,-0.707328,1.4227
0.885753,-0.754848,2.2369,1.06448,2.14359,-0.707976,1.42196
0.89067,-0.75758,2.24016,1.066,2.14548,-0.708494,1.42122
0.895585,-0.76019,2.24337,1.0675,2.14737,-0.708887,1.42049
0.900499,-0.762669,2.24652,1.06896,2.14925,-0.709109,1.41977
0.905417,-0.765077,2.24967,1.07039,2.15113,-0.709184,1.41906
0.910342,-0.767453,2.25282,1.07183,2.153,-0.709146,1.41835
0.915274,-0.769859,2.25596,1.07331,2.15487,-0.70889,1.41765
0.92022,-0.772317,2.2591,1.07488,2.15674,-0.708294,1.41696
0.92518,-0.774823,2.26221,1.07653,2.1586,-0.707332,1.4163
0.930149,-0.777409,2.26535,1.07826,2.16047,-0.706152,1.41565
0.935118,-0.780086,2.26849,1.07997,2.16233,-0.705269,1.415
0.940078,-0.782673,2.27162,1.08153,2.16419,-0.704753,1.41431
0.945041,-0.785166,2.27467,1.08298,2.16605,-0.70426,1.41359
0.950012,-0.787625,2.27771,1.08441,2.16791,-0.703674,1.41287
0.954981,-0.790072,2.28074,1.08573,2.16976,-0.703171,1.41213
0.959944,-0.792458,2.28373,1.087,2.17161,-0.702741,1.41137
0.964905,-0.794793,2.28668,1.08827,2.17346,-0.702366,1.41059
0.969867,-0.797113,2.28961,1.08955,2.1753,-0.702059,1.40981
0.974827,-0.799421,2.29253,1.09082,2.17714,-0.701845,1.40901
0.979787,-0.801706,2.29542,1.09208,2.17898,-0.701725,1.40821
0.984745,-0.803953,2.29829,1.09332,2.18081,-0.701713,1.40739
0.989703,-0.80615,2.30113,1.09453,2.18264,-0.70178,1.40657
0.99466,-0.808294,2.30393,1.09569,2.18446,-0.701891,1.40575
0.999616,-0.810385,2.30671,1.0968,2.18628,-0.702028,1.40492
1.00457,-0.812423,2.30947,1.09786,2.18809,-0.702188,1.40409
1.00951,-0.814398,2.31219,1.09886,2.18989,-0.702361,1.40325
1.01445,-0.816314,2.31488,1.09987,2.19169,-0.702541,1.4024
1.01939,-0.818199,2.31753,1.10086,2.19349,-0.702744,1.40155
1.02431,-0.820044,2.32015,1.10183,2.19527,-0.703014,1.4007
1.02923,-0.821829,2.32275,1.10274,2.19705,-0.703375,1.39983
1.03413,-0.823547,2.32531,1.10358,2.19883,-0.703773,1.39896
1.03903,-0.8252,2.32785,1.10441,2.2006,-0.704159,1.39809
1.04392,-0.826814,2.33039,1.10521,2.20236,-0.704549,1.39721
1.04881,-0.82839,2.33292,1.10599,2.20411,-0.70495,1.39634
1.05368,-0.829941,2.33546,1.10673,2.20587,-0.705362,1.39547
1.05856,-0.831477,2.33799,1.10747,2.20762,-0.705803,1.3946
1.06342,-0.833,2.34051,1.10817,2.20938,-0.706339,1.39372
1.06827,-0.834484,2.34303,1.10883,2.21113,-0.706984,1.39285
1.0731,-0.83589,2.34555,1.10944,2.21288,-0.707731,1.39197
1.07792,-0.837231,2.34804,1.10999,2.21462,-0.70861,1.3911
1.08272,-0.838498,2.35051,1.11046,2.21636,-0.709649,1.39022
1.0875,-0.839673,2.35294,1.11088,2.21809,-0.710859,1.38935
1.09227,-0.840751,2.35534,1.11126,2.21981,-0.712205,1.38848
1.09704,-0.841711,2.35771,1.11161,2.22152,-0.713568,1.38763
1.1018,-0.842594,2.36003,1.11195,2.22323,-0.714762,1.38678
1.10655,-0.843473,2.36229,1.11221,2.22495,-0.715603,1.38593
1.11126,-0.844396,2.36446,1.11241,2.22667,-0.716268,1.38508
1.11592,-0.845278,2.36669,1.11246,2.22839,-0.717205,1.38422
1.12053,-0.845888,2.36892,1.11249,2.23009,-0.718562,1.38338
1.12513,-0.846188,2.37102,1.1126,2.23177,-0.719896,1.38259
1.12972,-0.846355,2.37283,1.11269,2.23345,-0.720509,1.38181
1.13428,-0.846625,2.37441,1.11279,2.23514,-0.720272,1.38102
1.13877,-0.847356,2.3762,1.1125,2.23685,-0.72006,1.38017
1.14319,-0.848371,2.37822,1.11208,2.23852,-0.720893,1.37924
1.14751,-0.849255,2.38027,1.11173,2.24013,-0.723067,1.37829
1.15172,-0.849699,2.38212,1.11162,2.24169,-0.726281,1.37736
1.15587,-0.849931,2.3838,1.11142,2.24324,-0.729589,1.37646
1.16003,-0.850137,2.38528,1.11138,2.24481,-0.732579,1.37556
1.16421,-0.850405,2.38677,1.11133,2.24638,-0.7352,1.37466
1.16843,-0.850728,2.38829,1.11126,2.24796,-0.737429,1.37378
1.17262,-0.851084,2.38974,1.11107,2.24955,-0.739401,1.37289
1.17675,-0.851455,2.39114,1.11083,2.25114,-0.741191,1.37198
1.18081,-0.851912,2.3925,1.11051,2.25268,-0.742936,1.37106
1.18474,-0.852396,2.39386,1.11012,2.25417,-0.744813,1.37011
1.18843,-0.852877,2.3952,1.10975,2.25565,-0.746944,1.36914
1.19177,-0.853405,2.39655,1.10954,2.25718,-0.749345,1.36814
1.19461,-0.85401,2.39797,1.10962,2.25878,-0.752087,1.3671
1.19698,-0.854534,2.39961,1.11012,2.26041,-0.755105,1.36608
1.19964,-0.855698,2.40128,1.11036,2.2621,-0.757916,1.36509
1.20215,-0.856527,2.4026,1.11104,2.26381,-0.760589,1.36419
1.20496,-0.857375,2.40422,1.11153,2.2655,-0.763064,1.3633
1.20786,-0.858287,2.40569,1.11171,2.26722,-0.765152,1.36243
1.21066,-0.858854,2.4067,1.112,2.26893,-0.767082,1.3616
1.21362,-0.859499,2.408,1.11208,2.27063,-0.768841,1.36076
1.21659,-0.860143,2.40912,1.11176,2.27232,-0.770393,1.35992
1.21942,-0.860466,2.40972,1.11136,2.27395,-0.771886,1.35913
1.22227,-0.86079,2.4104,1.11092,2.27549,-0.773319,1.35833
1.22509,-0.861082,2.41092,1.11027,2.27699,-0.774604,1.35755
1.22779,-0.861203,2.41099,1.10962,2.27844,-0.775798,1.35679
1.23041,-0.861259,2.41112,1.10895,2.27979,-0.77701,1.35604
1.23285,-0.861271,2.41114,1.10819,2.28108,-0.778172,1.35533
1.23504,-0.861167,2.41103,1.1075,2.28236,-0.77927,1.35467
1.23697,-0.86104,2.4111,1.10697,2.28362,-0.780418,1.35407
1.23871,-0.861039,2.4113,1.10656,2.28492,-0.781677,1.35351
1.24026,-0.861094,2.41161,1.10632,2.28628,-0.783022,1.35298
1.24163,-0.861134,2.41205,1.10628,2.28768,-0.784459,1.35248
1.24285,-0.861165,2.41262,1.1064,2.28912,-0.785996,1.35199
1.24394,-0.861214,2.41327,1.10666,2.2906,-0.787607,1.35152
1.24491,-0.861231,2.4139,1.10719,2.29211,-0.789242,1.35105
1.24587,-0.861284,2.41464,1.10781,2.29363,-0.790917,1.35058
1.24685,-0.861342,2.4154,1.1084,2.29515,-0.792605,1.3501
1.24777,-0.86133,2.41601,1.10895,2.29665,-0.794271,1.34962
1.24857,-0.861295,2.41651,1.10955,2.29813,-0.795902,1.34913
1.24926,-0.861289,2.417,1.11028,2.29961,-0.79754,1.34863
1.24996,-0.861378,2.4175,1.11102,2.30111,-0.799146,1.34811
1.25067,-0.861471,2.4179,1.1117,2.30261,-0.800696,1.34756
1.2513,-0.86153,2.41817,1.1124,2.30411,-0.802199,1.34699
1.25186,-0.861605,2.41834,1.11312,2.30561,-0.803666,1.3464
1.25235,-0.86168,2.41846,1.11385,2.30713,-0.805109,1.3458
1.2528,-0.861757,2.41854,1.11459,2.30865,-0.806531,1.34517
1.25315,-0.861795,2.41856,1.11522,2.31016,-0.80795,1.34453
1.25334,-0.861757,2.41845,1.11583,2.31164,-0.809374,1.34389
1.25336,-0.861607,2.41821,1.1164,2.31308,-0.810822,1.34327
1.25317,-0.861317,2.41795,1.11689,2.31445,-0.812306,1.34267
1.25274,-0.860905,2.41749,1.11729,2.31577,-0.8138,1.34211
1.25201,-0.860328,2.41683,1.11767,2.31701,-0.815319,1.34159
1.25112,-0.859612,2.41603,1.11779,2.31821,-0.816867,1.34111
1.25033,-0.858714,2.415,1.11802,2.31929,-0.81845,1.34066
1.24947,-0.85787,2.41411,1.11782,2.32023,-0.820062,1.34021
1.24842,-0.856864,2.41272,1.11791,2.32103,-0.821669,1.33981
1.24709,-0.855957,2.41134,1.11781,2.32148,-0.823329,1.33942
1.24549,-0.854966,2.40968,1.11785,2.32172,-0.825012,1.33905
1.24352,-0.853958,2.40781,1.11819,2.32158,-0.826714,1.33874
1.24111,-0.853065,2.40588,1.11893,2.3211,-0.82843,1.33846
1.23848,-0.852259,2.40379,1.11998,2.32037,-0.830123,1.33819
1.23569,-0.851589,2.40161,1.12116,2.31938,-0.83175,1.33795
1.23276,-0.850983,2.39931,1.12243,2.31815,-0.83331,1.33775
1.22955,-0.850462,2.39688,1.12365,2.31663,-0.834799,1.33758
1.22609,-0.849864,2.39422,1.12493,2.31477,-0.836174,1.33749
1.22231,-0.849243,2.39157,1.12618,2.31288,-0.837477,1.3375
1.21828,-0.848449,2.38888,1.12749,2.3114,-0.838714,1.33757
1.21412,-0.847619,2.38616,1.12893,2.31043,-0.839934,1.3377
1.20993,-0.846911,2.3835,1.1305,2.3098,-0.841189,1.3378
1.20576,-0.846385,2.38098,1.13214,2.30941,-0.842511,1.3378
1.20164,-0.84599,2.37855,1.13378,2.3092,-0.843882,1.33774
1.19755,-0.845687,2.37617,1.13542,2.30906,-0.845299,1.33765
1.19346,-0.845466,2.37381,1.13705,2.30889,-0.846758,1.33758
1.18937,-0.845277,2.37149,1.13869,2.30867,-0.848249,1.33752
1.18525,-0.845105,2.36919,1.14033,2.30841,-0.849764,1.33748
1.18111,-0.844944,2.36687,1.142,2.30814,-0.851288,1.33748
1.17693,-0.844802,2.36456,1.14371,2.3079,-0.852822,1.33751
1.17272,-0.844708,2.36224,1.14545,2.3077,-0.854373,1.33757
1.1685,-0.844685,2.35994,1.14721,2.30753,-0.855936,1.33763
1.16426,-0.844729,2.35763,1.14898,2.30729,-0.857503,1.33769
1.16,-0.844925,2.35534,1.15069,2.3071,-0.859057,1.33774
1.15574,-0.845192,2.35304,1.15237,2.307,-0.860595,1.33778
1.15147,-0.845504,2.35077,1.15402,2.30697,-0.862117,1.33777
1.14719,-0.845871,2.34853,1.15561,2.30698,-0.863627,1.3377
1.14291,-0.846259,2.34629,1.15718,2.30701,-0.865133,1.33761
1.13861,-0.846648,2.34406,1.15877,2.30698,-0.866647,1.33752
1.13429,-0.847062,2.34183,1.16038,2.30687,-0.868167,1.33745
1.12993,-0.847494,2.3396,1.16202,2.3067,-0.869692,1.33742
1.12554,-0.847931,2.33737,1.16369,2.3065,-0.871224,1.33743
1.12111,-0.848379,2.33514,1.16538,2.30625,-0.872761,1.33747
1.11666,-0.848834,2.33289,1.16705,2.30594,-0.874305,1.33753
1.11219,-0.849286,2.33063,1.16871,2.30555,-0.875854,1.33763
1.10768,-0.849735,2.32835,1.17036,2.3051,-0.877406,1.33777
1.10316,-0.85016,2.32604,1.17197,2.30466,-0.878947,1.33794
1.09861,-0.85056,2.32369,1.17356,2.30424,-0.880486,1.33815
1.09404,-0.850962,2.32132,1.17511,2.30383,-0.882026,1.33836
1.08946,-0.851374,2.31894,1.17663,2.3034,-0.883567,1.33857
1.08487,-0.85178,2.31653,1.17812,2.30295,-0.885107,1.33879
1.08026,-0.85218,2.31409,1.17959,2.30249,-0.886649,1.33905
1.07563,-0.852581,2.31164,1.18104,2.30203,-0.888192,1.33933
1.07098,-0.852987,2.30916,1.18248,2.30154,-0.889736,1.33963
1.06632,-0.853411,2.30665,1.18391,2.30101,-0.891282,1.33996
1.06165,-0.853859,2.3041,1.18533,2.3004,-0.892828,1.34034
1.05696,-0.854317,2.30152,1.18673,2.29971,-0.894373,1.34077
1.05225,-0.854782,2.29892,1.18807,2.29892,-0.895923,1.34133
1.04752,-0.855259,2.29632,1.18936,2.29807,-0.897482,1.34205
1.04277,-0.85574,2.29372,1.19063,2.29721,-0.899052,1.34291
1.03801,-0.856211,2.2911,1.19188,2.29635,-0.900636,1.34382
1.03323,-0.856687,2.28845,1.1931,2.29544,-0.902229,1.34478
1.02846,-0.85716,2.28578,1.19425,2.29445,-0.903813,1.34572
1.02367,-0.857612,2.28307,1.19532,2.2934,-0.905385,1.34669
1.01887,-0.858015,2.28031,1.19627,2.29224,-0.906946,1.34774
1.01406,-0.858357,2.27752,1.19711,2.29099,-0.908502,1.34892
1.00924,-0.858588,2.27465,1.19785,2.2897,-0.910065,1.35019
1.00441,-0.858707,2.27173,1.19854,2.28838,-0.911637,1.35157
0.999568,-0.858755,2.26876,1.1992,2.28708,-0.913212,1.353
0.994722,-0.858762,2.26574,1.19979,2.28575,-0.914792,1.35446
0.989877,-0.858706,2.26269,1.20028,2.28435,-0.916374,1.35593
0.98504,-0.85859,2.25963,1.20066,2.2828,-0.917962,1.35739
0.98022,-0.858407,2.25656,1.20093,2.28114,-0.91955,1.35878
0.975414,-0.858122,2.25351,1.20111,2.27941,-0.92114,1.36011
0.97062,-0.857841,2.25043,1.20115,2.27769,-0.922741,1.36134
0.965848,-0.857572,2.24733,1.20101,2.27603,-0.924344,1.36245
0.961098,-0.857275,2.24421,1.20072,2.27448,-0.925947,1.36344
0.956363,-0.85692,2.24108,1.20031,2.27304,-0.927548,1.36433
0.951641,-0.856523,2.23793,1.1999,2.27167,-0.929147,1.36512
0.946924,-0.856162,2.23476,1.19952,2.27036,-0.930746,1.36583
0.942214,-0.855877,2.23157,1.19914,2.26908,-0.932346,1.36645
0.937515,-0.855641,2.22837,1.19881,2.26781,-0.933946,1.36702
0.932822,-0.855454,2.22517,1.19849,2.26656,-0.935548,1.36753
0.928133,-0.855296,2.22195,1.19817,2.26533,-0.937144,1.368
0.923455,-0.855138,2.2187,1.19786,2.26414,-0.938734,1.36838
0.91878,-0.854967,2.21543,1.19742,2.263,-0.940323,1.36871
0.914124,-0.854724,2.21211,1.19688,2.26189,-0.941904,1.36896
0.909485,-0.854388,2.20872,1.19625,2.26077,-0.943473,1.36914
0.90485,-0.853992,2.20529,1.19552,2.25964,-0.945031,1.36931
0.900217,-0.853546,2.2018,1.19471,2.25849,-0.946584,1.36953
0.895588,-0.853048,2.19828,1.19383,2.2573,-0.948134,1.36978
0.89096,-0.852522,2.19472,1.19288,2.25607,-0.949685,1.37009
0.886343,-0.851958,2.19111,1.19187,2.25478,-0.95124,1.37046
0.881725,-0.851372,2.18746,1.19079,2.25344,-0.952797,1.37091
0.87712,-0.85075,2.18378,1.18969,2.25206,-0.954358,1.37141
0.872518,-0.850126,2.18008,1.18856,2.25066,-0.955924,1.37195
0.867922,-0.849502,2.17635,1.18739,2.24922,-0.957496,1.37253
0.86333,-0.848879,2.17259,1.18619,2.24776,-0.959076,1.37316
0.858752,-0.848253,2.16882,1.18498,2.24626,-0.960663,1.37379
0.854175,-0.847641,2.16503,1.18378,2.24475,-0.962255,1.37446
0.849611,-0.847051,2.16124,1.18261,2.24323,-0.963857,1.37513
0.845051,-0.846515,2.15746,1.18147,2.24172,-0.965469,1.37579
0.840516,-0.846038,2.15369,1.18038,2.2402,-0.967092,1.37639
0.835994,-0.845637,2.14995,1.17931,2.23868,-0.968732,1.37695
0.831505,-0.845301,2.14623,1.17826,2.23716,-0.970388,1.37744
0.827036,-0.845023,2.14252,1.17721,2.23563,-0.972056,1.37788
0.822601,-0.844785,2.13883,1.17617,2.2341,-0.973735,1.37825
0.818183,-0.844598,2.13515,1.17512,2.23257,-0.975421,1.37859
0.813801,-0.844441,2.13147,1.17407,2.23101,-0.977117,1.37888
0.809435,-0.844325,2.12779,1.17301,2.22946,-0.978816,1.37916
0.805095,-0.844243,2.12413,1.17197,2.22792,-0.980516,1.37942
0.800765,-0.844204,2.12048,1.17094,2.2264,-0.982219,1.37966
0.796464,-0.844208,2.11685,1.16992,2.22489,-0.98393,1.37986
0.792169,-0.844265,2.11323,1.16891,2.22341,-0.985647,1.38008
0.787904,-0.844362,2.10965,1.1679,2.22192,-0.987374,1.38028
0.78365,-0.844498,2.10608,1.1669,2.22044,-0.989103,1.3805
0.779426,-0.844671,2.10254,1.16588,2.21893,-0.990838,1.38072
0.775217,-0.844935,2.09899,1.16489,2.21741,-0.992575,1.38097
0.771047,-0.845293,2.09548,1.16395,2.21586,-0.994318,1.38122
0.7669,-0.84577,2.092,1.16309,2.21431,-0.996066,1.38151
0.7628,-0.846377,2.08856,1.16226,2.21271,-0.997823,1.3818
0.758725,-0.847084,2.08516,1.16148,2.21111,-0.999576,1.38213
0.754687,-0.847879,2.0818,1.16074,2.20948,-1.00133,1.38246
0.750667,-0.848767,2.07848,1.16004,2.20785,-1.00308,1.38282
0.746692,-0.849744,2.0752,1.15935,2.20618,-1.00484,1.38317
0.742741,-0.850788,2.07196,1.15869,2.2045,-1.00659,1.38356
0.738837,-0.851892,2.06876,1.15804,2.20279,-1.00834,1.38397
0.734954,-0.853044,2.06558,1.15739,2.20107,-1.01009,1.38443
0.731121,-0.854235,2.06242,1.15674,2.1993,-1.01185,1.38491
0.727311,-0.855444,2.05927,1.1561,2.19751,-1.01361,1.38542
0.723556,-0.856686,2.05613,1.15545,2.19567,-1.01536,1.38593
0.719823,-0.857929,2.05297,1.15478,2.19381,-1.01711,1.3865
0.716148,-0.859173,2.04982,1.15405,2.1919,-1.01887,1.38708
0.712503,-0.860375,2.04664,1.15322,2.18999,-1.02063,1.3877
0.708923,-0.861526,2.04343,1.15222,2.18804,-1.0224,1.38831
0.705373,-0.862593,2.04015,1.15105,2.18609,-1.02416,1.38894
0.701893,-0.863575,2.0368,1.1497,2.18408,-1.02593,1.38956
0.698439,-0.864468,2.03338,1.14823,2.18207,-1.02768,1.39019
0.695048,-0.865295,2.02989,1.14666,2.18003,-1.02944,1.3908
0.691675,-0.866062,2.02634,1.14502,2.178,-1.03119,1.39143
0.688367,-0.866803,2.02275,1.14332,2.17595,-1.03294,1.39201
0.685083,-0.86752,2.01914,1.14157,2.17392,-1.0347,1.3926
0.681867,-0.868215,2.01549,1.13972,2.17185,-1.03646,1.39317
0.678671,-0.868872,2.0118,1.13782,2.16979,-1.03822,1.39376
0.675541,-0.869502,2.00808,1.13585,2.1677,-1.03998,1.39435
0.672425,-0.870098,2.00433,1.13383,2.16562,-1.04175,1.39497
0.669378,-0.870673,2.00056,1.13175,2.1635,-1.04353,1.39561
0.666343,-0.871186,1.99675,1.12962,2.16138,-1.04532,1.39629
0.663362,-0.871647,1.9929,1.12742,2.15922,-1.04713,1.397
0.660364,-0.872022,1.98901,1.12516,2.15705,-1.04894,1.39777
0.657399,-0.87234,1.98508,1.12284,2.15486,-1.05078,1.39855
0.654413,-0.872608,1.98112,1.1205,2.15265,-1.05264,1.39935
0.651475,-0.872864,1.97712,1.11809,2.15042,-1.05452,1.40016
0.648533,-0.873091,1.9731,1.11567,2.14818,-1.05641,1.40099
0.645648,-0.873317,1.96906,1.1132,2.14592,-1.05831,1.40182
0.642761,-0.873527,1.96501,1.11072,2.14367,-1.06022,1.40265
0.639942,-0.873759,1.96095,1.10819,2.14141,-1.06214,1.40347
0.637137,-0.874,1.95689,1.10565,2.13916,-1.06406,1.4043
0.634409,-0.874269,1.95284,1.10307,2.13691,-1.06598,1.40509
0.631687,-0.874573,1.94878,1.10047,2.13469,-1.06789,1.40588
0.629049,-0.874927,1.94472,1.09783,2.13247,-1.06979,1.40663
0.626439,-0.875306,1.94067,1.09518,2.13028,-1.07169,1.40736
0.623922,-0.875737,1.93663,1.09249,2.12808,-1.0736,1.40805
0.621431,-0.876181,1.93259,1.08978,2.12591,-1.0755,1.40872
0.619038,-0.876649,1.92855,1.08702,2.12373,-1.07741,1.40936
0.616634,-0.877107,1.92451,1.08423,2.12156,-1.07932,1.41
0.614266,-0.877568,1.92047,1.0814,2.11941,-1.08123,1.41063
0.611869,-0.878018,1.91643,1.07855,2.11728,-1.08315,1.41128
0.609509,-0.878476,1.91238,1.07567,2.11515,-1.08508,1.41191
0.607124,-0.878942,1.90833,1.07278,2.11304,-1.087,1.41256
0.604767,-0.879438,1.90428,1.06987,2.11092,-1.08893,1.41321
0.60239,-0.879963,1.90023,1.06695,2.10882,-1.09087,1.41388
0.600039,-0.880527,1.89619,1.06402,2.1067,-1.09281,1.41457
0.597671,-0.88112,1.89215,1.0611,2.1046,-1.09475,1.41529
0.595331,-0.881762,1.88812,1.05816,2.10249,-1.0967,1.41601
0.592982,-0.882441,1.88409,1.05521,2.10039,-1.09865,1.41675
0.59067,-0.883173,1.88008,1.05225,2.09827,-1.10061,1.4175
0.588352,-0.883938,1.87608,1.04928,2.09616,-1.10257,1.41828
0.586068,-0.884755,1.87208,1.04628,2.09404,-1.10454,1.41907
0.583778,-0.8856,1.86809,1.04327,2.09191,-1.1065,1.4199
0.581527,-0.886487,1.8641,1.04023,2.08978,-1.10848,1.42074
0.579275,-0.8874,1.86011,1.03717,2.08764,-1.11046,1.4216
0.577064,-0.888351,1.85612,1.03407,2.08549,-1.11245,1.42248
0.574844,-0.889322,1.85214,1.03097,2.08334,-1.11443,1.42336
0.572661,-0.890331,1.84815,1.02783,2.08118,-1.11643,1.42425
0.570474,-0.891359,1.84417,1.02468,2.07903,-1.11843,1.42515
0.568327,-0.89243,1.84019,1.0215,2.07685,-1.12044,1.42606
0.566172,-0.893524,1.83621,1.01832,2.07469,-1.12245,1.42696
0.56405,-0.89467,1.83224,1.01511,2.07251,-1.12447,1.42787
0.561916,-0.89584,1.82827,1.01191,2.07034,-1.1265,1.42877
0.55982,-0.89706,1.82431,1.00869,2.06816,-1.12853,1.42966
0.557712,-0.8983,1.82035,1.00547,2.06599,-1.13056,1.43054
0.555643,-0.899583,1.81641,1.00224,2.06381,-1.1326,1.43142
0.553562,-0.900879,1.81247,0.999004,2.06164,-1.13464,1.4323
0.551518,-0.902217,1.80854,0.995741,2.05946,-1.13668,1.43317
0.549459,-0.903566,1.80461,0.992473,2.05728,-1.13873,1.43405
0.547445,-0.90495,1.80069,0.989175,2.05508,-1.14078,1.43492
0.545419,-0.906341,1.79677,0.985871,2.05289,-1.14284,1.4358
0.543427,-0.907764,1.79285,0.982536,2.05069,-1.1449,1.43668
0.541419,-0.909194,1.78893,0.979195,2.04849,-1.14696,1.43757
0.539455,-0.910647,1.78502,0.975813,2.04627,-1.14903,1.43846
0.537482,-0.912095,1.78112,0.972414,2.04406,-1.15109,1.43937
0.535551,-0.913559,1.77721,0.968973,2.04184,-1.15316,1.44028
0.533611,-0.915017,1.77331,0.965513,2.03963,-1.15523,1.4412
0.531716,-0.916495,1.76941,0.962014,2.0374,-1.15731,1.44212
0.52981,-0.91797,1.76552,0.958503,2.03518,-1.15939,1.44306
0.527951,-0.919466,1.76162,0.954956,2.03295,-1.16147,1.44399
0.526081,-0.92096,1.75772,0.951401,2.03073,-1.16355,1.44492
0.524253,-0.922488,1.75383,0.947814,2.0285,-1.16563,1.44585
0.522404,-0.924037,1.74993,0.944217,2.02628,-1.16772,1.44678
0.520601,-0.925621,1.74603,0.940585,2.02404,-1.16981,1.44772
0.518782,-0.927223,1.74213,0.936944,2.0218,-1.17191,1.44866
0.517006,-0.928858,1.73823,0.93327,2.01955,-1.17401,1.4496
0.515218,-0.930505,1.73433,0.929576,2.0173,-1.17611,1.45056
0.513477,-0.932173,1.73043,0.925844,2.01504,-1.17822,1.45152
0.511721,-0.933849,1.72654,0.922087,2.01278,-1.18032,1.45249
0.510019,-0.935555,1.72264,0.918286,2.01052,-1.18243,1.45346
0.508345,-0.937269,1.71876,0.91445,2.00826,-1.18453,1.45443
0.506713,-0.939002,1.71488,0.910575,2.00599,-1.18663,1.4554
0.505079,-0.940744,1.71101,0.906677,2.00373,-1.18872,1.45638
0.503503,-0.942511,1.70715,0.902746,2.00145,-1.19082,1.45737
0.501913,-0.944303,1.7033,0.898801,1.99918,-1.19291,1.45837
0.500375,-0.946119,1.69945,0.894829,1.99689,-1.195,1.45937
0.498822,-0.94796,1.69562,0.890846,1.9946,-1.19709,1.46039
0.497322,-0.949824,1.69181,0.886837,1.9923,-1.19918,1.46141
0.495811,-0.951715,1.68801,0.88282,1.99,-1.20126,1.46243
0.49436,-0.953625,1.68424,0.87878,1.9877,-1.20334,1.46345
0.492927,-0.955552,1.68048,0.874723,1.9854,-1.20542,1.46447
0.4915,-0.957494,1.67674,0.870649,1.98309,-1.2075,1.4655
0.490042,-0.959443,1.67299,0.866577,1.9808,-1.20958,1.46651
0.48863,-0.961391,1.66926,0.862497,1.97851,-1.21166,1.46752
0.487178,-0.963356,1.66552,0.85842,1.97624,-1.21373,1.46852
0.485764,-0.965328,1.6618,0.854332,1.97397,-1.2158,1.4695
0.484346,-0.967315,1.65808,0.850246,1.97171,-1.21787,1.47048
0.48294,-0.96932,1.65438,0.846155,1.96946,-1.21993,1.47144
0.48151,-0.971347,1.65067,0.842067,1.96723,-1.22199,1.47241
0.480137,-0.973378,1.64698,0.837967,1.96499,-1.22404,1.47337
0.478734,-0.975429,1.64329,0.833867,1.96277,-1.22609,1.47432
0.477385,-0.977485,1.63962,0.829751,1.96054,-1.22814,1.47527
0.476018,-0.979556,1.63594,0.825635,1.95833,-1.23019,1.47623
0.474707,-0.981633,1.63228,0.821502,1.95611,-1.23224,1.47718
0.473381,-0.983727,1.62863,0.817367,1.95389,-1.23428,1.47813
0.47207,-0.985837,1.625,0.813221,1.95167,-1.23633,1.47909
0.470765,-0.987968,1.62137,0.809073,1.94946,-1.23838,1.48006
0.469488,-0.990123,1.61776,0.804919,1.94724,-1.24043,1.48102
0.468215,-0.992305,1.61416,0.800764,1.94503,-1.24248,1.48199
0.466974,-0.994504,1.61057,0.796603,1.94282,-1.24453,1.48295
0.465734,-0.996723,1.607,0.79244,1.94062,-1.24657,1.48391
0.464527,-0.998954,1.60345,0.788267,1.93842,-1.24861,1.48487
0.463298,-1.00122,1.5999,0.7841,1.93623,-1.25065,1.48582
0.462141,-1.00349,1.59638,0.77992,1.93403,-1.25269,1.48677
0.460957,-1.00581,1.59287,0.775748,1.93185,-1.25473,1.48772
0.459825,-1.00813,1.5894,0.771564,1.92965,-1.25677,1.48867
0.458652,-1.01048,1.58592,0.767386,1.92747,-1.25881,1.48961
0.45753,-1.01284,1.58247,0.763195,1.92529,-1.26085,1.49054
0.456389,-1.01521,1.57902,0.759006,1.92311,-1.2629,1.49147
0.455277,-1.01759,1.57559,0.754809,1.92093,-1.26495,1.49239
0.454138,-1.01999,1.57217,0.750621,1.91876,-1.267,1.49331
0.45306,-1.0224,1.56877,0.746424,1.91658,-1.26906,1.49422
0.451934,-1.02483,1.56538,0.742238,1.91441,-1.27112,1.49512
0.450853,-1.02727,1.56201,0.738039,1.91223,-1.27319,1.49601
0.44973,-1.02973,1.55865,0.73385,1.91006,-1.27527,1.4969
0.448656,-1.03219,1.55532,0.729649,1.90788,-1.27735,1.49778
0.447538,-1.03467,1.552,0.725459,1.90571,-1.27943,1.49866
0.446469,-1.03714,1.54871,0.721257,1.90353,-1.28152,1.49952
0.445361,-1.03965,1.54543,0.717068,1.90136,-1.28361,1.50038
0.444308,-1.04216,1.54218,0.712867,1.89918,-1.28571,1.50123
0.443219,-1.04471,1.53895,0.708677,1.89701,-1.28781,1.50208
0.442188,-1.04725,1.53575,0.704474,1.89484,-1.2899,1.50293
0.441122,-1.04983,1.53257,0.700282,1.89267,-1.292,1.50377
0.440114,-1.05241,1.52942,0.696079,1.89049,-1.2941,1.50462
0.439077,-1.05502,1.5263,0.691887,1.88833,-1.2962,1.50546
0.438099,-1.05763,1.52321,0.687682,1.88615,-1.2983,1.50629
0.437095,-1.06027,1.52014,0.683488,1.88399,-1.3004,1.50713
0.436149,-1.06291,1.51711,0.679284,1.88182,-1.3025,1.50796
0.435178,-1.06558,1.5141,0.675092,1.87967,-1.30459,1.50879
0.434263,-1.06825,1.51112,0.670891,1.87751,-1.30669,1.50961
0.433319,-1.07095,1.50817,0.666703,1.87536,-1.30878,1.51044
0.432439,-1.07366,1.50526,0.662507,1.8732,-1.31087,1.51127
0.431543,-1.0764,1.50238,0.658322,1.87105,-1.31297,1.51211
0.430703,-1.07915,1.49956,0.654131,1.86889,-1.31507,1.51294
0.429844,-1.08193,1.49677,0.649956,1.86674,-1.31717,1.51379
0.429048,-1.08472,1.49403,0.645782,1.86458,-1.31928,1.51463
0.428216,-1.08755,1.49133,0.641626,1.86244,-1.32139,1.51549
0.427424,-1.09037,1.48868,0.637469,1.86029,-1.32349,1.51635
0.426609,-1.09322,1.48607,0.633329,1.85816,-1.3256,1.51722
0.425835,-1.09606,1.48352,0.629188,1.85602,-1.3277,1.5181
0.425037,-1.09894,1.481,0.625063,1.8539,-1.32981,1.51897
0.424286,-1.10181,1.47852,0.620931,1.85177,-1.33191,1.51984
0.423513,-1.10469,1.47607,0.616811,1.84965,-1.33402,1.52072
0.422778,-1.10757,1.47365,0.612684,1.84753,-1.33612,1.52158
0.422024,-1.11047,1.47126,0.60857,1.84541,-1.33823,1.52245
0.421305,-1.11336,1.4689,0.604457,1.8433,-1.34034,1.5233
0.42058,-1.11629,1.46658,0.600369,1.8412,-1.34244,1.52414
0.419896,-1.11924,1.46431,0.596287,1.83909,-1.34454,1.52496
0.419204,-1.12222,1.46208,0.592231,1.837,-1.34664,1.52577
0.418546,-1.12521,1.45991,0.58818,1.8349,-1.34874,1.52657
0.417871,-1.12823,1.45778,0.584157,1.83282,-1.35084,1.52735
0.417221,-1.13125,1.45571,0.580138,1.83073,-1.35294,1.52811
0.416556,-1.13429,1.45369,0.576146,1.82867,-1.35503,1.52885
0.415919,-1.13734,1.45174,0.572161,1.8266,-1.35712,1.52957
0.415268,-1.14041,1.44984,0.568203,1.82455,-1.35921,1.53028
0.414642,-1.14349,1.44801,0.564257,1.8225,-1.36129,1.53097
0.414004,-1.1466,1.44627,0.560342,1.82046,-1.36337,1.53165
0.4134,-1.1497,1.44464,0.556437,1.81843,-1.36546,1.53232
0.412787,-1.15284,1.4431,0.552565,1.8164,-1.36754,1.53297
0.412207,-1.15599,1.44166,0.548702,1.81437,-1.36962,1.53363
0.411622,-1.15915,1.44028,0.544866,1.81235,-1.3717,1.53428
0.411049,-1.16232,1.439,0.541034,1.81031,-1.37379,1.53493
0.410466,-1.16549,1.43779,0.537227,1.80828,-1.37587,1.53557
0.409911,-1.16866,1.43665,0.533425,1.80623,-1.37797,1.53621
0.409366,-1.17184,1.43555,0.529649,1.8042,-1.38006,1.53683
0.408862,-1.17501,1.43449,0.525891,1.80217,-1.38215,1.53743
0.408361,-1.17819,1.43347,0.522164,1.80016,-1.38424,1.53799
0.407893,-1.18136,1.43249,0.518454,1.79816,-1.38632,1.53854
0.407433,-1.18454,1.43158,0.514776,1.79618,-1.3884,1.53905
0.407012,-1.18773,1.43077,0.511124,1.79421,-1.39046,1.53954
0.406601,-1.19094,1.43008,0.507518,1.79226,-1.39252,1.53999
0.406217,-1.19416,1.42952,0.503954,1.79032,-1.39458,1.54042
0.405873,-1.19739,1.42907,0.500427,1.78838,-1.39664,1.54081
0.40547,-1.20065,1.42873,0.496978,1.78648,-1.39869,1.54118
0.405098,-1.2039,1.42848,0.493569,1.78457,-1.40073,1.54153
0.404665,-1.20718,1.42829,0.490247,1.78269,-1.40277,1.54186
0.404231,-1.21047,1.42822,0.48699,1.78083,-1.40478,1.54219
0.403784,-1.21378,1.42822,0.483796,1.77897,-1.40679,1.54253
0.403304,-1.21711,1.4283,0.480668,1.77712,-1.40878,1.54288
0.402816,-1.22041,1.42835,0.477592,1.77525,-1.41076,1.54323
0.402327,-1.22367,1.42823,0.474502,1.77337,-1.41272,1.54358
0.401804,-1.22689,1.42789,0.471397,1.7715,-1.41466,1.54394
0.401307,-1.23008,1.42741,0.468232,1.76962,-1.41659,1.54431
0.400857,-1.23326,1.42689,0.465022,1.76774,-1.4185,1.54467
0.40045,-1.23643,1.42642,0.461793,1.76587,-1.4204,1.54501
0.400066,-1.23961,1.42605,0.458575,1.76401,-1.4223,1.54534
0.399684,-1.24277,1.42573,0.455383,1.76215,-1.42419,1.54567
0.399296,-1.24591,1.42539,0.45221,1.7603,-1.42607,1.54599
0.398918,-1.24905,1.425,0.449037,1.75845,-1.42795,1.54631
0.398561,-1.25216,1.42456,0.445858,1.75661,-1.4298,1.54664
0.398216,-1.25528,1.42415,0.442683,1.75478,-1.43165,1.54696
0.397919,-1.25839,1.42378,0.439505,1.75295,-1.43348,1.54728
0.39765,-1.26149,1.42348,0.436348,1.75114,-1.43529,1.54757
0.397392,-1.26459,1.42322,0.433217,1.74933,-1.43709,1.54786
0.397162,-1.26767,1.42297,0.430103,1.74754,-1.43887,1.54815
0.396948,-1.27073,1.42271,0.427003,1.74575,-1.44062,1.54843
0.39674,-1.27376,1.42244,0.423913,1.74399,-1.44235,1.5487
0.396552,-1.27678,1.42218,0.420834,1.74224,-1.44405,1.54897
0.396387,-1.27978,1.42195,0.41777,1.7405,-1.44572,1.54922
0.39624,-1.28276,1.42175,0.414727,1.73879,-1.44736,1.54946
0.396108,-1.28572,1.42154,0.411704,1.73709,-1.44897,1.54969
0.395979,-1.28866,1.4213,0.408693,1.7354,-1.45055,1.54991
0.395861,-1.29156,1.42102,0.405684,1.73373,-1.4521,1.55013
0.395756,-1.29444,1.42074,0.402678,1.73208,-1.45363,1.55034
0.395671,-1.2973,1.42049,0.399682,1.73044,-1.45512,1.55055
0.395602,-1.30014,1.42026,0.396704,1.72882,-1.45658,1.55076
0.395544,-1.30294,1.42005,0.393748,1.72721,-1.458,1.55095
0.395492,-1.30571,1.41983,0.390811,1.72561,-1.45938,1.55115
0.395451,-1.30845,1.41959,0.38788,1.72403,-1.46072,1.55135
0.395426,-1.31117,1.41935,0.384958,1.72247,-1.462,1.55155
0.395422,-1.31386,1.41914,0.382047,1.72094,-1.46323,1.55174
0.395427,-1.31652,1.41893,0.379157,1.71944,-1.46441,1.5519
0.395428,-1.31915,1.41867,0.376287,1.71796,-1.46554,1.55203
0.395431,-1.32175,1.41837,0.373428,1.71652,-1.46661,1.55213
0.395441,-1.32432,1.41802,0.370577,1.7151,-1.46762,1.5522
0.395454,-1.32688,1.41775,0.367745,1.71372,-1.46855,1.55221
0.395492,-1.32945,1.4176,0.364962,1.71239,-1.46939,1.55218
0.395529,-1.33199,1.41758,0.362252,1.71109,-1.4701,1.55211
0.395538,-1.33451,1.41749,0.359609,1.70979,-1.47057,1.55205
0.395437,-1.33698,1.41703,0.35704,1.7085,-1.47064,1.55206
0.39512,-1.33934,1.4161,0.354541,1.70724,-1.47013,1.55211
0.394596,-1.3416,1.41478,0.352125,1.70607,-1.46874,1.55215
0.39361,-1.34396,1.41316,0.350145,1.70505,-1.46749,1.5519
0.392524,-1.34645,1.41161,0.348448,1.70411,-1.4666,1.55128
0.391606,-1.34907,1.41022,0.346686,1.70317,-1.4659,1.5508
0.390748,-1.35174,1.40903,0.344841,1.70221,-1.46537,1.55065
0.390032,-1.35439,1.40811,0.342961,1.70121,-1.46499,1.55062
0.389522,-1.357,1.40743,0.341027,1.70017,-1.46467,1.55052
0.389089,-1.35952,1.4068,0.339048,1.69912,-1.46439,1.55039
0.388642,-1.36193,1.40607,0.337078,1.69809,-1.46416,1.55024
0.388267,-1.36429,1.40521,0.335034,1.69702,-1.46419,1.55015
0.388002,-1.36658,1.40435,0.332904,1.69596,-1.46439,1.55004
0.387914,-1.36875,1.40352,0.330695,1.69489,-1.4646,1.54989
0.38781,-1.37084,1.40263,0.328493,1.69383,-1.4648,1.54971
0.387686,-1.37288,1.4016,0.326265,1.69272,-1.46517,1.54958
0.387617,-1.37486,1.40055,0.324001,1.6916,-1.46569,1.54943
0.387643,-1.37676,1.39958,0.321722,1.6905,-1.46617,1.54914
0.387682,-1.3786,1.39858,0.319488,1.68946,-1.46658,1.54877
0.387541,-1.38034,1.39754,0.317331,1.6884,-1.46696,1.54842
0.387422,-1.38209,1.39651,0.315162,1.68723,-1.46759,1.54807
0.387231,-1.38362,1.39581,0.313057,1.68615,-1.46826,1.54739
0.387381,-1.38518,1.39543,0.310918,1.68502,-1.46887,1.54666
0.387178,-1.38647,1.3952,0.309064,1.68397,-1.46913,1.54608
0.387299,-1.38792,1.39451,0.307163,1.68258,-1.4697,1.54588
0.386662,-1.38904,1.39432,0.305402,1.68156,-1.47048,1.54546
0.387159,-1.39034,1.39445,0.303254,1.68021,-1.47143,1.54508
0.386533,-1.39091,1.39543,0.301557,1.67955,-1.47119,1.5443
0.387319,-1.39197,1.39468,0.300013,1.67769,-1.47103,1.54444
0.387028,-1.39272,1.3941,0.298513,1.67723,-1.47126,1.54414
0.386037,-1.39196,1.3942,0.297002,1.67613,-1.4716,1.54429
0.388366,-1.39231,1.39417,0.294284,1.67469,-1.47322,1.54335
0.391139,-1.39134,1.39733,0.293907,1.67656,-1.47029,1.54137
0.393272,-1.38379,1.39113,0.292385,1.67603,-1.46289,1.53681
0.387128,-1.37918,1.38491,0.298353,1.6846,-1.45561,1.53437
0.383461,-1.37856,1.37902,0.292101,1.67799,-1.45335,1.53379
0.387464,-1.38287,1.37323,0.286377,1.68253,-1.44866,1.53047
0.392033,-1.3829,1.36879,0.284033,1.68996,-1.4455,1.52748
0.390138,-1.38093,1.3706,0.284726,1.69486,-1.44218,1.52548
0.389181,-1.38321,1.37037,0.286255,1.69612,-1.4396,1.52291
0.38953,-1.38252,1.36711,0.282732,1.69368,-1.43729,1.52105
0.392514,-1.38332,1.3652,0.287922,1.69392,-1.43462,1.51978
0.386793,-1.38289,1.36565,0.291008,1.68528,-1.43285,1.51892
0.387021,-1.38338,1.35962,0.290714,1.67981,-1.43098,1.51843
0.384228,-1.38338,1.35491,0.292999,1.67548,-1.4288,1.51817
0.382065,-1.38216,1.35039,0.291179,1.66927,-1.4269,1.51732
0.381665,-1.38075,1.34604,0.28819,1.66518,-1.42566,1.51614
0.380769,-1.37975,1.34189,0.288078,1.6635,-1.42527,1.51531
0.380014,-1.37997,1.33806,0.29128,1.65959,-1.42418,1.51541
0.377859,-1.38061,1.33491,0.295119,1.65526,-1.42376,1.51503
0.375401,-1.38043,1.33222,0.297958,1.65146,-1.4235,1.5151
0.37295,-1.38033,1.32952,0.301055,1.64803,-1.42341,1.51549
0.3712,-1.38007,1.32695,0.304215,1.64503,-1.42394,1.51566
0.371412,-1.37794,1.32468,0.307677,1.64258,-1.42579,1.51549
0.378334,-1.37095,1.32329,0.311984,1.64072,-1.43185,1.51583
0.386723,-1.36095,1.32259,0.316918,1.63964,-1.43793,1.51952
0.392668,-1.35182,1.3197,0.321606,1.63746,-1.43828,1.52391
0.396045,-1.34376,1.31607,0.325776,1.63461,-1.43763,1.52719
0.397906,-1.33662,1.31285,0.32946,1.63159,-1.43809,1.52949
0.398862,-1.33013,1.30976,0.332978,1.62878,-1.43977,1.53155
0.399554,-1.32411,1.30667,0.336316,1.62617,-1.44199,1.53329
0.400392,-1.31846,1.3036,0.339546,1.62378,-1.44452,1.53467
0.401576,-1.31307,1.30064,0.342703,1.62158,-1.44733,1.53578
0.403125,-1.30789,1.29778,0.345824,1.61958,-1.45041,1.53683
0.404939,-1.30284,1.29503,0.348911,1.61774,-1.4538,1.53799
0.406967,-1.29789,1.29241,0.351976,1.61604,-1.45753,1.53921
0.409148,-1.293,1.28993,0.355022,1.6145,-1.46162,1.54049
0.411372,-1.28816,1.28762,0.35806,1.61309,-1.46596,1.54193
0.413686,-1.28334,1.28551,0.361108,1.61176,-1.4705,1.54361
0.416296,-1.27855,1.28382,0.364174,1.61037,-1.47491,1.54527
0.419342,-1.27377,1.28278,0.367258,1.60888,-1.47892,1.54686
0.422724,-1.26898,1.2824,0.370353,1.60725,-1.48244,1.5484
0.426232,-1.26418,1.28272,0.373431,1.60544,-1.48564,1.54987
0.429795,-1.25936,1.28393,0.376505,1.60346,-1.48858,1.55131
0.433335,-1.25453,1.28653,0.379557,1.6013,-1.49133,1.55276
0.436801,-1.2497,1.29065,0.382564,1.59892,-1.49397,1.55438
0.440175,-1.24485,1.29581,0.38556,1.59633,-1.49679,1.55626
0.443469,-1.23996,1.30128,0.388543,1.59356,-1.49991,1.55828
0.446739,-1.23503,1.30668,0.391606,1.59071,-1.50318,1.56034
0.450034,-1.23006,1.31191,0.394793,1.58785,-1.50644,1.56239
0.453347,-1.22505,1.31684,0.398053,1.58501,-1.50954,1.5643
0.456664,-1.22,1.32145,0.401378,1.58223,-1.51245,1.56603
0.460001,-1.21493,1.32564,0.404752,1.57952,-1.51512,1.56758
0.463322,-1.20983,1.32946,0.408171,1.57692,-1.51758,1.56898
0.466642,-1.20472,1.333,0.411618,1.57443,-1.51983,1.57025
0.469966,-1.19958,1.33634,0.415089,1.57203,-1.52189,1.57143
0.473309,-1.19443,1.33953,0.418579,1.5697,-1.5238,1.57252
0.476674,-1.18927,1.34262,0.422085,1.56744,-1.52556,1.57355
0.480065,-1.18409,1.34565,0.425605,1.56524,-1.52719,1.57455
0.483477,-1.1789,1.34865,0.429136,1.56307,-1.52872,1.57551
0.486916,-1.17369,1.35163,0.432674,1.56095,-1.53016,1.57644
0.490384,-1.16848,1.35461,0.436222,1.55885,-1.53153,1.57736
0.493882,-1.16326,1.3576,0.439777,1.55678,-1.53284,1.57827
0.49741,-1.15803,1.36061,0.443339,1.55472,-1.5341,1.57917
0.500966,-1.15279,1.36365,0.446909,1.55268,-1.53533,1.58007
0.504551,-1.14755,1.36673,0.450486,1.55065,-1.53652,1.58096
0.508164,-1.1423,1.36983,0.454071,1.54862,-1.53769,1.58186
0.5118,-1.13705,1.37296,0.457663,1.5466,-1.53884,1.58276
0.515456,-1.1318,1.37613,0.461264,1.54458,-1.53998,1.58367
0.519138,-1.12654,1.37933,0.464867,1.54256,-1.54109,1.58459
0.522858,-1.12128,1.38256,0.468476,1.54053,-1.54218,1.58553
0.526625,-1.11601,1.38583,0.472086,1.53849,-1.54326,1.58647
0.530437,-1.11075,1.38914,0.475694,1.53645,-1.54434,1.58743
0.534293,-1.10547,1.39247,0.479293,1.5344,-1.5454,1.58839
0.538188,-1.1002,1.39584,0.482885,1.53234,-1.54647,1.58936
0.54212,-1.09493,1.39924,0.486471,1.53028,-1.54753,1.59034
0.546081,-1.08965,1.40266,0.490047,1.52822,-1.54859,1.59132
0.550067,-1.08437,1.40612,0.493613,1.52615,-1.54963,1.59231
0.554079,-1.07909,1.40959,0.497169,1.52408,-1.55067,1.59329
0.558114,-1.07381,1.41309,0.500718,1.522,-1.55171,1.59428
0.562174,-1.06853,1.41661,0.504261,1.51992,-1.55274,1.59527
0.566271,-1.06325,1.42015,0.507806,1.51783,-1.55376,1.59626
0.57041,-1.05797,1.42371,0.511355,1.51574,-1.55477,1.59726
0.574592,-1.05268,1.42729,0.514907,1.51365,-1.55576,1.59826
0.578819,-1.0474,1.43089,0.518464,1.51156,-1.55675,1.59926
0.583079,-1.04212,1.4345,0.522022,1.50947,-1.55772,1.60027
0.587369,-1.03684,1.43813,0.525581,1.50737,-1.55869,1.60129
0.591684,-1.03156,1.44177,0.52914,1.50526,-1.55964,1.60231
0.596024,-1.02627,1.44542,0.532697,1.50315,-1.56057,1.60335
0.600394,-1.02099,1.44908,0.53625,1.50103,-1.56148,1.60439
0.604792,-1.01571,1.45275,0.5398,1.4989,-1.56238,1.60543
0.609217,-1.01043,1.45644,0.543341,1.49677,-1.56325,1.60647
0.613666,-1.00515,1.46014,0.546862,1.49463,-1.56411,1.60753
0.618142,-0.999877,1.46385,0.55036,1.4925,-1.56494,1.6086
0.622647,-0.994601,1.46758,0.553835,1.49036,-1.56575,1.60968
0.627186,-0.989325,1.47132,0.557285,1.48823,-1.56654,1.61078
0.631769,-0.984048,1.47508,0.560716,1.4861,-1.56728,1.61188
0.636388,-0.978771,1.47885,0.56413,1.48397,-1.56793,1.61297
0.641044,-0.973496,1.48263,0.56752,1.48184,-1.5685,1.61407
0.645734,-0.968221,1.48642,0.570882,1.4797,-1.56894,1.61517
0.65046,-0.962948,1.49022,0.574223,1.47757,-1.56924,1.61628
0.655216,-0.957674,1.49402,0.577541,1.47545,-1.56937,1.61739
0.66,-0.952399,1.49784,0.580872,1.47334,-1.56925,1.61851
0.664806,-0.947121,1.50166,0.584317,1.47123,-1.56874,1.61965
0.669623,-0.941838,1.50548,0.587897,1.46912,-1.56755,1.62081
0.674419,-0.936536,1.5093,0.591663,1.467,-1.56541,1.62201
0.679185,-0.931227,1.51308,0.595717,1.46483,-1.56168,1.62321
0.683925,-0.925918,1.5168,0.600157,1.46264,-1.55528,1.6244
0.688669,-0.920607,1.52053,0.605118,1.46056,-1.54942,1.62546
0.693459,-0.915275,1.52425,0.610103,1.45861,-1.54499,1.62648
0.698254,-0.909937,1.528,0.614904,1.45672,-1.54139,1.62748
0.703038,-0.904599,1.53177,0.619577,1.45485,-1.53826,1.62847
0.707821,-0.899258,1.53556,0.624163,1.45299,-1.53558,1.62944
0.712606,-0.893912,1.53936,0.628683,1.45115,-1.53329,1.63041
0.717395,-0.888564,1.54318,0.633157,1.44933,-1.53133,1.63135
0.722188,-0.883213,1.54702,0.637599,1.44754,-1.52964,1.63228
0.726986,-0.877861,1.55087,0.642018,1.44578,-1.52816,1.6332
0.731792,-0.872506,1.55473,0.646422,1.44407,-1.52684,1.63409
0.736605,-0.867151,1.55861,0.65082,1.44246,-1.52566,1.63496
0.741426,-0.861795,1.5625,0.655216,1.44094,-1.52458,1.6358
0.746254,-0.856441,1.5664,0.659611,1.43953,-1.52359,1.63662
0.75109,-0.851087,1.57032,0.663969,1.43824,-1.52273,1.63742
0.755937,-0.845732,1.57426,0.668274,1.43708,-1.52199,1.6382
0.760789,-0.840377,1.5782,0.672531,1.43607,-1.52141,1.63899
0.765642,-0.835024,1.58215,0.676736,1.43526,-1.52098,1.63977
0.770499,-0.829674,1.58611,0.680888,1.4347,-1.52071,1.64054
0.775359,-0.824328,1.59008,0.684984,1.43447,-1.52056,1.6413
0.780223,-0.818987,1.59406,0.689022,1.43472,-1.52051,1.64203
0.785098,-0.813655,1.59804,0.69301,1.43568,-1.52057,1.64274
0.789987,-0.808335,1.60202,0.696987,1.43776,-1.52069,1.64338
0.794895,-0.803011,1.60597,0.701044,1.44187,-1.52095,1.64404
0.79983,-0.797685,1.60986,0.705254,1.44899,-1.52148,1.64476
0.804766,-0.792391,1.61367,0.709604,1.45784,-1.52605,1.64535
0.809716,-0.787126,1.61746,0.713722,1.46706,-1.53449,1.64595
0.814604,-0.781865,1.62133,0.717512,1.4749,-1.54336,1.64674
0.819462,-0.776611,1.62525,0.72109,1.48159,-1.55132,1.64758
0.824309,-0.771363,1.62916,0.72459,1.48725,-1.55823,1.64847
0.829157,-0.766112,1.63308,0.728045,1.49206,-1.56422,1.64942
0.83401,-0.76085,1.63698,0.73146,1.49615,-1.5694,1.65047
0.838869,-0.75558,1.64088,0.734826,1.49956,-1.57386,1.65159
0.843729,-0.750325,1.64479,0.738109,1.50208,-1.57774,1.65259
0.848594,-0.745097,1.64871,0.7412,1.50373,-1.58104,1.65344
0.853469,-0.739886,1.65265,0.744001,1.50451,-1.58378,1.65413
0.85836,-0.734693,1.6566,0.74632,1.50437,-1.586,1.65461
0.86327,-0.729518,1.66059,0.747837,1.50294,-1.58768,1.65477
0.868201,-0.724357,1.66458,0.747553,1.50009,-1.58884,1.65452
0.8731,-0.719273,1.66836,0.741092,1.49229,-1.58918,1.6535
0.877799,-0.714306,1.67118,0.734126,1.48037,-1.58893,1.65007
0.880023,-0.710223,1.67147,0.727027,1.46807,-1.5895,1.64474
0.873031,-0.710179,1.66389,0.719668,1.45999,-1.59074,1.63741
0.86163,-0.719557,1.66218,0.723209,1.46729,-1.58069,1.6308
0.853846,-0.73112,1.65546,0.725305,1.46001,-1.56985,1.62545
0.846387,-0.738772,1.65219,0.729303,1.46048,-1.55865,1.62272
0.841056,-0.746727,1.65537,0.72553,1.45562,-1.54967,1.61959
0.838805,-0.750208,1.65456,0.730386,1.46078,-1.54153,1.61785
0.840824,-0.754684,1.65026,0.725823,1.455,-1.54042,1.61509
0.840705,-0.749808,1.65173,0.731686,1.46296,-1.53672,1.6136
0.845153,-0.753073,1.64693,0.725099,1.45469,-1.53555,1.61131
0.842835,-0.746234,1.65069,0.731707,1.4627,-1.53421,1.61073
0.846595,-0.750489,1.64589,0.725518,1.45454,-1.53133,1.60909
0.844848,-0.744338,1.65026,0.731802,1.46229,-1.53071,1.60896
