Afshin1997/kuka_rl_ros2/src/catch_and_throw/output_files/ft/idealpd_13/ft_received_joint_vel_np.csv
joint_0,joint_1,joint_2,joint_3,joint_4,joint_5,joint_6
0,0,2.39541e-05,-2.39759e-05,0,3.5953e-05,0
0,0,0,2.39771e-05,0,-2.39771e-05,2.39552e-05
0,0,-3.5953e-05,0,0,0,0
0.000167774,0.000359525,0.00106662,-0.000922822,-0.000249274,-0.000731049,0.000443434
-0.00145005,-0.00390676,-0.0130146,0.017197,-0.0102583,-0.0193062,0.0125712
-0.00154601,-0.0118167,-0.0751549,0.0819262,-0.0517348,-0.115675,0.0173895
0.0171011,-0.0111211,-0.11676,0.0912698,-0.0525185,-0.206639,-0.0865002
0.0530555,0.0023969,-0.085965,0.0430005,0.0679379,-0.138913,-0.279096
0.0815628,0.0240877,0.0150039,-0.0345138,0.277874,0.146348,-0.500342
0.0911739,0.0337228,0.171311,-0.134616,0.522424,0.55095,-0.670166
0.0974462,0.00729858,0.388886,-0.298606,0.743539,0.961506,-0.751717
0.105411,-0.0636468,0.641249,-0.513872,0.908978,1.28307,-0.767272
0.104457,-0.19192,0.856078,-0.729078,1.00164,1.43992,-0.743987
0.120918,-0.371838,1.03454,-0.92111,1.02887,1.4493,-0.700594
0.156973,-0.517791,1.19597,-1.08084,1.02626,1.40465,-0.643689
0.191504,-0.623741,1.29578,-1.15723,1.00312,1.31218,-0.581186
0.256457,-0.681847,1.37551,-1.18469,0.968944,1.20709,-0.517899
0.340907,-0.680329,1.42782,-1.2468,0.928958,1.09913,-0.45811
0.417601,-0.689302,1.42484,-1.2382,0.888254,0.978908,-0.402308
0.495464,-0.6987,1.40174,-1.19913,0.841197,0.857811,-0.351657
0.558203,-0.705481,1.34973,-1.2255,0.794622,0.745246,-0.307894
0.60646,-0.73198,1.28901,-1.23708,0.757443,0.642424,-0.270861
0.651563,-0.728695,1.23707,-1.20296,0.711325,0.548843,-0.234597
0.68583,-0.716484,1.19093,-1.18626,0.665081,0.462473,-0.198862
0.725807,-0.72939,1.16668,-1.16611,0.631153,0.386417,-0.164823
0.759015,-0.719996,1.14564,-1.12387,0.587885,0.334544,-0.136701
0.764876,-0.746792,1.09911,-1.06943,0.550559,0.272085,-0.106015
0.748506,-0.789191,1.03891,-1.06625,0.521158,0.246162,-0.0810235
0.751897,-0.806343,1.03177,-1.04759,0.493436,0.20756,-0.0622236
0.777447,-0.811985,1.06469,-1.01814,0.463175,0.155336,-0.0441489
0.76677,-0.827519,1.04239,-1.02463,0.438902,0.13455,-0.0243885
0.721566,-0.873175,0.978418,-1.03179,0.43332,0.12661,-0.0113967
0.685395,-0.882193,0.945998,-1.02645,0.422488,0.116873,-0.00526121
0.67647,-0.87381,0.966817,-1.021,0.40778,0.103242,-0.00355923
0.668441,-0.881228,0.985093,-1.03241,0.398826,0.0912937,-0.0028402
0.630973,-0.898947,0.957671,-1.04952,0.391271,0.0906389,-0.00365529
0.595938,-0.929116,0.93367,-1.0218,0.383084,0.0879143,-0.00516507
0.56676,-0.928669,0.920016,-0.998634,0.373936,0.107957,-0.00986325
0.541399,-0.945114,0.913345,-0.99033,0.372787,0.121146,-0.0158788
0.514064,-0.962789,0.899942,-0.983246,0.370082,0.126017,-0.0230702
0.496064,-0.989515,0.894111,-0.937001,0.371598,0.133034,-0.0297202
0.483468,-0.991719,0.893434,-0.889192,0.366937,0.153174,-0.034048
0.472635,-1.00028,0.895225,-0.882486,0.367476,0.167667,-0.035077
0.449599,-1.01655,0.875373,-0.872881,0.367493,0.181721,-0.0421136
0.422782,-1.03943,0.845528,-0.838661,0.375107,0.193828,-0.0516988
0.405125,-1.02766,0.836184,-0.803023,0.372652,0.203521,-0.0589399
0.398191,-1.01782,0.847014,-0.799437,0.373458,0.207143,-0.0606268
0.378004,-1.02397,0.840978,-0.809698,0.377004,0.214787,-0.0508383
0.336917,-1.03767,0.812955,-0.804878,0.3855,0.233795,-0.0384206
0.30654,-1.03845,0.813449,-0.787515,0.385307,0.242878,-0.0341199
0.281683,-1.02495,0.834299,-0.79752,0.385135,0.242327,-0.0304752
0.246258,-1.02872,0.841901,-0.820388,0.393399,0.243777,-0.0327177
0.193804,-1.0316,0.82126,-0.853533,0.396947,0.258566,-0.0430943
0.153234,-1.01363,0.809662,-0.867104,0.401031,0.269676,-0.0622836
0.150303,-1.00048,0.840075,-0.862473,0.406342,0.262137,-0.0832166
0.143922,-0.993229,0.838497,-0.866673,0.410158,0.271881,-0.100191
0.126035,-0.984865,0.814082,-0.886009,0.415623,0.290419,-0.116939
0.116406,-1.00829,0.804569,-0.895184,0.427723,0.289366,-0.138817
0.106669,-1.02101,0.781497,-0.899959,0.433033,0.300426,-0.160897
0.11048,-1.01476,0.778166,-0.880197,0.4375,0.315274,-0.172545
0.122506,-1.00132,0.793267,-0.868099,0.440148,0.309464,-0.188936
0.1106,-1.00396,0.782708,-0.896064,0.445036,0.316604,-0.201366
0.0771444,-1.0228,0.747714,-0.888161,0.450235,0.334416,-0.21088
0.059752,-1.01112,0.739458,-0.869136,0.454105,0.345737,-0.214249
0.0672571,-0.984756,0.775578,-0.845268,0.447358,0.327765,-0.220383
0.0676015,-0.985788,0.786818,-0.855043,0.453454,0.330398,-0.219882
0.0312676,-0.988591,0.738283,-0.860537,0.454741,0.345658,-0.219017
0.011169,-0.971814,0.713225,-0.836192,0.45121,0.35246,-0.214668
0.0237653,-0.940449,0.738474,-0.812119,0.450119,0.345646,-0.207644
0.0312901,-0.935,0.749344,-0.804435,0.45006,0.333633,-0.202217
0.0140339,-0.938364,0.717358,-0.814169,0.44847,0.333553,-0.197733
-0.000143812,-0.921782,0.696867,-0.818108,0.447835,0.342993,-0.194715
0.0117209,-0.888293,0.711857,-0.810489,0.442756,0.339665,-0.194185
0.0183594,-0.876674,0.710205,-0.798982,0.440664,0.334939,-0.196165
0.0149327,-0.878118,0.687228,-0.80343,0.443562,0.337604,-0.19699
0.0203967,-0.867422,0.679862,-0.826162,0.44356,0.348781,-0.199485
0.0369003,-0.838126,0.692717,-0.835884,0.437867,0.337592,-0.203773
0.055246,-0.834107,0.698509,-0.827696,0.442735,0.326035,-0.211049
0.0471591,-0.837454,0.663607,-0.820388,0.443197,0.335698,-0.211898
0.0412488,-0.839799,0.63938,-0.836048,0.447509,0.33875,-0.214237
0.0599945,-0.807313,0.655625,-0.857493,0.443485,0.331252,-0.213612
0.0893643,-0.779448,0.683409,-0.852143,0.440434,0.31984,-0.213686
0.0919333,-0.769622,0.667011,-0.829077,0.442814,0.319507,-0.210125
0.0749956,-0.752652,0.626617,-0.820553,0.442141,0.324609,-0.211529
0.0798011,-0.744203,0.630188,-0.825395,0.444652,0.32546,-0.206196
0.0860009,-0.716255,0.647236,-0.82366,0.443926,0.330042,-0.205439
0.0952604,-0.698365,0.661274,-0.790449,0.443598,0.32262,-0.204314
0.0865642,-0.678156,0.652701,-0.754809,0.444424,0.330737,-0.206865
0.0721793,-0.661826,0.637295,-0.735539,0.448104,0.335203,-0.211948
0.0682878,-0.646241,0.647032,-0.730433,0.447857,0.332547,-0.217471
0.0638745,-0.63165,0.656469,-0.726527,0.446071,0.329487,-0.223728
0.0600185,-0.619072,0.660851,-0.686713,0.44964,0.32689,-0.228437
0.0562407,-0.602182,0.667973,-0.648392,0.449005,0.31827,-0.235149
0.0421496,-0.574262,0.671888,-0.621002,0.448509,0.311298,-0.238456
0.0264965,-0.554102,0.681276,-0.606448,0.454546,0.306693,-0.241752
0.0124519,-0.535325,0.69557,-0.591904,0.453283,0.303963,-0.2476
-0.00249267,-0.541986,0.704944,-0.561688,0.457384,0.305351,-0.247816
-0.0223871,-0.543786,0.702904,-0.511799,0.46011,0.310914,-0.249182
-0.0310025,-0.52703,0.717839,-0.466044,0.459129,0.310312,-0.247457
-0.0373677,-0.501061,0.741494,-0.420513,0.463619,0.307367,-0.244149
-0.0518306,-0.473774,0.748326,-0.3437,0.46421,0.313944,-0.239331
-0.068935,-0.468978,0.748721,-0.217579,0.466495,0.310747,-0.226591
-0.101432,-0.472683,0.747643,-0.0818624,0.472877,0.322704,-0.186255
-0.133496,-0.486332,0.76357,0.0768807,0.477578,0.327597,-0.106327
-0.180334,-0.500294,0.77771,0.250692,0.481103,0.325196,-0.059021
-0.248223,-0.503769,0.77559,0.413742,0.482679,0.325847,-0.0602821
-0.33023,-0.493271,0.784266,0.555073,0.480317,0.31972,-0.070921
-0.413286,-0.475102,0.807146,0.675064,0.478192,0.306061,-0.0810513
-0.494062,-0.453065,0.840087,0.753575,0.46956,0.27792,-0.090323
-0.574463,-0.446762,0.867243,0.801487,0.461181,0.25853,-0.103194
-0.662492,-0.450786,0.869189,0.788402,0.457042,0.255774,-0.111696
-0.731057,-0.460627,0.873199,0.729044,0.452744,0.256061,-0.1132
-0.761209,-0.463034,0.881534,0.729042,0.452421,0.254575,-0.109215
-0.757877,-0.448739,0.872815,0.745462,0.449753,0.270849,-0.110672
-0.745413,-0.440875,0.83906,0.739984,0.444846,0.294196,-0.107214
-0.722632,-0.436467,0.790054,0.730649,0.448161,0.329115,-0.104704
-0.681608,-0.421639,0.757482,0.758692,0.449046,0.355401,-0.102911
-0.616227,-0.400084,0.751849,0.809696,0.445496,0.367332,-0.0995627
-0.561439,-0.388095,0.735742,0.876152,0.444597,0.385302,-0.0902554
-0.53488,-0.395374,0.705423,0.917312,0.441853,0.397076,-0.0832046
-0.533779,-0.406347,0.680385,0.92294,0.439055,0.410518,-0.0793375
-0.542346,-0.412787,0.676901,0.901469,0.442447,0.414824,-0.0832285
-0.551564,-0.413706,0.689889,0.922389,0.437349,0.408552,-0.0862646
-0.549332,-0.411421,0.712338,0.933166,0.433934,0.403895,-0.0814789
-0.550928,-0.417085,0.729714,0.926763,0.431865,0.393212,-0.0755145
-0.565559,-0.42694,0.724981,0.892541,0.432113,0.388184,-0.0739769
-0.587841,-0.434343,0.712624,0.916289,0.431098,0.39012,-0.0749153
-0.611793,-0.433783,0.694829,0.950507,0.43309,0.387249,-0.0765774
-0.625868,-0.430125,0.707099,0.946849,0.428336,0.379382,-0.0707446
-0.630763,-0.419834,0.741998,0.888191,0.430118,0.375817,-0.060447
-0.645438,-0.418152,0.760478,0.868374,0.432363,0.370981,-0.0545895
-0.667099,-0.420181,0.755288,0.865613,0.42893,0.360214,-0.0554977
-0.682255,-0.412711,0.75095,0.858583,0.42849,0.358313,-0.0566029
-0.687124,-0.39704,0.752676,0.84385,0.43171,0.360082,-0.0588532
-0.685865,-0.37215,0.760082,0.812524,0.427722,0.3431,-0.0589131
-0.676922,-0.355185,0.77873,0.817548,0.42617,0.336238,-0.0560995
-0.65871,-0.342657,0.788496,0.822746,0.427453,0.331272,-0.0505483
-0.646541,-0.343285,0.778107,0.847689,0.420896,0.325919,-0.0403039
-0.641393,-0.358871,0.754605,0.830703,0.422986,0.328264,-0.0367907
-0.638475,-0.374456,0.73863,0.81001,0.426975,0.332103,-0.037955
-0.620457,-0.388304,0.736462,0.819475,0.423983,0.326575,-0.0393673
-0.600029,-0.393452,0.736916,0.845053,0.424616,0.332271,-0.0332091
-0.584134,-0.399329,0.734053,0.856817,0.427434,0.336186,-0.0265325
-0.572405,-0.402296,0.732194,0.840235,0.429257,0.341044,-0.0181326
-0.564037,-0.396237,0.737241,0.832285,0.430253,0.341531,-0.00890407
-0.549646,-0.387352,0.742669,0.848732,0.431366,0.348462,0.000503344
-0.544227,-0.38079,0.737157,0.866008,0.427396,0.350399,0.00367907
-0.544673,-0.386944,0.740128,0.861112,0.431174,0.352573,0.0041107
-0.557386,-0.396022,0.742538,0.840506,0.432688,0.351849,0.00353526
-0.560576,-0.404801,0.758069,0.840678,0.432497,0.343452,0.00359536
-0.555732,-0.410966,0.779496,0.850765,0.432649,0.330098,0.00420637
-0.559485,-0.415983,0.78392,0.850925,0.429966,0.323846,0.0081974
-0.573899,-0.420289,0.774619,0.820685,0.429351,0.323051,0.0240877
-0.596254,-0.412447,0.759447,0.794406,0.431481,0.330629,0.0514615
-0.592534,-0.400528,0.770856,0.803704,0.430789,0.323447,0.0879981
-0.575089,-0.384655,0.798073,0.81647,0.427972,0.321113,0.134838
-0.562563,-0.373096,0.806927,0.812104,0.429601,0.314351,0.183558
-0.567587,-0.374097,0.797498,0.781247,0.429103,0.320478,0.239714
-0.583235,-0.383103,0.780886,0.749884,0.430617,0.324166,0.297993
-0.587525,-0.386494,0.757685,0.759267,0.432649,0.331272,0.356259
-0.579284,-0.379957,0.741387,0.762803,0.431558,0.33323,0.402213
-0.571191,-0.3672,0.732998,0.750926,0.428316,0.327461,0.427324
-0.57642,-0.349541,0.711581,0.713403,0.430752,0.324301,0.431694
-0.586818,-0.332051,0.683025,0.682222,0.427146,0.319013,0.429397
-0.592551,-0.3127,0.656105,0.683801,0.422373,0.317374,0.421556
-0.593146,-0.288717,0.634538,0.668956,0.42032,0.313225,0.408257
-0.607328,-0.27067,0.609533,0.631309,0.410714,0.305533,0.395405
-0.628618,-0.248224,0.578837,0.544035,0.402316,0.30039,0.381713
-0.646493,-0.228545,0.565058,0.445321,0.393629,0.286047,0.360506
-0.646642,-0.200875,0.552868,0.390401,0.375951,0.271784,0.319744
-0.642298,-0.162954,0.53131,0.349481,0.360111,0.267986,0.269987
-0.643514,-0.14219,0.508659,0.266295,0.353785,0.26131,0.220265
-0.648746,-0.124711,0.479213,0.202299,0.344042,0.264043,0.168946
-0.647792,-0.105363,0.453245,0.174151,0.333595,0.273306,0.119672
-0.636546,-0.0931557,0.455424,0.155403,0.322949,0.273774,0.0839516
-0.635964,-0.0859129,0.462688,0.125616,0.316664,0.273198,0.0572833
-0.645307,-0.0935152,0.477883,0.0885177,0.300629,0.271066,0.0563872
-0.661226,-0.101816,0.485745,0.0721913,0.285371,0.273701,0.0667027
-0.676083,-0.111935,0.48131,0.0858451,0.268223,0.279371,0.0904831
-0.698784,-0.130194,0.473222,0.0990593,0.26637,0.282558,0.134795
-0.713942,-0.143994,0.477571,0.111792,0.276104,0.287305,0.188804
-0.720343,-0.151933,0.491989,0.145078,0.288017,0.278351,0.249146
-0.722942,-0.158244,0.493235,0.20158,0.308606,0.273427,0.29603
-0.743964,-0.157649,0.473618,0.264869,0.328629,0.270885,0.331476
-0.786111,-0.151897,0.449003,0.287711,0.350066,0.279358,0.361328
-0.829545,-0.145049,0.456047,0.283973,0.359919,0.274625,0.378567
-0.854659,-0.137432,0.493176,0.288154,0.368377,0.271556,0.38387
-0.864072,-0.141058,0.541748,0.301926,0.378519,0.262054,0.378531
-0.890503,-0.166469,0.567057,0.227863,0.384733,0.258242,0.372749
-0.94329,-0.208818,0.548328,0.120121,0.389372,0.270862,0.360183
-0.958129,-0.240338,0.550075,0.0241596,0.397752,0.267158,0.310648
-0.917403,-0.254707,0.606453,-0.0752149,0.408548,0.253892,0.129289
-0.869927,-0.265936,0.608341,-0.200515,0.431806,0.243394,-0.131164
-0.844645,-0.293393,0.547022,-0.354418,0.460014,0.224087,-0.426206
-0.790282,-0.317874,0.537612,-0.514231,0.485781,0.192846,-0.729044
-0.687576,-0.330437,0.584341,-0.635743,0.498345,0.151556,-1.00056
-0.584062,-0.340093,0.618719,-0.749356,0.509174,0.123686,-1.20789
-0.498448,-0.35618,0.629259,-0.859889,0.510157,0.103918,-1.32944
-0.421248,-0.384769,0.636048,-0.935947,0.510516,0.0726946,-1.37801
-0.354754,-0.426445,0.632471,-0.986218,0.51033,0.0455652,-1.36178
-0.298005,-0.456421,0.637306,-1.0427,0.505608,0.019426,-1.29218
-0.23679,-0.472586,0.672979,-1.05079,0.499592,-0.0109778,-1.19172
-0.182444,-0.497118,0.717263,-1.03178,0.487814,-0.034334,-1.07163
-0.151329,-0.536211,0.746336,-1.00955,0.477751,-0.055704,-0.941696
-0.140452,-0.589371,0.76297,-1.01557,0.471803,-0.0861167,-0.809827
-0.134263,-0.637984,0.770018,-0.977422,0.460532,-0.124999,-0.676119
-0.117634,-0.685075,0.786255,-0.898988,0.452591,-0.181137,-0.550483
-0.0924486,-0.736569,0.825793,-0.850326,0.441702,-0.270407,-0.441738
-0.0758464,-0.762587,0.864127,-0.838169,0.429006,-0.375745,-0.34358
-0.0729223,-0.796477,0.894039,-0.816898,0.421662,-0.514507,-0.262556
-0.0699417,-0.838689,0.904352,-0.755528,0.411213,-0.697343,-0.197924
-0.05225,-0.861838,0.919564,-0.674577,0.400456,-0.923064,-0.144455
-0.00375115,-0.875685,0.948215,-0.582987,0.398308,-1.18932,-0.0890929
0.0334352,-0.876039,0.961017,-0.529343,0.392249,-1.45941,-0.0301516
0.0577654,-0.916229,0.940533,-0.442648,0.38523,-1.70244,0.0153282
0.104141,-0.957853,0.921098,-0.332794,0.383678,-1.9042,0.0385883
0.180115,-0.972136,0.927195,-0.209262,0.378903,-2.01593,0.0517492
0.249746,-0.963701,0.92014,-0.115693,0.374283,-2.06912,0.0481635
0.305941,-0.982575,0.904819,-0.0453494,0.373802,-2.00983,0.0321065
0.36128,-1.04042,0.889832,0.0123794,0.379939,-1.89789,0.017185
0.425163,-1.06808,0.888904,0.0588919,0.379305,-1.71296,0.00623194
0.495476,-1.04064,0.886836,0.0969741,0.376641,-1.5114,-0.00341542
0.570415,-1.04162,0.890222,0.117748,0.384521,-1.30585,-0.00587241
0.625119,-1.08215,0.865493,0.123087,0.386113,-1.12308,-0.00703458
0.692993,-1.09294,0.841409,0.129744,0.38897,-0.948467,-0.00722665
0.792391,-1.045,0.853928,0.161759,0.391425,-0.780443,-0.00681889
0.88894,-1.03935,0.862898,0.1918,0.390753,-0.640693,-0.00548889
0.945222,-1.07417,0.816191,0.192031,0.396103,-0.493044,-0.00959916
0.983702,-1.07275,0.75874,0.199363,0.40174,-0.340888,-0.0190794
1.06909,-1.03433,0.780946,0.229433,0.403293,-0.231913,-0.0273234
1.17086,-1.02789,0.838389,0.265026,0.401894,-0.150861,-0.030956
1.20841,-1.04199,0.811313,0.267362,0.401434,-0.0688957,-0.0359399
1.21693,-1.03692,0.744802,0.245119,0.408145,0.00753826,-0.0400643
1.29713,-1.01251,0.784134,0.261957,0.405748,0.0251903,-0.0475883
1.38627,-1.01366,0.842747,0.29103,0.402066,0.0130146,-0.0564564
1.39538,-1.02601,0.789073,0.26964,0.40569,0.0188516,-0.0678084
1.4316,-1.01159,0.760765,0.249793,0.407665,0.0110971,-0.0779556
1.49977,-0.986146,0.788078,0.281768,0.401529,-0.00846106,-0.0827172
1.52272,-1.00603,0.757721,0.275775,0.407704,-0.0110852,-0.0869316
1.56065,-1.00883,0.746911,0.278173,0.407205,-0.014729,-0.0914179
1.58998,-0.96025,0.731081,0.301348,0.398845,-0.00562049,-0.0992031
1.61785,-0.957228,0.711749,0.298846,0.407416,-0.0125598,-0.107273
1.63683,-0.966949,0.704237,0.335203,0.399689,-0.026904,-0.11235
1.62474,-0.961135,0.656272,0.330533,0.400072,-0.0281876,-0.115423
1.65704,-0.929164,0.658794,0.345162,0.405,-0.0441249,-0.124022
1.6522,-0.886231,0.649849,0.381048,0.391769,-0.0459367,-0.126664
1.6613,-0.908623,0.638541,0.350243,0.400705,-0.0666907,-0.127234
1.65493,-0.897006,0.627474,0.385458,0.397656,-0.0636378,-0.131422
1.63158,-0.855918,0.581018,0.36853,0.400724,-0.0398107,-0.134508
1.6546,-0.823696,0.59448,0.396424,0.395585,-0.0415623,-0.134251
1.62707,-0.814273,0.572461,0.411469,0.389277,-0.024663,-0.141183
1.63131,-0.830036,0.554979,0.381156,0.400034,-0.0197026,-0.143754
1.6092,-0.797196,0.545378,0.422231,0.386938,0.00765774,-0.137947
1.59706,-0.761197,0.530279,0.381527,0.394339,0.0264618,-0.140135
1.59862,-0.736725,0.551022,0.408964,0.390408,0.0348373,-0.140811
1.54341,-0.738786,0.516006,0.401841,0.38617,0.0630865,-0.137187
1.53801,-0.739302,0.510948,0.384217,0.395509,0.0937025,-0.138175
1.51294,-0.700447,0.517851,0.428866,0.385499,0.135976,-0.135125
1.49768,-0.693727,0.509222,0.384709,0.391252,0.14515,-0.131668
1.48559,-0.674517,0.526791,0.423645,0.38479,0.156546,-0.137827
1.43871,-0.660167,0.508503,0.404717,0.38523,0.173476,-0.138289
1.42586,-0.651495,0.511391,0.381209,0.390447,0.171646,-0.136569
1.41017,-0.610575,0.53463,0.421927,0.377254,0.174327,-0.14071
1.38502,-0.612188,0.508467,0.373959,0.385979,0.176368,-0.141566
1.37624,-0.595894,0.511559,0.373797,0.380839,0.171307,-0.144114
1.36562,-0.567248,0.516868,0.372497,0.376334,0.156978,-0.148074
1.3376,-0.55631,0.489855,0.34706,0.383313,0.148452,-0.149795
1.33355,-0.532926,0.510864,0.355612,0.379652,0.121541,-0.155576
1.32906,-0.513213,0.508851,0.350595,0.375087,0.097542,-0.157872
1.2907,-0.517862,0.478028,0.335682,0.37668,0.0888011,-0.160477
1.28606,-0.514196,0.502559,0.322228,0.37758,0.0662145,-0.162966
1.27141,-0.493931,0.499407,0.31483,0.371943,0.0526455,-0.164012
1.2313,-0.481994,0.468235,0.296341,0.372421,0.042569,-0.169341
1.23883,-0.448344,0.503626,0.29399,0.371694,0.0175325,-0.166217
1.23812,-0.425475,0.514268,0.305821,0.364387,0.00312797,-0.16716
1.19689,-0.430523,0.474433,0.273558,0.365865,-0.000167766,-0.168494
1.19492,-0.414461,0.497777,0.253964,0.361702,-0.00840115,-0.170624
1.20331,-0.405117,0.517383,0.257655,0.361551,-0.00296003,-0.176512
1.15661,-0.41156,0.469721,0.238864,0.357081,0.00276842,-0.172817
1.14302,-0.399209,0.466751,0.210702,0.357294,-0.00902393,-0.176416
1.17007,-0.36693,0.503338,0.223224,0.355777,-0.0161671,-0.17676
1.14118,-0.348505,0.475379,0.221727,0.350641,-0.0106777,-0.180562
1.11162,-0.337388,0.459235,0.184454,0.351789,-0.0120085,-0.179253
1.13613,-0.314699,0.508131,0.186255,0.3488,-0.0258853,-0.179364
1.13049,-0.309234,0.504596,0.203583,0.348666,-0.0286896,-0.181928
1.07321,-0.313815,0.451733,0.164152,0.348318,-0.026354,-0.180295
1.07563,-0.306861,0.483181,0.126251,0.348033,-0.0566721,-0.179747
1.10151,-0.298666,0.5141,0.152982,0.347283,-0.0923527,-0.177802
1.06139,-0.290623,0.459608,0.144191,0.346748,-0.117515,-0.179496
1.03744,-0.276255,0.441929,0.0975181,0.347781,-0.156146,-0.177922
1.07863,-0.253437,0.494506,0.104824,0.342108,-0.198634,-0.179496
1.08353,-0.239067,0.486296,0.126676,0.343007,-0.217531,-0.176652
1.03292,-0.225526,0.429589,0.0835521,0.339635,-0.205537,-0.178657
1.03383,-0.21505,0.447754,0.0445345,0.340284,-0.213936,-0.175849
1.06541,-0.199581,0.489808,0.064977,0.33718,-0.224543,-0.178082
1.03682,-0.182464,0.448521,0.0711162,0.337312,-0.224087,-0.175993
0.993925,-0.164072,0.405657,0.0252622,0.335762,-0.230152,-0.172113
1.01735,-0.140243,0.443439,0.0310039,0.334071,-0.232308,-0.169725
1.03928,-0.12093,0.450033,0.0468213,0.332521,-0.18786,-0.166397
0.997052,-0.118084,0.381767,0.0153162,0.333534,-0.141933,-0.173128
0.96623,-0.120103,0.357925,-0.0354006,0.333269,-0.144311,-0.171922
0.993145,-0.111252,0.409547,-0.0329934,0.329066,-0.198691,-0.177706
0.991109,-0.0934149,0.408868,-0.0062676,0.327593,-0.259572,-0.181473
0.943709,-0.0744718,0.353591,-0.0400283,0.325193,-0.333769,-0.185436
0.931237,-0.054539,0.343796,-0.0648212,0.32048,-0.411217,-0.187489
0.966827,-0.039489,0.371904,-0.0432761,0.315433,-0.481574,-0.184538
0.9736,-0.0257296,0.348074,-0.0148601,0.317469,-0.508898,-0.185607
0.937345,-0.024796,0.288144,-0.0456011,0.314742,-0.504944,-0.183267
0.919349,-0.0276829,0.277692,-0.0834323,0.314689,-0.50649,-0.183271
0.940704,-0.0170652,0.311115,-0.0773564,0.308668,-0.50293,-0.181425
0.948251,0.000215728,0.304539,-0.0566269,0.308625,-0.48306,-0.184142
0.919588,0.00399065,0.263994,-0.0728265,0.302839,-0.469819,-0.186027
0.894944,0.00393093,0.253976,-0.0880982,0.299076,-0.480999,-0.191597
0.907868,0.0102702,0.288226,-0.0644856,0.297125,-0.508072,-0.195255
0.90929,0.0168263,0.304838,-0.0296497,0.298712,-0.527163,-0.200405
0.874852,0.00800527,0.28088,-0.0202768,0.300922,-0.543484,-0.199437
0.837838,-0.00918014,0.265493,-0.0156877,0.303237,-0.562194,-0.199878
0.832645,-0.017916,0.29272,-0.00370305,0.308246,-0.577087,-0.193349
0.837107,-0.0173775,0.311885,0.0136743,0.312096,-0.568426,-0.191728
0.826833,-0.0160106,0.28348,0.0406975,0.316395,-0.53585,-0.187105
0.806522,-0.0250476,0.249122,0.019343,0.320073,-0.506981,-0.188552
0.788077,-0.0266883,0.241968,-2.39541e-05,0.320614,-0.478267,-0.180994
0.795521,-0.013159,0.239978,0.00583646,0.325078,-0.449156,-0.177347
0.80223,0.00490143,0.226904,0.0121397,0.323375,-0.410462,-0.173336
0.782697,0.00685515,0.189859,-0.00921609,0.317273,-0.374684,-0.171247
0.753443,0.00941939,0.135107,-0.036563,0.312944,-0.348134,-0.166577
0.734567,0.0269172,0.11341,-0.0512338,0.310006,-0.313204,-0.159826
0.728456,0.0463659,0.104464,-0.0549224,0.299982,-0.298364,-0.157913
0.708585,0.0576455,0.0886375,-0.0509822,0.290141,-0.274877,-0.148632
0.675511,0.0617773,0.0709929,-0.0638385,0.281901,-0.263707,-0.139445
0.64557,0.0594792,0.0456131,-0.0839396,0.277216,-0.265146,-0.130523
0.617078,0.055294,0.0319732,-0.0765894,0.275036,-0.267662,-0.119096
0.594408,0.0561475,0.0357618,-0.0623794,0.268377,-0.274158,-0.111192
0.575062,0.061226,0.0531009,-0.0474684,0.269457,-0.279022,-0.104332
0.551597,0.0589251,0.0610942,-0.0288454,0.26821,-0.282426,-0.0957278
0.530782,0.053439,0.0577414,-0.00969548,0.273918,-0.286047,-0.0917775
0.509162,0.0494458,0.058254,0.013422,0.27751,-0.282498,-0.0908264
0.488022,0.0435997,0.0581969,0.027109,0.278904,-0.288455,-0.0883619
0.462592,0.0439212,0.0531368,0.0485829,0.282342,-0.283373,-0.0825215
0.438909,0.0423893,0.0479021,0.0668616,0.283525,-0.28993,-0.0791937
0.421404,0.04035,0.0549344,0.0879982,0.290453,-0.28982,-0.0812991
0.392445,0.0405197,0.054985,0.113002,0.288204,-0.292314,-0.0860249
0.360214,0.0351729,0.0484751,0.120762,0.291373,-0.290191,-0.0865601
0.330353,0.0353903,0.0408313,0.138841,0.292077,-0.291416,-0.0886255
0.306693,0.0383486,0.0332075,0.161316,0.298007,-0.288082,-0.0913417
0.275117,0.0444985,0.0227586,0.170636,0.298232,-0.283242,-0.100167
0.237534,0.0497214,0.0155072,0.177255,0.298352,-0.280329,-0.104069
0.20412,0.0531633,0.00902434,0.182836,0.297696,-0.278664,-0.10363
0.169717,0.0631195,0.00166577,0.187489,0.301976,-0.275487,-0.104919
0.128127,0.0708045,-0.00647162,0.189427,0.299306,-0.274613,-0.113074
0.0835042,0.0777159,-0.0140692,0.180323,0.295227,-0.27309,-0.114303
0.0419338,0.0837239,-0.0272648,0.178521,0.290332,-0.273607,-0.111073
0.00946732,0.0903829,-0.0484871,0.166421,0.285947,-0.271149,-0.11054
-0.0207452,0.101041,-0.0795293,0.155859,0.280208,-0.278436,-0.112678
-0.0450477,0.116628,-0.112541,0.141854,0.267041,-0.277476,-0.10172
-0.0717273,0.131698,-0.144689,0.117388,0.256258,-0.281193,-0.0933115
-0.094829,0.150075,-0.177926,0.120606,0.235403,-0.28668,-0.0901912
-0.12211,0.165171,-0.214679,0.0855575,0.213459,-0.295514,-0.0892847
-0.15252,0.183163,-0.236443,0.0882858,0.178954,-0.30281,-0.0837438
-0.178177,0.198802,-0.263108,0.0828331,0.135658,-0.310576,-0.0719756
-0.212629,0.212977,-0.299985,0.094474,0.0891457,-0.317865,-0.0655793
-0.24808,0.217113,-0.330841,0.102151,0.0413974,-0.327677,-0.0645935
-0.288899,0.221234,-0.358673,0.120612,-0.00602101,-0.333721,-0.0585923
-0.333453,0.219762,-0.386327,0.143256,-0.0477441,-0.329882,-0.0517707
-0.378327,0.21517,-0.408816,0.155919,-0.0947448,-0.333565,-0.0417061
-0.42404,0.209036,-0.432549,0.17505,-0.147642,-0.320451,-0.028342
-0.461752,0.212186,-0.457581,0.198044,-0.198099,-0.317853,-0.0159394
-0.494865,0.215615,-0.481443,0.21021,-0.234847,-0.301336,-0.00354726
-0.529057,0.223236,-0.507545,0.237533,-0.254992,-0.293645,0.00239692
-0.55844,0.22821,-0.531356,0.254851,-0.252353,-0.279382,0.000275625
-0.592335,0.229108,-0.549898,0.269568,-0.244235,-0.27749,-0.000419457
-0.624136,0.223045,-0.557338,0.280844,-0.230379,-0.273486,-0.000467388
-0.651574,0.220096,-0.556981,0.304994,-0.213708,-0.268513,-0.00039548
-0.672995,0.207167,-0.551537,0.323447,-0.201676,-0.269207,-0.000227695
-0.692921,0.196127,-0.554799,0.337065,-0.193459,-0.269616,1.19776e-05
-0.709785,0.189874,-0.558512,0.351957,-0.179913,-0.266164,0.000215718
-0.73108,0.186156,-0.563344,0.363982,-0.170755,-0.264139,0.000275638
-0.746972,0.179939,-0.552328,0.366565,-0.161582,-0.264965,0.000551271
-0.758249,0.170396,-0.528074,0.380161,-0.14809,-0.273834,0.000479367
-0.7675,0.158044,-0.514351,0.396297,-0.135352,-0.275667,0.000778966
-0.781714,0.141753,-0.508491,0.401805,-0.126326,-0.283614,0.000623185
-0.809624,0.123375,-0.519564,0.395686,-0.120798,-0.278867,0.000179765
-0.8335,0.104313,-0.526276,0.39199,-0.108417,-0.280054,-0.000107864
-0.831039,0.0938223,-0.502235,0.406783,-0.0966961,-0.28402,-0.000515297
-0.819606,0.0862245,-0.46874,0.421032,-0.0826413,-0.290623,-0.000623177
-0.829784,0.0721708,-0.462986,0.414557,-0.0703156,-0.293105,-0.00039548
-0.863432,0.0556175,-0.481287,0.399269,-0.0617605,-0.287171,-0.000491343
-0.878274,0.0408792,-0.474263,0.380161,-0.0561451,-0.290756,-3.59547e-05
-0.869448,0.0322728,-0.438756,0.395998,-0.0536306,-0.299934,0.000143812
-0.865079,0.0222073,-0.423641,0.415527,-0.0515047,-0.296857,0.000371524
-0.882486,0.00349931,-0.442412,0.397951,-0.0504093,-0.296998,0.000443391
-0.906677,-0.0117928,-0.46319,0.372239,-0.0521375,-0.291667,0.000695116
-0.899995,-0.0175805,-0.450585,0.369309,-0.0544934,-0.301588,0.00112648
-0.87523,-0.0172937,-0.419111,0.398545,-0.061821,-0.301039,0.00230103
-0.876231,-0.023932,-0.424196,0.393853,-0.0650968,-0.305495,0.00245671
-0.911675,-0.0457449,-0.460266,0.360051,-0.0665764,-0.295946,0.00204935
-0.925592,-0.0596082,-0.462844,0.336126,-0.0675128,-0.305016,0.00188149
-0.903657,-0.0658789,-0.431083,0.346113,-0.0739205,-0.31004,0.00152203
-0.896843,-0.0685122,-0.429349,0.35989,-0.0808965,-0.314387,0.00174965
-0.922796,-0.0798649,-0.46754,0.346005,-0.0846587,-0.303628,0.00212126
-0.943401,-0.0887771,-0.49157,0.309521,-0.0866679,-0.305675,0.0028402
-0.927039,-0.0884697,-0.468571,0.308649,-0.0929615,-0.318189,0.00542898
-0.901852,-0.0804123,-0.444844,0.330901,-0.0990162,-0.316484,0.0128468
-0.918218,-0.0867679,-0.472154,0.324852,-0.102511,-0.312269,0.0233818
-0.950555,-0.101181,-0.507724,0.287147,-0.108642,-0.30595,0.0374259
-0.945795,-0.106135,-0.496387,0.273403,-0.118369,-0.316811,0.0511859
-0.920811,-0.100198,-0.473845,0.296818,-0.128104,-0.314782,0.0714963
-0.923863,-0.102695,-0.494997,0.296305,-0.136604,-0.312748,0.095265
-0.955744,-0.116987,-0.536078,0.260255,-0.143884,-0.303613,0.12123
-0.959123,-0.12371,-0.53494,0.23443,-0.151266,-0.312422,0.140092
-0.928273,-0.114141,-0.497801,0.251459,-0.165866,-0.320598,0.154337
-0.921338,-0.10776,-0.499072,0.259704,-0.179683,-0.321074,0.173252
-0.957396,-0.118323,-0.528529,0.227322,-0.191235,-0.313899,0.1828
-0.973948,-0.126527,-0.531332,0.193169,-0.2039,-0.310157,0.198934
-0.945854,-0.121607,-0.51138,0.198416,-0.21553,-0.316044,0.216776
-0.920284,-0.109473,-0.515945,0.21389,-0.227254,-0.312206,0.238001
-0.938628,-0.100718,-0.566125,0.180175,-0.24132,-0.306336,0.251471
-0.956523,-0.0977411,-0.594404,0.130397,-0.251989,-0.307628,0.267769
-0.933582,-0.0864923,-0.572668,0.12682,-0.263928,-0.317266,0.281349
-0.916748,-0.071724,-0.57028,0.133765,-0.277759,-0.316029,0.290874
-0.94945,-0.0687192,-0.615309,0.104901,-0.289335,-0.309344,0.298403
-0.982085,-0.0704536,-0.648428,0.0485709,-0.306271,-0.311439,0.29991
-0.968745,-0.0615765,-0.628756,0.020925,-0.322508,-0.32085,0.294927
-0.941351,-0.0393673,-0.611781,0.026113,-0.336739,-0.323722,0.283001
-0.951751,-0.0294819,-0.646193,0.00296017,-0.341185,-0.315517,0.268154
-0.984026,-0.0327282,-0.682318,-0.0513033,-0.345061,-0.317035,0.249602
-0.971501,-0.0264978,-0.663331,-0.0741482,-0.342738,-0.326662,0.228677
-0.942214,-0.00571635,-0.647589,-0.056768,-0.341034,-0.322955,0.208041
-0.94951,0.000671139,-0.677161,-0.0622476,-0.334627,-0.315457,0.183615
-0.97789,-0.00704656,-0.702547,-0.110959,-0.327843,-0.306897,0.16412
-0.963987,-0.00511741,-0.678995,-0.126065,-0.321837,-0.323007,0.142652
-0.928564,0.00666308,-0.647864,-0.0992271,-0.31467,-0.318857,0.128288
-0.938963,0.00870077,-0.676299,-0.0949174,-0.305289,-0.314174,0.109287
-0.981689,-0.000886803,-0.720942,-0.130721,-0.297835,-0.302942,0.0862964
-0.978394,0.00142608,-0.697526,-0.152124,-0.288957,-0.315274,0.0688118
-0.941216,0.0183962,-0.647368,-0.141549,-0.280994,-0.322456,0.0576456
-0.939038,0.0310384,-0.659812,-0.134688,-0.273157,-0.322332,0.0438852
-0.979016,0.022459,-0.713139,-0.173188,-0.267264,-0.31759,0.0329694
-0.986459,0.0177243,-0.713441,-0.208065,-0.260541,-0.317407,0.0268441
-0.953405,0.0331013,-0.687145,-0.188636,-0.26017,-0.323786,0.0282955
-0.941867,0.047037,-0.70329,-0.183354,-0.256648,-0.315454,0.0314219
-0.970495,0.0459846,-0.750123,-0.220659,-0.254724,-0.313407,0.0323702
-0.973193,0.0456708,-0.746336,-0.257559,-0.257051,-0.313213,0.0405896
-0.944524,0.0633622,-0.716722,-0.24023,-0.261569,-0.321736,0.0502032
-0.939566,0.0790222,-0.735299,-0.231818,-0.266216,-0.310193,0.064965
-0.973754,0.0748913,-0.786952,-0.265385,-0.266593,-0.304754,0.0787503
-0.979221,0.0690875,-0.781306,-0.305818,-0.268786,-0.313296,0.0875787
-0.942691,0.0829329,-0.739109,-0.295131,-0.278213,-0.32677,0.0932875
-0.929499,0.0962791,-0.749297,-0.270909,-0.284336,-0.323459,0.100593
-0.966696,0.0860968,-0.809063,-0.28637,-0.287168,-0.30805,0.108939
-0.98411,0.0765055,-0.823082,-0.311247,-0.285391,-0.315765,0.113716
-0.948707,0.0865163,-0.771923,-0.3002,-0.292058,-0.33311,0.112834
-0.918666,0.10456,-0.751034,-0.272227,-0.299675,-0.330589,0.111499
-0.947736,0.0956485,-0.795245,-0.277693,-0.302087,-0.323282,0.106866
-0.977255,0.0706933,-0.819487,-0.299275,-0.297183,-0.317407,0.0965307
-0.958642,0.0694143,-0.782769,-0.281936,-0.302413,-0.334332,0.085977
-0.923831,0.0813351,-0.742705,-0.253532,-0.307537,-0.334005,0.0808437
-0.937106,0.0800087,-0.7588,-0.257859,-0.312403,-0.332343,0.073537
-0.968064,0.0587933,-0.782468,-0.2865,-0.306866,-0.329091,0.0625922
-0.955504,0.0474804,-0.758692,-0.27357,-0.308879,-0.340967,0.0534724
-0.923767,0.0527559,-0.732314,-0.23697,-0.313707,-0.342985,0.0447742
-0.923735,0.0475044,-0.743029,-0.236455,-0.314574,-0.336953,0.0376176
-0.944956,0.0284153,-0.757769,-0.267686,-0.311463,-0.340193,0.0330773
-0.934281,0.0163581,-0.731572,-0.26282,-0.311046,-0.350579,0.0364552
-0.904136,0.0207692,-0.704882,-0.219185,-0.31457,-0.348582,0.0397646
-0.906754,0.0148961,-0.725532,-0.204386,-0.315226,-0.347163,0.0385763
-0.932851,-0.00909625,-0.746096,-0.237425,-0.313227,-0.338539,0.0366846
-0.924466,-0.0208042,-0.718462,-0.249003,-0.312005,-0.353215,0.0354006
-0.889156,-0.0173775,-0.677964,-0.207884,-0.317446,-0.354071,0.0353663
-0.881168,-0.0226976,-0.683349,-0.188735,-0.320288,-0.35409,0.0351729
-0.914719,-0.0521327,-0.720006,-0.19379,-0.319095,-0.346257,0.0384943
-0.924813,-0.0786507,-0.71507,-0.211708,-0.320096,-0.346264,0.0421236
-0.892056,-0.0840954,-0.660347,-0.190206,-0.326209,-0.360363,0.0473508
-0.862281,-0.0818264,-0.63497,-0.156043,-0.331524,-0.363593,0.0523339
-0.878861,-0.10236,-0.65789,-0.152779,-0.330869,-0.35582,0.0616843
-0.903206,-0.134736,-0.671089,-0.178585,-0.334477,-0.354437,0.0706933
-0.891169,-0.146235,-0.642754,-0.163721,-0.339095,-0.358505,0.0728419
-0.854683,-0.141279,-0.606735,-0.13108,-0.345847,-0.355636,0.0760502
-0.842045,-0.152503,-0.605087,-0.1241,-0.349181,-0.359248,0.0826453
-0.861143,-0.179891,-0.625994,-0.144886,-0.355607,-0.348361,0.0928516
-0.862838,-0.197864,-0.619156,-0.156901,-0.359267,-0.357115,0.10387
-0.839332,-0.196165,-0.585596,-0.135682,-0.365635,-0.358164,0.104153
-0.820209,-0.195204,-0.577426,-0.122901,-0.373342,-0.357163,0.105488
-0.829984,-0.216766,-0.603644,-0.147774,-0.381013,-0.354617,0.115969
-0.8421,-0.236863,-0.625047,-0.190677,-0.383544,-0.35711,0.122332
-0.822462,-0.239738,-0.612589,-0.20122,-0.387493,-0.36071,0.122446
-0.787513,-0.223896,-0.594716,-0.196225,-0.398883,-0.366685,0.12812
-0.769886,-0.227119,-0.608922,-0.210832,-0.405038,-0.360806,0.131386
-0.783175,-0.237102,-0.649962,-0.248931,-0.405134,-0.354941,0.127605
-0.789325,-0.242171,-0.684029,-0.283434,-0.408298,-0.358253,0.124951
-0.767224,-0.231446,-0.677477,-0.292588,-0.41453,-0.352987,0.127114
-0.732422,-0.21994,-0.662049,-0.305126,-0.416352,-0.363215,0.125849
-0.720164,-0.219414,-0.679178,-0.318749,-0.421567,-0.358871,0.124933
-0.733549,-0.227682,-0.720545,-0.352585,-0.422066,-0.357918,0.130511
-0.741267,-0.224244,-0.747787,-0.382588,-0.419112,-0.355696,0.128995
-0.730996,-0.209573,-0.747415,-0.395561,-0.42477,-0.356348,0.129445
-0.705507,-0.195722,-0.731285,-0.413434,-0.430981,-0.361532,0.137336
-0.687157,-0.189331,-0.733824,-0.429801,-0.431462,-0.367062,0.142688
-0.687783,-0.185559,-0.764121,-0.444928,-0.436235,-0.363078,0.149104
-0.695114,-0.18135,-0.798097,-0.458444,-0.440014,-0.363622,0.153486
-0.692109,-0.16756,-0.810163,-0.471509,-0.440933,-0.362035,0.155048
-0.677737,-0.157177,-0.799128,-0.490203,-0.445767,-0.363838,0.161539
-0.658326,-0.147343,-0.7913,-0.495956,-0.451076,-0.380395,0.161496
-0.650136,-0.137319,-0.807433,-0.511799,-0.451289,-0.376913,0.165482
-0.654216,-0.139301,-0.837211,-0.525988,-0.454796,-0.376584,0.168998
-0.662193,-0.141046,-0.867655,-0.54182,-0.454338,-0.375655,0.167771
-0.654456,-0.135407,-0.855846,-0.556319,-0.454738,-0.38417,0.169884
-0.633718,-0.126269,-0.832637,-0.55414,-0.457329,-0.386896,0.167472
-0.620086,-0.118713,-0.832573,-0.551022,-0.456579,-0.392558,0.169741
-0.622243,-0.120834,-0.852766,-0.553455,-0.456694,-0.38677,0.163761
-0.622117,-0.123501,-0.871047,-0.570212,-0.455028,-0.375128,0.158375
-0.613422,-0.120822,-0.862964,-0.594056,-0.44983,-0.388436,0.157541
-0.598112,-0.10991,-0.844322,-0.599346,-0.450484,-0.384547,0.149387
-0.593098,-0.104356,-0.83962,-0.584877,-0.451766,-0.380814,0.147654
-0.587373,-0.115567,-0.848504,-0.580782,-0.447531,-0.387855,0.142724
-0.580419,-0.117898,-0.843598,-0.58834,-0.445419,-0.385092,0.136138
-0.562721,-0.11124,-0.831462,-0.598387,-0.44197,-0.390492,0.13618
-0.55089,-0.102906,-0.833867,-0.604315,-0.441086,-0.388388,0.132626
-0.55287,-0.106518,-0.846299,-0.616544,-0.438959,-0.38523,0.12972
-0.555073,-0.120738,-0.849758,-0.618288,-0.43263,-0.379592,0.13434
-0.549682,-0.122566,-0.829904,-0.620595,-0.43313,-0.390671,0.133639
-0.52993,-0.116975,-0.807802,-0.622542,-0.430732,-0.397735,0.134316
-0.521578,-0.114189,-0.807673,-0.613919,-0.427033,-0.383876,0.140447
-0.518174,-0.122584,-0.826773,-0.617713,-0.42567,-0.387118,0.142106
-0.51555,-0.127084,-0.835825,-0.629811,-0.422833,-0.388263,0.146367
-0.506765,-0.124801,-0.824352,-0.649266,-0.417502,-0.38689,0.148984
-0.493535,-0.126293,-0.807002,-0.633861,-0.42243,-0.396819,0.149063
-0.49097,-0.129175,-0.803776,-0.619235,-0.425574,-0.396884,0.154905
-0.493403,-0.13769,-0.809111,-0.621338,-0.419056,-0.395609,0.155715
-0.492528,-0.14509,-0.805837,-0.624148,-0.423829,-0.395698,0.159255
-0.477332,-0.14421,-0.790931,-0.640561,-0.423849,-0.406575,0.16571
-0.464522,-0.139577,-0.783115,-0.633196,-0.421778,-0.401079,0.165438
-0.463214,-0.147745,-0.793999,-0.628936,-0.425441,-0.391235,0.171127
-0.467937,-0.163497,-0.808365,-0.611805,-0.428431,-0.402912,0.173072
-0.466056,-0.168482,-0.798131,-0.626665,-0.422583,-0.401343,0.178141
-0.460601,-0.170983,-0.781127,-0.635371,-0.427435,-0.402728,0.180235
-0.455019,-0.169884,-0.776824,-0.649626,-0.430905,-0.414189,0.180275
-0.449671,-0.176927,-0.775518,-0.657039,-0.426515,-0.410638,0.184993
-0.444748,-0.192438,-0.789958,-0.655139,-0.427894,-0.408569,0.184948
-0.435062,-0.200561,-0.795473,-0.64418,-0.433379,-0.404969,0.187018
-0.415543,-0.203727,-0.783103,-0.652346,-0.429466,-0.407454,0.183534
-0.409188,-0.200921,-0.78042,-0.644408,-0.432018,-0.410781,0.185604
-0.411996,-0.212308,-0.78417,-0.659501,-0.433723,-0.400312,0.18254
-0.420896,-0.220623,-0.786113,-0.668808,-0.434492,-0.406803,0.185413
-0.424879,-0.229421,-0.781054,-0.681156,-0.433781,-0.410318,0.183247
-0.419183,-0.239007,-0.770053,-0.669635,-0.436965,-0.415911,0.184022
-0.408832,-0.237366,-0.765547,-0.665768,-0.437155,-0.418288,0.184565
-0.40117,-0.239379,-0.765907,-0.660215,-0.44128,-0.412759,0.186887
-0.399281,-0.242004,-0.776188,-0.671557,-0.439629,-0.415424,0.183834
-0.393907,-0.243106,-0.773913,-0.688103,-0.438461,-0.418835,0.184933
-0.383438,-0.247289,-0.764085,-0.691186,-0.441853,-0.40755,0.181329
-0.37907,-0.253161,-0.764445,-0.672919,-0.444578,-0.415827,0.182824
-0.38097,-0.26312,-0.763533,-0.677908,-0.43961,-0.418168,0.183942
-0.392002,-0.274422,-0.771779,-0.680265,-0.44337,-0.411321,0.182932
-0.39891,-0.280496,-0.777734,-0.712218,-0.443387,-0.41643,0.183714
-0.393452,-0.280426,-0.764289,-0.726058,-0.44291,-0.420225,0.184286
-0.379412,-0.281215,-0.759627,-0.71271,-0.44563,-0.418396,0.186626
-0.366067,-0.291523,-0.764313,-0.695965,-0.447799,-0.424492,0.182416
-0.365379,-0.301205,-0.774691,-0.69882,-0.449465,-0.411457,0.186326
-0.36321,-0.311223,-0.781473,-0.717875,-0.447318,-0.417018,0.18538
-0.354766,-0.311562,-0.774116,-0.742094,-0.446687,-0.419255,0.189236
-0.348649,-0.308419,-0.769418,-0.744383,-0.45144,-0.407119,0.187908
-0.345418,-0.313779,-0.77082,-0.726945,-0.454242,-0.416258,0.190266
-0.350279,-0.314914,-0.773432,-0.723903,-0.449408,-0.416562,0.190976
-0.361405,-0.315876,-0.777005,-0.738678,-0.454357,-0.418368,0.19379
-0.366122,-0.312326,-0.766553,-0.774295,-0.452265,-0.420769,0.194188
-0.362879,-0.311681,-0.758333,-0.780744,-0.451845,-0.423701,0.196582
-0.351166,-0.319444,-0.760945,-0.763486,-0.453262,-0.430703,0.198982
-0.337364,-0.334872,-0.77281,-0.753431,-0.453341,-0.422826,0.201855
-0.332255,-0.349284,-0.784865,-0.757625,-0.456636,-0.411745,0.201462
-0.321221,-0.355641,-0.777819,-0.793723,-0.453015,-0.41965,0.202766
-0.315022,-0.351789,-0.770065,-0.800408,-0.452092,-0.423561,0.201366
-0.311933,-0.357151,-0.771695,-0.789157,-0.457157,-0.411968,0.204803
-0.31193,-0.36321,-0.772402,-0.781965,-0.460644,-0.414812,0.202721
-0.318381,-0.366499,-0.77112,-0.793136,-0.457713,-0.421903,0.205307
-0.322524,-0.360118,-0.75844,-0.829409,-0.459167,-0.419043,0.203655
-0.32484,-0.351206,-0.749416,-0.84522,-0.462967,-0.422802,0.207836
-0.319228,-0.354258,-0.74497,-0.825083,-0.461047,-0.416862,0.203068
-0.30672,-0.370945,-0.747846,-0.810993,-0.461145,-0.422143,0.206985
-0.303973,-0.383355,-0.760046,-0.809756,-0.461641,-0.417689,0.204902
-0.297504,-0.393116,-0.751789,-0.848336,-0.456582,-0.406299,0.203737
-0.29272,-0.393589,-0.744431,-0.852454,-0.45633,-0.414956,0.200384
-0.282991,-0.399983,-0.745953,-0.829209,-0.453533,-0.416786,0.200046
-0.270466,-0.408233,-0.743101,-0.810594,-0.456368,-0.409192,0.196944
-0.274996,-0.406579,-0.747415,-0.822914,-0.4598,-0.405681,0.197412
-0.28365,-0.400595,-0.737539,-0.863892,-0.451711,-0.412304,0.195587
-0.29157,-0.393553,-0.730386,-0.862101,-0.453645,-0.417245,0.196153
-0.284309,-0.395693,-0.728251,-0.838257,-0.455431,-0.411009,0.196282
-0.27949,-0.407083,-0.726048,-0.82011,-0.452437,-0.410678,0.195087
-0.286083,-0.41337,-0.734603,-0.843003,-0.449813,-0.414784,0.193958
-0.295033,-0.420541,-0.732926,-0.870251,-0.445841,-0.415184,0.191264
-0.290265,-0.426985,-0.728575,-0.863725,-0.445709,-0.404286,0.190206
-0.269064,-0.4331,-0.730122,-0.833196,-0.44425,-0.409108,0.191324
-0.255678,-0.434391,-0.727053,-0.821467,-0.442104,-0.414976,0.189775
-0.25527,-0.429253,-0.72123,-0.847865,-0.441144,-0.403607,0.190293
-0.264474,-0.423749,-0.720342,-0.862874,-0.443447,-0.402572,0.188409
-0.261993,-0.426892,-0.714735,-0.854767,-0.438996,-0.40936,0.191228
-0.251172,-0.438262,-0.711905,-0.827316,-0.438154,-0.411692,0.185976
-0.251783,-0.447001,-0.71549,-0.829349,-0.4417,-0.402637,0.188759
-0.258362,-0.447574,-0.707147,-0.860009,-0.434664,-0.40739,0.186971
-0.266307,-0.44959,-0.707149,-0.859657,-0.435756,-0.4093,0.188999
-0.258458,-0.461512,-0.711209,-0.84842,-0.436754,-0.404609,0.185508
-0.24512,-0.463599,-0.70474,-0.832813,-0.434356,-0.405022,0.186602
-0.238887,-0.452308,-0.693784,-0.849822,-0.43453,-0.404861,0.185017
-0.245923,-0.441189,-0.680916,-0.868968,-0.435506,-0.41691,0.186159
-0.251723,-0.444458,-0.677473,-0.858188,-0.433341,-0.407174,0.184286
-0.248116,-0.465672,-0.687579,-0.840446,-0.434164,-0.403296,0.185344
-0.243609,-0.480951,-0.687576,-0.841601,-0.432018,-0.419962,0.185161
-0.24198,-0.484092,-0.677716,-0.862761,-0.425076,-0.40924,0.185284
-0.244796,-0.487879,-0.677201,-0.865121,-0.430042,-0.406759,0.183235
-0.233902,-0.49242,-0.676011,-0.846575,-0.427665,-0.416414,0.181254
-0.219258,-0.490192,-0.672276,-0.822423,-0.427511,-0.410894,0.178165
-0.216416,-0.480148,-0.668545,-0.843339,-0.434147,-0.411608,0.174351
-0.218851,-0.465744,-0.652634,-0.868321,-0.430617,-0.41552,0.175613
-0.224158,-0.47044,-0.651383,-0.8547,-0.429813,-0.418188,0.170144
-0.216466,-0.490311,-0.654923,-0.835689,-0.432515,-0.424711,0.170987
-0.214115,-0.507604,-0.649297,-0.824955,-0.432689,-0.418188,0.167735
-0.218863,-0.515693,-0.647421,-0.852215,-0.43054,-0.412008,0.169621
-0.230642,-0.518379,-0.648267,-0.870352,-0.432095,-0.423725,0.168538
-0.225454,-0.511427,-0.640494,-0.858326,-0.429773,-0.41522,0.16442
-0.210125,-0.505327,-0.629223,-0.833787,-0.432517,-0.411656,0.168742
-0.207298,-0.498928,-0.620888,-0.833652,-0.43449,-0.424052,0.165978
-0.218106,-0.501085,-0.610575,-0.85941,-0.426419,-0.426409,0.168071
-0.229013,-0.507856,-0.611325,-0.856912,-0.430636,-0.426533,0.164588
-0.220995,-0.524754,-0.611235,-0.843351,-0.42964,-0.421939,0.163073
-0.204506,-0.543197,-0.603883,-0.828846,-0.426168,-0.423009,0.164588
-0.199902,-0.545044,-0.603577,-0.842476,-0.427972,-0.427368,0.162534
-0.202733,-0.533825,-0.591408,-0.861622,-0.429006,-0.414717,0.165786
-0.199986,-0.516581,-0.576731,-0.85192,-0.429602,-0.412939,0.164416
-0.185068,-0.519528,-0.565103,-0.833604,-0.431,-0.427851,0.16696
-0.184322,-0.532305,-0.566484,-0.819166,-0.432382,-0.423161,0.168371
-0.187693,-0.544011,-0.559938,-0.851915,-0.426629,-0.417713,0.169741
-0.190242,-0.552451,-0.548759,-0.862634,-0.428701,-0.427728,0.171055
-0.186842,-0.561364,-0.548889,-0.838038,-0.427146,-0.418839,0.170148
-0.174211,-0.567931,-0.539122,-0.82567,-0.424941,-0.421943,0.171347
-0.172805,-0.555914,-0.521518,-0.827423,-0.430427,-0.421663,0.168838
-0.181065,-0.539529,-0.502535,-0.849219,-0.425842,-0.413207,0.173312
-0.191944,-0.54206,-0.497657,-0.850613,-0.424022,-0.426697,0.171223
-0.185643,-0.554773,-0.493823,-0.832801,-0.424443,-0.422566,0.17179
-0.172985,-0.574802,-0.482856,-0.817884,-0.42337,-0.418452,0.171379
-0.171718,-0.585368,-0.482726,-0.837486,-0.420282,-0.421416,0.171143
-0.178521,-0.58228,-0.47521,-0.857193,-0.420954,-0.418452,0.172613
-0.175697,-0.571119,-0.46427,-0.840722,-0.424021,-0.418492,0.165438
-0.161767,-0.569169,-0.447886,-0.820652,-0.422104,-0.420057,0.166046
-0.155719,-0.574175,-0.440266,-0.806005,-0.42473,-0.420984,0.163497
-0.162091,-0.577151,-0.434834,-0.830048,-0.420628,-0.424432,0.162678
-0.167464,-0.58677,-0.422099,-0.841034,-0.417732,-0.419007,0.159962
-0.160329,-0.593474,-0.421316,-0.822198,-0.419899,-0.40691,0.152491
-0.142333,-0.599821,-0.408809,-0.807802,-0.41708,-0.416179,0.152328
-0.136947,-0.591089,-0.39501,-0.79769,-0.416755,-0.417277,0.148153
-0.145629,-0.588304,-0.379676,-0.822279,-0.415028,-0.413662,0.145018
-0.160041,-0.589351,-0.371664,-0.819094,-0.412095,-0.419866,0.144162
-0.152747,-0.595231,-0.357038,-0.794656,-0.407799,-0.419187,0.138343
-0.136648,-0.60976,-0.338587,-0.780756,-0.407148,-0.421735,0.138433
-0.132471,-0.614501,-0.325748,-0.783211,-0.408931,-0.410354,0.137588
-0.129828,-0.60976,-0.303496,-0.799859,-0.402814,-0.401218,0.134119
-0.132339,-0.602949,-0.284894,-0.799737,-0.406898,-0.412691,0.133405
-0.131183,-0.614075,-0.265289,-0.770353,-0.406572,-0.413622,0.130583
-0.128804,-0.622578,-0.248583,-0.754953,-0.402833,-0.410522,0.126359
-0.131368,-0.627528,-0.233723,-0.766721,-0.404981,-0.420721,0.126598
-0.135449,-0.627593,-0.215494,-0.784003,-0.401108,-0.413562,0.121056
-0.132914,-0.622542,-0.206735,-0.782145,-0.400609,-0.413482,0.113488
-0.118371,-0.622728,-0.189092,-0.755336,-0.404195,-0.412975,0.114524
-0.112769,-0.629936,-0.175038,-0.737948,-0.400609,-0.4151,0.111187
-0.123848,-0.635072,-0.163637,-0.743124,-0.398174,-0.424815,0.101988
-0.129618,-0.635389,-0.145737,-0.759135,-0.392211,-0.409743,0.0953683
-0.127611,-0.638224,-0.130619,-0.756799,-0.394262,-0.407522,0.092892
-0.112158,-0.638781,-0.109306,-0.733981,-0.390753,-0.416251,0.0879023
-0.0963915,-0.638128,-0.0838437,-0.7155,-0.388011,-0.406012,0.078175
-0.0982085,-0.639212,-0.0624484,-0.709414,-0.390638,-0.409552,0.0713524
-0.108879,-0.646217,-0.0392253,-0.722799,-0.379401,-0.412699,0.0689829
-0.121302,-0.649219,-0.017209,-0.717299,-0.377408,-0.416286,0.06868
-0.120528,-0.654667,0.00339163,-0.698266,-0.376621,-0.405952,0.0693185
-0.108179,-0.65702,0.0148241,-0.670023,-0.37691,-0.396117,0.0630116
-0.0970626,-0.649657,0.0235376,-0.665536,-0.372115,-0.40099,0.0549371
-0.100905,-0.649494,0.0198095,-0.653701,-0.373343,-0.403763,0.0499012
-0.111037,-0.653336,0.00679522,-0.651646,-0.368414,-0.390156,0.0529836
-0.116999,-0.650345,-0.00715442,-0.643562,-0.36715,-0.396489,0.0591168
-0.113805,-0.651706,-0.0111696,-0.62256,-0.365365,-0.396556,0.0634101
-0.106801,-0.647733,-0.0179999,-0.61395,-0.369623,-0.38641,0.0654084
-0.0966072,-0.640117,-0.0135065,-0.61604,-0.368318,-0.384595,0.0618401
-0.0889569,-0.639775,-0.0135898,-0.608377,-0.365846,-0.390425,0.0573073
-0.0871994,-0.645582,-0.0181326,-0.615813,-0.364349,-0.387376,0.0539184
-0.0916652,-0.642448,-0.0253221,-0.615795,-0.365386,-0.374798,0.0554378
-0.0911739,-0.64494,-0.0299239,-0.612835,-0.35879,-0.382072,0.0622806
-0.0856893,-0.643317,-0.0399084,-0.603013,-0.362738,-0.376218,0.0623435
-0.0750795,-0.637906,-0.0406496,-0.612524,-0.360957,-0.362023,0.0602793
-0.0706488,-0.637577,-0.0450019,-0.608107,-0.362086,-0.37134,0.0577294
-0.0668704,-0.64361,-0.0449638,-0.614609,-0.355108,-0.371467,0.0506561
-0.0687792,-0.640009,-0.0429645,-0.615992,-0.359363,-0.364341,0.048753
-0.0689796,-0.641585,-0.0408892,-0.620409,-0.356949,-0.358955,0.0481995
-0.0643329,-0.645462,-0.0398725,-0.603301,-0.354147,-0.36107,0.0516173
-0.0511116,-0.642915,-0.0388999,-0.6122,-0.354054,-0.34038,0.0551621
-0.0471711,-0.639578,-0.0383505,-0.606189,-0.354416,-0.349217,0.0524083
-0.0458266,-0.64512,-0.038049,-0.606652,-0.348014,-0.337648,0.0484871
-0.0476624,-0.639734,-0.0360974,-0.612781,-0.34247,-0.334572,0.0473269
-0.04778,-0.635437,-0.0391995,-0.614693,-0.341418,-0.326191,0.0418599
-0.0453734,-0.634976,-0.0427368,-0.602606,-0.339593,-0.32025,0.039513
-0.0361316,-0.6302,-0.0438373,-0.599162,-0.335531,-0.31247,0.0387201
-0.0292063,-0.625592,-0.0397646,-0.597536,-0.331482,-0.305557,0.0408193
-0.0287375,-0.631902,-0.0414884,-0.587765,-0.332425,-0.301157,0.041081
-0.0257907,-0.631656,-0.0353064,-0.603121,-0.324733,-0.299721,0.0428087
-0.026856,-0.628247,-0.0356882,-0.597771,-0.319713,-0.294074,0.0419917
-0.0231781,-0.626886,-0.0371041,-0.598759,-0.316104,-0.273942,0.037979
-0.0179879,-0.623345,-0.0351609,-0.580658,-0.316894,-0.274001,0.0328001
-0.00685515,-0.613811,-0.0341319,-0.586678,-0.312422,-0.259513,0.0308601
-0.0095512,-0.614897,-0.0391036,-0.573612,-0.308074,-0.257116,0.0297082
-0.0111696,-0.615393,-0.0444506,-0.582112,-0.30178,-0.238468,0.0283674
-0.00946732,-0.608761,-0.0454791,-0.5855,-0.298621,-0.235736,0.0240039
-0.00745402,-0.606472,-0.0542633,-0.579592,-0.294134,-0.217724,0.018647
-0.00357138,-0.606477,-0.0522885,-0.575125,-0.286593,-0.203377,0.0141897
0.00294806,-0.595902,-0.0413686,-0.560417,-0.283051,-0.190509,0.00892805
0.00659149,-0.586199,-0.0305845,-0.557676,-0.279038,-0.177467,0.00408672
-0.00129428,-0.58985,-0.0354845,-0.547211,-0.272122,-0.147103,0.00257655
-0.00433839,-0.586199,-0.0502152,-0.549179,-0.264254,-0.105955,0.00309199
-0.0065792,-0.583894,-0.0751514,-0.543436,-0.254098,-0.0566961,0.00315177
-0.0144773,-0.582771,-0.119402,-0.532137,-0.248415,0.00749033,-0.000443412
-0.0232369,-0.57674,-0.153526,-0.5138,-0.237359,0.0438613,-0.00574032
-0.0312556,-0.553553,-0.196942,-0.473724,-0.229758,0.0585923,-0.0134946
-0.0411888,-0.534484,-0.228258,-0.447517,-0.214024,0.0629637,-0.0132543
-0.0589519,-0.527451,-0.252873,-0.415779,-0.204063,0.0781511,-0.00112655
-0.0730781,-0.523603,-0.255761,-0.394751,-0.196307,0.0973696,0.00196537
-0.0783788,-0.53288,-0.24446,-0.370537,-0.19321,0.104409,-0.000731049
-0.0755588,-0.543209,-0.235533,-0.355492,-0.193143,0.105734,-0.000203741
-0.0716914,-0.543618,-0.219353,-0.342434,-0.188473,0.104505,8.39088e-05
-0.0717479,-0.5228,-0.213973,-0.340728,-0.189998,0.0971299,-0.000107859
-0.0733213,-0.502763,-0.205918,-0.343752,-0.186671,0.0749991,-9.58864e-05
-0.0723112,-0.504189,-0.2032,-0.34201,-0.182367,0.0503685,-0.000527296
-0.0695102,-0.508012,-0.202347,-0.344927,-0.186728,0.032502,-0.00128235
-0.0662832,-0.512014,-0.203727,-0.364013,-0.185569,0.0224699,-0.00226495
-0.0648482,-0.518654,-0.212282,-0.375451,-0.188646,0.00787383,-0.00643569
-0.0531967,-0.521386,-0.214105,-0.382899,-0.187621,-0.00287615,-0.0152436
-0.0429525,-0.505339,-0.212498,-0.391271,-0.190794,-0.00623196,-0.0274326
-0.047792,-0.48257,-0.209611,-0.405657,-0.188733,-0.00822099,-0.0346097
-0.0556415,-0.471197,-0.20743,-0.416227,-0.188273,-0.0190065,-0.0428426
-0.0569864,-0.471699,-0.203114,-0.412304,-0.193862,-0.0252873,-0.0622116
-0.041045,-0.472539,-0.182599,-0.413147,-0.197649,-0.0281024,-0.078423
-0.0222313,-0.473269,-0.163397,-0.401086,-0.198655,-0.0281876,-0.081279
-0.0226617,-0.475979,-0.155755,-0.398131,-0.203765,-0.0331236,-0.0758344
-0.0411788,-0.467948,-0.133136,-0.399228,-0.207361,-0.0501193,-0.0809435
-0.0468453,-0.444377,-0.0762898,-0.394116,-0.209115,-0.0621847,-0.0808317
-0.032538,-0.418787,-0.0241488,-0.379238,-0.212538,-0.042569,-0.0821539
-0.0104859,-0.410714,-0.0202649,-0.362407,-0.219719,-0.0328001,-0.0617054
0.0104864,-0.409523,-0.0507305,-0.350967,-0.21716,-0.0401481,-0.0604499
0.00243276,-0.377878,-0.0392115,-0.345809,-0.208271,-0.05521,-0.0556175
-0.0200621,-0.342158,5.99317e-05,-0.353651,-0.208473,-0.0816266,-0.0793855
-0.0152915,-0.330517,0.0564084,-0.331548,-0.152685,-0.0241357,-0.124681
0.0187438,-0.325104,0.0671613,-0.282907,-0.087976,0.105176,-0.21704
0.0578106,-0.317778,0.00406258,-0.18683,0.00885856,0.287998,-0.317707
0.0542779,-0.282523,-0.151556,-0.0897161,0.107362,0.472406,-0.356899
-0.0162622,-0.211409,-0.345198,-0.054503,0.124652,0.602733,-0.39124
-0.107226,-0.139212,-0.542132,-0.0735131,0.0970075,0.692334,-0.449623
-0.172197,-0.0780994,-0.70069,-0.168614,0.11798,0.736282,-0.489832
-0.149447,-0.0351746,-0.765535,-0.229,0.246919,0.753898,-0.508036
-0.0441728,-0.021691,-0.744024,-0.272635,0.385941,0.7498,-0.509761
0.0683238,-0.0209849,-0.711593,-0.240829,0.439036,0.747367,-0.480304
0.14902,-0.0375337,-0.668752,-0.16013,0.351389,0.723004,-0.428211
0.130883,-0.0364809,-0.650939,-0.0320346,0.152827,0.691747,-0.3624
0.015687,-0.0227695,-0.683253,0.0606148,-0.05016,0.659369,-0.301217
-0.119396,0.00807718,-0.721158,0.116352,-0.234943,0.614273,-0.263275
-0.223403,0.0674729,-0.778934,0.116154,-0.401855,0.563213,-0.246066
-0.261094,0.115753,-0.824927,0.0512554,-0.507391,0.486333,-0.228666
-0.213984,0.134299,-0.866349,0.0420897,-0.576235,0.418547,-0.178629
-0.116532,0.144826,-0.892613,0.0534724,-0.631487,0.35995,-0.147475
-0.0446783,0.144461,-0.889359,0.118623,-0.683655,0.291044,-0.0965353
-0.0340943,0.137815,-0.86481,0.24029,-0.728413,0.218024,-0.043274
-0.104673,0.130871,-0.815499,0.353196,-0.751382,0.136959,-0.015472
-0.204926,0.149919,-0.7649,0.474361,-0.759629,0.0316976,-0.000623156
-0.276603,0.189451,-0.68935,0.609689,-0.743654,-0.114644,0.0280078
-0.302331,0.23763,-0.592894,0.718725,-0.708165,-0.276302,0.0974894
-0.309201,0.268813,-0.538177,0.813989,-0.677423,-0.386093,0.203138
-0.311535,0.26578,-0.520882,0.869891,-0.658101,-0.361795,0.324346
-0.312269,0.272708,-0.530231,0.928357,-0.658746,-0.314702,0.415683
-0.296052,0.281191,-0.544599,0.969621,-0.661936,-0.336893,0.459788
-0.27846,0.290709,-0.566652,0.959181,-0.659417,-0.378519,0.47207
-0.263479,0.314651,-0.582911,0.926995,-0.644027,-0.427899,0.463455
-0.23975,0.327585,-0.600185,0.913652,-0.630539,-0.478554,0.439484
-0.195099,0.343832,-0.608281,0.901708,-0.606407,-0.52141,0.409132
-0.137846,0.373593,-0.612577,0.866073,-0.582505,-0.588284,0.386105
-0.0881539,0.419259,-0.601295,0.822938,-0.546967,-0.642543,0.367008
-0.0556322,0.465754,-0.598291,0.795593,-0.516562,-0.695354,0.350643
-0.0046258,0.501409,-0.584697,0.759183,-0.480777,-0.758464,0.341375
0.0559318,0.534833,-0.564567,0.756906,-0.446342,-0.822198,0.340876
0.121098,0.563354,-0.537145,0.720427,-0.413053,-0.861814,0.344467
0.168974,0.594452,-0.486249,0.690983,-0.384675,-0.912458,0.344275
0.207368,0.618869,-0.407677,0.651059,-0.363927,-0.918266,0.344327
0.245635,0.646306,-0.294733,0.650117,-0.350967,-0.911535,0.33869
0.291583,0.689194,-0.176712,0.635539,-0.344809,-0.877866,0.333086
0.341495,0.736474,-0.0495536,0.627791,-0.351293,-0.841142,0.328145
0.3903,0.762252,0.0878585,0.605842,-0.348663,-0.799847,0.32949
0.419211,0.772593,0.228977,0.585548,-0.363698,-0.764708,0.33935
0.44109,0.784303,0.383277,0.569289,-0.379229,-0.721013,0.35431
0.466176,0.822351,0.536677,0.575901,-0.406649,-0.706214,0.369645
0.505303,0.876824,0.693293,0.565358,-0.428145,-0.697919,0.385926
0.550099,0.89598,0.822207,0.57318,-0.454642,-0.690839,0.395458
0.595811,0.890558,0.924162,0.585696,-0.469141,-0.676838,0.394914
0.62851,0.908192,0.993254,0.585943,-0.483365,-0.655558,0.387213
0.650472,0.974809,1.03477,0.591125,-0.499055,-0.622117,0.370274
0.660352,1.02428,1.06636,0.58115,-0.501408,-0.587262,0.350507
0.66308,1.02409,1.06536,0.595331,-0.500838,-0.562098,0.327765
0.682738,1.02339,1.03381,0.615436,-0.497209,-0.527869,0.30583
0.732973,1.09153,0.992247,0.645259,-0.497808,-0.480136,0.284153
0.791204,1.14686,0.962707,0.638133,-0.495637,-0.443035,0.260747
0.804473,1.14276,0.927626,0.652605,-0.480455,-0.40564,0.237761
0.785332,1.15894,0.870131,0.656349,-0.473644,-0.361999,0.22096
0.792548,1.23001,0.836424,0.667778,-0.471922,-0.335962,0.203018
0.830536,1.24292,0.830212,0.680688,-0.457787,-0.310133,0.19142
0.846059,1.22204,0.782781,0.710574,-0.458518,-0.283386,0.179828
0.845707,1.2597,0.735611,0.687567,-0.449082,-0.243106,0.175625
0.85086,1.26887,0.740476,0.677273,-0.439264,-0.238193,0.166277
0.865139,1.25365,0.728743,0.712336,-0.43359,-0.220743,0.161599
0.877872,1.30082,0.702343,0.735779,-0.433186,-0.199089,0.162778
0.891313,1.31047,0.699584,0.712995,-0.427282,-0.186959,0.15762
0.883049,1.26017,0.693739,0.73198,-0.42358,-0.190221,0.161208
0.875709,1.30526,0.672679,0.722451,-0.414626,-0.164056,0.159238
0.906059,1.33564,0.692876,0.714052,-0.416332,-0.168866,0.160453
0.930934,1.29864,0.700747,0.760322,-0.413859,-0.166129,0.163685
0.905184,1.31915,0.663755,0.750986,-0.415584,-0.147343,0.165546
0.896766,1.32121,0.682279,0.713882,-0.412325,-0.151173,0.172134
0.932267,1.28656,0.710049,0.753371,-0.409027,-0.160201,0.172102
0.949042,1.33638,0.689266,0.775051,-0.418768,-0.146906,0.17622
0.950375,1.34273,0.702343,0.725197,-0.415469,-0.143328,0.179879
0.928081,1.27779,0.705601,0.743352,-0.416774,-0.163577,0.183759
0.917671,1.29916,0.694961,0.754342,-0.418997,-0.148996,0.18345
0.95368,1.32109,0.726777,0.749812,-0.419784,-0.160521,0.185113
0.975086,1.28877,0.733861,0.764576,-0.422142,-0.165295,0.184325
0.936435,1.308,0.703503,0.74485,-0.423677,-0.149159,0.184921
0.935467,1.30097,0.73017,0.707976,-0.418767,-0.162143,0.187117
0.970914,1.26522,0.750327,0.772846,-0.425364,-0.167807,0.188612
0.973804,1.29558,0.721686,0.791875,-0.431595,-0.158116,0.191336
0.959912,1.29792,0.746036,0.711209,-0.424655,-0.159382,0.193059
0.95276,1.25931,0.761412,0.723699,-0.423944,-0.165367,0.195662
0.964766,1.27771,0.740152,0.7588,-0.426189,-0.15985,0.194197
0.988988,1.2876,0.756763,0.749404,-0.43148,-0.158608,0.198958
0.984158,1.23907,0.762143,0.761268,-0.43426,-0.165426,0.199677
0.958594,1.24462,0.744646,0.740044,-0.429736,-0.155511,0.201436
0.974631,1.27623,0.771754,0.712194,-0.432362,-0.152963,0.200863
1.00582,1.24335,0.783165,0.758273,-0.43522,-0.163313,0.204839
0.980395,1.22705,0.744119,0.76478,-0.437424,-0.147918,0.207131
0.963687,1.24272,0.754234,0.714062,-0.439285,-0.143479,0.21088
1.00147,1.22137,0.8006,0.739386,-0.435449,-0.155839,0.212487
1.00911,1.22467,0.77559,0.765511,-0.440398,-0.140159,0.21692
0.980551,1.24478,0.753647,0.700414,-0.442639,-0.11314,0.218971
0.98375,1.20192,0.790703,0.706164,-0.435393,-0.117293,0.218622
1.00529,1.18679,0.787741,0.754222,-0.440357,-0.10269,0.219378
1.01153,1.22421,0.76309,0.734759,-0.448144,-0.0623075,0.216956
1.01178,1.2063,0.79027,0.692073,-0.438018,-0.0427467,0.220097
1.00531,1.17157,0.793136,0.701909,-0.435124,-0.0128834,0.219712
1.00914,1.19687,0.774151,0.710229,-0.438804,0.0385763,0.222422
1.02837,1.20077,0.78519,0.717202,-0.439746,0.0786784,0.227898
1.02382,1.15269,0.78985,0.745498,-0.440971,0.148889,0.229804
1.01213,1.15959,0.775435,0.732386,-0.439094,0.297312,0.2319
1.02989,1.20089,0.788891,0.747127,-0.439552,0.462904,0.22978
1.04383,1.17222,0.803874,0.803023,-0.434971,0.60275,0.225525
0.998443,1.14448,0.763929,0.827276,-0.430291,0.722932,0.219067
0.977841,1.16934,0.759519,0.840271,-0.419343,0.797582,0.215146
1.01415,1.17727,0.810223,0.890144,-0.409027,0.797855,0.209731
1.00001,1.1572,0.793423,0.908822,-0.40222,0.783189,0.20581
0.942741,1.15419,0.742298,0.883049,-0.393265,0.776404,0.201666
0.952892,1.15174,0.771826,0.901241,-0.383582,0.718594,0.197807
1.00224,1.13254,0.807205,0.96968,-0.381357,0.649729,0.195048
0.995818,1.13802,0.764624,0.947451,-0.372768,0.618,0.188328
0.962117,1.15093,0.747834,0.908415,-0.363524,0.566377,0.183926
0.989515,1.11822,0.796945,0.927306,-0.347036,0.490299,0.175769
1.01982,1.10973,0.788941,0.987201,-0.346151,0.433492,0.171187
1.01182,1.13644,0.745593,0.946241,-0.331946,0.404039,0.166649
1.0003,1.12813,0.778658,0.9134,-0.315701,0.34229,0.159526
1.0222,1.10248,0.806436,0.941231,-0.295649,0.2778,0.157853
1.03275,1.11399,0.77601,0.975193,-0.277025,0.233962,0.152275
1.02813,1.13459,0.764181,0.916185,-0.244051,0.203535,0.152532
1.02041,1.10095,0.797977,0.896778,-0.190947,0.140327,0.150598
1.03027,1.08377,0.798047,0.920883,-0.143021,0.0887052,0.141926
1.04746,1.11395,0.776082,0.931317,-0.0921945,0.0604619,0.140962
1.05642,1.11018,0.795279,0.897095,-0.0138055,0.0252022,0.136317
1.0432,1.07598,0.805983,0.86557,0.084582,-0.00934793,0.131111
1.0348,1.08292,0.781258,0.881288,0.210323,-0.0333873,0.133609
1.0652,1.11114,0.785322,0.895172,0.379689,-0.112702,0.127419
1.0792,1.09784,0.804483,0.903254,0.568212,-0.284187,0.119935
1.06478,1.07592,0.789001,0.858475,0.77675,-0.497022,0.126497
1.05062,1.10214,0.765511,0.853653,0.957508,-0.740045,0.134676
1.07082,1.11605,0.778335,0.860261,1.10795,-0.978141,0.140483
1.0784,1.0845,0.790461,0.863204,1.21197,-1.1771,0.153838
1.07977,1.07822,0.770065,0.830096,1.26083,-1.27614,0.163768
1.08619,1.11176,0.772186,0.806652,1.26451,-1.34037,0.177207
1.08582,1.10698,0.786543,0.786279,1.23956,-1.34923,0.188436
1.07365,1.06734,0.764804,0.766854,1.17891,-1.29947,0.188624
1.08368,1.07657,0.756667,0.76901,1.07597,-1.23203,0.180155
1.11051,1.10832,0.787575,0.730361,0.93834,-1.12937,0.159921
1.08334,1.09231,0.793278,0.646462,0.784632,-1.01734,0.125053
1.03611,1.06643,0.766902,0.503889,0.616925,-0.878118,0.0746636
1.03522,1.0822,0.769897,0.379028,0.399267,-0.734736,0.00551261
1.07568,1.08037,0.784447,0.206805,0.134936,-0.601779,-0.0817704
1.08354,1.03823,0.699779,-0.0275751,-0.158898,-0.502787,-0.196141
1.10341,1.01348,0.497885,-0.251124,-0.457042,-0.396088,-0.358133
1.183,1.03498,0.289484,-0.405261,-0.693075,-0.189502,-0.559483
1.25274,1.05133,0.0501792,-0.478937,-0.779435,0.104014,-0.750147
1.28716,1.06785,-0.198262,-0.451723,-0.756695,0.43135,-0.86892
1.28432,1.14289,-0.373378,-0.350799,-0.751152,0.796096,-0.90114
1.21276,1.23218,-0.430284,-0.284655,-0.754797,1.14032,-0.874888
1.09311,1.24055,-0.375559,-0.191668,-0.683214,1.34068,-0.824247
0.941879,1.19879,-0.361412,-0.0885015,-0.570494,1.39233,-0.765343
