Afshin1997/kuka_rl_ros2/src/catch_and_throw/output_files/tm/nn_ema2.00_jvws1_realball_D24H15M25S03/recorded_data.csv
pure_target_joint_0,pure_target_joint_1,pure_target_joint_2,pure_target_joint_3,pure_target_joint_4,pure_target_joint_5,pure_target_joint_6,target_joint_0,target_joint_1,target_joint_2,target_joint_3,target_joint_4,target_joint_5,target_joint_6,pos_joint_0,pos_joint_1,pos_joint_2,pos_joint_3,pos_joint_4,pos_joint_5,pos_joint_6,vel_joint_0,vel_joint_1,vel_joint_2,vel_joint_3,vel_joint_4,vel_joint_5,vel_joint_6,vel_smooth_joint_0,vel_smooth_joint_1,vel_smooth_joint_2,vel_smooth_joint_3,vel_smooth_joint_4,vel_smooth_joint_5,vel_smooth_joint_6,ee_pos_x,ee_pos_y,ee_pos_z,ee_or_w,ee_or_x,ee_or_y,ee_or_z,ee_vel_x,ee_vel_y,ee_vel_z,ball_pos_x,ball_pos_y,ball_pos_z,ball_raw_vx,ball_raw_vy,ball_raw_vz,ball_ema_vx,ball_ema_vy,ball_ema_vz,action_0,action_1,action_2,action_3,action_4,action_5,action_6,command_published
1.71269,-1.01784,-1.77117,-1.16444,2.00902,1.18226,-0.943458,1.71269,-1.01784,-1.77117,-1.16444,2.00902,1.18226,-0.943458,1.78024,-1.06464,-1.81516,-1.11701,1.93724,1.11687,-0.916294,0,0,0,0,0,0,0,0,0,0,0,0,0,0,0.531053,-0.454439,0.694289,0.574551,0.175181,0.152618,0.7848,0,0,0,2.99754,-0.488587,0.426527,-3.40309,0.0545561,4.56408,-3.40309,0.0545561,4.56408,-0.675557,0.467984,0.439968,-0.474384,0.717755,0.653966,-0.271647,1
1.71602,-1.01906,-1.7688,-1.16054,2.00839,1.18373,-0.940374,1.71602,-1.01906,-1.7688,-1.16054,2.00839,1.18373,-0.940374,1.78024,-1.06464,-1.81516,-1.11701,1.93724,1.11687,-0.916294,0,0,0,0,0,0,0,0,0,0,0,0,0,0,0.531053,-0.454439,0.694289,0.574551,0.175181,0.152618,0.7848,0,0,0,2.96478,-0.488517,0.470496,-3.27609,0.0069797,4.39689,-3.27609,0.0069797,4.39689,-0.64227,0.455795,0.463694,-0.435314,0.711445,0.668623,-0.240805,1
1.70939,-0.990892,-1.77705,-1.1638,2.01449,1.1883,-0.939144,1.70939,-0.990892,-1.77705,-1.1638,2.01449,1.1883,-0.939144,1.77231,-1.05914,-1.80999,-1.12258,1.94567,1.12455,-0.919486,-1.58757,1.09977,1.03393,-1.11481,1.68673,1.53683,-0.638371,-1.58757,1.09977,1.03393,-1.11481,1.68673,1.53683,-0.638371,0.526123,-0.454429,0.698624,0.576187,0.170604,0.148594,0.785381,-0.887984,0.0198834,0.813585,2.93088,-0.488016,0.513507,-3.39041,0.0501782,4.3011,-3.39041,0.0501782,4.3011,-0.629122,0.682485,0.329465,-0.412156,0.688198,0.637536,-0.196582,1
1.69998,-0.982299,-1.76024,-1.18244,2.03142,1.19878,-0.947707,1.69998,-0.982299,-1.76024,-1.18244,2.03142,1.19878,-0.947707,1.75951,-1.05015,-1.80113,-1.13138,1.95961,1.13749,-0.924426,-1.15817,0.827855,0.860982,-0.776397,1.2988,1.23133,-0.424685,-1.15817,0.827855,0.860982,-0.776397,1.2988,1.23133,-0.424685,0.518005,-0.45423,0.705858,0.578694,0.162801,0.141775,0.786454,-0.673401,0.0407435,0.649496,2.89803,-0.487306,0.555452,-3.28505,0.0709683,4.1945,-3.28505,0.0709683,4.1945,-0.595282,0.678487,0.408861,-0.510619,0.718101,0.612912,-0.232807,1
1.68559,-0.967663,-1.75405,-1.18793,2.04323,1.20503,-0.959543,1.68559,-0.967663,-1.75405,-1.18793,2.04323,1.20503,-0.959543,1.74911,-1.03996,-1.79495,-1.13821,1.97112,1.14825,-0.927809,-1.05763,1.30668,0.476582,-0.681233,1.15507,1.06648,-0.301833,-1.05763,1.30668,0.476582,-0.681233,1.15507,1.06648,-0.301833,0.511216,-0.453236,0.712903,0.580965,0.155678,0.137303,0.787014,-0.626427,0.158633,0.772807,2.86504,-0.486415,0.596465,-3.29916,0.0891238,4.10137,-3.29916,0.0891238,4.10137,-0.635174,0.722986,0.408979,-0.497176,0.721096,0.567792,-0.317341,1
1.67899,-0.954721,-1.74922,-1.18937,2.05347,1.21864,-0.963038,1.67899,-0.954721,-1.74922,-1.18937,2.05347,1.21864,-0.963038,1.73922,-1.0281,-1.78901,-1.14606,1.9827,1.15834,-0.931323,-1.04487,1.21957,0.766125,-0.968761,1.29736,1.07676,-0.436294,-1.04487,1.21957,0.766125,-0.968761,1.29736,1.07676,-0.436294,0.504889,-0.450971,0.720322,0.582812,0.148552,0.133807,0.787628,-0.584539,0.292674,0.745973,2.83157,-0.48579,0.636632,-3.34651,0.0624537,4.01663,-3.34651,0.0624537,4.01663,-0.602297,0.733768,0.397868,-0.433091,0.70769,0.602952,-0.317154,1
1.66898,-0.942355,-1.74553,-1.19715,2.06474,1.2293,-0.968117,1.66898,-0.942355,-1.74553,-1.19715,2.06474,1.2293,-0.968117,1.72885,-1.01625,-1.78192,-1.15476,1.99487,1.16802,-0.936337,-1.15187,1.29376,0.742221,-0.883438,1.28783,0.985548,-0.617946,-1.15187,1.29376,0.742221,-0.883438,1.28783,0.985548,-0.617946,0.498486,-0.448384,0.727773,0.584829,0.141486,0.130082,0.788058,-0.634324,0.24395,0.777791,2.79892,-0.485542,0.675433,-3.26526,0.0247866,3.88009,-3.26526,0.0247866,3.88009,-0.598685,0.738925,0.363866,-0.423969,0.69879,0.612731,-0.317794,1
1.65797,-0.929016,-1.74075,-1.2048,2.07728,1.23699,-0.97355,1.65797,-0.929016,-1.74075,-1.2048,2.07728,1.23699,-0.97355,1.71851,-1.00398,-1.77519,-1.16226,2.00677,1.17781,-0.941881,-1.05226,1.31172,0.691371,-0.721895,1.24368,1.08728,-0.563382,-1.05226,1.31172,0.691371,-0.721895,1.24368,1.08728,-0.563382,0.491931,-0.445916,0.735452,0.587528,0.134093,0.126611,0.787908,-0.6193,0.257933,0.79736,2.76599,-0.485182,0.713743,-3.29299,0.0360519,3.83103,-3.29299,0.0360519,3.83103,-0.605346,0.749631,0.344335,-0.42533,0.705174,0.591764,-0.316685,1
1.64786,-0.915989,-1.73814,-1.21106,2.08895,1.24632,-0.979776,1.64786,-0.915989,-1.73814,-1.21106,2.08895,1.24632,-0.979776,1.70859,-0.99163,-1.76901,-1.16917,2.01842,1.18809,-0.947158,-1.05476,1.31223,0.625222,-0.745074,1.23358,1.09727,-0.558147,-1.05476,1.31223,0.625222,-0.745074,1.23358,1.09727,-0.558147,0.485492,-0.443314,0.742989,0.590225,0.126507,0.123327,0.787668,-0.607762,0.26733,0.753985,2.73273,-0.484889,0.750755,-3.32608,0.0292391,3.70122,-3.32608,0.0292391,3.70122,-0.607314,0.75641,0.308707,-0.418836,0.705301,0.582238,-0.326185,1
1.63793,-0.902945,-1.73494,-1.21674,2.10046,1.25617,-0.985567,1.63793,-0.902945,-1.73494,-1.21674,2.10046,1.25617,-0.985567,1.69853,-0.979163,-1.76326,-1.17626,2.03014,1.19811,-0.952432,-1.0802,1.33543,0.599232,-0.759906,1.25541,1.03525,-0.562362,-1.0802,1.33543,0.599232,-0.759906,1.25541,1.03525,-0.562362,0.479157,-0.440643,0.75022,0.592915,0.119258,0.120283,0.787249,-0.603473,0.272775,0.735629,2.69959,-0.484601,0.786656,-3.31335,0.0288218,3.59007,-3.31335,0.0288218,3.59007,-0.606009,0.762187,0.283164,-0.404742,0.703199,0.580545,-0.33135,1
1.62804,-0.8898,-1.73102,-1.22404,2.11258,1.2646,-0.9904,1.62804,-0.8898,-1.73102,-1.22404,2.11258,1.2646,-0.9904,1.68837,-0.96654,-1.75797,-1.18331,2.04194,1.20781,-0.957835,-1.07895,1.34618,0.528115,-0.738962,1.25193,1.02555,-0.584303,-1.07895,1.34618,0.528115,-0.738962,1.25193,1.02555,-0.584303,0.472917,-0.437965,0.757202,0.595731,0.112327,0.11748,0.786566,-0.594711,0.269121,0.706657,2.66679,-0.484284,0.821521,-3.28078,0.0317156,3.4865,-3.28078,0.0317156,3.4865,-0.603291,0.767406,0.269502,-0.407341,0.706342,0.567972,-0.325644,1
1.61856,-0.876667,-1.72856,-1.22991,2.12393,1.27422,-0.997095,1.61856,-0.876667,-1.72856,-1.22991,2.12393,1.27422,-0.997095,1.67825,-0.953826,-1.75321,-1.19011,2.05369,1.21748,-0.963369,-1.07352,1.35498,0.486513,-0.708934,1.2455,1.03015,-0.591151,-1.07352,1.35498,0.486513,-0.708934,1.2455,1.03015,-0.591151,0.466768,-0.43529,0.763955,0.598716,0.10554,0.11489,0.785621,-0.588495,0.270712,0.689755,2.63384,-0.484191,0.855249,-3.29421,0.00927448,3.37284,-3.29421,0.00927448,3.37284,-0.596901,0.771582,0.246447,-0.397929,0.702401,0.567333,-0.337261,1
1.60831,-0.863447,-1.72952,-1.23291,2.13486,1.28406,-1.00446,1.60831,-0.863447,-1.72952,-1.23291,2.13486,1.28406,-1.00446,1.66817,-0.941026,-1.74871,-1.19686,2.06546,1.22703,-0.968847,-1.06846,1.36418,0.470984,-0.72386,1.25467,1.00059,-0.573951,-1.06846,1.36418,0.470984,-0.72386,1.25467,1.00059,-0.573951,0.460745,-0.432511,0.770516,0.601675,0.0989249,0.11245,0.784574,-0.572186,0.288815,0.669272,2.60052,-0.484206,0.888139,-3.33197,-0.00142753,3.28898,-3.33197,-0.00142753,3.28898,-0.598517,0.775796,0.191892,-0.360504,0.693978,0.570337,-0.356101,1
1.59826,-0.849937,-1.73012,-1.24194,2.14761,1.28906,-1.00763,1.59826,-0.849937,-1.73012,-1.24194,2.14761,1.28906,-1.00763,1.65818,-0.928152,-1.74451,-1.20356,2.07722,1.23647,-0.974401,-1.05513,1.37105,0.424551,-0.701549,1.24404,1.00515,-0.604346,-1.05513,1.37105,0.424551,-0.701549,1.24404,1.00515,-0.604346,0.454875,-0.429623,0.776867,0.604652,0.0924792,0.110186,0.783391,-0.560026,0.293824,0.648218,2.56726,-0.483557,0.919805,-3.32603,0.0648826,3.16659,-3.32603,0.0648826,3.16659,-0.599142,0.782148,0.143908,-0.383736,0.703896,0.525911,-0.332301,1
1.58885,-0.83649,-1.72869,-1.24838,2.15934,1.29664,-1.01248,1.58885,-0.83649,-1.72869,-1.24838,2.15934,1.29664,-1.01248,1.64821,-0.91521,-1.74109,-1.20974,2.08884,1.24598,-0.980286,-1.0624,1.37848,0.30822,-0.616986,1.22565,1.01426,-0.643682,-1.0624,1.37848,0.30822,-0.616986,1.22565,1.01426,-0.643682,0.449057,-0.426901,0.782979,0.608046,0.0861397,0.108164,0.781768,-0.564613,0.254654,0.622338,2.53428,-0.482948,0.950583,-3.29831,0.0608653,3.07778,-3.29831,0.0608653,3.07778,-0.593632,0.787196,0.123977,-0.386397,0.705013,0.506649,-0.321962,1
1.58011,-0.823237,-1.72603,-1.25196,2.1708,1.30713,-1.01898,1.58011,-0.823237,-1.72603,-1.25196,2.1708,1.30713,-1.01898,1.6382,-0.902173,-1.7386,-1.21593,2.10051,1.25499,-0.986006,-1.06364,1.39105,0.226001,-0.692601,1.25413,0.90737,-0.575897,-1.06364,1.39105,0.226001,-0.692601,1.25413,0.90737,-0.575897,0.443462,-0.424302,0.788672,0.611524,0.0803859,0.106479,0.779897,-0.527373,0.265367,0.565535,2.50191,-0.482593,0.980431,-3.23703,0.0355452,2.98489,-3.23703,0.0355452,2.98489,-0.580887,0.789352,0.125704,-0.360316,0.702874,0.52142,-0.329779,1
1.57105,-0.809919,-1.72664,-1.25772,2.18248,1.31535,-1.02504,1.57105,-0.809919,-1.72664,-1.25772,2.18248,1.31535,-1.02504,1.62826,-0.889038,-1.73656,-1.22244,2.11231,1.26342,-0.991359,-1.04966,1.39936,0.209407,-0.690898,1.25236,0.884801,-0.562516,-1.04966,1.39936,0.209407,-0.690898,1.25236,0.884801,-0.562516,0.438171,-0.421594,0.79402,0.614774,0.0751969,0.105057,0.77805,-0.509683,0.279579,0.550341,2.46957,-0.482232,1.0089,-3.23441,0.0360608,2.84712,-3.23441,0.0360608,2.84712,-0.572114,0.79119,0.0991868,-0.352774,0.701714,0.51936,-0.336856,1
1.5624,-0.796381,-1.73106,-1.26054,2.19356,1.32395,-1.03118,1.5624,-0.796381,-1.73106,-1.26054,2.19356,1.32395,-1.03118,1.61852,-0.875857,-1.73451,-1.2286,2.12406,1.272,-0.996796,-1.02267,1.40129,0.225662,-0.622139,1.24477,0.935593,-0.590877,-1.02267,1.40129,0.225662,-0.622139,1.24477,0.935593,-0.590877,0.432955,-0.418766,0.79936,0.618069,0.0698754,0.103637,0.776123,-0.508906,0.289192,0.562793,2.43636,-0.48184,1.03682,-3.32034,0.039202,2.79214,-3.32034,0.039202,2.79214,-0.561151,0.794765,0.0344446,-0.319422,0.695006,0.519467,-0.343809,1
1.55437,-0.782969,-1.7325,-1.26115,2.20493,1.33428,-1.03575,1.55437,-0.782969,-1.7325,-1.26115,2.20493,1.33428,-1.03575,1.60896,-0.862653,-1.7327,-1.23444,2.13577,1.28074,-1.00242,-1.00948,1.40432,0.161469,-0.619801,1.2439,0.921856,-0.602621,-1.00948,1.40432,0.161469,-0.619801,1.2439,0.921856,-0.602621,0.427835,-0.415892,0.804592,0.621491,0.0645121,0.10227,0.774034,-0.490383,0.288086,0.53154,2.40342,-0.481548,1.06355,-3.29478,0.0291795,2.67235,-3.29478,0.0291795,2.67235,-0.545833,0.796843,0.00201697,-0.267127,0.691552,0.535403,-0.333304,1
1.5455,-0.769665,-1.73704,-1.25887,2.21648,1.34377,-1.04096,1.5455,-0.769665,-1.73704,-1.25887,2.21648,1.34377,-1.04096,1.59956,-0.849397,-1.73188,-1.23992,2.1474,1.2894,-1.00814,-0.989431,1.41185,0.021831,-0.549065,1.22912,0.919881,-0.613423,-0.989431,1.41185,0.021831,-0.549065,1.22912,0.919881,-0.613423,0.422885,-0.413192,0.809513,0.625196,0.0594174,0.101168,0.771599,-0.480097,0.253764,0.499748,2.37088,-0.481482,1.08899,-3.25346,0.00662506,2.54456,-3.25346,0.00662506,2.54456,-0.540529,0.797327,-0.0516189,-0.189485,0.690772,0.543666,-0.328152,1
1.5351,-0.756265,-1.74199,-1.26444,2.22852,1.35029,-1.04508,1.5351,-0.756265,-1.74199,-1.26444,2.22852,1.35029,-1.04508,1.59039,-0.836094,-1.73187,-1.24455,2.15895,1.29826,-1.01377,-0.959186,1.41469,-0.0168317,-0.442036,1.2243,0.959145,-0.585096,-0.959186,1.41469,-0.0168317,-0.442036,1.2243,0.959145,-0.585096,0.417968,-0.410712,0.814336,0.629199,0.0542826,0.100158,0.76885,-0.483325,0.238874,0.509405,2.33808,-0.480809,1.11349,-3.28052,0.0673413,2.45003,-3.28052,0.0673413,2.45003,-0.552989,0.798295,-0.101187,-0.198807,0.695701,0.520327,-0.313027,1
1.5255,-0.743058,-1.74491,-1.26733,2.24031,1.35909,-1.04948,1.5255,-0.743058,-1.74491,-1.26733,2.24031,1.35909,-1.04948,1.58138,-0.82278,-1.73254,-1.24796,2.17048,1.30734,-1.01925,-0.955483,1.4144,-0.119846,-0.29058,1.22506,0.970074,-0.578132,-0.955483,1.4144,-0.119846,-0.29058,1.22506,0.970074,-0.578132,0.412934,-0.408578,0.819215,0.633594,0.0489603,0.0990839,0.765731,-0.501655,0.181687,0.512723,2.30538,-0.480169,1.13713,-3.26936,0.0639498,2.36343,-3.26936,0.0639498,2.36343,-0.558868,0.797219,-0.123713,-0.193726,0.698352,0.51747,-0.302336,1
1.51616,-0.729786,-1.74941,-1.26447,2.25157,1.36906,-1.05518,1.51616,-0.729786,-1.74941,-1.26447,2.25157,1.36906,-1.05518,1.57222,-0.809456,-1.73412,-1.25103,2.18207,1.31616,-1.02453,-0.98871,1.41644,-0.209536,-0.357083,1.23696,0.908733,-0.547061,-0.98871,1.41644,-0.209536,-0.357083,1.23696,0.908733,-0.547061,0.407934,-0.406776,0.823828,0.638247,0.0439992,0.0981745,0.762277,-0.485859,0.167004,0.458539,2.27286,-0.479641,1.15998,-3.25253,0.0528008,2.28496,-3.25253,0.0528008,2.28496,-0.560661,0.796699,-0.152898,-0.134482,0.695004,0.528925,-0.306437,1
1.5067,-0.716762,-1.75586,-1.25919,2.26295,1.37946,-1.0605,1.5067,-0.716762,-1.75586,-1.25919,2.26295,1.37946,-1.0605,1.56288,-0.796138,-1.7362,-1.25433,2.19373,1.32475,-1.02959,-0.995562,1.41349,-0.231951,-0.34614,1.24048,0.914453,-0.529534,-0.995562,1.41349,-0.231951,-0.34614,1.24048,0.914453,-0.529534,0.403045,-0.405072,0.82813,0.642894,0.0394287,0.097427,0.75871,-0.484688,0.162098,0.445927,2.24016,-0.479331,1.18195,-3.26951,0.0310242,2.19709,-3.26951,0.0310242,2.19709,-0.561869,0.793768,-0.196548,-0.0485757,0.692187,0.547106,-0.309086,1
1.49581,-0.703893,-1.76395,-1.25559,2.27464,1.38889,-1.06419,1.49581,-0.703893,-1.76395,-1.25559,2.27464,1.38889,-1.06419,1.55352,-0.782838,-1.73866,-1.25687,2.20536,1.33351,-1.03466,-0.994814,1.41271,-0.286277,-0.202441,1.23061,0.946469,-0.54627,-0.994814,1.41271,-0.286277,-0.202441,1.23061,0.946469,-0.54627,0.398029,-0.403582,0.83247,0.647843,0.0346841,0.0966222,0.754825,-0.50932,0.122639,0.465584,2.20718,-0.479094,1.20277,-3.29833,0.0237137,2.08241,-3.29833,0.0237137,2.08241,-0.577081,0.789448,-0.252935,0.012784,0.692827,0.55376,-0.295224,1
1.49169,-0.697762,-1.76642,-1.2641,2.28034,1.39184,-1.06566,1.49169,-0.697762,-1.76642,-1.2641,2.28034,1.39184,-1.06566,1.54913,-0.776604,-1.73992,-1.25777,2.21079,1.33769,-1.03707,-0.877962,1.24677,-0.252651,-0.178662,1.08606,0.835296,-0.482105,-0.877962,1.24677,-0.252651,-0.178662,1.08606,0.835296,-0.482105,0.392718,-0.40254,0.836986,0.653392,0.0295676,0.0956939,0.750365,-0.54182,0.065813,0.483392,2.17432,-0.478763,1.22235,-3.28627,0.0330716,1.95825,-3.28627,0.0330716,1.95825,-0.574386,0.788419,-0.26501,-0.0633913,0.695595,0.541521,-0.285862,1
1.47458,-0.677732,-1.77231,-1.26372,2.29783,1.40587,-1.07232,1.47458,-0.677732,-1.77231,-1.26372,2.29783,1.40587,-1.07232,1.53458,-0.756378,-1.74586,-1.25779,2.22847,1.35186,-1.04483,-1.03243,1.39764,-0.481871,0.0584397,1.22939,0.986084,-0.51534,-1.03243,1.39764,-0.481871,0.0584397,1.22939,0.986084,-0.51534,0.387113,-0.402034,0.84153,0.65947,0.024311,0.0947127,0.745344,-0.570589,0.00790588,0.47405,2.14175,-0.478553,1.24096,-3.25656,0.0210375,1.86083,-3.25656,0.0210375,1.86083,-0.599959,0.786467,-0.26454,-0.0593275,0.693644,0.540119,-0.274879,1
1.46759,-0.665199,-1.7774,-1.26127,2.30798,1.41512,-1.07924,1.46759,-0.665199,-1.7774,-1.26127,2.30798,1.41512,-1.07924,1.52552,-0.744048,-1.75015,-1.2583,2.23935,1.3604,-1.04929,-0.90088,1.23256,-0.433347,-0.154489,1.09157,0.837346,-0.435989,-0.90088,1.23256,-0.433347,-0.154489,1.09157,0.837346,-0.435989,0.384431,-0.4019,0.843635,0.662406,0.0218539,0.0942593,0.74287,-0.50248,0.0121631,0.416793,2.10896,-0.478379,1.25852,-3.27895,0.0173807,1.75598,-3.27895,0.0173807,1.75598,-0.579329,0.788492,-0.27255,-0.0296579,0.686236,0.547233,-0.29952,1
1.45669,-0.653015,-1.78457,-1.25275,2.31868,1.42567,-1.0832,1.45669,-0.653015,-1.78457,-1.25275,2.31868,1.42567,-1.0832,1.51603,-0.731456,-1.75444,-1.25954,2.25048,1.369,-1.05369,-1.10357,1.43063,-0.475851,-0.111307,1.26113,0.981812,-0.496087,-1.10357,1.43063,-0.475851,-0.111307,1.26113,0.981812,-0.496087,0.376989,-0.400829,0.849109,0.670412,0.0154339,0.0933898,0.735927,-0.557675,0.0528174,0.428658,2.07604,-0.478457,1.27509,-3.29194,-0.00784695,1.6566,-3.29194,-0.00784695,1.6566,-0.593312,0.784415,-0.301321,0.0678926,0.682016,0.566645,-0.295083,1
1.44699,-0.639974,-1.79202,-1.25235,2.33038,1.43539,-1.08687,1.44699,-0.639974,-1.79202,-1.25235,2.33038,1.43539,-1.08687,1.50604,-0.7181,-1.75899,-1.26018,2.26214,1.37824,-1.05862,-1.0239,1.4087,-0.490298,-0.0290551,1.22051,0.981996,-0.548931,-1.0239,1.4087,-0.490298,-0.0290551,1.22051,0.981996,-0.548931,0.371523,-0.400074,0.853205,0.676369,0.0104793,0.0926934,0.730632,-0.53761,0.0656287,0.436454,2.04318,-0.478445,1.29069,-3.28603,0.0012368,1.5601,-3.28603,0.0012368,1.5601,-0.590419,0.781255,-0.330272,0.0783074,0.68237,0.571476,-0.282446,1
1.4357,-0.62695,-1.79612,-1.26609,2.34218,1.44233,-1.09071,1.4357,-0.62695,-1.79612,-1.26609,2.34218,1.44233,-1.09071,1.49625,-0.704966,-1.76391,-1.25942,2.27354,1.38764,-1.06365,-1.05336,1.38343,-0.550308,0.177517,1.20199,1.01259,-0.52058,-1.05336,1.38343,-0.550308,0.177517,1.20199,1.01259,-0.52058,0.365835,-0.399576,0.857513,0.682694,0.00509529,0.0918783,0.724887,-0.594663,-0.000436002,0.472481,2.01052,-0.478057,1.30534,-3.26571,0.0387549,1.46469,-3.26571,0.0387549,1.46469,-0.605481,0.780167,-0.322145,-0.0667098,0.686424,0.546912,-0.270588,1
1.42575,-0.613421,-1.79927,-1.26798,2.35323,1.44972,-1.09699,1.42575,-0.613421,-1.79927,-1.26798,2.35323,1.44972,-1.09699,1.48636,-0.691942,-1.76935,-1.2579,2.2849,1.39719,-1.06841,-1.04831,1.38387,-0.603572,0.14777,1.21114,1.01716,-0.491676,-1.04831,1.38387,-0.603572,0.14777,1.21114,1.01716,-0.491676,0.359932,-0.399329,0.861852,0.689216,-0.000461107,0.091017,0.718817,-0.585338,0.00465281,0.447594,1.97792,-0.477585,1.31901,-3.26048,0.0472248,1.36764,-3.26048,0.0472248,1.36764,-0.606139,0.785212,-0.299135,-0.100835,0.683288,0.525267,-0.285887,1
1.4163,-0.600099,-1.80466,-1.25905,2.36394,1.46073,-1.10167,1.4163,-0.600099,-1.80466,-1.25905,2.36394,1.46073,-1.10167,1.47633,-0.678917,-1.77485,-1.25828,2.29635,1.40646,-1.07294,-1.08177,1.38383,-0.566468,-0.207863,1.22056,0.955251,-0.473146,-1.08177,1.38383,-0.566468,-0.207863,1.22056,0.955251,-0.473146,0.35451,-0.398709,0.865538,0.695167,-0.00526187,0.0904933,0.71311,-0.510562,0.0764283,0.34029,1.94571,-0.477136,1.33145,-3.22112,0.0449032,1.24354,-3.22112,0.0449032,1.24354,-0.600252,0.788174,-0.298146,-0.00768068,0.675931,0.542747,-0.287309,1
1.40943,-0.58748,-1.81141,-1.25565,2.37559,1.47286,-1.10595,1.40943,-0.58748,-1.81141,-1.25565,2.37559,1.47286,-1.10595,1.46617,-0.665832,-1.77992,-1.26023,2.30778,1.41526,-1.07761,-1.07649,1.39572,-0.515106,-0.206316,1.21022,0.917649,-0.516216,-1.07649,1.39572,-0.515106,-0.206316,1.21022,0.917649,-0.516216,0.349532,-0.39764,0.868802,0.700674,-0.00949148,0.0902421,0.707687,-0.498397,0.106173,0.352382,1.91326,-0.477003,1.34298,-3.24444,0.0132918,1.15347,-3.24444,0.0132918,1.15347,-0.567395,0.783516,-0.314903,0.0458023,0.678091,0.575947,-0.283368,1
1.40024,-0.574741,-1.81498,-1.26388,2.38747,1.48193,-1.11051,1.40024,-0.574741,-1.81498,-1.26388,2.38747,1.48193,-1.11051,1.45612,-0.652673,-1.78484,-1.2609,2.31909,1.42418,-1.08245,-1.06036,1.40007,-0.527994,0.0491413,1.19425,0.973477,-0.51196,-1.06036,1.40007,-0.527994,0.0491413,1.19425,0.973477,-0.51196,0.34431,-0.396538,0.872496,0.70643,-0.0143295,0.089842,0.701912,-0.549983,0.0814626,0.428643,1.88037,-0.476924,1.35361,-3.28938,0.0079006,1.06226,-3.28938,0.0079006,1.06226,-0.558798,0.779322,-0.301419,-0.0298513,0.683746,0.577497,-0.280673,1
1.39078,-0.561609,-1.81858,-1.26565,2.39865,1.49094,-1.11563,1.39078,-0.561609,-1.81858,-1.26565,2.39865,1.49094,-1.11563,1.44651,-0.639561,-1.79002,-1.26009,2.33038,1.43369,-1.0872,-0.987269,1.38693,-0.569855,0.118166,1.20393,1.04306,-0.499173,-0.987269,1.38693,-0.569855,0.118166,1.20393,1.04306,-0.499173,0.338843,-0.395458,0.876549,0.712339,-0.0199244,0.0891886,0.69586,-0.542524,0.0912091,0.433403,1.84751,-0.476915,1.36325,-3.28585,0.000882149,0.964856,-3.28585,0.000882149,0.964856,-0.557225,0.779519,-0.285684,-0.0555787,0.682702,0.572501,-0.284301,1
1.38269,-0.54834,-1.8227,-1.26578,2.40982,1.50069,-1.11941,1.38269,-0.54834,-1.8227,-1.26578,2.40982,1.50069,-1.11941,1.43722,-0.626544,-1.79517,-1.26007,2.34178,1.44342,-1.09188,-0.984903,1.37953,-0.527567,-0.101389,1.21674,1.02552,-0.496112,-0.984903,1.37953,-0.527567,-0.101389,1.21674,1.02552,-0.496112,0.333703,-0.394071,0.880277,0.717837,-0.0253665,0.0885488,0.690091,-0.485787,0.143181,0.365067,1.81497,-0.476807,1.37154,-3.25464,0.0108719,0.828278,-3.25464,0.0108719,0.828278,-0.545391,0.782046,-0.275314,-0.0570901,0.68037,0.572671,-0.275216,1
1.37339,-0.535105,-1.82515,-1.27424,2.42197,1.50849,-1.12235,1.37339,-0.535105,-1.82515,-1.27424,2.42197,1.50849,-1.12235,1.42793,-0.613542,-1.79997,-1.26112,2.3532,1.453,-1.09661,-0.989308,1.38299,-0.495603,-0.120445,1.21045,1.01044,-0.506641,-0.989308,1.38299,-0.495603,-0.120445,1.21045,1.01044,-0.506641,0.328895,-0.392359,0.883684,0.722967,-0.0304795,0.0880217,0.684574,-0.474948,0.164401,0.362172,1.78281,-0.476335,1.37904,-3.21548,0.0471205,0.750446,-3.21548,0.0471205,0.750446,-0.545384,0.784369,-0.251725,-0.131208,0.687699,0.554983,-0.257409,1
1.36501,-0.521567,-1.82575,-1.28141,2.43357,1.51587,-1.12672,1.36501,-0.521567,-1.82575,-1.28141,2.43357,1.51587,-1.12672,1.41876,-0.600496,-1.80457,-1.26214,2.36457,1.46253,-1.10126,-0.96077,1.38893,-0.482686,-0.0970129,1.20503,1.01599,-0.483278,-0.96077,1.38893,-0.482686,-0.0970129,1.20503,1.01599,-0.483278,0.324193,-0.390429,0.887109,0.72793,-0.0356899,0.0875129,0.679107,-0.462982,0.18679,0.36955,1.75064,-0.475825,1.38565,-3.21671,0.0510275,0.66129,-3.21671,0.0510275,0.66129,-0.537551,0.789282,-0.211778,-0.192647,0.690026,0.533358,-0.254587,1
1.35758,-0.508076,-1.82869,-1.28172,2.44439,1.52505,-1.13321,1.35758,-0.508076,-1.82869,-1.28172,2.44439,1.52505,-1.13321,1.40969,-0.587404,-1.80887,-1.26394,2.376,1.47189,-1.10562,-0.966608,1.39272,-0.433421,-0.274406,1.22411,0.974762,-0.445503,-0.966608,1.39272,-0.433421,-0.274406,1.22411,0.974762,-0.445503,0.319814,-0.3882,0.890303,0.732469,-0.0406251,0.0870884,0.673984,-0.413222,0.227611,0.317398,1.71826,-0.475395,1.39166,-3.23795,0.0430375,0.60035,-3.23795,0.0430375,0.60035,-0.521079,0.793279,-0.198238,-0.177759,0.683852,0.531605,-0.275875,1
1.35276,-0.495066,-1.8312,-1.28089,2.45575,1.53673,-1.13749,1.35276,-0.495066,-1.8312,-1.28089,2.45575,1.53673,-1.13749,1.40068,-0.574245,-1.81254,-1.26706,2.38753,1.48085,-1.10983,-0.949868,1.40281,-0.351778,-0.381986,1.22592,0.932484,-0.449652,-0.949868,1.40281,-0.351778,-0.381986,1.22592,0.932484,-0.449652,0.315926,-0.385555,0.893155,0.736479,-0.0450599,0.0867888,0.669355,-0.365975,0.278452,0.295279,1.6859,-0.475195,1.39656,-3.23604,0.0200093,0.490487,-3.23604,0.0200093,0.490487,-0.479201,0.791787,-0.186538,-0.138268,0.682134,0.558751,-0.276576,1
1.34631,-0.482298,-1.83737,-1.27752,2.46716,1.54699,-1.14117,1.34631,-0.482298,-1.83737,-1.27752,2.46716,1.54699,-1.14117,1.39191,-0.561007,-1.81581,-1.27027,2.39899,1.48968,-1.11433,-0.914253,1.40958,-0.343127,-0.304806,1.20902,0.94199,-0.502681,-0.914253,1.40958,-0.343127,-0.304806,1.20902,0.94199,-0.502681,0.31227,-0.382605,0.896014,0.74035,-0.0495526,0.0865116,0.664787,-0.361503,0.293691,0.317397,1.65307,-0.475124,1.40022,-3.28361,0.00706017,0.365484,-3.28361,0.00706017,0.365484,-0.456028,0.787089,-0.215568,-0.0725411,0.681748,0.573067,-0.268445,1
1.33735,-0.469203,-1.83979,-1.28389,2.4793,1.5546,-1.14331,1.33735,-0.469203,-1.83979,-1.28389,2.4793,1.5546,-1.14331,1.38375,-0.54777,-1.81895,-1.27271,2.41036,1.49888,-1.11901,-0.825451,1.40353,-0.326007,-0.217915,1.20854,1.00807,-0.492168,-0.825451,1.40353,-0.326007,-0.217915,1.20854,1.00807,-0.492168,0.308671,-0.379409,0.899079,0.744149,-0.0545884,0.0860776,0.660191,-0.346283,0.323596,0.340358,1.62068,-0.474908,1.40294,-3.23833,0.021562,0.272083,-3.23833,0.021562,0.272083,-0.464059,0.785674,-0.208388,-0.111809,0.689386,0.557274,-0.243007,1
1.32948,-0.456179,-1.84482,-1.28648,2.49025,1.56331,-1.1482,1.32948,-0.456179,-1.84482,-1.28648,2.49025,1.56331,-1.1482,1.37614,-0.534612,-1.82239,-1.27412,2.42174,1.50845,-1.12353,-0.794328,1.39313,-0.398915,-0.0906719,1.20949,1.02611,-0.469883,-0.794328,1.39313,-0.398915,-0.0906719,1.20949,1.02611,-0.469883,0.305011,-0.376177,0.902331,0.747923,-0.060124,0.0854671,0.655508,-0.364775,0.299531,0.359221,1.58808,-0.475013,1.4045,-3.26084,-0.0104219,0.155759,-3.26084,-0.0104219,0.155759,-0.466634,0.784323,-0.224336,-0.123552,0.685076,0.548544,-0.246662,1
1.32361,-0.443008,-1.84868,-1.29045,2.50131,1.57227,-1.15113,1.32361,-0.443008,-1.84868,-1.29045,2.50131,1.57227,-1.15113,1.36849,-0.521501,-1.82599,-1.27562,2.43322,1.51787,-1.12768,-0.829295,1.39273,-0.36769,-0.22011,1.22728,0.978153,-0.416121,-0.829295,1.39273,-0.36769,-0.22011,1.22728,0.978153,-0.416121,0.301424,-0.372993,0.905446,0.751577,-0.0654806,0.084879,0.650876,-0.336641,0.31165,0.315525,1.55555,-0.474972,1.4052,-3.25285,0.0041157,0.07025,-3.25285,0.0041157,0.07025,-0.448783,0.784929,-0.226912,-0.148259,0.680928,0.544012,-0.2345,1
1.31728,-0.430207,-1.85393,-1.29172,2.51266,1.5814,-1.15426,1.31728,-0.430207,-1.85393,-1.29172,2.51266,1.5814,-1.15426,1.36068,-0.508402,-1.82963,-1.27775,2.4447,1.52702,-1.13171,-0.830798,1.39065,-0.404496,-0.23226,1.21306,0.966327,-0.438894,-0.830798,1.39065,-0.404496,-0.23226,1.21306,0.966327,-0.438894,0.298034,-0.369803,0.908274,0.755113,-0.0704487,0.084434,0.646306,-0.329175,0.305339,0.297349,1.52311,-0.474892,1.40504,-3.24363,0.00797808,-0.015676,-3.24363,0.00797808,-0.015676,-0.433908,0.781956,-0.243014,-0.139645,0.679651,0.543795,-0.225478,1
1.3111,-0.417375,-1.85921,-1.2922,2.52355,1.59045,-1.15946,1.3111,-0.417375,-1.85921,-1.2922,2.52355,1.59045,-1.15946,1.35308,-0.495303,-1.83344,-1.28015,2.45607,1.5361,-1.13571,-0.784884,1.39256,-0.405643,-0.274208,1.2046,0.963255,-0.410846,-0.784884,1.39256,-0.405643,-0.274208,1.2046,0.963255,-0.410846,0.294864,-0.366527,0.910916,0.758529,-0.0752756,0.0841164,0.641788,-0.295467,0.327824,0.276863,1.49053,-0.474852,1.40395,-3.25779,0.00399649,-0.109613,-3.25779,0.00399649,-0.109613,-0.419858,0.779282,-0.257664,-0.120482,0.674794,0.543542,-0.237541,1
1.30434,-0.4046,-1.86325,-1.30468,2.53557,1.59627,-1.16164,1.30434,-0.4046,-1.86325,-1.30468,2.53557,1.59627,-1.16164,1.34582,-0.482231,-1.83743,-1.28258,2.46741,1.54517,-1.13949,-0.759923,1.38536,-0.439413,-0.243428,1.20494,0.964647,-0.393482,-0.759923,1.38536,-0.439413,-0.243428,1.20494,0.964647,-0.393482,0.291869,-0.363176,0.913444,0.761779,-0.0800605,0.0838435,0.63738,-0.29142,0.322596,0.273226,1.45806,-0.474301,1.40144,-3.24728,0.0550449,-0.25034,-3.24728,0.0550449,-0.25034,-0.414784,0.776315,-0.25823,-0.221069,0.681539,0.510993,-0.221542,1
1.29968,-0.391724,-1.87025,-1.31049,2.54674,1.60305,-1.16276,1.29968,-0.391724,-1.87025,-1.31049,2.54674,1.60305,-1.16276,1.33878,-0.469216,-1.8417,-1.28465,2.4787,1.55425,-1.14336,-0.737187,1.38047,-0.466251,-0.200855,1.19433,0.964064,-0.428584,-0.737187,1.38047,-0.466251,-0.200855,1.19433,0.964064,-0.428584,0.288903,-0.35985,0.915963,0.765085,-0.0849415,0.0835683,0.632808,-0.289467,0.320668,0.275889,1.42602,-0.473764,1.39794,-3.20402,0.0537217,-0.350296,-3.20402,0.0537217,-0.350296,-0.391039,0.774914,-0.285497,-0.258394,0.68033,0.48801,-0.193925,1
1.2974,-0.37917,-1.87907,-1.30862,2.55608,1.61529,-1.16913,1.2974,-0.37917,-1.87907,-1.30862,2.55608,1.61529,-1.16913,1.33186,-0.456248,-1.84605,-1.28779,2.49004,1.56294,-1.14718,-0.732878,1.37533,-0.458144,-0.449845,1.21249,0.887557,-0.38502,-0.732878,1.37533,-0.458144,-0.449845,1.21249,0.887557,-0.38502,0.286331,-0.356501,0.918048,0.768188,-0.0891926,0.0834579,0.628464,-0.221555,0.331848,0.185727,1.39391,-0.473591,1.39363,-3.21125,0.0173479,-0.430512,-3.21125,0.0173479,-0.430512,-0.344672,0.770772,-0.330164,-0.208326,0.66049,0.523483,-0.219514,1
1.29501,-0.367582,-1.88752,-1.30857,2.5675,1.62558,-1.17601,1.29501,-0.367582,-1.88752,-1.30857,2.5675,1.62558,-1.17601,1.32523,-0.44331,-1.85068,-1.29221,2.50142,1.57111,-1.15051,-0.680389,1.37368,-0.52123,-0.486895,1.20673,0.850531,-0.326117,-0.680389,1.37368,-0.52123,-0.486895,1.20673,0.850531,-0.326117,0.284263,-0.353173,0.919599,0.770958,-0.0925966,0.0836027,0.624547,-0.193135,0.326648,0.157231,1.36171,-0.473501,1.3883,-3.22022,0.00897646,-0.533009,-3.22022,0.00897646,-0.533009,-0.302229,0.75728,-0.368457,-0.163556,0.660767,0.544694,-0.255025,1
1.29406,-0.356413,-1.89652,-1.30516,2.57833,1.6348,-1.18179,1.29406,-0.356413,-1.89652,-1.30516,2.57833,1.6348,-1.18179,1.31931,-0.430424,-1.85604,-1.29603,2.51254,1.57962,-1.15397,-0.583484,1.36485,-0.613086,-0.33522,1.1595,0.950017,-0.403798,-0.583484,1.36485,-0.613086,-0.33522,1.1595,0.950017,-0.403798,0.282248,-0.349845,0.921156,0.773798,-0.096315,0.0838132,0.620432,-0.205904,0.326503,0.185556,1.32939,-0.473762,1.38216,-3.23166,-0.0261515,-0.61456,-3.23166,-0.0261515,-0.61456,-0.252473,0.740112,-0.404746,-0.0912365,0.657885,0.551873,-0.278207,1
1.2938,-0.344669,-1.90536,-1.30921,2.58898,1.64194,-1.18746,1.2938,-0.344669,-1.90536,-1.30921,2.58898,1.64194,-1.18746,1.31418,-0.417725,-1.86213,-1.29881,2.52351,1.58872,-1.15813,-0.51062,1.33526,-0.676214,-0.25972,1.1712,0.981699,-0.476176,-0.51062,1.33526,-0.676214,-0.25972,1.1712,0.981699,-0.476176,0.280123,-0.346556,0.92285,0.776898,-0.100655,0.0838513,0.615847,-0.209285,0.312122,0.190215,1.29702,-0.474037,1.37479,-3.23656,-0.0275135,-0.736833,-3.23656,-0.0275135,-0.736833,-0.203795,0.730566,-0.43235,-0.10397,0.654647,0.532249,-0.293275,1
1.29282,-0.333314,-1.91406,-1.31699,2.60061,1.64454,-1.19261,1.29282,-0.333314,-1.91406,-1.31699,2.60061,1.64454,-1.19261,1.30983,-0.405321,-1.8688,-1.30057,2.53452,1.59795,-1.16277,-0.419859,1.30238,-0.738006,-0.122197,1.16673,0.981241,-0.506587,-0.419859,1.30238,-0.738006,-0.122197,1.16673,0.981241,-0.506587,0.277918,-0.343378,0.924695,0.780171,-0.105366,0.0836342,0.610931,-0.216522,0.300033,0.217446,1.26477,-0.473727,1.36642,-3.22504,0.031063,-0.836754,-3.22504,0.031063,-0.836754,-0.170137,0.720076,-0.452533,-0.164188,0.660928,0.465866,-0.298454,1
1.29971,-0.322092,-1.92318,-1.3182,2.61096,1.6492,-1.19839,1.29971,-0.322092,-1.92318,-1.3182,2.61096,1.6492,-1.19839,1.30631,-0.393123,-1.87597,-1.30206,2.54546,1.60694,-1.16764,-0.333099,1.29029,-0.782659,-0.190368,1.1589,0.931941,-0.527763,-0.333099,1.29029,-0.782659,-0.190368,1.1589,0.931941,-0.527763,0.275905,-0.340224,0.926485,0.783419,-0.11001,0.083371,0.605972,-0.172978,0.306321,0.182845,1.23277,-0.473361,1.35706,-3.19979,0.0365913,-0.936139,-3.19979,0.0365913,-0.936139,-0.0660445,0.710306,-0.472104,-0.161367,0.654984,0.422557,-0.307481,1
1.31832,-0.312429,-1.93258,-1.31815,2.62185,1.65881,-1.2067,1.31832,-0.312429,-1.93258,-1.31815,2.62185,1.65881,-1.2067,1.30343,-0.381071,-1.88349,-1.30456,2.55645,1.61499,-1.17263,-0.282605,1.27172,-0.813805,-0.331063,1.17585,0.786895,-0.532098,-0.282605,1.27172,-0.813805,-0.331063,1.17585,0.786895,-0.532098,0.274405,-0.337157,0.927852,0.786534,-0.113741,0.0832635,0.601244,-0.1206,0.293446,0.126409,1.20096,-0.47306,1.34707,-3.18179,0.0300616,-0.999415,-3.18179,0.0300616,-0.999415,0.148899,0.686419,-0.490816,-0.135916,0.653951,0.438217,-0.340704,1
1.33298,-0.30595,-1.94282,-1.31598,2.63368,1.66702,-1.21769,1.33298,-0.30595,-1.94282,-1.31598,2.63368,1.66702,-1.21769,1.30189,-0.369188,-1.89133,-1.30745,2.56744,1.62207,-1.17773,-0.058151,1.25412,-0.848277,-0.286241,1.15895,0.722312,-0.550158,-0.058151,1.25412,-0.848277,-0.286241,1.15895,0.722312,-0.550158,0.273504,-0.333993,0.929013,0.789381,-0.116842,0.0832019,0.596911,-0.0537284,0.332362,0.132976,1.16897,-0.47293,1.33634,-3.19909,0.0130177,-1.07236,-3.19909,0.0130177,-1.07236,0.310941,0.632383,-0.514956,-0.0853418,0.662456,0.449426,-0.399669,1
1.33794,-0.3014,-1.95402,-1.3027,2.6443,1.66994,-1.22729,1.33794,-0.3014,-1.95402,-1.3027,2.6443,1.66994,-1.22729,1.30359,-0.357635,-1.89948,-1.30982,2.57834,1.6292,-1.18327,0.392082,1.20381,-0.881394,-0.22176,1.1585,0.788441,-0.623785,0.392082,1.20381,-0.881394,-0.22176,1.1585,0.788441,-0.623785,0.273444,-0.330194,0.930217,0.791543,-0.120245,0.0827768,0.593421,0.0652227,0.424762,0.136415,1.13669,-0.472696,1.3245,-3.22739,0.0233918,-1.18427,-3.22739,0.0233918,-1.18427,0.343423,0.562351,-0.545415,0.071238,0.659547,0.407393,-0.440145,1
1.34506,-0.297382,-1.96397,-1.29638,2.6553,1.67394,-1.2325,1.34506,-0.297382,-1.96397,-1.29638,2.6553,1.67394,-1.2325,1.30857,-0.346874,-1.908,-1.31141,2.58936,1.63672,-1.18975,0.650047,1.08983,-0.927269,-0.121824,1.18039,0.806891,-0.744229,0.650047,1.08983,-0.927269,-0.121824,1.18039,0.806891,-0.744229,0.273996,-0.326009,0.931439,0.793212,-0.124076,0.0816035,0.590559,0.0997391,0.422118,0.13723,1.10445,-0.472728,1.31133,-3.22448,-0.00321269,-1.31701,-3.22448,-0.00321269,-1.31701,0.364859,0.49492,-0.559718,0.150277,0.659454,0.372197,-0.427508,1
1.35454,-0.306415,-1.9771,-1.29787,2.66536,1.68403,-1.23913,1.35454,-0.306415,-1.9771,-1.29787,2.66536,1.68403,-1.23913,1.31456,-0.337287,-1.91702,-1.31086,2.60041,1.64376,-1.19706,0.622637,0.955687,-0.985278,0.217363,1.16878,0.697177,-0.805084,0.622637,0.955687,-0.985278,0.217363,1.16878,0.697177,-0.805084,0.27414,-0.322351,0.933075,0.795266,-0.128287,0.0796574,0.587154,0.000813083,0.321601,0.219722,1.07212,-0.472932,1.29741,-3.23242,-0.0203609,-1.39165,-3.23242,-0.0203609,-1.39165,0.399887,0.308723,-0.600746,0.129886,0.649546,0.402678,-0.420749,1
1.36333,-0.338874,-1.98841,-1.29208,2.67686,1.69113,-1.24407,1.36333,-0.338874,-1.98841,-1.29208,2.67686,1.69113,-1.24407,1.32056,-0.328877,-1.92637,-1.30831,2.61141,1.65002,-1.20436,0.652329,0.838714,-1.00131,0.31772,1.16886,0.636823,-0.749437,0.652329,0.838714,-1.00131,0.31772,1.16886,0.636823,-0.749437,0.273671,-0.319443,0.935115,0.797681,-0.132633,0.0771287,0.583236,-0.0274063,0.263267,0.227082,1.03999,-0.472863,1.28212,-3.21313,0.00693202,-1.52963,-3.21313,0.00693202,-1.52963,0.427673,-0.0999743,-0.620388,0.162259,0.654531,0.411093,-0.397084,1
1.37298,-0.376228,-2.00163,-1.29463,2.68641,1.70244,-1.25128,1.37298,-0.376228,-2.00163,-1.29463,2.68641,1.70244,-1.25128,1.3271,-0.322972,-1.93623,-1.30585,2.6223,1.6565,-1.21136,0.730924,0.440913,-1.08817,0.212427,1.14676,0.733183,-0.739552,0.730924,0.440913,-1.08817,0.212427,1.14676,0.733183,-0.739552,0.27289,-0.317911,0.936466,0.800115,-0.136247,0.0736996,0.579501,-0.0589983,0.0573216,0.0777774,1.00785,-0.472704,1.2663,-3.21385,0.0158399,-1.58213,-3.21385,0.0158399,-1.58213,0.45883,-0.532566,-0.653994,0.112176,0.641068,0.459395,-0.399238,1
1.37906,-0.389069,-2.01524,-1.31525,2.6833,1.70344,-1.25541,1.37906,-0.389069,-2.01524,-1.31525,2.6833,1.70344,-1.25541,1.3342,-0.323123,-1.9466,-1.3034,2.63318,1.66342,-1.21808,0.775758,-0.419453,-1.11345,0.301395,1.16335,0.737904,-0.691892,0.775758,-0.419453,-1.11345,0.301395,1.16335,0.737904,-0.691892,0.271283,-0.319806,0.936266,0.802828,-0.138085,0.0679796,0.576002,-0.180775,-0.39984,-0.115986,0.975445,-0.47271,1.24968,-3.24082,-0.000607967,-1.66166,-3.24082,-0.000607967,-1.66166,0.448585,-0.659458,-0.686362,-0.118498,0.501194,0.400153,-0.373288,1
1.37206,-0.402098,-2.02672,-1.33859,2.66394,1.70968,-1.26124,1.37206,-0.402098,-2.02672,-1.33859,2.66394,1.70968,-1.26124,1.34178,-0.330997,-1.9574,-1.3012,2.64396,1.67088,-1.22468,0.830914,-1.20453,-1.17783,0.17493,1.13034,0.84038,-0.708523,0.830914,-1.20453,-1.17783,0.17493,1.13034,0.84038,-0.708523,0.268726,-0.326096,0.933931,0.805976,-0.137493,0.0594573,0.572681,-0.247092,-0.814183,-0.390391,0.943409,-0.472451,1.23161,-3.20359,0.0259668,-1.80711,-3.20359,0.0259668,-1.80711,0.302792,-0.711012,-0.693145,-0.373949,0.199811,0.388011,-0.365642,1
1.37158,-0.410684,-2.03961,-1.36645,2.61713,1.72296,-1.28093,1.37158,-0.410684,-2.03961,-1.36645,2.61713,1.72296,-1.28093,1.34939,-0.342511,-1.96879,-1.30217,2.65299,1.67798,-1.23105,0.789988,-1.23987,-1.23704,-0.348432,0.807203,0.677999,-0.648802,0.789988,-1.23987,-1.23704,-0.348432,0.807203,0.677999,-0.648802,0.266663,-0.334523,0.929316,0.809185,-0.134184,0.0510722,0.569742,-0.118673,-0.839538,-0.611272,0.911348,-0.471914,1.21226,-3.20613,0.0537097,-1.9348,-3.20613,0.0537097,-1.9348,0.221876,-0.681729,-0.708228,-0.642793,-0.358535,0.449804,-0.498819,1
1.37817,-0.419626,-2.04886,-1.37979,2.60427,1.74253,-1.29219,1.37817,-0.419626,-2.04886,-1.37979,2.60427,1.74253,-1.29219,1.35513,-0.35434,-1.98041,-1.3078,2.65742,1.68435,-1.23712,0.45069,-1.2718,-1.2332,-0.81989,0.173817,0.674756,-0.642318,0.45069,-1.2718,-1.2332,-0.81989,0.173817,0.674756,-0.642318,0.26563,-0.34324,0.922715,0.812472,-0.12878,0.045737,0.566757,-0.0909212,-0.875674,-0.815368,0.879741,-0.471857,1.19221,-3.16064,0.0056088,-2.00491,-3.16064,0.0056088,-2.00491,0.230317,-0.652857,-0.684486,-0.719813,-0.531493,0.581835,-0.550696,1
1.36032,-0.435315,-2.06211,-1.38585,2.59899,1.74841,-1.2919,1.36032,-0.435315,-2.06211,-1.38585,2.59899,1.74841,-1.2919,1.35882,-0.365913,-1.99217,-1.31789,2.65336,1.69151,-1.24477,0.339823,-1.19225,-1.26336,-1.29315,-0.964754,0.837532,-0.962927,0.339823,-1.19225,-1.26336,-1.29315,-0.964754,0.837532,-0.962927,0.265746,-0.351207,0.914236,0.816086,-0.122894,0.0451417,0.562905,0.0409889,-0.733735,-1.0035,0.847872,-0.47188,1.17127,-3.18696,-0.00225902,-2.09452,-3.18696,-0.00225902,-2.09452,0.0150264,-0.694024,-0.699462,-0.679585,-0.543672,0.568963,-0.471265,1
1.34551,-0.444214,-2.07099,-1.40284,2.59263,1.75821,-1.2984,1.34551,-0.444214,-2.07099,-1.40284,2.59263,1.75821,-1.2984,1.36242,-0.376867,-2.00375,-1.3302,2.64383,1.70077,-1.25409,0.41937,-1.13869,-1.20129,-1.32058,-1.05369,1.11215,-1.0146,0.41937,-1.13869,-1.20129,-1.32058,-1.05369,1.11215,-1.0146,0.266725,-0.357763,0.904839,0.819496,-0.117969,0.0473032,0.558813,0.0689588,-0.617087,-1.01133,0.816006,-0.471705,1.14921,-3.18657,0.017488,-2.20537,-3.18657,0.017488,-2.20537,-0.169119,-0.673474,-0.672389,-0.72646,-0.51203,0.574436,-0.443012,1
1.33333,-0.451279,-2.07659,-1.41076,2.58471,1.76786,-1.3066,1.33333,-0.451279,-2.07659,-1.41076,2.58471,1.76786,-1.3066,1.36427,-0.381891,-2.00905,-1.33602,2.63918,1.70567,-1.25857,0.370075,-1.00484,-1.06008,-1.16536,-0.929834,0.981425,-0.895336,0.370075,-1.00484,-1.06008,-1.16536,-0.929834,0.981425,-0.895336,0.267223,-0.36055,0.900396,0.820942,-0.115982,0.0483459,0.557015,0.0599306,-0.53633,-0.897415,0.784275,-0.472144,1.12633,-3.17314,-0.0438452,-2.28842,-3.17314,-0.0438452,-2.28842,-0.309348,-0.693873,-0.675373,-0.747317,-0.544754,0.621851,-0.480294,1
1.3227,-0.470166,-2.09276,-1.43098,2.57899,1.77744,-1.32255,1.3227,-0.470166,-2.09276,-1.43098,2.57899,1.77744,-1.32255,1.36129,-0.399643,-2.02669,-1.3536,2.62587,1.72019,-1.26976,-0.420432,-1.18694,-1.17977,-1.31132,-0.88513,1.01252,-0.762669,-0.420432,-1.18694,-1.17977,-1.31132,-0.88513,1.01252,-0.762669,0.264974,-0.372979,0.885855,0.827446,-0.108257,0.0512111,0.548626,-0.268877,-0.841971,-1.03924,0.752324,-0.472136,1.10284,-3.19507,0.000762939,-2.34928,-3.19507,0.000762939,-2.34928,-0.385939,-0.705231,-0.660698,-0.773826,-0.468833,0.572558,-0.527932,1
1.31203,-0.482025,-2.10407,-1.44313,2.57465,1.78266,-1.33233,1.31203,-0.482025,-2.10407,-1.44313,2.57465,1.78266,-1.33233,1.35637,-0.410332,-2.03714,-1.36542,2.61759,1.72973,-1.27706,-0.613474,-1.09036,-1.05034,-1.20716,-0.875462,1.01526,-0.786756,-0.613474,-1.09036,-1.05034,-1.20716,-0.875462,1.01526,-0.786756,0.262521,-0.380897,0.876521,0.831997,-0.103376,0.0531901,0.542462,-0.345225,-0.790614,-0.964046,0.720544,-0.471835,1.07798,-3.17804,0.0300825,-2.48544,-3.17804,0.0300825,-2.48544,-0.443394,-0.716927,-0.669315,-0.777042,-0.429323,0.529287,-0.552763,1
1.29712,-0.495997,-2.11611,-1.45473,2.57515,1.79044,-1.3408,1.29712,-0.495997,-2.11611,-1.45473,2.57515,1.79044,-1.3408,1.35003,-0.421609,-2.04777,-1.37783,2.60964,1.73929,-1.28546,-0.727664,-1.29304,-1.19798,-1.4155,-0.816329,1.01595,-0.987532,-0.727664,-1.29304,-1.19798,-1.4155,-0.816329,1.01595,-0.987532,0.259366,-0.389374,0.866683,0.837121,-0.09791,0.0548803,0.535379,-0.4221,-0.932627,-1.1343,0.688941,-0.471788,1.0521,-3.16029,0.00470877,-2.58822,-3.16029,0.00470877,-2.58822,-0.52903,-0.743875,-0.68345,-0.769065,-0.344866,0.511439,-0.553402,1
1.28683,-0.508984,-2.12712,-1.46833,2.57085,1.79993,-1.35031,1.28683,-0.508984,-2.12712,-1.46833,2.57085,1.79993,-1.35031,1.34273,-0.433743,-2.05905,-1.39101,2.60235,1.74834,-1.29482,-0.817402,-1.2857,-1.19899,-1.38777,-0.737556,0.913823,-0.998973,-0.817402,-1.2857,-1.19899,-1.38777,-0.737556,0.913823,-0.998973,0.255615,-0.398609,0.856125,0.842775,-0.0913089,0.0561947,0.52748,-0.478403,-0.938929,-1.13069,0.657667,-0.471841,1.02543,-3.1274,-0.00527203,-2.66709,-3.1274,-0.00527203,-2.66709,-0.558933,-0.752407,-0.680717,-0.77317,-0.315034,0.515894,-0.554901,1
1.27315,-0.521886,-2.14005,-1.48054,2.57179,1.80168,-1.35949,1.27315,-0.521886,-2.14005,-1.48054,2.57179,1.80168,-1.35949,1.33419,-0.446065,-2.07042,-1.4039,2.59628,1.75685,-1.30411,-0.98696,-1.32963,-1.21667,-1.35355,-0.562638,0.894398,-0.977124,-0.98696,-1.32963,-1.21667,-1.35355,-0.562638,0.894398,-0.977124,0.251009,-0.408216,0.845519,0.84871,-0.084239,0.0569408,0.518993,-0.595517,-0.993149,-1.14444,0.6261,-0.47154,0.998238,-3.1567,0.0301152,-2.71904,-3.1567,0.0301152,-2.71904,-0.610402,-0.758208,-0.696228,-0.766409,-0.244977,0.448315,-0.553811,1
1.2607,-0.536562,-2.15246,-1.49353,2.56988,1.8128,-1.36891,1.2607,-0.536562,-2.15246,-1.49353,2.56988,1.8128,-1.36891,1.32478,-0.458636,-2.08182,-1.41674,2.5911,1.76539,-1.31334,-1.01042,-1.34073,-1.20623,-1.37364,-0.539398,0.919753,-0.984292,-1.01042,-1.34073,-1.20623,-1.37364,-0.539398,0.919753,-0.984292,0.245687,-0.417973,0.834745,0.854735,-0.0769219,0.0571593,0.51014,-0.627791,-0.965185,-1.16555,0.5947,-0.471489,0.969483,-3.13993,0.00503957,-2.8755,-3.13993,0.00503957,-2.8755,-0.640771,-0.779265,-0.706389,-0.767817,-0.212263,0.474058,-0.555636,1
1.25012,-0.548772,-2.16337,-1.50673,2.5619,1.82283,-1.37791,1.25012,-0.548772,-2.16337,-1.50673,2.5619,1.82283,-1.37791,1.31478,-0.471289,-2.09336,-1.42959,2.58673,1.77324,-1.3226,-1.1086,-1.34735,-1.24316,-1.35686,-0.398042,0.757351,-0.982412,-1.1086,-1.34735,-1.24316,-1.35686,-0.398042,0.757351,-0.982412,0.239855,-0.427809,0.823836,0.860838,-0.0690408,0.0570524,0.500935,-0.700224,-0.992052,-1.17441,0.563178,-0.471659,0.939805,-3.15223,-0.0169426,-2.96782,-3.15223,-0.0169426,-2.96782,-0.646603,-0.774835,-0.700039,-0.77139,-0.248357,0.495903,-0.553116,1
1.23673,-0.562604,-2.17648,-1.51918,2.55704,1.83259,-1.387,1.23673,-0.562604,-2.17648,-1.51918,2.55704,1.83259,-1.387,1.30411,-0.484205,-2.10515,-1.44239,2.5832,1.78084,-1.33187,-1.15582,-1.39422,-1.25995,-1.3618,-0.354841,0.85114,-0.986374,-1.15582,-1.39422,-1.25995,-1.3618,-0.354841,0.85114,-0.986374,0.233353,-0.437781,0.812717,0.86704,-0.0607476,0.0564912,0.491284,-0.764422,-0.983118,-1.20787,0.530964,-0.472005,0.909543,-3.22137,-0.0346392,-3.02615,-3.22137,-0.0346392,-3.02615,-0.67375,-0.783984,-0.71336,-0.767925,-0.261642,0.517563,-0.551292,1
1.22345,-0.577425,-2.18976,-1.53134,2.55849,1.83976,-1.39461,1.22345,-0.577425,-2.18976,-1.53134,2.55849,1.83976,-1.39461,1.29326,-0.497221,-2.11689,-1.45525,2.57932,1.78909,-1.34112,-1.1489,-1.37275,-1.23749,-1.37084,-0.463878,0.898569,-0.979769,-1.1489,-1.37275,-1.23749,-1.37084,-0.463878,0.898569,-0.979769,0.226511,-0.447346,0.801412,0.873011,-0.0527013,0.0559126,0.481611,-0.769981,-0.912008,-1.21252,0.499657,-0.471686,0.877449,-3.13071,0.0318915,-3.20947,-3.13071,0.0318915,-3.20947,-0.698063,-0.80204,-0.728673,-0.76092,-0.208258,0.506698,-0.534937,1
1.21154,-0.590638,-2.20162,-1.54433,2.54989,1.85254,-1.40278,1.21154,-0.590638,-2.20162,-1.54433,2.54989,1.85254,-1.40278,1.28214,-0.51025,-2.12872,-1.4681,2.57489,1.7977,-1.35032,-1.20933,-1.39414,-1.27202,-1.36019,-0.47546,0.929258,-0.976534,-1.20933,-1.39414,-1.27202,-1.36019,-0.47546,0.929258,-0.976534,0.219326,-0.456515,0.789972,0.878791,-0.0448292,0.0554882,0.471846,-0.831931,-0.897274,-1.23272,0.467553,-0.472018,0.845463,-3.21038,-0.0331581,-3.19861,-3.21038,-0.0331581,-3.19861,-0.70609,-0.803887,-0.728995,-0.76233,-0.250061,0.54843,-0.524607,1
1.19855,-0.604259,-2.2141,-1.557,2.54158,1.86432,-1.41031,1.19855,-0.604259,-2.2141,-1.557,2.54158,1.86432,-1.41031,1.27054,-0.523572,-2.14084,-1.48083,2.57111,1.80626,-1.35933,-1.25382,-1.43407,-1.30269,-1.34514,-0.336134,0.892016,-0.9395,-1.25382,-1.43407,-1.30269,-1.34514,-0.336134,0.892016,-0.9395,0.211512,-0.465686,0.778326,0.884555,-0.0366776,0.0546538,0.461768,-0.896552,-0.900772,-1.25526,0.435556,-0.472474,0.812345,-3.19977,-0.0455886,-3.31177,-3.19977,-0.0455886,-3.31177,-0.719856,-0.806876,-0.732538,-0.761733,-0.295323,0.580574,-0.509785,1
1.18389,-0.619073,-2.22767,-1.56831,2.5538,1.86793,-1.41514,1.18389,-0.619073,-2.22767,-1.56831,2.5538,1.86793,-1.41514,1.25872,-0.537037,-2.15306,-1.49353,2.56731,1.81517,-1.3681,-1.25657,-1.42736,-1.29309,-1.35289,-0.463988,0.995139,-0.923752,-1.25657,-1.42736,-1.29309,-1.35289,-0.463988,0.995139,-0.923752,0.203305,-0.47452,0.766519,0.890109,-0.0285871,0.0536794,0.451671,-0.911401,-0.829424,-1.26504,0.404642,-0.47137,0.777866,-3.09138,0.110337,-3.44787,-3.09138,0.110337,-3.44787,-0.748364,-0.820362,-0.746166,-0.747798,-0.135111,0.52765,-0.470423,1
1.17148,-0.63301,-2.24035,-1.58107,2.53939,1.88157,-1.42024,1.17148,-0.63301,-2.24035,-1.58107,2.53939,1.88157,-1.42024,1.24676,-0.550494,-2.16526,-1.50625,2.56248,1.82482,-1.37665,-1.2837,-1.43173,-1.30036,-1.35134,-0.556519,1.05173,-0.896245,-1.2837,-1.43173,-1.30036,-1.35134,-0.556519,1.05173,-0.896245,0.194874,-0.482745,0.754595,0.89534,-0.0209176,0.0530157,0.441721,-0.941727,-0.778017,-1.2766,0.373368,-0.471257,0.742313,-3.12741,0.0113338,-3.55527,-3.12741,0.0113338,-3.55527,-0.752757,-0.825158,-0.750859,-0.74819,-0.23094,0.567475,-0.435903,1
1.15797,-0.646268,-2.25341,-1.59385,2.52484,1.89316,-1.4166,1.15797,-0.646268,-2.25341,-1.59385,2.52484,1.89316,-1.4166,1.23437,-0.564128,-2.17766,-1.51881,2.55929,1.83398,-1.38466,-1.34441,-1.46315,-1.33177,-1.31813,-0.146293,0.904147,-0.81146,-1.34441,-1.46315,-1.33177,-1.31813,-0.146293,0.904147,-0.81146,0.185807,-0.490972,0.742576,0.900525,-0.0127266,0.0515332,0.431552,-1.03058,-0.80726,-1.28549,0.341421,-0.471284,0.705888,-3.19465,-0.00271797,-3.64258,-3.19465,-0.00271797,-3.64258,-0.764019,-0.821406,-0.757474,-0.750408,-0.344533,0.591774,-0.319318,1
1.18387,-0.625383,-2.18149,-1.50373,2.54921,1.91276,-1.4384,1.18387,-0.625383,-2.18149,-1.50373,2.54921,1.91276,-1.4384,1.22175,-0.577919,-2.19021,-1.53126,2.55639,1.84309,-1.39201,-1.33855,-1.46709,-1.33516,-1.32662,-0.452664,1.02456,-0.751981,-1.33855,-1.46709,-1.33516,-1.32662,-0.452664,1.02456,-0.751981,0.176336,-0.498917,0.730425,0.905468,-0.00438027,0.0498095,0.42146,-1.02622,-0.720666,-1.30139,0.331155,-0.48806,0.68257,-1.0266,-1.67759,-2.33176,-1.0266,-1.67759,-2.33176,-0.378744,-0.47464,0.0872315,0.275299,-0.0717933,0.69666,-0.463935,1
1.18297,-0.662566,-2.17386,-1.4869,2.5214,1.92477,-1.44221,1.18297,-0.662566,-2.17386,-1.4869,2.5214,1.92477,-1.44221,1.20904,-0.591663,-2.20284,-1.54378,2.55092,1.85297,-1.39782,-1.36004,-1.45416,-1.34672,-1.33341,-0.694399,1.07035,-0.499952,-1.36004,-1.45416,-1.34672,-1.33341,-0.694399,1.07035,-0.499952,0.166892,-0.506033,0.718146,0.9097,0.00340644,0.0491114,0.412337,-1.03325,-0.647514,-1.30859,0.334477,-0.516746,0.666124,0.332183,-2.86862,-1.64458,0.332183,-2.86862,-1.64458,-0.260724,-0.709031,0.289785,0.568828,-0.295135,0.718044,-0.443866,1
1.24502,-0.666373,-2.17801,-1.48312,2.4952,1.93661,-1.44822,1.24502,-0.666373,-2.17801,-1.48312,2.4952,1.93661,-1.44822,1.20079,-0.601287,-2.20557,-1.54426,2.54801,1.86416,-1.40454,-0.450451,-0.641671,0.641352,1.0795,0.0318185,1.29423,-0.901738,-0.450451,-0.641671,0.641352,1.0795,0.0318185,1.29423,-0.901738,0.160056,-0.50952,0.71348,0.912943,0.00190193,0.0462052,0.405459,-0.39967,-0.133302,0.216002,0.337687,-0.545193,0.648988,0.321034,-2.84466,-1.71362,0.321034,-2.84466,-1.71362,0.442355,-0.650858,0.275645,0.611479,-0.528073,0.724522,-0.436807,1
1.23189,-0.679612,-2.18045,-1.47234,2.48904,1.9478,-1.45382,1.23189,-0.679612,-2.18045,-1.47234,2.48904,1.9478,-1.45382,1.19694,-0.610987,-2.19935,-1.53332,2.54501,1.87632,-1.41248,-0.372064,-1.37358,0.678814,1.2363,-0.628634,1.29022,-0.791832,-0.372064,-1.37358,0.678814,1.2363,-0.628634,1.29022,-0.791832,0.155553,-0.511115,0.71424,0.915248,-0.00709265,0.0411131,0.400726,-0.40606,-0.306006,-0.0467807,0.341139,-0.57333,0.630961,0.345159,-2.81375,-1.80266,0.345159,-2.81375,-1.80266,0.349457,-0.686259,0.188981,0.609783,-0.55966,0.714739,-0.413402,1
1.25251,-0.687346,-2.1806,-1.45882,2.48726,1.95986,-1.45606,1.25251,-0.687346,-2.1806,-1.45882,2.48726,1.95986,-1.45606,1.20114,-0.622843,-2.1942,-1.52261,2.53671,1.88843,-1.41976,1.1686,-1.15922,0.431138,1.05164,-1.10528,1.28311,-0.757889,1.1686,-1.15922,0.431138,1.05164,-1.10528,1.28311,-0.757889,0.155281,-0.511895,0.713655,0.915501,-0.0156844,0.0378142,0.400227,0.417935,-2.56846e-05,-0.0769089,0.343867,-0.601938,0.611655,0.272757,-2.86074,-1.93067,0.272757,-2.86074,-1.93067,0.513682,-0.645031,0.135988,0.637851,-0.4945,0.714329,-0.363058,1
1.2524,-0.703006,-2.1891,-1.45132,2.47538,1.97192,-1.46475,1.2524,-0.703006,-2.1891,-1.45132,2.47538,1.97192,-1.46475,1.20931,-0.634028,-2.1909,-1.51261,2.5268,1.9004,-1.42671,0.601356,-1.21394,0.278367,1.07224,-1.00559,1.26211,-0.721792,0.601356,-1.21394,0.278367,1.07224,-1.00559,1.26211,-0.721792,0.157022,-0.512029,0.712654,0.914945,-0.023946,0.0357685,0.401275,0.0709919,-0.145761,-0.130104,0.346378,-0.630618,0.591957,0.251094,-2.868,-1.96974,0.251094,-2.868,-1.96974,0.430949,-0.689779,0.0180482,0.612816,-0.51428,0.715213,-0.380383,1
1.2625,-0.7139,-2.19474,-1.44251,2.46936,1.98374,-1.4703,1.2625,-0.7139,-2.19474,-1.44251,2.46936,1.98374,-1.4703,1.21672,-0.64502,-2.18861,-1.50211,2.51824,1.9123,-1.43297,0.953015,-1.12717,0.213307,1.1528,-0.82508,1.26653,-0.614981,0.953015,-1.12717,0.213307,1.1528,-0.82508,1.26653,-0.614981,0.157942,-0.512613,0.711625,0.914672,-0.0319986,0.0332973,0.40155,0.217949,-0.0997325,-0.0867115,0.349178,-0.659266,0.570879,0.280079,-2.86479,-2.10788,0.280079,-2.86479,-2.10788,0.457729,-0.6888,-0.0612777,0.596034,-0.488842,0.714404,-0.373303,1
1.26347,-0.728848,-2.20939,-1.43577,2.46463,1.99518,-1.47527,1.26347,-0.728848,-2.20939,-1.43577,2.46463,1.99518,-1.47527,1.22463,-0.656222,-2.18784,-1.49165,2.50999,1.92424,-1.4391,0.739617,-1.24585,-0.0336332,1.074,-0.921838,1.2698,-0.683064,0.739617,-1.24585,-0.0336332,1.074,-0.921838,1.2698,-0.683064,0.15874,-0.513542,0.7101,0.914503,-0.0395515,0.0308663,0.401457,0.0600165,-0.201419,-0.222428,0.352325,-0.687341,0.548026,0.314662,-2.80749,-2.28526,0.314662,-2.80749,-2.28526,0.38843,-0.726259,-0.215495,0.558887,-0.453569,0.709358,-0.3617,1
1.2662,-0.741986,-2.2206,-1.43057,2.45908,2.00678,-1.4812,1.2662,-0.741986,-2.2206,-1.43057,2.45908,2.00678,-1.4812,1.23196,-0.667851,-2.18878,-1.4817,2.50163,1.93618,-1.44543,0.813293,-1.2263,-0.158691,1.04364,-0.859368,1.26672,-0.662442,0.813293,-1.2263,-0.158691,1.04364,-0.859368,1.26672,-0.662442,0.158972,-0.515014,0.707792,0.914678,-0.0463073,0.0287137,0.400495,0.0750679,-0.209144,-0.258118,0.355516,-0.714846,0.524864,0.319099,-2.75055,-2.31621,0.319099,-2.75055,-2.31621,0.34242,-0.741348,-0.318202,0.511279,-0.425504,0.706015,-0.357725,1
1.25642,-0.755667,-2.23233,-1.42831,2.45491,2.01837,-1.48705,1.25642,-0.755667,-2.23233,-1.42831,2.45491,2.01062,-1.48705,1.23883,-0.679793,-2.19182,-1.47224,2.49393,1.94804,-1.45151,0.656262,-1.30635,-0.46785,0.971232,-0.780263,1.25521,-0.632677,0.656262,-1.30635,-0.46785,0.971232,-0.780263,1.25521,-0.632677,0.158581,-0.517123,0.704677,0.915211,-0.0520836,0.0266818,0.398703,-0.0725192,-0.314497,-0.388136,0.358468,-0.742823,0.50108,0.295204,-2.79769,-2.37837,0.295204,-2.79769,-2.37837,0.175975,-0.758737,-0.405147,0.439243,-0.390226,0.703279,-0.355401,1
1.24465,-0.769204,-2.24175,-1.42847,2.44939,2.03018,-1.49262,1.24465,-0.769204,-2.24175,-1.42847,2.44939,2.01062,-1.49262,1.2446,-0.692188,-2.19702,-1.46356,2.4868,1.95983,-1.45746,0.575228,-1.32613,-0.627866,0.878511,-0.738278,1.25021,-0.632056,0.575228,-1.32613,-0.627866,0.878511,-0.738278,1.25021,-0.632056,0.157298,-0.519972,0.700586,0.91623,-0.0566976,0.0248717,0.39584,-0.134266,-0.352685,-0.469261,0.360739,-0.770911,0.476045,0.227103,-2.80877,-2.50354,0.227103,-2.80877,-2.50354,0.00049343,-0.770158,-0.447334,0.350835,-0.374076,0.703443,-0.35159,1
1.22027,-0.782893,-2.24914,-1.43376,2.4411,2.04128,-1.49915,1.22027,-0.782893,-2.24914,-1.43376,2.4411,2.01062,-1.49915,1.24823,-0.704811,-2.20362,-1.456,2.48018,1.97067,-1.4634,0.218271,-1.35432,-0.764745,0.737235,-0.672858,1.06405,-0.629819,0.218271,-1.35432,-0.764745,0.737235,-0.672858,1.06405,-0.629819,0.154913,-0.523544,0.695683,0.917828,-0.0598437,0.0233912,0.391745,-0.317933,-0.442207,-0.561819,0.363198,-0.798354,0.450081,0.245878,-2.74436,-2.59636,0.245878,-2.74436,-2.59636,-0.279582,-0.780827,-0.455231,0.222346,-0.390792,0.706122,-0.357524,1
1.21798,-0.79588,-2.2518,-1.43227,2.43327,2.05085,-1.50819,1.21798,-0.79588,-2.2518,-1.43227,2.43327,2.01062,-1.50819,1.24866,-0.717651,-2.21107,-1.44989,2.47394,1.97951,-1.46929,-0.106766,-1.37281,-0.816981,0.570305,-0.653704,0.828641,-0.621391,-0.106766,-1.37281,-0.816981,0.570305,-0.653704,0.828641,-0.621391,0.151138,-0.527949,0.69,0.920107,-0.0610128,0.0223831,0.386238,-0.457568,-0.501569,-0.639532,0.366931,-0.826147,0.424185,0.373295,-2.77923,-2.58966,0.373295,-2.77923,-2.58966,-0.306762,-0.782295,-0.407205,0.176242,-0.406706,0.713446,-0.388996,1
1.20848,-0.809063,-2.25584,-1.42751,2.42311,2.05766,-1.51442,1.20848,-0.809063,-2.25584,-1.42751,2.42311,2.01062,-1.51442,1.24491,-0.730663,-2.21873,-1.44578,2.46754,1.98639,-1.47522,-0.656036,-1.39085,-0.809786,0.319919,-0.703995,0.645346,-0.637427,-0.656036,-1.39085,-0.809786,0.319919,-0.703995,0.645346,-0.637427,0.145681,-0.533032,0.683539,0.923058,-0.0602415,0.0219581,0.379278,-0.695558,-0.556614,-0.730234,0.370366,-0.854426,0.396412,0.343567,-2.82798,-2.77725,0.343567,-2.82798,-2.77725,-0.364299,-0.784007,-0.37108,0.182649,-0.4443,0.712678,-0.392029,1
1.20486,-0.821988,-2.26349,-1.41993,2.41361,2.06347,-1.52174,1.20486,-0.821988,-2.26349,-1.41993,2.41361,2.01062,-1.52174,1.23919,-0.743742,-2.22577,-1.44294,2.46077,1.99175,-1.48157,-0.564709,-1.38839,-0.693094,0.284264,-0.732253,0.502596,-0.708707,-0.564709,-1.38839,-0.693094,0.284264,-0.732253,0.502596,-0.708707,0.139689,-0.538217,0.676725,0.926215,-0.0583135,0.0218403,0.371818,-0.604291,-0.513916,-0.722665,0.373424,-0.882764,0.367701,0.30579,-2.83372,-2.87107,0.30579,-2.83372,-2.87107,-0.343275,-0.782456,-0.37725,0.230108,-0.471588,0.717198,-0.40162,1
1.19854,-0.835238,-2.26917,-1.41953,2.40404,2.0676,-1.52849,1.19854,-0.835238,-2.26917,-1.41953,2.40404,2.01062,-1.52849,1.23338,-0.756824,-2.232,-1.44002,2.45349,1.99592,-1.48819,-0.663164,-1.39109,-0.634757,0.333173,-0.809134,0.391422,-0.698409,-0.663164,-1.39109,-0.634757,0.333173,-0.809134,0.391422,-0.698409,0.133946,-0.54324,0.670038,0.929246,-0.0560693,0.0219321,0.364523,-0.640119,-0.514475,-0.704584,0.37661,-0.911013,0.338025,0.318605,-2.82496,-2.96767,0.318605,-2.82496,-2.96767,-0.348371,-0.784142,-0.371716,0.204939,-0.494482,0.716774,-0.402964,1
1.19293,-0.848643,-2.27795,-1.42006,2.39617,2.07074,-1.53432,1.19293,-0.848643,-2.27795,-1.42006,2.39617,2.01062,-1.53432,1.22745,-0.769898,-2.23817,-1.43636,2.44565,1.99918,-1.49485,-0.601449,-1.3871,-0.674262,0.437582,-0.853327,0.30484,-0.715831,-0.601449,-1.3871,-0.674262,0.437582,-0.853327,0.30484,-0.715831,0.128166,-0.548263,0.663513,0.932259,-0.053739,0.0224318,0.357075,-0.622274,-0.515034,-0.687888,0.379636,-0.939057,0.306953,0.302562,-2.80441,-3.10717,0.302562,-2.80441,-3.10717,-0.34513,-0.787453,-0.397747,0.163047,-0.494824,0.715609,-0.394658,1
1.18527,-0.861801,-2.2859,-1.41472,2.38687,2.07334,-1.54103,1.18527,-0.861801,-2.2859,-1.41472,2.38687,2.01062,-1.54103,1.22171,-0.782977,-2.24444,-1.43268,2.43744,2.00171,-1.50159,-0.616868,-1.39166,-0.65857,0.350266,-0.889381,0.23741,-0.716207,-0.616868,-1.39166,-0.65857,0.350266,-0.889381,0.23741,-0.716207,0.122571,-0.553204,0.656898,0.935171,-0.051062,0.0232587,0.349724,-0.607873,-0.49381,-0.720588,0.38208,-0.966863,0.275826,0.244355,-2.7806,-3.11266,0.244355,-2.7806,-3.11266,-0.364394,-0.788238,-0.41456,0.179639,-0.505764,0.716285,-0.39436,1
1.18156,-0.875056,-2.29241,-1.41408,2.37961,2.07527,-1.5469,1.18156,-0.875056,-2.29241,-1.41408,2.37961,2.01062,-1.5469,1.21592,-0.796113,-2.25094,-1.42983,2.42913,2.00368,-1.50823,-0.612241,-1.39885,-0.719114,0.260304,-0.877623,0.184895,-0.694798,-0.612241,-1.39885,-0.719114,0.260304,-0.877623,0.184895,-0.694798,0.117095,-0.558052,0.64989,0.937957,-0.0476709,0.0242924,0.342599,-0.603556,-0.4829,-0.771177,0.384946,-0.995006,0.243884,0.28666,-2.81429,-3.19427,0.28666,-2.81429,-3.19427,-0.343669,-0.789438,-0.414667,0.157499,-0.49523,0.715929,-0.386696,1
1.17544,-0.888535,-2.29993,-1.41998,2.37154,2.07662,-1.55196,1.17544,-0.888535,-2.29993,-1.41998,2.37154,2.01062,-1.55196,1.20994,-0.809278,-2.25785,-1.42704,2.42075,2.00522,-1.51479,-0.656934,-1.39863,-0.746862,0.328252,-0.902196,0.143996,-0.698793,-0.656934,-1.39863,-0.746862,0.328252,-0.902196,0.143996,-0.698793,0.111474,-0.562899,0.642688,0.940725,-0.043906,0.0255639,0.335344,-0.642202,-0.486867,-0.765484,0.38788,-1.02303,0.210021,0.293383,-2.80194,-3.38629,0.293383,-2.80194,-3.38629,-0.344975,-0.792566,-0.420789,0.0706384,-0.49204,0.714011,-0.37168,1
1.17071,-0.901898,-2.3087,-1.41945,2.3643,2.07777,-1.5574,1.17071,-0.901898,-2.3087,-1.41945,2.3643,2.01062,-1.5574,1.20405,-0.822454,-2.26482,-1.42424,2.4124,2.00641,-1.52128,-0.598824,-1.40075,-0.734699,0.270524,-0.873221,0.112144,-0.682118,-0.598824,-1.40075,-0.734699,0.270524,-0.873221,0.112144,-0.682118,0.105902,-0.56765,0.635394,0.943391,-0.039921,0.0269121,0.328169,-0.59923,-0.460354,-0.788282,0.390573,-1.05081,0.174649,0.269255,-2.77832,-3.53715,0.269255,-2.77832,-3.53715,-0.333397,-0.794442,-0.438854,0.0479549,-0.481033,0.713555,-0.361174,1
1.16577,-0.915158,-2.31586,-1.41753,2.35668,2.07874,-1.56266,1.16577,-0.915158,-2.31586,-1.41753,2.35668,2.01062,-1.56266,1.19835,-0.835673,-2.2718,-1.42269,2.4042,2.00734,-1.52754,-0.610114,-1.40766,-0.748898,0.0721228,-0.869593,0.0873381,-0.650104,-0.610114,-1.40766,-0.748898,0.0721228,-0.869593,0.0873381,-0.650104,0.100646,-0.572166,0.627645,0.945814,-0.0352288,0.0282272,0.321555,-0.576351,-0.423942,-0.859271,0.393224,-1.07816,0.13908,0.265127,-2.73554,-3.55696,0.265127,-2.73554,-3.55696,-0.325851,-0.794846,-0.440586,0.0516056,-0.475163,0.713971,-0.351202,1
1.16065,-0.928416,-2.32385,-1.41903,2.34893,2.07934,-1.56775,1.16065,-0.928416,-2.32385,-1.41903,2.34893,2.01062,-1.56775,1.19273,-0.848936,-2.27906,-1.42203,2.39612,2.00807,-1.53358,-0.58643,-1.41032,-0.789473,0.0686889,-0.847527,0.068019,-0.634226,-0.58643,-1.41032,-0.789473,0.0686889,-0.847527,0.068019,-0.634226,0.0955244,-0.576515,0.619491,0.948067,-0.0299449,0.0295789,0.315273,-0.57217,-0.412626,-0.877608,0.395664,-1.10609,0.102468,0.243995,-2.7925,-3.66119,0.243995,-2.7925,-3.66119,-0.320743,-0.794793,-0.447907,0.0299961,-0.471879,0.712736,-0.34167,1
