Afshin1997/kuka_rl_ros2/src/catch_and_throw/output_files/tm/nn_ema3.00_jvws1_realball_D23H16M48S08/recorded_data.csv
pure_target_joint_0,pure_target_joint_1,pure_target_joint_2,pure_target_joint_3,pure_target_joint_4,pure_target_joint_5,pure_target_joint_6,target_joint_0,target_joint_1,target_joint_2,target_joint_3,target_joint_4,target_joint_5,target_joint_6,pos_joint_0,pos_joint_1,pos_joint_2,pos_joint_3,pos_joint_4,pos_joint_5,pos_joint_6,vel_joint_0,vel_joint_1,vel_joint_2,vel_joint_3,vel_joint_4,vel_joint_5,vel_joint_6,vel_smooth_joint_0,vel_smooth_joint_1,vel_smooth_joint_2,vel_smooth_joint_3,vel_smooth_joint_4,vel_smooth_joint_5,vel_smooth_joint_6,ee_pos_x,ee_pos_y,ee_pos_z,ee_or_w,ee_or_x,ee_or_y,ee_or_z,ee_vel_x,ee_vel_y,ee_vel_z,ball_pos_x,ball_pos_y,ball_pos_z,ball_raw_vx,ball_raw_vy,ball_raw_vz,ball_ema_vx,ball_ema_vy,ball_ema_vz,action_0,action_1,action_2,action_3,action_4,action_5,action_6,command_published
1.74899,-1.02281,-1.80894,-1.06915,1.97147,1.17954,-0.855934,1.74899,-1.02281,-1.80894,-1.06915,1.97147,1.17954,-0.855934,1.78024,-1.0647,-1.81507,-1.11692,1.93722,1.11689,-0.916366,0,0,0,0,0,0,0,0,0,0,0,0,0,0,0.531032,-0.454469,0.69431,0.574595,0.175138,0.152571,0.784786,0,0,0,2.97582,-0.474388,0.446312,-2.98865,-0.0381231,4.98631,-3.16194,-0.0385955,5.00696,-0.312575,0.418954,0.0613871,0.477764,0.342513,0.62648,0.604316,1
1.75994,-1.02892,-1.81944,-1.06971,1.96835,1.18542,-0.857387,1.75994,-1.02892,-1.81944,-1.06971,1.96835,1.18542,-0.857387,1.78024,-1.0647,-1.81507,-1.11692,1.93722,1.11689,-0.916366,0,0,0,0,0,0,0,0,0,0,0,0,0,0,0.531032,-0.454469,0.69431,0.574595,0.175138,0.152571,0.784786,0,0,0,2.94431,-0.475432,0.494775,-3.15061,-0.104457,4.8463,-3.06963,-0.0712901,4.91631,-0.203015,0.357788,-0.0436478,0.472158,0.311314,0.685238,0.589786,1
1.7171,-0.989355,-1.76634,-1.05878,1.99155,1.17676,-0.852051,1.7171,-0.989355,-1.76634,-1.05878,1.99155,1.17676,-0.852051,1.77657,-1.05978,-1.81435,-1.11131,1.94125,1.12426,-0.909265,-0.734589,0.984593,0.144267,1.1228,0.804949,1.4723,1.42021,-0.734589,0.984593,0.144267,1.1228,0.804949,1.4723,1.42021,0.52669,-0.456735,0.699332,0.575674,0.170121,0.149273,0.785733,-0.77575,-0.451216,0.955758,2.91222,-0.476464,0.541772,-3.20916,-0.103182,4.69974,-3.17988,-0.103819,4.77302,-0.594764,0.704228,0.480105,0.525326,0.503021,0.525023,0.572138,1
1.72877,-0.981764,-1.76248,-1.05539,1.99479,1.19425,-0.837245,1.72877,-0.981764,-1.76248,-1.05539,1.99479,1.19425,-0.837245,1.77176,-1.05232,-1.81439,-1.10205,1.94757,1.13718,-0.897639,-0.314618,0.623054,-0.134487,0.861264,0.553572,1.28472,1.07192,-0.314618,0.623054,-0.134487,0.861264,0.553572,1.28472,1.07192,0.520066,-0.460049,0.706811,0.577072,0.161835,0.144242,0.787395,-0.482716,-0.281516,0.578983,2.88099,-0.477499,0.587882,-3.12304,-0.103471,4.611,-3.1661,-0.103326,4.65537,-0.429876,0.705544,0.519049,0.466626,0.472216,0.570702,0.603943,1
1.70704,-0.968283,-1.76392,-1.04969,2.00689,1.19608,-0.833754,1.70704,-0.968283,-1.76392,-1.04969,2.00689,1.19608,-0.833754,1.76411,-1.04249,-1.80927,-1.09361,1.95489,1.14683,-0.888108,-1.252,1.4151,1.14309,0.927637,0.976242,0.797017,0.960214,-1.252,1.4151,1.14309,0.927637,0.976242,0.797017,0.960214,0.511999,-0.462832,0.71703,0.579315,0.15278,0.138763,0.788541,-1.01883,-0.311712,1.45246,2.84983,-0.477614,0.633357,-3.1157,-0.0115216,4.54745,-3.11937,-0.0574961,4.57923,-0.570672,0.742103,0.453473,0.43917,0.519988,0.492496,0.543544,1
1.71225,-0.95601,-1.7468,-1.04337,2.01715,1.20907,-0.825175,1.71225,-0.95601,-1.7468,-1.04337,2.01715,1.20907,-0.825175,1.75508,-1.02985,-1.79932,-1.08551,1.96338,1.1555,-0.878393,-0.700695,1.28049,0.980924,0.802124,0.836419,1.0317,1.09579,-0.700695,1.28049,0.980924,0.802124,0.836419,1.0317,1.09579,0.502698,-0.46415,0.730306,0.581143,0.141817,0.132596,0.790303,-0.755401,-0.015384,1.287,2.81839,-0.477633,0.677299,-3.1441,-0.00194609,4.39428,-3.1299,-0.00673383,4.47086,-0.428297,0.738378,0.525147,0.421372,0.537678,0.535706,0.532174,1
1.69817,-0.943719,-1.74264,-1.0395,2.02429,1.21652,-0.811262,1.69817,-0.943719,-1.74264,-1.0395,2.02429,1.21652,-0.811262,1.74671,-1.01763,-1.79134,-1.07818,1.97175,1.16429,-0.868881,-1.05633,1.31405,0.730202,0.75848,0.935788,0.846565,0.935436,-1.05633,1.31405,0.730202,0.75848,0.935788,0.846565,0.935436,0.493943,-0.465076,0.742324,0.582593,0.131529,0.127236,0.791894,-0.894692,-0.199607,1.19417,2.78681,-0.47805,0.720028,-3.15866,-0.0416577,4.27285,-3.15138,-0.0218019,4.33356,-0.485364,0.739089,0.487034,0.38676,0.525426,0.522339,0.576187,1
1.70529,-0.931523,-1.7313,-1.03307,2.03192,1.229,-0.80524,1.70529,-0.931523,-1.7313,-1.03307,2.03192,1.229,-0.80524,1.73855,-1.00527,-1.78326,-1.07113,1.98073,1.17285,-0.860103,-0.700233,1.31183,0.970919,0.739325,0.969878,0.964732,0.930125,-0.700233,1.31183,0.970919,0.739325,0.969878,0.964732,0.930125,0.485237,-0.465527,0.754247,0.583906,0.121226,0.121925,0.793406,-0.761232,0.0546195,1.26055,2.75552,-0.478811,0.76168,-3.12853,-0.0760734,4.16524,-3.1436,-0.0588655,4.21905,-0.332575,0.73747,0.519609,0.380652,0.511941,0.561492,0.548622,1
1.68883,-0.919298,-1.72502,-1.02421,2.04258,1.23686,-0.793877,1.68883,-0.919298,-1.72502,-1.02421,2.04258,1.23686,-0.793877,1.73108,-0.99293,-1.77471,-1.06454,1.98962,1.18174,-0.850742,-0.876237,1.31051,0.854104,0.666742,0.923239,0.926375,1.05136,-0.876237,1.31051,0.854104,0.666742,0.923239,0.926375,1.05136,0.476783,-0.465081,0.76608,0.584286,0.11058,0.116736,0.795459,-0.822754,0.00275177,1.18874,2.72453,-0.479856,0.802566,-3.09923,-0.104541,4.08852,-3.11388,-0.090307,4.12688,-0.422474,0.736314,0.496885,0.403264,0.529633,0.551268,0.568652,1
1.69538,-0.907249,-1.71443,-1.01903,2.0501,1.24843,-0.786798,1.69538,-0.907249,-1.71443,-1.01903,2.0501,1.24843,-0.786798,1.72463,-0.980611,-1.76628,-1.05824,1.99819,1.1909,-0.841301,-0.515155,1.30723,0.931538,0.670429,0.89833,1.01462,0.960317,-0.515155,1.30723,0.931538,0.670429,0.89833,1.01462,0.960317,0.468802,-0.463746,0.777632,0.58397,0.0997222,0.111973,0.797807,-0.674491,0.215157,1.2011,2.69351,-0.480352,0.842048,-3.10214,-0.0495553,3.94828,-3.10068,-0.0770479,4.0184,-0.292559,0.733623,0.518481,0.39215,0.519124,0.575285,0.545037,1
1.67804,-0.894039,-1.70776,-1.01349,2.05943,1.2554,-0.774278,1.67804,-0.894039,-1.70776,-1.01349,2.05943,1.2554,-0.774278,1.71842,-0.968317,-1.75781,-1.05163,2.0069,1.20025,-0.831989,-0.788051,1.30537,0.873119,0.730281,0.950254,0.975051,1.01496,-0.788051,1.30537,0.873119,0.730281,0.950254,0.975051,1.01496,0.460749,-0.462154,0.78912,0.583513,0.0886058,0.107235,0.800101,-0.814518,0.0784993,1.18223,2.66232,-0.480937,0.880745,-3.1184,-0.0585347,3.86965,-3.11027,-0.054045,3.90897,-0.403786,0.742772,0.500448,0.381417,0.525273,0.551489,0.577116,1
1.68424,-0.882028,-1.69729,-1.00858,2.06756,1.26679,-0.767292,1.68424,-0.882028,-1.69729,-1.00858,2.06756,1.26679,-0.767292,1.71264,-0.956058,-1.74931,-1.04496,2.01568,1.20971,-0.822727,-0.459812,1.2998,0.928762,0.690541,0.916652,1.0311,0.956815,-0.459812,1.2998,0.928762,0.690541,0.916652,1.0311,0.956815,0.452804,-0.460143,0.800454,0.582717,0.0773268,0.102615,0.802453,-0.667356,0.277418,1.17265,2.63106,-0.481594,0.918485,-3.12619,-0.0657469,3.77401,-3.12229,-0.0621408,3.82183,-0.284063,0.740304,0.520179,0.363761,0.518822,0.570825,0.554348,1
1.66687,-0.869316,-1.69107,-1.00152,2.07732,1.27441,-0.755232,1.66687,-0.869316,-1.69107,-1.00152,2.07732,1.27441,-0.755232,1.70679,-0.943709,-1.74081,-1.03857,2.02439,1.21909,-0.813308,-0.765519,1.32273,0.880132,0.667901,0.933156,0.966877,1.0394,-0.765519,1.32273,0.880132,0.667901,0.933156,0.966877,1.0394,0.444849,-0.45779,0.811591,0.5816,0.0660444,0.0982684,0.804812,-0.799845,0.168799,1.14804,2.59963,-0.4825,0.954987,-3.14264,-0.0905335,3.65018,-3.13442,-0.0781402,3.71209,-0.399155,0.743928,0.497397,0.370567,0.52931,0.553169,0.58076,1
1.6725,-0.856935,-1.6799,-0.999767,2.08631,1.2849,-0.748113,1.6725,-0.856935,-1.6799,-0.999767,2.08631,1.2849,-0.748113,1.70116,-0.931311,-1.73227,-1.03245,2.03309,1.22846,-0.803854,-0.450551,1.31237,0.931445,0.635506,0.917782,1.02067,0.973606,-0.450551,1.31237,0.931445,0.635506,0.917782,1.02067,0.973606,0.437014,-0.454989,0.822527,0.580084,0.0547203,0.0941468,0.807245,-0.659984,0.3489,1.13511,2.56926,-0.482787,0.990262,-3.03748,-0.0287652,3.52749,-3.09006,-0.0596493,3.58883,-0.286542,0.743761,0.523676,0.326806,0.532129,0.564395,0.55741,1
1.65603,-0.844316,-1.67236,-0.995387,2.0966,1.29145,-0.736121,1.65603,-0.844316,-1.67236,-0.995387,2.0966,1.29145,-0.736121,1.69537,-0.918916,-1.7238,-1.02634,2.04187,1.23783,-0.79435,-0.758979,1.32079,0.871591,0.661007,0.944111,0.973924,1.04165,-0.758979,1.32079,0.871591,0.661007,0.944111,0.973924,1.04165,0.429082,-0.452042,0.833261,0.578418,0.0433774,0.0901758,0.80958,-0.802332,0.219795,1.11213,2.5389,-0.483357,1.02476,-3.03581,-0.056985,3.44944,-3.03664,-0.0428751,3.48846,-0.393441,0.745998,0.514413,0.30951,0.54737,0.536197,0.582285,1
1.664,-0.831919,-1.66242,-0.991978,2.10373,1.30344,-0.728877,1.664,-0.831919,-1.66242,-0.991978,2.10373,1.30344,-0.728877,1.68973,-0.90649,-1.71525,-1.02064,2.05076,1.24716,-0.78486,-0.458771,1.3196,0.941262,0.555882,0.946502,1.00506,0.978544,-0.458771,1.3196,0.941262,0.555882,0.946502,1.00506,0.978544,0.421281,-0.448679,0.843757,0.576336,0.0320706,0.0863765,0.812002,-0.652052,0.413344,1.08975,2.50745,-0.484909,1.05791,-3.1455,-0.155199,3.31531,-3.09066,-0.106092,3.38237,-0.257351,0.745705,0.528315,0.286638,0.52968,0.562836,0.559834,1
1.64637,-0.819356,-1.65632,-0.985413,2.11377,1.31083,-0.716042,1.64637,-0.819356,-1.65632,-0.985413,2.11377,1.31083,-0.716042,1.68398,-0.894045,-1.70655,-1.01551,2.05984,1.25628,-0.775323,-0.744407,1.32425,0.910288,0.535846,0.979057,0.936753,1.0439,-0.744407,1.32425,0.910288,0.535846,0.979057,0.936753,1.0439,0.413566,-0.444981,0.853984,0.573846,0.0209228,0.0827366,0.814504,-0.769149,0.311573,1.06179,2.4764,-0.485538,1.0907,-3.10459,-0.0629187,3.27936,-3.12505,-0.109059,3.29733,-0.376177,0.746893,0.502223,0.300959,0.539317,0.545529,0.59281,1
1.65154,-0.806897,-1.64519,-0.983777,2.12245,1.32109,-0.70946,1.65154,-0.806897,-1.64519,-0.983777,2.12245,1.32109,-0.70946,1.67874,-0.881589,-1.69782,-1.01066,2.06881,1.26547,-0.7658,-0.392542,1.32265,0.942583,0.497428,0.930038,1.01124,0.983233,-0.392542,1.32265,0.942583,0.497428,0.930038,1.01124,0.983233,0.406132,-0.440762,0.863969,0.570876,0.0097319,0.0793521,0.817135,-0.611381,0.500664,1.04311,2.44549,-0.48631,1.1227,-3.09074,-0.0771344,3.19932,-3.09767,-0.0700265,3.23934,-0.271952,0.74692,0.526223,0.268803,0.536435,0.55625,0.563405,1
1.63455,-0.794341,-1.63868,-0.976958,2.13167,1.32768,-0.696156,1.63455,-0.794341,-1.63868,-0.976958,2.13167,1.32768,-0.696156,1.6734,-0.869126,-1.68927,-1.00575,2.07771,1.27473,-0.756125,-0.719995,1.32531,0.877335,0.541661,0.96015,0.961175,1.06737,-0.719995,1.32531,0.877335,0.541661,0.96015,0.961175,1.06737,0.398657,-0.436413,0.873731,0.567753,-0.00147793,0.0761933,0.819664,-0.758741,0.360022,1.02093,2.41415,-0.487558,1.15372,-3.13458,-0.124827,3.10278,-3.11266,-0.100981,3.15105,-0.388509,0.747848,0.505854,0.287962,0.539631,0.529467,0.599684,1
1.64228,-0.78169,-1.62849,-0.975322,2.13862,1.33924,-0.688878,1.64228,-0.78169,-1.62849,-0.975322,2.13862,1.33924,-0.688878,1.66803,-0.856653,-1.68067,-1.00106,2.08671,1.28392,-0.746485,-0.439123,1.32495,0.944819,0.460294,0.951799,0.989722,0.985948,-0.439123,1.32495,0.944819,0.460294,0.951799,0.989722,0.985948,0.391225,-0.431833,0.883274,0.564386,-0.0126285,0.0731858,0.822164,-0.62258,0.528262,1.00129,2.38297,-0.488937,1.18331,-3.11749,-0.137928,2.95906,-3.12604,-0.131378,3.03092,-0.257502,0.749621,0.521824,0.257406,0.51918,0.553186,0.576073,1
1.62274,-0.769314,-1.6214,-0.969887,2.15039,1.34382,-0.675642,1.62274,-0.769314,-1.6214,-0.969887,2.15039,1.34382,-0.675642,1.66239,-0.844171,-1.67206,-0.996438,2.0957,1.29292,-0.736732,-0.741204,1.32694,0.888792,0.518729,0.958036,0.925656,1.08049,-0.741204,1.32694,0.888792,0.518729,0.958036,0.925656,1.08049,0.383732,-0.427156,0.892621,0.560879,-0.023676,0.0703704,0.824562,-0.756445,0.401241,0.984748,2.35214,-0.48973,1.21209,-3.08378,-0.0792146,2.87791,-3.10063,-0.108571,2.91849,-0.396512,0.748578,0.50657,0.265514,0.546906,0.509003,0.610903,1
1.62819,-0.756397,-1.61043,-0.97207,2.15893,1.35449,-0.668332,1.62819,-0.756397,-1.61043,-0.97207,2.15893,1.35449,-0.668332,1.65714,-0.831662,-1.66348,-0.991937,2.10447,1.30197,-0.726901,-0.395642,1.33071,0.931714,0.442432,0.909465,0.992607,1.01254,-0.395642,1.33071,0.931714,0.442432,0.909465,0.992607,1.01254,0.376468,-0.422068,0.901746,0.556983,-0.0347519,0.0678503,0.827018,-0.594916,0.590578,0.960033,2.32136,-0.490033,1.23968,-3.07732,-0.0303775,2.75854,-3.08055,-0.054796,2.81823,-0.289534,0.752656,0.530531,0.198664,0.544598,0.525228,0.585689,1
1.60729,-0.74374,-1.60291,-0.970943,2.17161,1.3528,-0.654406,1.60729,-0.74374,-1.60291,-0.970943,2.17161,1.3528,-0.654406,1.65156,-0.819154,-1.65491,-0.987623,2.11341,1.31075,-0.716935,-0.767432,1.32721,0.892182,0.472303,0.984715,0.880609,1.09961,-0.767432,1.32721,0.892182,0.472303,0.984715,0.880609,1.09961,0.36917,-0.416925,0.91064,0.552923,-0.0456188,0.0654733,0.829403,-0.746707,0.438566,0.940397,2.29078,-0.490199,1.2663,-3.05841,-0.0165373,2.66193,-3.06786,-0.0234574,2.71024,-0.442664,0.754147,0.520032,0.166802,0.581991,0.420506,0.625293,1
1.61678,-0.730578,-1.59138,-0.978484,2.17857,1.36549,-0.64621,1.61678,-0.730578,-1.59138,-0.978484,2.17857,1.36549,-0.64621,1.64582,-0.806612,-1.64621,-0.983956,2.12259,1.31932,-0.706942,-0.469626,1.33718,0.952787,0.316509,0.967686,0.936569,1.02815,-0.469626,1.33718,0.952787,0.316509,0.967686,0.936569,1.02815,0.362027,-0.41151,0.919243,0.548479,-0.0562281,0.0632468,0.831871,-0.586982,0.627053,0.903382,2.25969,-0.490677,1.29166,-3.10855,-0.0478566,2.53625,-3.08348,-0.0321969,2.59909,-0.290441,0.760336,0.548302,0.0547189,0.559761,0.461682,0.607326,1
1.59322,-0.717869,-1.58541,-0.973862,2.1927,1.35526,-0.632223,1.59322,-0.717869,-1.58541,-0.973862,2.1927,1.35526,-0.632223,1.63947,-0.794017,-1.63741,-0.981195,2.13212,1.3269,-0.696765,-0.856802,1.33884,0.91881,0.272998,1.05152,0.689708,1.12799,-0.856802,1.33884,0.91881,0.272998,1.05152,0.689708,1.12799,0.355053,-0.406008,0.927513,0.543737,-0.0660854,0.0612473,0.834405,-0.704644,0.486428,0.872874,2.22896,-0.491372,1.31598,-3.07319,-0.069502,2.43196,-3.09087,-0.0586793,2.48411,-0.462489,0.761485,0.520031,0.0733269,0.605789,0.283595,0.645428,1
1.61491,-0.70527,-1.57217,-0.986324,2.19819,1.3749,-0.625044,1.61491,-0.70527,-1.57217,-0.986324,2.19819,1.3749,-0.625044,1.63346,-0.781349,-1.62842,-0.979813,2.14167,1.33412,-0.686432,-0.444318,1.35198,0.986474,0.0353827,0.982501,0.835276,1.07109,-0.444318,1.35198,0.986474,0.0353827,0.982501,0.835276,1.07109,0.348723,-0.399846,0.935355,0.538144,-0.075438,0.0596178,0.83735,-0.482844,0.741656,0.816376,2.1983,-0.492407,1.33959,-3.06587,-0.103432,2.36138,-3.06953,-0.086467,2.39667,-0.185502,0.760795,0.562493,-0.0651103,0.565135,0.407837,0.613882,1
1.5853,-0.692058,-1.56544,-0.980646,2.21577,1.35235,-0.610755,1.5853,-0.692058,-1.56544,-0.980646,2.21577,1.35235,-0.610755,1.627,-0.768625,-1.61953,-0.978976,2.15149,1.33986,-0.675892,-0.899766,1.35167,0.908636,0.136189,1.09729,0.41019,1.16292,-0.899766,1.35167,0.908636,0.136189,1.09729,0.41019,1.16292,0.34266,-0.393705,0.942933,0.532396,-0.0838162,0.0582602,0.840319,-0.639126,0.522316,0.81526,2.16752,-0.492949,1.3621,-3.07772,-0.0542909,2.25031,-3.0718,-0.0788614,2.30585,-0.417033,0.765671,0.540852,-0.0166952,0.642739,0.124954,0.651363,1
1.63928,-0.679924,-1.55253,-0.99494,2.21923,1.38402,-0.602984,1.63928,-0.679924,-1.55253,-0.99494,2.21923,1.38402,-0.602984,1.62208,-0.755917,-1.61042,-0.979309,2.16125,1.34557,-0.665389,-0.190846,1.34877,1.01864,-0.186811,0.983531,0.781112,1.07438,-0.190846,1.34877,1.01864,-0.186811,0.983531,0.781112,1.07438,0.33761,-0.386598,0.950099,0.525458,-0.0919056,0.057149,0.843908,-0.305678,0.907598,0.734817,2.13641,-0.493524,1.38344,-3.11105,-0.0574678,2.1346,-3.09439,-0.0558794,2.19246,0.171963,0.759937,0.578982,-0.156306,0.579728,0.384513,0.624043,1
1.63355,-0.66682,-1.54425,-1.0024,2.23893,1.36674,-0.58926,1.63355,-0.66682,-1.54425,-1.0024,2.23893,1.36674,-0.58926,1.61701,-0.743162,-1.60117,-0.980194,2.17149,1.34941,-0.654785,-0.844559,1.36091,0.951525,-0.0120361,1.17917,0.0783393,1.17254,-0.844559,1.36091,0.951525,-0.0120361,1.17917,0.0783393,1.17254,0.33297,-0.37944,0.957081,0.518222,-0.0988677,0.0561393,0.847655,-0.529944,0.592885,0.768887,2.106,-0.494513,1.40375,-3.04153,-0.0988394,2.03072,-3.07629,-0.0781536,2.08266,0.165401,0.763414,0.569246,-0.222042,0.674413,0.173288,0.65525,1
1.65936,-0.658939,-1.53714,-0.982271,2.23896,1.40832,-0.579011,1.65936,-0.658939,-1.53714,-0.982271,2.23896,1.40832,-0.579011,1.61634,-0.730432,-1.59175,-0.981973,2.18169,1.35378,-0.644133,0.61074,1.34505,1.04457,-0.345302,0.999613,0.805324,1.0958,0.61074,1.34505,1.04457,-0.345302,0.999613,0.805324,1.0958,0.330211,-0.370463,0.963693,0.508611,-0.105923,0.0551212,0.852676,0.0419879,1.23472,0.665207,2.0756,-0.495609,1.42316,-3.03955,-0.109634,1.94081,-3.04054,-0.104237,1.98576,0.430184,0.714928,0.546134,-0.00297333,0.572722,0.545389,0.651221,1
1.62962,-0.64166,-1.53619,-0.963015,2.25278,1.39343,-0.568127,1.62962,-0.64166,-1.53619,-0.963015,2.25278,1.39343,-0.568127,1.62074,-0.71772,-1.5821,-0.985718,2.19231,1.35844,-0.633418,0.341192,1.35547,1.00807,-0.444196,1.24156,0.220986,1.17594,0.341192,1.35547,1.00807,-0.444196,1.24156,0.220986,1.17594,0.32979,-0.359322,0.969709,0.495911,-0.112619,0.0539755,0.859346,0.0152024,1.11559,0.638967,2.04532,-0.496379,1.44152,-3.02882,-0.077033,1.83578,-3.03419,-0.0933334,1.88829,0.088741,0.760597,0.459124,0.227029,0.604716,0.349931,0.652908,1
1.65785,-0.635645,-1.522,-0.965259,2.2574,1.42025,-0.558806,1.65785,-0.635645,-1.522,-0.965259,2.2574,1.42025,-0.558806,1.62661,-0.705535,-1.57289,-0.987042,2.20262,1.36516,-0.622446,0.87218,1.24086,0.952178,0.127074,0.967678,1.14934,1.1567,0.87218,1.24086,0.952178,0.127074,0.967678,1.14934,1.1567,0.328816,-0.348437,0.975755,0.483108,-0.120736,0.0523433,0.865615,-0.050302,1.16697,0.674141,2.01487,-0.497022,1.45895,-3.04437,-0.0643134,1.74356,-3.03659,-0.0706732,1.78967,0.312428,0.6989,0.508968,0.217834,0.547799,0.550832,0.636405,1
1.57725,-0.61811,-1.53282,-0.954974,2.27747,1.38953,-0.546194,1.57725,-0.61811,-1.53282,-0.954974,2.27747,1.38953,-0.546194,1.63036,-0.693198,-1.56487,-0.983724,2.21229,1.37296,-0.611559,-0.0197545,1.37246,0.763843,0.551499,1.07836,0.54523,1.15661,-0.0197545,1.37246,0.763843,0.551499,1.07836,0.54523,1.15661,0.325611,-0.339232,0.982481,0.472862,-0.130393,0.0507064,0.869959,-0.414193,0.77627,0.789376,1.98444,-0.497762,1.47529,-3.04265,-0.0739574,1.63367,-3.04351,-0.0691354,1.68861,-0.531124,0.750875,0.320541,0.287502,0.651887,0.165684,0.653652,1
1.67188,-0.605768,-1.50096,-1.00867,2.27652,1.42865,-0.538736,1.67188,-0.605768,-1.50096,-1.00867,2.27652,1.42865,-0.538736,1.63351,-0.681091,-1.55686,-0.979407,2.22179,1.38064,-0.600857,0.648173,1.21024,0.928438,0.376767,0.94852,1.05473,1.11984,0.648173,1.21024,0.928438,0.376767,0.94852,1.05473,1.11984,0.32186,-0.33053,0.989183,0.463125,-0.14018,0.0489798,0.873765,-0.206942,1.01947,0.685693,1.95393,-0.498522,1.49076,-3.05184,-0.075984,1.54675,-3.04725,-0.0749707,1.59021,0.383673,0.753229,0.558976,-0.292662,0.547352,0.480081,0.621213,1
1.61422,-0.596315,-1.50426,-1.01289,2.30229,1.37586,-0.523715,1.61422,-0.596315,-1.50426,-1.01289,2.30229,1.37586,-0.523715,1.62942,-0.668978,-1.55042,-0.975069,2.23202,1.38579,-0.590073,-1.38953,1.35462,0.468732,0.535137,1.21038,0.099532,1.16852,-1.38953,1.35462,0.468732,0.535137,1.21038,0.099532,1.16852,0.316274,-0.324694,0.995562,0.456937,-0.148023,0.0479894,0.875783,-0.790607,0.239665,0.709206,1.92363,-0.499441,1.50556,-3.0296,-0.0919044,1.48014,-3.04072,-0.0839442,1.51345,-0.152066,0.726631,0.461621,-0.378175,0.702717,-0.0993345,0.663587,1
1.68899,-0.592872,-1.49149,-0.936525,2.29316,1.45547,-0.519294,1.68899,-0.592872,-1.49149,-0.936525,2.29316,1.45547,-0.519294,1.629,-0.656276,-1.54278,-0.976934,2.24197,1.39121,-0.579491,1.14183,1.34504,1.1137,-0.845232,0.920249,0.996859,1.08533,1.14183,1.34504,1.1137,-0.845232,0.920249,0.996859,1.08533,0.313631,-0.315602,1.00076,0.446865,-0.154596,0.0479324,0.879838,0.278567,1.57565,0.445349,1.89317,-0.500297,1.51943,-3.04632,-0.0856668,1.38723,-3.03796,-0.0887856,1.43368,0.599837,0.634037,0.512947,0.404092,0.511967,0.64261,0.601971,1
1.61195,-0.567506,-1.50443,-0.983085,2.31997,1.38891,-0.503831,1.61195,-0.567506,-1.50443,-0.983085,2.31997,1.38891,-0.503831,1.63171,-0.643993,-1.53392,-0.98445,2.25264,1.39329,-0.568711,-0.465854,1.26968,0.789911,-0.757283,1.3224,-0.464275,1.19826,-0.465854,1.26968,0.789911,-0.757283,1.3224,-0.464275,1.19826,0.314028,-0.304594,1.00476,0.433292,-0.157894,0.0480494,0.886013,-0.0788917,0.816532,0.424823,1.86293,-0.501057,1.53212,-3.02364,-0.0759244,1.26883,-3.03498,-0.0807956,1.32803,-0.197608,0.764867,0.294872,0.013648,0.673313,-0.0437807,0.648803,1
1.695,-0.566026,-1.47012,-1.00326,2.29888,1.4633,-0.497256,1.695,-0.566026,-1.47012,-1.00326,2.29888,1.4633,-0.497256,1.63663,-0.633042,-1.52586,-0.981767,2.26255,1.39879,-0.558238,1.39433,1.06974,0.915272,1.20482,0.815247,1.50954,1.0371,1.39433,1.06974,0.915272,1.20482,0.815247,1.50954,1.0371,0.311527,-0.295768,1.01021,0.421977,-0.165586,0.0461322,0.890162,-0.284383,1.04225,0.753694,1.83251,-0.502254,1.54393,-3.04252,-0.119704,1.18102,-3.03308,-0.0978142,1.22492,0.583751,0.670153,0.557388,-0.214968,0.363339,0.64512,0.609819,1
1.66158,-0.547959,-1.48475,-1.01095,2.34042,1.43571,-0.482713,1.66158,-0.547959,-1.48475,-1.01095,2.34042,1.43571,-0.482713,1.63916,-0.621176,-1.51978,-0.97723,2.27247,1.40351,-0.547807,-0.724487,1.42918,0.408599,-0.155896,1.26485,-0.388638,1.17105,-0.724487,1.42918,0.408599,-0.155896,1.26485,-0.388638,1.17105,0.308064,-0.28792,1.01595,0.412793,-0.173065,0.0449974,0.893099,-0.292222,0.64187,0.525645,1.80226,-0.503142,1.55471,-3.02429,-0.0888705,1.07818,-3.03341,-0.104287,1.1296,0.224268,0.732169,0.350242,-0.337239,0.67947,0.321985,0.650938,1
1.71167,-0.563491,-1.48227,-0.929083,2.3145,1.47975,-0.483807,1.71167,-0.563491,-1.48227,-0.929083,2.3145,1.47975,-0.483807,1.6429,-0.60913,-1.51235,-0.980896,2.2805,1.40902,-0.537307,1.3875,1.14781,1.12458,-0.595622,0.489531,1.44548,1.06651,1.3875,1.14781,1.12458,-0.595622,0.489531,1.44548,1.06651,0.307235,-0.277213,1.01985,0.400289,-0.178735,0.0457964,0.897622,0.186511,1.55502,0.350671,1.77197,-0.503778,1.56413,-3.02913,-0.0635803,0.942016,-3.02671,-0.0762254,1.0101,0.687739,0.45639,0.300822,0.518134,0.340028,0.707258,0.534996,1
1.59926,-0.532358,-1.53399,-0.930629,2.34105,1.47295,-0.460092,1.59926,-0.532358,-1.53399,-0.930629,2.34105,1.47295,-0.460092,1.6505,-0.597473,-1.50473,-0.986748,2.28945,1.41778,-0.526739,0.295247,1.31851,0.531943,-0.644597,1.35731,0.477229,1.17237,0.295247,1.31851,0.531943,-0.644597,1.35731,0.477229,1.17237,0.307476,-0.265082,1.02285,0.384911,-0.185158,0.0458235,0.903028,0.0208741,1.0547,0.330634,1.74219,-0.504507,1.57247,-2.97769,-0.0728428,0.833726,-3.00341,-0.0682116,0.887871,-0.512407,0.651147,-0.292632,0.561188,0.51609,0.55163,0.666466,1
1.6745,-0.53743,-1.53026,-1.01645,2.33211,1.49263,-0.490846,1.6745,-0.53743,-1.53026,-1.01645,2.33211,1.49263,-0.490846,1.65883,-0.588345,-1.50002,-0.982482,2.29768,1.42692,-0.517129,1.40701,0.661845,0.472654,1.42197,0.44807,1.40661,0.887328,1.40701,0.661845,0.472654,1.42197,0.44807,1.40661,0.887328,0.305223,-0.257101,1.02681,0.373734,-0.19377,0.0438395,0.90601,-0.304289,0.671875,0.554537,1.71243,-0.505144,1.57997,-2.97599,-0.0636876,0.750697,-2.97684,-0.0682652,0.792211,0.156667,0.509153,-0.302405,-0.339727,0.34432,0.657058,0.262832,1
1.5822,-0.515218,-1.56059,-1.00432,2.35195,1.48412,-0.448553,1.5822,-0.515218,-1.56059,-1.00432,2.35195,1.48412,-0.448553,1.65731,-0.579189,-1.50217,-0.970852,2.30452,1.43781,-0.506972,-1.54601,1.24708,-0.8474,1.0711,0.972958,0.935708,1.24835,-1.54601,1.24708,-0.8474,1.0711,0.972958,0.935708,1.24835,0.29901,-0.254826,1.03117,0.371301,-0.203773,0.0436851,0.904823,-0.815,-0.181319,0.452841,1.68173,-0.506263,1.5869,-3.07016,-0.111896,0.692976,-3.02308,-0.0877917,0.721836,-0.751113,0.639714,-0.584205,-0.334726,0.474281,0.46309,0.58419,1
1.64939,-0.500898,-1.56802,-1.02429,2.30121,1.51158,-0.465121,1.64939,-0.500898,-1.56802,-1.02429,2.30121,1.51158,-0.465121,1.65331,-0.569426,-1.50877,-0.972039,2.31155,1.44789,-0.500216,0.564242,0.852031,-0.572223,-1.18274,0.547471,1.19125,0.249509,0.564242,0.852031,-0.572223,-1.18274,0.547471,1.19125,0.249509,0.296993,-0.251234,1.03211,0.369477,-0.208103,0.0467396,0.904431,0.362552,0.801056,-0.177402,1.65117,-0.507654,1.59232,-3.0564,-0.139171,0.541508,-3.06328,-0.125533,0.617242,-0.0392316,0.685282,-0.592553,-0.522491,-0.103399,0.636829,0.350944,1
1.58441,-0.493637,-1.57447,-1.02103,2.37486,1.51238,-0.441265,1.58441,-0.493637,-1.57447,-1.02103,2.37486,1.51238,-0.441265,1.64715,-0.559739,-1.51709,-0.980439,2.31843,1.45679,-0.493173,-1.72962,1.18555,-1.15844,-0.636054,0.892573,0.727731,1.18821,-1.72962,1.18555,-1.15844,-0.636054,0.892573,0.727731,1.18821,0.297196,-0.247359,1.03115,0.367262,-0.208849,0.0516426,0.904894,-0.29205,-0.00711632,-0.0205054,1.62057,-0.508126,1.59669,-3.06032,-0.0471294,0.437379,-3.05836,-0.0931501,0.489444,-0.627486,0.661016,-0.57381,-0.40596,0.564368,0.555938,0.51908,1
1.57619,-0.49138,-1.57402,-1.02576,2.37247,1.49255,-0.441976,1.57619,-0.49138,-1.57402,-1.02576,2.37247,1.49255,-0.441976,1.64715,-0.559739,-1.51709,-0.980439,2.31843,1.45679,-0.493173,-1.72962,1.18555,-1.15844,-0.636054,0.892573,0.727731,1.18821,-1.72962,1.18555,-1.15844,-0.636054,0.892573,0.727731,1.18821,0.297196,-0.247359,1.03115,0.367262,-0.208849,0.0516426,0.904894,0,0,0,1.5909,-0.508882,1.60003,-2.96687,-0.0755966,0.333381,-3.01359,-0.061363,0.38538,-0.709672,0.68359,-0.569324,-0.453238,0.540433,0.357654,0.511969,1
1.58375,-0.489857,-1.57154,-1.02376,2.37488,1.50255,-0.440762,1.58375,-0.489857,-1.57154,-1.02376,2.37488,1.50255,-0.440762,1.64715,-0.559739,-1.51709,-0.980439,2.31843,1.45679,-0.493173,-1.72962,1.18555,-1.15844,-0.636054,0.892573,0.727731,1.18821,-1.72962,1.18555,-1.15844,-0.636054,0.892573,0.727731,1.18821,0.297196,-0.247359,1.03115,0.367262,-0.208849,0.0516426,0.904894,0,0,0,1.56149,-0.509659,1.6026,-2.94039,-0.0777483,0.257206,-2.95363,-0.0766724,0.295293,-0.634005,0.69882,-0.544563,-0.433174,0.564537,0.457596,0.524117,1
1.58235,-0.491851,-1.57315,-1.01056,2.37629,1.50652,-0.440256,1.58235,-0.491851,-1.57315,-1.01056,2.37629,1.50652,-0.440256,1.64715,-0.559739,-1.51709,-0.980439,2.31843,1.45679,-0.493173,-1.72962,1.18555,-1.15844,-0.636054,0.892573,0.727731,1.18821,-1.72962,1.18555,-1.15844,-0.636054,0.892573,0.727731,1.18821,0.297196,-0.247359,1.03115,0.367262,-0.208849,0.0516426,0.904894,0,0,0,1.53122,-0.510608,1.60433,-3.02721,-0.0949383,0.173461,-2.9838,-0.0863433,0.215334,-0.648057,0.678873,-0.560584,-0.301188,0.578672,0.497278,0.529171,1
1.58116,-0.492552,-1.57699,-1.01284,2.37533,1.5061,-0.44272,1.58116,-0.492552,-1.57699,-1.01284,2.37533,1.5061,-0.44272,1.64715,-0.559739,-1.51709,-0.980439,2.31843,1.45679,-0.493173,-1.72962,1.18555,-1.15844,-0.636054,0.892573,0.727731,1.18821,-1.72962,1.18555,-1.15844,-0.636054,0.892573,0.727731,1.18821,0.297196,-0.247359,1.03115,0.367262,-0.208849,0.0516426,0.904894,0,0,0,1.50116,-0.51145,1.60447,-3.00578,-0.0842094,0.0136137,-3.0165,-0.0895739,0.0935376,-0.659908,0.671865,-0.599074,-0.324035,0.569051,0.493068,0.504534,1
1.58097,-0.493551,-1.5789,-1.02043,2.37467,1.50595,-0.444365,1.58097,-0.493551,-1.5789,-1.02043,2.37467,1.50595,-0.444365,1.64715,-0.559739,-1.51709,-0.980439,2.31843,1.45679,-0.493173,-1.72962,1.18555,-1.15844,-0.636054,0.892573,0.727731,1.18821,-1.72962,1.18555,-1.15844,-0.636054,0.892573,0.727731,1.18821,0.297196,-0.247359,1.03115,0.367262,-0.208849,0.0516426,0.904894,0,0,0,1.47111,-0.512664,1.60426,-3.00491,-0.121343,-0.0213623,-3.00534,-0.102776,-0.0038743,-0.661834,0.661881,-0.618137,-0.399872,0.562457,0.491563,0.488082,1
1.58149,-0.494247,-1.57972,-1.02022,2.37361,1.50723,-0.446633,1.58149,-0.494247,-1.57972,-1.02022,2.37361,1.50723,-0.446633,1.64715,-0.559739,-1.51709,-0.980439,2.31843,1.45679,-0.493173,-1.72962,1.18555,-1.15844,-0.636054,0.892573,0.727731,1.18821,-1.72962,1.18555,-1.15844,-0.636054,0.892573,0.727731,1.18821,0.297196,-0.247359,1.03115,0.367262,-0.208849,0.0516426,0.904894,0,0,0,1.44152,-0.513491,1.603,-2.95894,-0.0827074,-0.125909,-2.98193,-0.102025,-0.0736356,-0.656648,0.654916,-0.626365,-0.397802,0.551841,0.504395,0.465401,1
1.58195,-0.494866,-1.5805,-1.01576,2.37309,1.50843,-0.448066,1.58195,-0.494866,-1.5805,-1.01576,2.37309,1.50843,-0.448066,1.64715,-0.559739,-1.51709,-0.980439,2.31843,1.45679,-0.493173,-1.72962,1.18555,-1.15844,-0.636054,0.892573,0.727731,1.18821,-1.72962,1.18555,-1.15844,-0.636054,0.892573,0.727731,1.18821,0.297196,-0.247359,1.03115,0.367262,-0.208849,0.0516426,0.904894,0,0,0,1.41165,-0.514261,1.60098,-2.98744,-0.077039,-0.201201,-2.97319,-0.0798732,-0.163555,-0.652033,0.648727,-0.634137,-0.353243,0.546648,0.516373,0.451076,1
1.58153,-0.495926,-1.58192,-1.01349,2.3724,1.50921,-0.450052,1.58153,-0.495926,-1.58192,-1.01349,2.3724,1.50921,-0.450052,1.64715,-0.559739,-1.51709,-0.980439,2.31843,1.45679,-0.493173,-1.72962,1.18555,-1.15844,-0.636054,0.892573,0.727731,1.18821,-1.72962,1.18555,-1.15844,-0.636054,0.892573,0.727731,1.18821,0.297196,-0.247359,1.03115,0.367262,-0.208849,0.0516426,0.904894,0,0,0,1.38171,-0.515205,1.5978,-2.99383,-0.094384,-0.31836,-2.99064,-0.0857115,-0.259781,-0.656261,0.638129,-0.64832,-0.330503,0.539701,0.524219,0.431216,1
1.58103,-0.497133,-1.58308,-1.01585,2.37246,1.50885,-0.452386,1.58103,-0.497133,-1.58308,-1.01585,2.37246,1.50885,-0.452386,1.64715,-0.559739,-1.51709,-0.980439,2.31843,1.45679,-0.493173,-1.72962,1.18555,-1.15844,-0.636054,0.892573,0.727731,1.18821,-1.72962,1.18555,-1.15844,-0.636054,0.892573,0.727731,1.18821,0.297196,-0.247359,1.03115,0.367262,-0.208849,0.0516426,0.904894,0,0,0,1.35205,-0.515878,1.59361,-2.96638,-0.0672638,-0.41883,-2.98011,-0.0808239,-0.368595,-0.661241,0.626059,-0.65997,-0.354106,0.540335,0.520557,0.407876,1
1.5812,-0.498754,-1.58407,-1.01684,2.37195,1.50949,-0.455663,1.5812,-0.498754,-1.58407,-1.01684,2.37195,1.50949,-0.455663,1.64715,-0.559739,-1.51709,-0.980439,2.31843,1.45679,-0.493173,-1.72962,1.18555,-1.15844,-0.636054,0.892573,0.727731,1.18821,-1.72962,1.18555,-1.15844,-0.636054,0.892573,0.727731,1.18821,0.297196,-0.247359,1.03115,0.367262,-0.208849,0.0516426,0.904894,0,0,0,1.32253,-0.517066,1.58872,-2.95187,-0.118768,-0.488853,-2.95913,-0.093016,-0.453842,-0.659494,0.609851,-0.669878,-0.36398,0.535263,0.526985,0.375109,1
1.58173,-0.500834,-1.58497,-1.013,2.37069,1.51119,-0.46008,1.58173,-0.500834,-1.58497,-1.013,2.37069,1.51119,-0.46008,1.64715,-0.559739,-1.51709,-0.980439,2.31843,1.45679,-0.493173,-1.72962,1.18555,-1.15844,-0.636054,0.892573,0.727731,1.18821,-1.72962,1.18555,-1.15844,-0.636054,0.892573,0.727731,1.18821,0.297196,-0.247359,1.03115,0.367262,-0.208849,0.0516426,0.904894,0,0,0,1.29245,-0.518233,1.58266,-3.00769,-0.116724,-0.606668,-2.97978,-0.117746,-0.547761,-0.654248,0.589051,-0.678796,-0.325598,0.522625,0.544026,0.330938,1
1.58174,-0.502746,-1.58552,-1.01186,2.37109,1.51057,-0.464382,1.58174,-0.502746,-1.58552,-1.01186,2.37109,1.51057,-0.464382,1.64715,-0.559739,-1.51709,-0.980439,2.31843,1.45679,-0.493173,-1.72962,1.18555,-1.15844,-0.636054,0.892573,0.727731,1.18821,-1.72962,1.18555,-1.15844,-0.636054,0.892573,0.727731,1.18821,0.297196,-0.247359,1.03115,0.367262,-0.208849,0.0516426,0.904894,0,0,0,1.26307,-0.518792,1.57508,-2.93809,-0.055933,-0.757682,-2.97289,-0.0863284,-0.682175,-0.654129,0.569932,-0.684375,-0.314213,0.526611,0.53781,0.287909,1
1.58087,-0.504038,-1.58597,-1.0183,2.37195,1.50848,-0.467844,1.58087,-0.504038,-1.58597,-1.0183,2.37195,1.50848,-0.467844,1.64715,-0.559739,-1.51709,-0.980439,2.31843,1.45679,-0.493173,-1.72962,1.18555,-1.15844,-0.636054,0.892573,0.727731,1.18821,-1.72962,1.18555,-1.15844,-0.636054,0.892573,0.727731,1.18821,0.297196,-0.247359,1.03115,0.367262,-0.208849,0.0516426,0.904894,0,0,0,1.23333,-0.518883,1.56651,-2.9743,-0.00912547,-0.857031,-2.95619,-0.0325292,-0.807357,-0.662881,0.557009,-0.68886,-0.378629,0.535182,0.516924,0.253297,1
1.58075,-0.504776,-1.58648,-1.01933,2.37017,1.51097,-0.471875,1.58075,-0.504776,-1.58648,-1.01933,2.37017,1.51097,-0.471875,1.64715,-0.559739,-1.51709,-0.980439,2.31843,1.45679,-0.493173,-1.72962,1.18555,-1.15844,-0.636054,0.892573,0.727731,1.18821,-1.72962,1.18555,-1.15844,-0.636054,0.892573,0.727731,1.18821,0.297196,-0.247359,1.03115,0.367262,-0.208849,0.0516426,0.904894,0,0,0,1.20333,-0.520508,1.55805,-2.99945,-0.1625,-0.846529,-2.98687,-0.0858128,-0.85178,-0.664088,0.549628,-0.69391,-0.388869,0.51743,0.541846,0.212982,1
1.58112,-0.507252,-1.58688,-1.01127,2.36859,1.51474,-0.477916,1.58112,-0.507252,-1.58688,-1.01127,2.36859,1.51474,-0.477916,1.64715,-0.559739,-1.51709,-0.980439,2.31843,1.45679,-0.493173,-1.72962,1.18555,-1.15844,-0.636054,0.892573,0.727731,1.18821,-1.72962,1.18555,-1.15844,-0.636054,0.892573,0.727731,1.18821,0.297196,-0.247359,1.03115,0.367262,-0.208849,0.0516426,0.904894,0,0,0,1.17344,-0.521832,1.548,-2.98983,-0.132358,-1.00491,-2.99464,-0.147429,-0.92572,-0.6603,0.524872,-0.697955,-0.308335,0.501648,0.579514,0.152574,1
1.58045,-0.508599,-1.58724,-1.0127,2.36923,1.51381,-0.482145,1.58045,-0.508599,-1.58724,-1.0127,2.36923,1.51381,-0.482145,1.64715,-0.559739,-1.51709,-0.980439,2.31843,1.45679,-0.493173,-1.72962,1.18555,-1.15844,-0.636054,0.892573,0.727731,1.18821,-1.72962,1.18555,-1.15844,-0.636054,0.892573,0.727731,1.18821,0.297196,-0.247359,1.03115,0.367262,-0.208849,0.0516426,0.904894,0,0,0,1.14348,-0.522583,1.53676,-2.99556,-0.0750959,-1.12361,-2.9927,-0.103727,-1.06426,-0.667083,0.511401,-0.701503,-0.322625,0.508071,0.570223,0.110281,1
1.57999,-0.508901,-1.58752,-1.02281,2.37118,1.511,-0.485786,1.57999,-0.508901,-1.58752,-1.02281,2.37118,1.511,-0.485786,1.64715,-0.559739,-1.51709,-0.980439,2.31843,1.45679,-0.493173,-1.72962,1.18555,-1.15844,-0.636054,0.892573,0.727731,1.18821,-1.72962,1.18555,-1.15844,-0.636054,0.892573,0.727731,1.18821,0.297196,-0.247359,1.03115,0.367262,-0.208849,0.0516426,0.904894,0,0,0,1.11412,-0.523298,1.52371,-2.93607,-0.0715435,-1.30476,-2.96581,-0.0733197,-1.21418,-0.671624,0.508381,-0.70437,-0.423712,0.527533,0.542064,0.0738706,1
1.57914,-0.508306,-1.5873,-1.0285,2.37239,1.50891,-0.486012,1.57914,-0.508306,-1.5873,-1.0285,2.37239,1.50891,-0.486012,1.64715,-0.559739,-1.51709,-0.980439,2.31843,1.45679,-0.493173,-1.72962,1.18555,-1.15844,-0.636054,0.892573,0.727731,1.18821,-1.72962,1.18555,-1.15844,-0.636054,0.892573,0.727731,1.18821,0.297196,-0.247359,1.03115,0.367262,-0.208849,0.0516426,0.904894,0,0,0,1.08416,-0.523316,1.51086,-2.99553,-0.00175238,-1.28497,-2.9658,-0.0366479,-1.29486,-0.680138,0.514324,-0.70214,-0.48065,0.539605,0.52119,0.0716144,1
1.57856,-0.510067,-1.58718,-1.02716,2.37374,1.50808,-0.487733,1.57856,-0.510067,-1.58718,-1.02716,2.37374,1.50808,-0.487733,1.64715,-0.559739,-1.51709,-0.980439,2.31843,1.45679,-0.493173,-1.72962,1.18555,-1.15844,-0.636054,0.892573,0.727731,1.18821,-1.72962,1.18555,-1.15844,-0.636054,0.892573,0.727731,1.18821,0.297196,-0.247359,1.03115,0.367262,-0.208849,0.0516426,0.904894,0,0,0,1.05536,-0.524126,1.49657,-2.88,-0.0810385,-1.42965,-2.93776,-0.0413954,-1.35731,-0.685972,0.496717,-0.700918,-0.467253,0.553086,0.512915,0.0544063,1
1.5791,-0.513925,-1.58771,-1.02075,2.37386,1.51096,-0.498902,1.5791,-0.513925,-1.58771,-1.02075,2.37386,1.51096,-0.498902,1.64715,-0.559739,-1.51709,-0.980439,2.31843,1.45679,-0.493173,-1.72962,1.18555,-1.15844,-0.636054,0.892573,0.727731,1.18821,-1.72962,1.18555,-1.15844,-0.636054,0.892573,0.727731,1.18821,0.297196,-0.247359,1.03115,0.367262,-0.208849,0.0516426,0.904894,0,0,0,1.02573,-0.525748,1.48169,-2.96321,-0.162202,-1.4877,-2.92161,-0.12162,-1.45867,-0.680574,0.458142,-0.706225,-0.403076,0.554294,0.541719,-0.0572882,1
1.57988,-0.516783,-1.58782,-1.02032,2.37489,1.51078,-0.504717,1.57988,-0.516783,-1.58782,-1.02032,2.37489,1.51078,-0.504717,1.64715,-0.559739,-1.51709,-0.980439,2.31843,1.45679,-0.493173,-1.72962,1.18555,-1.15844,-0.636054,0.892573,0.727731,1.18821,-1.72962,1.18555,-1.15844,-0.636054,0.892573,0.727731,1.18821,0.297196,-0.247359,1.03115,0.367262,-0.208849,0.0516426,0.904894,0,0,0,0.996639,-0.526851,1.46526,-2.90933,-0.110298,-1.6428,-2.93627,-0.13625,-1.56525,-0.672724,0.429561,-0.707305,-0.39883,0.564592,0.539906,-0.115431,1
1.57973,-0.516272,-1.58762,-1.02534,2.37661,1.50652,-0.503034,1.57973,-0.516272,-1.58762,-1.02534,2.37661,1.50652,-0.503034,1.64715,-0.559739,-1.51709,-0.980439,2.31843,1.45679,-0.493173,-1.72962,1.18555,-1.15844,-0.636054,0.892573,0.727731,1.18821,-1.72962,1.18555,-1.15844,-0.636054,0.892573,0.727731,1.18821,0.297196,-0.247359,1.03115,0.367262,-0.208849,0.0516426,0.904894,0,0,0,0.967527,-0.527888,1.44825,-2.91121,-0.103706,-1.70141,-2.91027,-0.107002,-1.67211,-0.674285,0.434667,-0.705333,-0.449029,0.581859,0.497325,-0.0986048,1
1.57897,-0.517057,-1.58758,-1.02851,2.37756,1.50358,-0.500677,1.57897,-0.517057,-1.58758,-1.02851,2.37756,1.50358,-0.500677,1.64715,-0.559739,-1.51709,-0.980439,2.31843,1.45679,-0.493173,-1.72962,1.18555,-1.15844,-0.636054,0.892573,0.727731,1.18821,-1.72962,1.18555,-1.15844,-0.636054,0.892573,0.727731,1.18821,0.297196,-0.247359,1.03115,0.367262,-0.208849,0.0516426,0.904894,0,0,0,0.938438,-0.528686,1.43043,-2.90887,-0.0797272,-1.78126,-2.91004,-0.0917166,-1.74134,-0.681888,0.426822,-0.704894,-0.480711,0.591345,0.467869,-0.0750377,1
1.57849,-0.521626,-1.58775,-1.02964,2.37856,1.5024,-0.503407,1.57849,-0.521626,-1.58775,-1.02964,2.37856,1.5024,-0.503407,1.64715,-0.559739,-1.51709,-0.980439,2.31843,1.45679,-0.493173,-1.72962,1.18555,-1.15844,-0.636054,0.892573,0.727731,1.18821,-1.72962,1.18555,-1.15844,-0.636054,0.892573,0.727731,1.18821,0.297196,-0.247359,1.03115,0.367262,-0.208849,0.0516426,0.904894,0,0,0,0.909102,-0.529501,1.41181,-2.93359,-0.081569,-1.86281,-2.92123,-0.0806481,-1.82204,-0.68668,0.381124,-0.706656,-0.492016,0.601342,0.456121,-0.102332,1
1.57856,-0.527087,-1.58812,-1.0312,2.37868,1.50168,-0.507768,1.57856,-0.527087,-1.58812,-1.0312,2.37868,1.50168,-0.507768,1.64715,-0.559739,-1.51709,-0.980439,2.31843,1.45679,-0.493173,-1.72962,1.18555,-1.15844,-0.636054,0.892573,0.727731,1.18821,-1.72962,1.18555,-1.15844,-0.636054,0.892573,0.727731,1.18821,0.297196,-0.247359,1.03115,0.367262,-0.208849,0.0516426,0.904894,0,0,0,0.879722,-0.530361,1.39193,-2.93807,-0.0859261,-1.98722,-2.93583,-0.0837475,-1.92502,-0.685965,0.326521,-0.710322,-0.50766,0.6025,0.448942,-0.145946,1
1.57872,-0.531881,-1.58844,-1.03286,2.37812,1.49996,-0.509424,1.57872,-0.531881,-1.58844,-1.03286,2.37812,1.49996,-0.509424,1.64715,-0.559739,-1.51709,-0.980439,2.31843,1.45679,-0.493173,-1.72962,1.18555,-1.15844,-0.636054,0.892573,0.727731,1.18821,-1.72962,1.18555,-1.15844,-0.636054,0.892573,0.727731,1.18821,0.297196,-0.247359,1.03115,0.367262,-0.208849,0.0516426,0.904894,0,0,0,0.850205,-0.53117,1.37111,-2.95162,-0.0809848,-2.08267,-2.94485,-0.0834554,-2.03494,-0.684331,0.278581,-0.71349,-0.524192,0.59693,0.431677,-0.162503,1
1.57873,-0.536236,-1.58864,-1.0348,2.37784,1.49741,-0.510873,1.57873,-0.536236,-1.58864,-1.0348,2.37784,1.49741,-0.510873,1.64715,-0.559739,-1.51709,-0.980439,2.31843,1.45679,-0.493173,-1.72962,1.18555,-1.15844,-0.636054,0.892573,0.727731,1.18821,-1.72962,1.18555,-1.15844,-0.636054,0.892573,0.727731,1.18821,0.297196,-0.247359,1.03115,0.367262,-0.208849,0.0516426,0.904894,0,0,0,0.822201,-0.531776,1.34916,-2.80043,-0.0605643,-2.19517,-2.87603,-0.0707746,-2.13892,-0.684275,0.235022,-0.715551,-0.543642,0.594084,0.406228,-0.176999,1
1.57892,-0.538743,-1.58908,-1.03425,2.3759,1.4992,-0.515271,1.57892,-0.538743,-1.58908,-1.03425,2.3759,1.4992,-0.515271,1.64715,-0.559739,-1.51709,-0.980439,2.31843,1.45679,-0.493173,-1.72962,1.18555,-1.15844,-0.636054,0.892573,0.727731,1.18821,-1.72962,1.18555,-1.15844,-0.636054,0.892573,0.727731,1.18821,0.297196,-0.247359,1.03115,0.367262,-0.208849,0.0516426,0.904894,0,0,0,0.792746,-0.534263,1.32657,-2.94554,-0.248671,-2.2589,-2.87299,-0.154617,-2.22703,-0.682347,0.209957,-0.719949,-0.538128,0.574732,0.424086,-0.220981,1
1.57868,-0.542187,-1.58933,-1.03516,2.37447,1.49814,-0.517538,1.57868,-0.542187,-1.58933,-1.03516,2.37447,1.49814,-0.517538,1.64715,-0.559739,-1.51709,-0.980439,2.31843,1.45679,-0.493173,-1.72962,1.18555,-1.15844,-0.636054,0.892573,0.727731,1.18821,-1.72962,1.18555,-1.15844,-0.636054,0.892573,0.727731,1.18821,0.297196,-0.247359,1.03115,0.367262,-0.208849,0.0516426,0.904894,0,0,0,0.763255,-0.53523,1.30296,-2.94904,-0.0967085,-2.36106,-2.94729,-0.17269,-2.30998,-0.684723,0.175515,-0.722426,-0.547226,0.560416,0.413527,-0.243651,1
1.57826,-0.549362,-1.58931,-1.03966,2.37425,1.49324,-0.517408,1.57826,-0.549362,-1.58931,-1.03966,2.37425,1.49324,-0.517408,1.64715,-0.559739,-1.51709,-0.980439,2.31843,1.45679,-0.493173,-1.72962,1.18555,-1.15844,-0.636054,0.892573,0.727731,1.18821,-1.72962,1.18555,-1.15844,-0.636054,0.892573,0.727731,1.18821,0.297196,-0.247359,1.03115,0.367262,-0.208849,0.0516426,0.904894,0,0,0,0.733633,-0.536053,1.27807,-2.96224,-0.082314,-2.48864,-2.95564,-0.0895113,-2.42485,-0.688908,0.103769,-0.722279,-0.592236,0.558264,0.364459,-0.242348,1
1.57831,-0.55799,-1.58943,-1.04207,2.3733,1.49166,-0.518876,1.57831,-0.55799,-1.58943,-1.04207,2.3733,1.49166,-0.518876,1.64715,-0.559739,-1.51709,-0.980439,2.31843,1.45679,-0.493173,-1.72962,1.18555,-1.15844,-0.636054,0.892573,0.727731,1.18821,-1.72962,1.18555,-1.15844,-0.636054,0.892573,0.727731,1.18821,0.297196,-0.247359,1.03115,0.367262,-0.208849,0.0516426,0.904894,0,0,0,0.705028,-0.536738,1.25197,-2.86053,-0.0685334,-2.60975,-2.91138,-0.0754237,-2.5492,-0.688487,0.0174864,-0.723435,-0.616319,0.548716,0.348741,-0.257024,1
1.57813,-0.566861,-1.58978,-1.04341,2.37149,1.4914,-0.518146,1.57813,-0.566861,-1.58978,-1.04341,2.37149,1.4914,-0.518146,1.64715,-0.559739,-1.51709,-0.980439,2.31843,1.45679,-0.493173,-1.72962,1.18555,-1.15844,-0.636054,0.892573,0.727731,1.18821,-1.72962,1.18555,-1.15844,-0.636054,0.892573,0.727731,1.18821,0.297196,-0.247359,1.03115,0.367262,-0.208849,0.0516426,0.904894,0,0,0,0.676273,-0.537835,1.2253,-2.87549,-0.109631,-2.6673,-2.86801,-0.0890821,-2.63852,-0.690249,-0.0712207,-0.726922,-0.629689,0.53061,0.346071,-0.249724,1
1.57754,-0.573559,-1.59037,-1.04555,2.36734,1.492,-0.515109,1.57754,-0.573559,-1.59037,-1.04555,2.36734,1.492,-0.515109,1.64715,-0.559739,-1.51709,-0.980439,2.31843,1.45679,-0.493173,-1.72962,1.18555,-1.15844,-0.636054,0.892573,0.727731,1.18821,-1.72962,1.18555,-1.15844,-0.636054,0.892573,0.727731,1.18821,0.297196,-0.247359,1.03115,0.367262,-0.208849,0.0516426,0.904894,0,0,0,0.647131,-0.538402,1.19759,-2.91417,-0.0567496,-2.7705,-2.89483,-0.0831902,-2.7189,-0.696159,-0.138201,-0.732804,-0.651133,0.489105,0.352104,-0.219353,1
1.57737,-0.579417,-1.5909,-1.04776,2.3645,1.49394,-0.515142,1.57737,-0.579417,-1.5909,-1.04776,2.3645,1.49394,-0.515142,1.64715,-0.559739,-1.51709,-0.980439,2.31843,1.45679,-0.493173,-1.72962,1.18555,-1.15844,-0.636054,0.892573,0.727731,1.18821,-1.72962,1.18555,-1.15844,-0.636054,0.892573,0.727731,1.18821,0.297196,-0.247359,1.03115,0.367262,-0.208849,0.0516426,0.904894,0,0,0,0.61743,-0.539107,1.16907,-2.97012,-0.0704467,-2.85256,-2.94214,-0.0635982,-2.81153,-0.697883,-0.19678,-0.738148,-0.673254,0.46074,0.371497,-0.219688,1
1.57782,-0.586955,-1.59123,-1.04991,2.36233,1.49636,-0.520473,1.57782,-0.586955,-1.59123,-1.04991,2.36233,1.49636,-0.520473,1.64715,-0.559739,-1.51709,-0.980439,2.31843,1.45679,-0.493173,-1.72962,1.18555,-1.15844,-0.636054,0.892573,0.727731,1.18821,-1.72962,1.18555,-1.15844,-0.636054,0.892573,0.727731,1.18821,0.297196,-0.247359,1.03115,0.367262,-0.208849,0.0516426,0.904894,0,0,0,0.588055,-0.54007,1.13893,-2.93752,-0.0963271,-3.01347,-2.95382,-0.0833869,-2.93301,-0.693308,-0.272167,-0.741461,-0.694696,0.439003,0.395701,-0.272997,1
1.57936,-0.592606,-1.59127,-1.05165,2.35944,1.49925,-0.524573,1.57936,-0.592606,-1.59127,-1.05165,2.35944,1.49925,-0.524573,1.64715,-0.559739,-1.51709,-0.980439,2.31843,1.45679,-0.493173,-1.72962,1.18555,-1.15844,-0.636054,0.892573,0.727731,1.18821,-1.72962,1.18555,-1.15844,-0.636054,0.892573,0.727731,1.18821,0.297196,-0.247359,1.03115,0.367262,-0.208849,0.0516426,0.904894,0,0,0,0.559418,-0.541134,1.10786,-2.86366,-0.106412,-3.10782,-2.90059,-0.10137,-3.06064,-0.677973,-0.328678,-0.741797,-0.712096,0.410084,0.424641,-0.313995,1
1.58028,-0.595667,-1.59118,-1.05227,2.35682,1.50078,-0.526144,1.58028,-0.595667,-1.59118,-1.05227,2.35682,1.50078,-0.526144,1.64715,-0.559739,-1.51709,-0.980439,2.31843,1.45679,-0.493173,-1.72962,1.18555,-1.15844,-0.636054,0.892573,0.727731,1.18821,-1.72962,1.18555,-1.15844,-0.636054,0.892573,0.727731,1.18821,0.297196,-0.247359,1.03115,0.367262,-0.208849,0.0516426,0.904894,0,0,0,0.531175,-0.541971,1.0764,-2.82427,-0.083667,-3.14595,-2.84396,-0.0950396,-3.12688,-0.668695,-0.359281,-0.740905,-0.718302,0.383883,0.439894,-0.329704,1
1.58154,-0.60004,-1.591,-1.05318,2.35636,1.50233,-0.528681,1.58154,-0.60004,-1.591,-1.05318,2.35636,1.50233,-0.528681,1.64715,-0.559739,-1.51709,-0.980439,2.31843,1.45679,-0.493173,-1.72962,1.18555,-1.15844,-0.636054,0.892573,0.727731,1.18821,-1.72962,1.18555,-1.15844,-0.636054,0.892573,0.727731,1.18821,0.297196,-0.247359,1.03115,0.367262,-0.208849,0.0516426,0.904894,0,0,0,0.503459,-0.543094,1.04312,-2.77166,-0.112385,-3.32763,-2.79797,-0.0980258,-3.23679,-0.656091,-0.403009,-0.739112,-0.727401,0.379348,0.455417,-0.355073,1
1.5827,-0.603548,-1.59076,-1.05358,2.35606,1.50255,-0.531305,1.5827,-0.603548,-1.59076,-1.05358,2.35606,1.50255,-0.531305,1.64715,-0.559739,-1.51709,-0.980439,2.31843,1.45679,-0.493173,-1.72962,1.18555,-1.15844,-0.636054,0.892573,0.727731,1.18821,-1.72962,1.18555,-1.15844,-0.636054,0.892573,0.727731,1.18821,0.297196,-0.247359,1.03115,0.367262,-0.208849,0.0516426,0.904894,0,0,0,0.474516,-0.544547,1.01009,-2.89428,-0.145209,-3.3031,-2.83297,-0.128797,-3.31537,-0.644581,-0.438093,-0.736749,-0.731421,0.376304,0.45764,-0.381313,1
1.583,-0.604789,-1.59068,-1.05357,2.35522,1.50199,-0.531896,1.583,-0.604789,-1.59068,-1.05357,2.35522,1.50199,-0.531896,1.64715,-0.559739,-1.51709,-0.980439,2.31843,1.45679,-0.493173,-1.72962,1.18555,-1.15844,-0.636054,0.892573,0.727731,1.18821,-1.72962,1.18555,-1.15844,-0.636054,0.892573,0.727731,1.18821,0.297196,-0.247359,1.03115,0.367262,-0.208849,0.0516426,0.904894,0,0,0,0.44573,-0.546001,0.976423,-2.87858,-0.145441,-3.3666,-2.88643,-0.145325,-3.33485,-0.641519,-0.450506,-0.735936,-0.731351,0.367965,0.452024,-0.387228,1
1.58398,-0.607632,-1.59043,-1.05424,2.35626,1.50168,-0.532396,1.58398,-0.607632,-1.59043,-1.05424,2.35626,1.50168,-0.532396,1.64715,-0.559739,-1.51709,-0.980439,2.31843,1.45679,-0.493173,-1.72962,1.18555,-1.15844,-0.636054,0.892573,0.727731,1.18821,-1.72962,1.18555,-1.15844,-0.636054,0.892573,0.727731,1.18821,0.297196,-0.247359,1.03115,0.367262,-0.208849,0.0516426,0.904894,0,0,0,0.417278,-0.546922,0.941227,-2.84518,-0.0921369,-3.51961,-2.86188,-0.118789,-3.44311,-0.63176,-0.478937,-0.733401,-0.738028,0.378368,0.448925,-0.392223,1
1.58448,-0.610983,-1.59016,-1.05455,2.35658,1.50105,-0.533044,1.58448,-0.610983,-1.59016,-1.05455,2.35658,1.50105,-0.533044,1.64715,-0.559739,-1.51709,-0.980439,2.31843,1.45679,-0.493173,-1.72962,1.18555,-1.15844,-0.636054,0.892573,0.727731,1.18821,-1.72962,1.18555,-1.15844,-0.636054,0.892573,0.727731,1.18821,0.297196,-0.247359,1.03115,0.367262,-0.208849,0.0516426,0.904894,0,0,0,0.388383,-0.547959,0.905434,-2.88957,-0.103629,-3.5793,-2.86738,-0.0978827,-3.54946,-0.626711,-0.512448,-0.730734,-0.741085,0.381507,0.44256,-0.398709,1
1.58533,-0.613937,-1.58992,-1.05475,2.35615,1.50068,-0.534188,1.58533,-0.613937,-1.58992,-1.05475,2.35615,1.50068,-0.534188,1.64715,-0.559739,-1.51709,-0.980439,2.31843,1.45679,-0.493173,-1.72962,1.18555,-1.15844,-0.636054,0.892573,0.727731,1.18821,-1.72962,1.18555,-1.15844,-0.636054,0.892573,0.727731,1.18821,0.297196,-0.247359,1.03115,0.367262,-0.208849,0.0516426,0.904894,0,0,0,0.360112,-0.548902,0.867946,-2.82706,-0.094378,-3.74876,-2.85831,-0.0990033,-3.66403,-0.618197,-0.541987,-0.728339,-0.743134,0.377214,0.438876,-0.410146,1
1.58602,-0.616351,-1.58971,-1.05499,2.35653,1.4997,-0.535296,1.58602,-0.616351,-1.58971,-1.05499,2.35653,1.4997,-0.535296,1.64715,-0.559739,-1.51709,-0.980439,2.31843,1.45679,-0.493173,-1.72962,1.18555,-1.15844,-0.636054,0.892573,0.727731,1.18821,-1.72962,1.18555,-1.15844,-0.636054,0.892573,0.727731,1.18821,0.297196,-0.247359,1.03115,0.367262,-0.208849,0.0516426,0.904894,0,0,0,0.331554,-0.549832,0.82975,-2.8558,-0.0929713,-3.81969,-2.84143,-0.0936747,-3.78422,-0.611338,-0.566122,-0.726237,-0.745495,0.381064,0.429155,-0.421225,1
1.58694,-0.618379,-1.58946,-1.05512,2.35673,1.49881,-0.536452,1.58694,-0.618379,-1.58946,-1.05512,2.35673,1.49881,-0.536452,1.64715,-0.559739,-1.51709,-0.980439,2.31843,1.45679,-0.493173,-1.72962,1.18555,-1.15844,-0.636054,0.892573,0.727731,1.18821,-1.72962,1.18555,-1.15844,-0.636054,0.892573,0.727731,1.18821,0.297196,-0.247359,1.03115,0.367262,-0.208849,0.0516426,0.904894,0,0,0,0.303676,-0.551172,0.790342,-2.78783,-0.133991,-3.94071,-2.82181,-0.113481,-3.8802,-0.602116,-0.586403,-0.723755,-0.746802,0.383022,0.420179,-0.432788,1
1.5872,-0.619824,-1.58936,-1.05508,2.35649,1.4979,-0.53728,1.5872,-0.619824,-1.58936,-1.05508,2.35649,1.4979,-0.53728,1.64715,-0.559739,-1.51709,-0.980439,2.31843,1.45679,-0.493173,-1.72962,1.18555,-1.15844,-0.636054,0.892573,0.727731,1.18821,-1.72962,1.18555,-1.15844,-0.636054,0.892573,0.727731,1.18821,0.297196,-0.247359,1.03115,0.367262,-0.208849,0.0516426,0.904894,0,0,0,0.27473,-0.552775,0.7509,-2.89464,-0.160253,-3.9442,-2.84123,-0.147122,-3.94245,-0.599587,-0.600852,-0.722722,-0.746425,0.38062,0.411128,-0.441069,1
1.58743,-0.621001,-1.58922,-1.0552,2.35645,1.49722,-0.537707,1.58743,-0.621001,-1.58922,-1.0552,2.35645,1.49722,-0.537707,1.64715,-0.559739,-1.51709,-0.980439,2.31843,1.45679,-0.493173,-1.72962,1.18555,-1.15844,-0.636054,0.892573,0.727731,1.18821,-1.72962,1.18555,-1.15844,-0.636054,0.892573,0.727731,1.18821,0.297196,-0.247359,1.03115,0.367262,-0.208849,0.0516426,0.904894,0,0,0,0.246169,-0.553887,0.709482,-2.85609,-0.11124,-4.14185,-2.87536,-0.135747,-4.04303,-0.597275,-0.612624,-0.721302,-0.747603,0.380225,0.404332,-0.445337,1
1.5881,-0.622804,-1.58889,-1.05542,2.35667,1.4972,-0.538201,1.5881,-0.622804,-1.58889,-1.05542,2.35667,1.4972,-0.538201,1.64715,-0.559739,-1.51709,-0.980439,2.31843,1.45679,-0.493173,-1.72962,1.18555,-1.15844,-0.636054,0.892573,0.727731,1.18821,-1.72962,1.18555,-1.15844,-0.636054,0.892573,0.727731,1.18821,0.297196,-0.247359,1.03115,0.367262,-0.208849,0.0516426,0.904894,0,0,0,0.218164,-0.554697,0.667523,-2.80042,-0.0810444,-4.1959,-2.82826,-0.0961423,-4.16888,-0.590521,-0.630652,-0.718067,-0.74978,0.382435,0.404095,-0.450281,1
1.58876,-0.624159,-1.58867,-1.05546,2.35686,1.49675,-0.53891,1.58876,-0.624159,-1.58867,-1.05546,2.35686,1.49675,-0.53891,1.64715,-0.559739,-1.51709,-0.980439,2.31843,1.45679,-0.493173,-1.72962,1.18555,-1.15844,-0.636054,0.892573,0.727731,1.18821,-1.72962,1.18555,-1.15844,-0.636054,0.892573,0.727731,1.18821,0.297196,-0.247359,1.03115,0.367262,-0.208849,0.0516426,0.904894,0,0,0,0.189346,-0.556071,0.624551,-2.8818,-0.137341,-4.29724,-2.84111,-0.109193,-4.24657,-0.583921,-0.644199,-0.7158,-0.750189,0.384348,0.399625,-0.457365,1
1.58973,-0.625596,-1.58827,-1.05555,2.35746,1.49622,-0.539268,1.58973,-0.625596,-1.58827,-1.05555,2.35746,1.49622,-0.539268,1.64715,-0.559739,-1.51709,-0.980439,2.31843,1.45679,-0.493173,-1.72962,1.18555,-1.15844,-0.636054,0.892573,0.727731,1.18821,-1.72962,1.18555,-1.15844,-0.636054,0.892573,0.727731,1.18821,0.297196,-0.247359,1.03115,0.367262,-0.208849,0.0516426,0.904894,0,0,0,0.161581,-0.556333,0.580094,-2.77651,-0.0262558,-4.44563,-2.82915,-0.0817984,-4.37143,-0.574226,-0.658569,-0.711857,-0.75115,0.390356,0.394282,-0.460949,1
1.59072,-0.626742,-1.58799,-1.05554,2.3591,1.49515,-0.539643,1.59072,-0.626742,-1.58799,-1.05554,2.3591,1.49515,-0.539643,1.64715,-0.559739,-1.51709,-0.980439,2.31843,1.45679,-0.493173,-1.72962,1.18555,-1.15844,-0.636054,0.892573,0.727731,1.18821,-1.72962,1.18555,-1.15844,-0.636054,0.892573,0.727731,1.18821,0.297196,-0.247359,1.03115,0.367262,-0.208849,0.0516426,0.904894,0,0,0,0.132709,-0.557215,0.535355,-2.8872,-0.0881791,-4.4739,-2.83185,-0.0572175,-4.45977,-0.564291,-0.670034,-0.709078,-0.750985,0.406707,0.383639,-0.464691,1
1.592,-0.627733,-1.58774,-1.05551,2.36084,1.4943,-0.540529,1.592,-0.627733,-1.58774,-1.05551,2.36084,1.4943,-0.540529,1.64715,-0.559739,-1.51709,-0.980439,2.31843,1.45679,-0.493173,-1.72962,1.18555,-1.15844,-0.636054,0.892573,0.727731,1.18821,-1.72962,1.18555,-1.15844,-0.636054,0.892573,0.727731,1.18821,0.297196,-0.247359,1.03115,0.367262,-0.208849,0.0516426,0.904894,0,0,0,0.105089,-0.557724,0.489423,-2.76206,-0.0508964,-4.5932,-2.82463,-0.0695378,-4.53355,-0.551543,-0.679941,-0.70652,-0.75074,0.424174,0.375126,-0.473553,1
1.59357,-0.628886,-1.58743,-1.0554,2.36273,1.49378,-0.541343,1.59357,-0.628886,-1.58743,-1.0554,2.36273,1.49378,-0.541343,1.64715,-0.559739,-1.51709,-0.980439,2.31843,1.45679,-0.493173,-1.72962,1.18555,-1.15844,-0.636054,0.892573,0.727731,1.18821,-1.72962,1.18555,-1.15844,-0.636054,0.892573,0.727731,1.18821,0.297196,-0.247359,1.03115,0.367262,-0.208849,0.0516426,0.904894,0,0,0,0.0768145,-0.558947,0.442059,-2.82742,-0.122255,-4.73642,-2.79474,-0.0865757,-4.66481,-0.535812,-0.691478,-0.703391,-0.749635,0.442981,0.369868,-0.481692,1
1.59464,-0.629679,-1.58716,-1.05526,2.36414,1.49237,-0.542004,1.59464,-0.629679,-1.58716,-1.05526,2.36414,1.49237,-0.542004,1.64715,-0.559739,-1.51709,-0.980439,2.31843,1.45679,-0.493173,-1.72962,1.18555,-1.15844,-0.636054,0.892573,0.727731,1.18821,-1.72962,1.18555,-1.15844,-0.636054,0.892573,0.727731,1.18821,0.297196,-0.247359,1.03115,0.367262,-0.208849,0.0516426,0.904894,0,0,0,0.0487614,-0.559908,0.393798,-2.80531,-0.0961483,-4.82606,-2.81637,-0.109202,-4.78124,-0.525093,-0.699403,-0.700742,-0.748238,0.457114,0.355826,-0.488307,1
1.59587,-0.630456,-1.58689,-1.05516,2.36551,1.49147,-0.542397,1.59587,-0.630456,-1.58689,-1.05516,2.36551,1.49147,-0.542397,1.64715,-0.559739,-1.51709,-0.980439,2.31843,1.45679,-0.493173,-1.72962,1.18555,-1.15844,-0.636054,0.892573,0.727731,1.18821,-1.72962,1.18555,-1.15844,-0.636054,0.892573,0.727731,1.18821,0.297196,-0.247359,1.03115,0.367262,-0.208849,0.0516426,0.904894,0,0,0,0.0213708,-0.56112,0.344802,-2.73907,-0.12117,-4.89961,-2.77219,-0.108659,-4.86283,-0.512826,-0.70717,-0.69808,-0.747191,0.47087,0.34676,-0.492238,1
1.59711,-0.631153,-1.58663,-1.05506,2.36671,1.49047,-0.542715,1.59711,-0.631153,-1.58663,-1.05506,2.36671,1.49047,-0.542715,1.64715,-0.559739,-1.51709,-0.980439,2.31843,1.45679,-0.493173,-1.72962,1.18555,-1.15844,-0.636054,0.892573,0.727731,1.18821,-1.72962,1.18555,-1.15844,-0.636054,0.892573,0.727731,1.18821,0.297196,-0.247359,1.03115,0.367262,-0.208849,0.0516426,0.904894,0,0,0,-0.00548606,-0.56213,0.295335,-2.68568,-0.101054,-4.94677,-2.71237,-0.111112,-4.92319,-0.500396,-0.714141,-0.695428,-0.746171,0.482806,0.336853,-0.495414,1
1.59802,-0.631556,-1.58647,-1.05496,2.36757,1.48896,-0.5429,1.59802,-0.631556,-1.58647,-1.05496,2.36757,1.48896,-0.5429,1.64715,-0.559739,-1.51709,-0.980439,2.31843,1.45679,-0.493173,-1.72962,1.18555,-1.15844,-0.636054,0.892573,0.727731,1.18821,-1.72962,1.18555,-1.15844,-0.636054,0.892573,0.727731,1.18821,0.297196,-0.247359,1.03115,0.367262,-0.208849,0.0516426,0.904894,0,0,0,-0.033224,-0.563366,0.245307,-2.7738,-0.123572,-5.00272,-2.72974,-0.112313,-4.97474,-0.49137,-0.718171,-0.693859,-0.745222,0.491404,0.321754,-0.497262,1
1.59883,-0.631873,-1.58637,-1.05485,2.3682,1.48718,-0.543101,1.59883,-0.631873,-1.58637,-1.05485,2.3682,1.48718,-0.543101,1.64715,-0.559739,-1.51709,-0.980439,2.31843,1.45679,-0.493173,-1.72962,1.18555,-1.15844,-0.636054,0.892573,0.727731,1.18821,-1.72962,1.18555,-1.15844,-0.636054,0.892573,0.727731,1.18821,0.297196,-0.247359,1.03115,0.367262,-0.208849,0.0516426,0.904894,0,0,0,-0.061014,-0.564629,0.19459,-2.779,-0.126302,-5.0717,-2.7764,-0.124937,-5.03721,-0.483217,-0.721344,-0.692796,-0.744151,0.497682,0.303888,-0.499274,1
1.59988,-0.63236,-1.58612,-1.05473,2.36906,1.48587,-0.543224,1.59988,-0.63236,-1.58612,-1.05473,2.36906,1.48587,-0.543224,1.64715,-0.559739,-1.51709,-0.980439,2.31843,1.45679,-0.493173,-1.72962,1.18555,-1.15844,-0.636054,0.892573,0.727731,1.18821,-1.72962,1.18555,-1.15844,-0.636054,0.892573,0.727731,1.18821,0.297196,-0.247359,1.03115,0.367262,-0.208849,0.0516426,0.904894,0,0,0,-0.0879742,-0.565819,0.143586,-2.69602,-0.11903,-5.10042,-2.73751,-0.122666,-5.08606,-0.472743,-0.726209,-0.690301,-0.742879,0.506336,0.29079,-0.500504,1
