Afshin1997/kuka_rl_ros2/src/catch_and_throw/output_files/tm/nn_ema3.00_jvws1_realball_D23H16M47S47/recorded_data.csv
pure_target_joint_0,pure_target_joint_1,pure_target_joint_2,pure_target_joint_3,pure_target_joint_4,pure_target_joint_5,pure_target_joint_6,target_joint_0,target_joint_1,target_joint_2,target_joint_3,target_joint_4,target_joint_5,target_joint_6,pos_joint_0,pos_joint_1,pos_joint_2,pos_joint_3,pos_joint_4,pos_joint_5,pos_joint_6,vel_joint_0,vel_joint_1,vel_joint_2,vel_joint_3,vel_joint_4,vel_joint_5,vel_joint_6,vel_smooth_joint_0,vel_smooth_joint_1,vel_smooth_joint_2,vel_smooth_joint_3,vel_smooth_joint_4,vel_smooth_joint_5,vel_smooth_joint_6,ee_pos_x,ee_pos_y,ee_pos_z,ee_or_w,ee_or_x,ee_or_y,ee_or_z,ee_vel_x,ee_vel_y,ee_vel_z,ball_pos_x,ball_pos_y,ball_pos_z,ball_raw_vx,ball_raw_vy,ball_raw_vz,ball_ema_vx,ball_ema_vy,ball_ema_vz,action_0,action_1,action_2,action_3,action_4,action_5,action_6,command_published
1.79354,-1.0326,-1.82664,-1.06423,1.93398,1.18573,-0.852679,1.79354,-1.0326,-1.82664,-1.06423,1.93398,1.18573,-0.852679,1.78025,-1.06465,-1.81519,-1.1171,1.93739,1.11714,-0.916304,0,0,0,0,0,0,0,0,0,0,0,0,0,0,0.531028,-0.454416,0.694273,0.574517,0.175103,0.152533,0.784859,0,0,0,2.96675,-0.500849,0.572996,-3.48139,-0.0120878,5.0864,-3.5141,-0.0299364,5.1187,0.132906,0.320542,-0.114479,0.528664,-0.034069,0.685932,0.636252,1
1.79517,-1.03664,-1.82938,-1.06191,1.92852,1.1863,-0.852243,1.79517,-1.03664,-1.82938,-1.06191,1.92852,1.1863,-0.852243,1.78025,-1.06465,-1.81519,-1.1171,1.93739,1.11714,-0.916304,-1.42425e-08,5.44203e-07,-1.16584e-06,-3.01107e-07,6.38073e-07,5.32823e-07,3.81164e-07,-1.42425e-08,5.44203e-07,-1.16584e-06,-3.01107e-07,6.38073e-07,5.32823e-07,3.81164e-07,0.531028,-0.454416,0.694273,0.574517,0.175103,0.152533,0.784859,-1.57154e-08,1.09368e-09,-1.43613e-07,2.93203,-0.501024,0.62276,-3.47209,-0.0175357,4.97641,-3.47674,-0.0148118,5.0314,0.149236,0.280065,-0.141933,0.551923,-0.0886384,0.691629,0.640613,1
1.72724,-0.99012,-1.78975,-1.04256,1.97741,1.18899,-0.845676,1.72724,-0.99012,-1.78975,-1.04256,1.97741,1.18899,-0.845676,1.78319,-1.05756,-1.81772,-1.1054,1.93663,1.13231,-0.90223,0.275642,0.664796,-0.237427,1.09643,-0.0706574,1.42261,1.31957,0.275642,0.664796,-0.237427,1.09643,-0.0706574,1.42261,1.31957,0.527807,-0.454103,0.701205,0.573739,0.164891,0.15097,0.787936,-0.235251,-0.00823729,0.617246,2.89807,-0.501785,0.671904,-3.39584,-0.0760972,4.9144,-3.43397,-0.0468165,4.9454,-0.559503,0.674405,0.279697,0.628494,0.407795,0.566759,0.565544,1
1.73585,-0.984815,-1.78747,-1.03355,1.96745,1.20603,-0.833462,1.73585,-0.984815,-1.78747,-1.03355,1.96745,1.20603,-0.833462,1.78584,-1.05293,-1.8203,-1.09578,1.93484,1.14426,-0.891173,0.248539,0.433797,-0.241847,0.902144,-0.168203,1.11974,1.03673,0.248539,0.433797,-0.241847,0.902144,-0.168203,1.11974,1.03673,0.525479,-0.454019,0.705966,0.573137,0.157039,0.150234,0.790115,-0.167869,-0.0247793,0.423667,2.86323,-0.502598,0.719869,-3.48437,-0.0812829,4.79643,-3.44011,-0.0786901,4.85541,-0.499892,0.681195,0.328329,0.622369,0.326137,0.617713,0.577113,1
1.70855,-0.965092,-1.78523,-1.02509,1.98738,1.20716,-0.825231,1.70855,-0.965092,-1.78523,-1.02509,1.98738,1.20716,-0.825231,1.77288,-1.03904,-1.81354,-1.08401,1.94426,1.15415,-0.881109,-1.21537,1.30274,0.633581,1.10393,0.882962,0.927757,0.943602,-1.21537,1.30274,0.633581,1.10393,0.882962,0.927757,0.943602,0.513761,-0.459242,0.719953,0.578495,0.146005,0.14369,0.789544,-1.01219,-0.469951,1.26396,2.82888,-0.503138,0.766499,-3.43435,-0.0540495,4.66304,-3.45936,-0.0676662,4.72973,-0.643288,0.739481,0.283118,0.589173,0.431213,0.530089,0.558777,1
1.70629,-0.954056,-1.76892,-1.01456,1.99416,1.22298,-0.815889,1.70629,-0.954056,-1.76892,-1.01456,1.99416,1.22298,-0.815889,1.76469,-1.02705,-1.80778,-1.07285,1.94939,1.16563,-0.87057,-0.767884,1.12456,0.540771,1.04654,0.481064,1.07585,0.988146,-0.767884,1.12456,0.540771,1.04654,0.481064,1.07585,0.988146,0.504389,-0.461551,0.732225,0.581627,0.134247,0.139232,0.790128,-0.791997,-0.22556,1.10901,2.79417,-0.50365,0.812028,-3.47176,-0.0512004,4.55295,-3.45305,-0.0526249,4.60799,-0.58399,0.729891,0.388554,0.582873,0.447748,0.573503,0.54681,1
1.68961,-0.938717,-1.77048,-1.00655,2.00286,1.22728,-0.802844,1.68961,-0.938717,-1.77048,-1.00655,2.00286,1.22728,-0.802844,1.75227,-1.01334,-1.80279,-1.06228,1.95779,1.17481,-0.860541,-1.16424,1.28484,0.467532,0.990376,0.787873,0.861362,0.940257,-1.16424,1.28484,0.467532,0.990376,0.787873,0.861362,0.940257,0.493135,-0.465499,0.744884,0.586236,0.12386,0.134369,0.78926,-0.975846,-0.362494,1.15014,2.75977,-0.50429,0.856708,-3.43955,-0.0639379,4.4679,-3.45565,-0.0575691,4.51043,-0.626602,0.746241,0.32313,0.557354,0.450641,0.524693,0.576964,1
1.68284,-0.925451,-1.7582,-0.996526,2.00981,1.24005,-0.794809,1.68284,-0.925451,-1.7582,-0.996526,2.00981,1.24005,-0.794809,1.7421,-1.00023,-1.7953,-1.05173,1.96584,1.18547,-0.850664,-0.953595,1.2295,0.702395,0.989734,0.754297,0.99884,0.926032,-0.953595,1.2295,0.702395,0.989734,0.754297,0.99884,0.926032,0.482399,-0.46748,0.758002,0.589386,0.111805,0.129016,0.789607,-0.912536,-0.188473,1.18923,2.72505,-0.504791,0.90045,-3.47223,-0.0501573,4.37424,-3.45589,-0.0570476,4.42107,-0.592627,0.747758,0.370964,0.552004,0.439759,0.545833,0.558551,1
1.66838,-0.911508,-1.75578,-0.986611,2.02093,1.24688,-0.782925,1.66838,-0.911508,-1.75578,-0.986611,2.02093,1.24688,-0.782925,1.73049,-0.986621,-1.78981,-1.04173,1.97403,1.19472,-0.840086,-1.08856,1.27564,0.514763,0.936956,0.767726,0.867205,0.991715,-1.08856,1.27564,0.514763,0.936956,0.767726,0.867205,0.991715,0.471341,-0.469868,0.770377,0.59277,0.101006,0.124655,0.789229,-0.953923,-0.22574,1.12762,2.69085,-0.505284,0.943395,-3.41942,-0.0492692,4.29449,-3.44583,-0.0497133,4.33436,-0.621037,0.751136,0.340304,0.55122,0.469033,0.521606,0.571614,1
1.65868,-0.89774,-1.74734,-0.977397,2.02751,1.25741,-0.773775,1.65868,-0.89774,-1.74734,-0.977397,2.02751,1.25741,-0.773775,1.71995,-0.973091,-1.78282,-1.03173,1.98194,1.20475,-0.830071,-0.988245,1.26858,0.655468,0.937534,0.742186,0.940166,0.938998,-0.988245,1.26858,0.655468,0.937534,0.742186,0.940166,0.938998,0.460445,-0.470956,0.783083,0.595502,0.0890986,0.120237,0.789292,-0.930244,-0.111153,1.15764,2.65647,-0.505442,0.985315,-3.43852,-0.0157714,4.19201,-3.42897,-0.0325203,4.24325,-0.612648,0.753509,0.354808,0.54336,0.455718,0.526671,0.562953,1
1.64541,-0.883665,-1.74335,-0.96785,2.03745,1.26459,-0.76236,1.64541,-0.883665,-1.74335,-0.96785,2.03745,1.26459,-0.76236,1.70854,-0.959468,-1.77684,-1.02175,1.99057,1.21407,-0.819642,-1.06935,1.27715,0.56076,0.935778,0.808543,0.873783,0.977751,-1.06935,1.27715,0.56076,0.935778,0.808543,0.873783,0.977751,0.449201,-0.472331,0.795353,0.598333,0.0778438,0.116039,0.788969,-0.967202,-0.135733,1.12121,2.62168,-0.505706,1.02608,-3.4785,-0.0263691,4.07647,-3.45851,-0.0210702,4.13424,-0.63134,0.758037,0.334832,0.539019,0.468883,0.505292,0.572823,1
1.63418,-0.869833,-1.73662,-0.958511,2.04483,1.27341,-0.75225,1.63418,-0.869833,-1.73662,-0.958511,2.04483,1.27341,-0.75225,1.69751,-0.945814,-1.77031,-1.01194,1.99874,1.22365,-0.809496,-1.03401,1.28018,0.61179,0.919866,0.766251,0.89897,0.951216,-1.03401,1.28018,0.61179,0.919866,0.766251,0.89897,0.951216,0.438037,-0.472847,0.807604,0.600791,0.0660964,0.112193,0.78873,-0.957094,-0.0610511,1.12126,2.5871,-0.505548,1.06534,-3.45819,0.0157416,3.92604,-3.46835,-0.00531375,4.00125,-0.633305,0.759812,0.336913,0.534299,0.46089,0.497604,0.572459,1
1.62187,-0.855644,-1.72959,-0.9505,2.0554,1.27986,-0.741039,1.62187,-0.855644,-1.72959,-0.9505,2.0554,1.27986,-0.741039,1.68599,-0.932067,-1.76435,-1.00219,2.0073,1.23271,-0.79907,-1.0806,1.2889,0.559073,0.914385,0.802908,0.84906,0.977555,-1.0806,1.2889,0.559073,0.914385,0.802908,0.84906,0.977555,0.426692,-0.473308,0.819555,0.603193,0.0547293,0.108614,0.788268,-0.977002,-0.0557797,1.09655,2.55259,-0.50555,1.10341,-3.45151,-0.000184774,3.80747,-3.45485,0.00777841,3.86676,-0.641165,0.76423,0.347622,0.516885,0.480969,0.471496,0.580305,1
1.61103,-0.841856,-1.72244,-0.941929,2.0634,1.28883,-0.730445,1.61103,-0.841856,-1.72244,-0.941929,2.0634,1.28883,-0.730445,1.67453,-0.918301,-1.75821,-0.992527,2.0156,1.24171,-0.788713,-1.07437,1.29065,0.575049,0.905809,0.778224,0.844155,0.970975,-1.07437,1.29065,0.575049,0.905809,0.778224,0.844155,0.970975,0.415365,-0.47321,0.83137,0.605348,0.0432056,0.10539,0.787769,-0.97504,-0.00723518,1.08633,2.51853,-0.505746,1.14058,-3.40564,-0.0196338,3.71693,-3.42858,-0.00990927,3.7622,-0.634934,0.76445,0.357693,0.505981,0.477937,0.471123,0.582682,1
1.60028,-0.8278,-1.71496,-0.934209,2.07278,1.29716,-0.719418,1.60028,-0.8278,-1.71496,-0.934209,2.07278,1.29716,-0.719418,1.66288,-0.904441,-1.75188,-0.98323,2.02441,1.25015,-0.778168,-1.09205,1.29943,0.593724,0.87159,0.825326,0.791096,0.988702,-1.09205,1.29943,0.593724,0.87159,0.825326,0.791096,0.988702,0.404038,-0.4727,0.843034,0.607108,0.0319089,0.102244,0.787368,-0.975827,0.0313707,1.07452,2.48424,-0.506322,1.17686,-3.4287,-0.0575602,3.62785,-3.41717,-0.038597,3.67239,-0.625973,0.766408,0.369163,0.490215,0.48376,0.470099,0.587502,1
1.58982,-0.81525,-1.70875,-0.926477,2.0797,1.30362,-0.709697,1.58982,-0.81525,-1.70875,-0.926477,2.0797,1.30362,-0.709697,1.65254,-0.892027,-1.74611,-0.974983,2.0322,1.25778,-0.76871,-1.10514,1.33601,0.630198,0.880213,0.830701,0.826818,1.01896,-1.10514,1.33601,0.630198,0.880213,0.830701,0.826818,1.01896,0.393932,-0.471793,0.853339,0.608429,0.0216546,0.0996622,0.787028,-0.993412,0.0837059,1.09297,2.45014,-0.506731,1.21236,-3.40989,-0.0408888,3.54999,-3.41929,-0.0492245,3.58892,-0.62711,0.767766,0.373633,0.485061,0.475004,0.458446,0.590128,1
1.57924,-0.800914,-1.70103,-0.918433,2.08884,1.31247,-0.698386,1.57924,-0.800914,-1.70103,-0.918433,2.08884,1.31247,-0.698386,1.64098,-0.87782,-1.73922,-0.965964,2.04118,1.26649,-0.757807,-1.08366,1.33198,0.645918,0.845609,0.841591,0.816794,1.02227,-1.08366,1.33198,0.645918,0.845609,0.841591,0.816794,1.02227,0.382589,-0.470088,0.864927,0.609393,0.00985174,0.0969201,0.786861,-0.974039,0.137242,1.07116,2.41597,-0.507261,1.24665,-3.41713,-0.0530243,3.42861,-3.41351,-0.0469565,3.4893,-0.617376,0.769055,0.38195,0.475311,0.476576,0.459825,0.594211,1
1.56876,-0.787228,-1.69459,-0.910084,2.09778,1.32173,-0.687659,1.56876,-0.787228,-1.69459,-0.910084,2.09778,1.32173,-0.687659,1.62966,-0.86398,-1.73248,-0.95723,2.0497,1.2747,-0.747165,-1.06084,1.29762,0.631991,0.818907,0.798941,0.770086,0.997728,-1.06084,1.29762,0.631991,0.818907,0.798941,0.770086,0.997728,0.371601,-0.468025,0.876012,0.610143,-0.0015895,0.094618,0.78662,-0.944638,0.168479,1.02737,2.38233,-0.507783,1.28014,-3.36459,-0.0522137,3.3491,-3.39086,-0.052619,3.38886,-0.608977,0.767515,0.378906,0.471455,0.480838,0.470312,0.595056,1
1.55819,-0.77319,-1.68706,-0.902192,2.10606,1.32987,-0.676626,1.55819,-0.77319,-1.68706,-0.902192,2.10606,1.32987,-0.676626,1.61851,-0.85003,-1.72552,-0.948648,2.05836,1.28306,-0.736375,-1.04575,1.30795,0.652352,0.804632,0.811669,0.783314,1.01167,-1.04575,1.30795,0.652352,0.804632,0.811669,0.783314,1.01167,0.360707,-0.46538,0.88698,0.610452,-0.0132195,0.092503,0.786522,-0.934529,0.220417,1.01851,2.34846,-0.508362,1.31268,-3.38714,-0.0578344,3.25381,-3.37586,-0.055024,3.30145,-0.603202,0.768401,0.384598,0.464563,0.477067,0.468105,0.597486,1
1.5476,-0.75918,-1.68033,-0.893992,2.1136,1.33796,-0.6653,1.5476,-0.75918,-1.68033,-0.893992,2.1136,1.33796,-0.6653,1.60751,-0.836138,-1.71868,-0.940118,2.06708,1.29161,-0.725599,-1.03168,1.30249,0.64154,0.799801,0.817704,0.802146,1.01035,-1.03168,1.30249,0.64154,0.799801,0.817704,0.802146,1.01035,0.349921,-0.462339,0.897679,0.610499,-0.0249376,0.0906119,0.786422,-0.924298,0.255184,0.995792,2.31466,-0.50899,1.34419,-3.3798,-0.0628889,3.15098,-3.38347,-0.0603616,3.20239,-0.599105,0.76958,0.38355,0.461254,0.465266,0.463519,0.602994,1
1.53705,-0.745187,-1.67347,-0.885937,2.12208,1.34621,-0.654102,1.53705,-0.745187,-1.67347,-0.885937,2.12208,1.34621,-0.654102,1.5966,-0.822214,-1.71169,-0.931728,2.0757,1.30007,-0.714767,-1.02282,1.30553,0.655737,0.786577,0.808545,0.793404,1.01568,-1.02282,1.30553,0.655737,0.786577,0.808545,0.793404,1.01568,0.339283,-0.458813,0.908189,0.610212,-0.036679,0.089014,0.786367,-0.910895,0.298338,0.980561,2.28056,-0.509643,1.37465,-3.40927,-0.065273,3.04586,-3.39453,-0.064081,3.09842,-0.595436,0.770267,0.382193,0.457913,0.463793,0.461389,0.606646,1
1.52597,-0.731165,-1.66684,-0.878104,2.13038,1.35358,-0.642791,1.52597,-0.731165,-1.66684,-0.878104,2.13038,1.35358,-0.642791,1.58576,-0.808271,-1.70475,-0.923381,2.08408,1.30845,-0.703825,-1.01628,1.30731,0.650425,0.782638,0.786102,0.785827,1.02593,-1.01628,1.30731,0.650425,0.782638,0.786102,0.785827,1.02593,0.328798,-0.454875,0.918469,0.609676,-0.0483968,0.087807,0.786284,-0.898136,0.334341,0.961735,2.2468,-0.510171,1.40404,-3.37663,-0.052762,2.93951,-3.39295,-0.0590175,2.99268,-0.597915,0.771054,0.379052,0.452773,0.462909,0.451264,0.610334,1
1.51508,-0.717009,-1.66013,-0.870958,2.13832,1.36039,-0.631053,1.51508,-0.717009,-1.66013,-0.870958,2.13832,1.36039,-0.631053,1.57498,-0.794317,-1.69783,-0.915099,2.09249,1.31681,-0.692826,-1.01012,1.30834,0.648787,0.776581,0.788012,0.783083,1.03123,-1.01012,1.30834,0.648787,0.776581,0.788012,0.783083,1.03123,0.318445,-0.450558,0.928524,0.608872,-0.0601026,0.0868549,0.786205,-0.886371,0.368207,0.943123,2.2127,-0.510639,1.43258,-3.41003,-0.0468671,2.85425,-3.39333,-0.0498146,2.89688,-0.59903,0.773081,0.377003,0.441404,0.458259,0.435809,0.617731,1
1.50376,-0.702827,-1.65365,-0.864325,2.14692,1.36613,-0.619138,1.50376,-0.702827,-1.65365,-0.864325,2.14692,1.36613,-0.619138,1.56414,-0.780348,-1.69098,-0.906915,2.10087,1.32494,-0.681758,-1.01662,1.30974,0.642633,0.767259,0.785752,0.76269,1.03771,-1.01662,1.30974,0.642633,0.767259,0.785752,0.76269,1.03771,0.308222,-0.445928,0.938338,0.607866,-0.0716656,0.0862026,0.786086,-0.875983,0.39631,0.922944,2.17875,-0.510864,1.45996,-3.39491,-0.022465,2.73775,-3.40247,-0.0346661,2.796,-0.603777,0.775207,0.373255,0.425905,0.460501,0.41193,0.626203,1
1.4927,-0.688643,-1.64676,-0.858296,2.15595,1.37196,-0.607349,1.4927,-0.688643,-1.64676,-0.858296,2.15595,1.37196,-0.607349,1.55329,-0.766337,-1.68415,-0.898962,2.10915,1.33278,-0.670542,-1.0175,1.31364,0.639744,0.745744,0.776609,0.735149,1.05162,-1.0175,1.31364,0.639744,0.745744,0.776609,0.735149,1.05162,0.298227,-0.440927,0.947899,0.606572,-0.0830202,0.0859038,0.786002,-0.857032,0.429732,0.90167,2.14493,-0.511102,1.48658,-3.38216,-0.0237465,2.66193,-3.38854,-0.0231057,2.69984,-0.605887,0.776938,0.373888,0.406656,0.467969,0.391789,0.631931,1
1.48159,-0.674396,-1.64063,-0.852295,2.16462,1.37774,-0.59534,1.48159,-0.674396,-1.64063,-0.852295,2.16462,1.37774,-0.59534,1.54233,-0.752289,-1.67741,-0.8913,2.11751,1.34016,-0.659172,-1.02715,1.31718,0.632609,0.718359,0.783279,0.691718,1.06611,-1.02715,1.31718,0.632609,0.718359,0.783279,0.691718,1.06611,0.288463,-0.435636,0.957195,0.605018,-0.0940308,0.0858977,0.78596,-0.838236,0.456752,0.878786,2.11076,-0.511629,1.5121,-3.41651,-0.052774,2.55245,-3.39934,-0.0382602,2.60719,-0.607414,0.778931,0.367757,0.390048,0.471163,0.375826,0.638314,1
1.47009,-0.660072,-1.63452,-0.846815,2.17411,1.38286,-0.583501,1.47009,-0.660072,-1.63452,-0.846815,2.17411,1.38286,-0.583501,1.53136,-0.73821,-1.67063,-0.884,2.12601,1.34719,-0.647709,-1.02939,1.31999,0.6355,0.684494,0.797291,0.659555,1.07479,-1.02939,1.31999,0.6355,0.684494,0.797291,0.659555,1.07479,0.278967,-0.430013,0.96623,0.603141,-0.104763,0.0861161,0.786021,-0.815197,0.487758,0.856129,2.07677,-0.511918,1.53626,-3.39911,-0.0288963,2.41555,-3.40781,-0.0408351,2.484,-0.612692,0.781383,0.361078,0.371843,0.481031,0.356664,0.642077,1
1.45873,-0.645748,-1.62763,-0.842577,2.18408,1.38634,-0.571583,1.45873,-0.645748,-1.62763,-0.842577,2.18408,1.38634,-0.571583,1.52035,-0.724095,-1.66399,-0.876987,2.13455,1.35395,-0.636125,-1.03206,1.3235,0.622146,0.657541,0.80082,0.633562,1.0861,-1.03206,1.3235,0.622146,0.657541,0.80082,0.633562,1.0861,0.269744,-0.424099,0.974987,0.601014,-0.115209,0.0866414,0.786131,-0.792209,0.514568,0.831949,2.04305,-0.512388,1.55915,-3.37162,-0.0469625,2.28883,-3.38537,-0.0379294,2.35219,-0.616144,0.783464,0.36362,0.344099,0.495283,0.323879,0.645417,1
1.44821,-0.631397,-1.6203,-0.83942,2.19374,1.39027,-0.559528,1.44821,-0.631397,-1.6203,-0.83942,2.19374,1.39027,-0.559528,1.50923,-0.709933,-1.65747,-0.870313,2.1433,1.36035,-0.624484,-1.04242,1.32781,0.611247,0.625746,0.820505,0.599567,1.09141,-1.04242,1.32781,0.611247,0.625746,0.820505,0.599567,1.09141,0.260781,-0.41794,0.983477,0.598667,-0.125314,0.0873913,0.786293,-0.770442,0.53785,0.808281,2.00987,-0.512621,1.58128,-3.31898,-0.0232995,2.21275,-3.3453,-0.035131,2.25079,-0.610184,0.785358,0.3717,0.308927,0.504363,0.299254,0.649565,1
1.4372,-0.617014,-1.61351,-0.837458,2.20396,1.39219,-0.547566,1.4372,-0.617014,-1.61351,-0.837458,2.20396,1.39219,-0.547566,1.49806,-0.695735,-1.65087,-0.864178,2.15232,1.3661,-0.612783,-1.04728,1.33117,0.61893,0.575237,0.84571,0.539092,1.09716,-1.04728,1.33117,0.61893,0.575237,0.84571,0.539092,1.09716,0.252195,-0.411506,0.991704,0.595989,-0.134926,0.0883008,0.786635,-0.738017,0.564974,0.78461,1.97587,-0.513007,1.60244,-3.39944,-0.0385702,2.11679,-3.35921,-0.0309348,2.16477,-0.608619,0.78721,0.37365,0.267193,0.516353,0.260985,0.652165,1
1.42605,-0.602572,-1.60671,-0.837613,2.21458,1.39201,-0.535716,1.42605,-0.602572,-1.60671,-0.837613,2.21458,1.39201,-0.535716,1.48703,-0.681504,-1.64411,-0.858701,2.16148,1.37144,-0.601003,-1.0338,1.33429,0.633957,0.51344,0.858925,0.501375,1.10444,-1.0338,1.33429,0.633957,0.51344,0.858925,0.501375,1.10444,0.244095,-0.404697,0.999646,0.592846,-0.144149,0.0894085,0.787249,-0.69471,0.600637,0.7587,1.9423,-0.512871,1.62254,-3.35722,0.0135839,2.00945,-3.37833,-0.0124931,2.06312,-0.609825,0.789317,0.374017,0.21088,0.530945,0.205695,0.652871,1
1.41519,-0.587959,-1.60104,-0.841164,2.22506,1.38959,-0.523736,1.41519,-0.587959,-1.60104,-0.841164,2.22506,1.38959,-0.523736,1.47601,-0.667239,-1.63734,-0.854002,2.17088,1.37603,-0.589183,-1.03353,1.33743,0.634672,0.440551,0.880858,0.430346,1.10821,-1.03353,1.33743,0.634672,0.440551,0.880858,0.430346,1.10821,0.236529,-0.39764,1.00727,0.589346,-0.152708,0.0907077,0.788114,-0.64872,0.625711,0.729409,1.90811,-0.513338,1.64184,-3.41928,-0.0467002,1.93019,-3.38825,-0.0165582,1.96982,-0.608227,0.7928,0.36297,0.128386,0.541797,0.135603,0.654471,1
1.40633,-0.573427,-1.59453,-0.843463,2.23681,1.38812,-0.51177,1.40633,-0.573427,-1.59453,-0.843463,2.23681,1.38812,-0.51177,1.46496,-0.652935,-1.63056,-0.850377,2.18055,1.37957,-0.577356,-1.03608,1.34111,0.635275,0.339889,0.90627,0.331391,1.10884,-1.03608,1.34111,0.635275,0.339889,0.90627,0.331391,1.10884,0.229639,-0.390367,1.01455,0.585471,-0.160352,0.092197,0.78931,-0.590811,0.648939,0.695743,1.87466,-0.514313,1.65981,-3.34466,-0.0975609,1.7967,-3.38197,-0.0721306,1.86344,-0.586315,0.795079,0.360347,0.0691428,0.562654,0.0855251,0.65586,1
1.39721,-0.558909,-1.58832,-0.848218,2.24848,1.38257,-0.500021,1.39721,-0.558909,-1.58832,-0.848218,2.24848,1.38257,-0.500021,1.45395,-0.638562,-1.62403,-0.848339,2.19039,1.38179,-0.565495,-1.03221,1.34752,0.612232,0.191073,0.923155,0.207921,1.11202,-1.03221,1.34752,0.612232,0.191073,0.923155,0.207921,1.11202,0.223722,-0.382893,1.02135,0.581171,-0.166704,0.0940162,0.790956,-0.507802,0.671233,0.649859,1.84245,-0.515319,1.67686,-3.22073,-0.100529,1.70554,-3.28269,-0.099045,1.75112,-0.567428,0.796532,0.357155,0.00120652,0.580888,0.00785383,0.654742,1
1.38588,-0.544076,-1.58733,-0.852649,2.2605,1.36776,-0.488524,1.38588,-0.544076,-1.58733,-0.852649,2.2605,1.36776,-0.488524,1.44342,-0.624154,-1.61751,-0.84726,2.20066,1.38319,-0.553611,-0.987621,1.35083,0.611891,0.101128,0.962673,0.131377,1.1142,-0.987621,1.35083,0.611891,0.101128,0.962673,0.131377,1.1142,0.218604,-0.375165,1.02784,0.576324,-0.172286,0.0958667,0.793081,-0.4366,0.69821,0.618844,1.80785,-0.51543,1.69362,-3.46001,-0.0111818,1.67545,-3.34037,-0.0558555,1.6905,-0.575371,0.800783,0.301809,-0.0538823,0.598444,-0.154279,0.650875,1
1.37391,-0.529558,-1.59185,-0.853894,2.27212,1.35662,-0.478026,1.37391,-0.529558,-1.59185,-0.853894,2.27212,1.35662,-0.478026,1.43319,-0.609722,-1.61105,-0.847472,2.21124,1.38305,-0.541757,-0.958315,1.35311,0.605348,-0.0198679,0.991744,-0.0127744,1.11139,-0.958315,1.35311,0.605348,-0.0198679,0.991744,-0.0127744,1.11139,0.214454,-0.367301,1.03397,0.571042,-0.176593,0.0978119,0.795713,-0.353072,0.715924,0.58255,1.77422,-0.516355,1.70911,-3.36331,-0.0924706,1.5497,-3.41166,-0.0518262,1.61257,-0.5928,0.801634,0.192046,-0.0642153,0.608841,-0.264346,0.637309,1
1.36102,-0.515572,-1.5936,-0.856214,2.2871,1.34203,-0.467627,1.36102,-0.515572,-1.5936,-0.856214,2.2871,1.34203,-0.467627,1.42273,-0.595201,-1.6058,-0.848617,2.22214,1.37967,-0.529982,-0.981269,1.36142,0.492012,-0.107349,1.02173,-0.317128,1.10399,-0.981269,1.36142,0.492012,-0.107349,1.02173,-0.317128,1.10399,0.211259,-0.359865,1.03979,0.56617,-0.178562,0.100008,0.798477,-0.279644,0.683709,0.547776,1.74077,-0.516909,1.72334,-3.34492,-0.0554144,1.42261,-3.35411,-0.0739425,1.48615,-0.617041,0.796294,0.121993,-0.0759688,0.649641,-0.376405,0.623545,1
1.34763,-0.501577,-1.59475,-0.852783,2.29858,1.34001,-0.455241,1.34763,-0.501577,-1.59475,-0.852783,2.29858,1.34001,-0.455241,1.41193,-0.580681,-1.60272,-0.849784,2.23319,1.37457,-0.518489,-1.01234,1.36134,0.289446,-0.109429,1.03666,-0.478074,1.0775,-1.01234,1.36134,0.289446,-0.109429,1.03666,-0.478074,1.0775,0.208548,-0.353084,1.04526,0.562279,-0.178959,0.102576,0.800809,-0.247675,0.625357,0.51105,1.70713,-0.517529,1.7369,-3.36357,-0.0619829,1.35573,-3.35425,-0.0586987,1.38917,-0.643031,0.791035,0.0797146,-0.0299837,0.653896,-0.345589,0.632485,1
1.33379,-0.487569,-1.60282,-0.838747,2.31146,1.3378,-0.443547,1.33379,-0.487569,-1.60282,-0.838747,2.31146,1.3378,-0.443547,1.40067,-0.566279,-1.6007,-0.851207,2.24512,1.36737,-0.507239,-1.05574,1.35029,0.188973,-0.133345,1.11796,-0.674866,1.05481,-1.05574,1.35029,0.188973,-0.133345,1.11796,-0.674866,1.05481,0.206215,-0.346938,1.05049,0.558986,-0.17783,0.104902,0.803061,-0.22162,0.572965,0.485368,1.67358,-0.517787,1.74921,-3.35521,-0.0258267,1.23154,-3.35939,-0.0439048,1.29364,-0.668841,0.7871,-0.0211937,0.124601,0.663398,-0.295739,0.636911,1
1.31937,-0.473208,-1.61379,-0.838413,2.32134,1.34011,-0.43183,1.31937,-0.473208,-1.61379,-0.838413,2.32134,1.34011,-0.43183,1.38894,-0.551967,-1.59938,-0.851555,2.25694,1.36132,-0.495737,-1.10003,1.34182,0.123517,-0.0326863,1.10881,-0.567429,1.07837,-1.10003,1.34182,0.123517,-0.0326863,1.10881,-0.567429,1.07837,0.203426,-0.340977,1.05564,0.556147,-0.177284,0.107399,0.804821,-0.262419,0.551739,0.479859,1.64014,-0.5178,1.76071,-3.34415,-0.00123978,1.14942,-3.34968,-0.0135332,1.19048,-0.695709,0.78759,-0.144054,0.131419,0.644004,-0.212056,0.639063,1
1.30755,-0.460703,-1.62354,-0.829748,2.33047,1.36376,-0.42154,1.30755,-0.460703,-1.62354,-0.829748,2.33047,1.36376,-0.42154,1.37817,-0.539175,-1.59931,-0.850178,2.26767,1.35634,-0.485405,-1.18198,1.37422,-0.093576,0.304395,1.16608,-0.493923,1.11463,-1.18198,1.37422,-0.093576,0.304395,1.16608,-0.493923,1.11463,0.200373,-0.335959,1.06035,0.554366,-0.177226,0.109656,0.805758,-0.394949,0.491,0.526972,1.60649,-0.518284,1.77136,-3.36466,-0.0483751,1.06544,-3.35441,-0.0248075,1.10743,-0.706192,0.784713,-0.242356,0.204294,0.628055,0.0741812,0.638648,1
1.29344,-0.446899,-1.63953,-0.839389,2.34013,1.37692,-0.409884,1.29344,-0.446899,-1.63953,-0.839389,2.34013,1.37692,-0.409884,1.36517,-0.524583,-1.60251,-0.847575,2.27954,1.35275,-0.473554,-1.21958,1.36807,-0.300349,0.243972,1.1132,-0.336631,1.11107,-1.21958,1.36807,-0.300349,0.243972,1.1132,-0.336631,1.11107,0.196452,-0.330864,1.06529,0.553745,-0.177518,0.113085,0.805646,-0.372849,0.460755,0.465347,1.57319,-0.518516,1.78103,-3.32998,-0.0232935,0.966561,-3.34732,-0.0358343,1.016,-0.717297,0.776842,-0.370194,0.0818664,0.605938,0.241628,0.636704,1
1.28039,-0.433957,-1.6493,-0.86035,2.34593,1.3917,-0.398348,1.28039,-0.433957,-1.6493,-0.86035,2.34593,1.3917,-0.398348,1.35242,-0.510453,-1.60716,-0.843632,2.29081,1.35519,-0.462049,-1.19478,1.32478,-0.436179,0.369715,1.05627,0.228306,1.07871,-1.19478,1.32478,-0.436179,0.369715,1.05627,0.228306,1.07871,0.191642,-0.325631,1.06972,0.553483,-0.180698,0.117079,0.804548,-0.44207,0.458526,0.428736,1.53988,-0.518937,1.78891,-3.33126,-0.0420153,0.787938,-3.33062,-0.0326544,0.877249,-0.72034,0.764962,-0.421419,-0.167176,0.551278,0.365085,0.63701,1
1.27072,-0.420914,-1.65281,-0.876441,2.35748,1.40093,-0.38775,1.27072,-0.420914,-1.65281,-0.876441,2.35748,1.40093,-0.38775,1.33937,-0.496395,-1.61432,-0.842693,2.30172,1.36,-0.45051,-1.22336,1.3181,-0.671287,0.0880036,1.02304,0.45063,1.08189,-1.22336,1.3181,-0.671287,0.0880036,1.02304,0.45063,1.08189,0.18796,-0.320628,1.07289,0.553286,-0.183112,0.122198,0.803376,-0.347387,0.429912,0.311137,1.507,-0.519175,1.7959,-3.2881,-0.0238717,0.699723,-3.30968,-0.0329435,0.74383,-0.686502,0.754808,-0.384857,-0.337472,0.557659,0.409371,0.627602,1
1.26558,-0.408366,-1.6569,-0.885087,2.36977,1.4133,-0.378125,1.26558,-0.408366,-1.6569,-0.885087,2.36977,1.4133,-0.378125,1.32633,-0.482583,-1.62206,-0.846599,2.3115,1.36701,-0.438972,-1.22336,1.29495,-0.725524,-0.366186,0.917041,0.6575,1.08183,-1.22336,1.29495,-0.725524,-0.366186,0.917041,0.6575,1.08183,0.186158,-0.315471,1.07455,0.552184,-0.184388,0.128468,0.802864,-0.18273,0.437714,0.168352,1.47435,-0.519452,1.80237,-3.26511,-0.0276566,0.647008,-3.2766,-0.0257641,0.673366,-0.607483,0.742174,-0.348373,-0.38488,0.582757,0.462957,0.608473,1
1.2595,-0.396551,-1.66886,-0.884389,2.37855,1.42891,-0.369469,1.2595,-0.396551,-1.66886,-0.884389,2.37855,1.42891,-0.369469,1.31403,-0.468942,-1.62886,-0.8532,2.32167,1.37451,-0.427642,-1.15318,1.27901,-0.637699,-0.618909,0.953721,0.703588,1.06233,-1.15318,1.27901,-0.637699,-0.618909,0.953721,0.703588,1.06233,0.185575,-0.310089,1.07553,0.549907,-0.185035,0.134517,0.803287,-0.06928,0.461597,0.102435,1.44106,-0.519737,1.80764,-3.32904,-0.028497,0.52613,-3.29707,-0.0280768,0.586569,-0.545319,0.723912,-0.399994,-0.311888,0.568785,0.543936,0.581721,1
1.25187,-0.384454,-1.68385,-0.887091,2.38154,1.44328,-0.361717,1.25187,-0.384454,-1.68385,-0.887091,2.38154,1.44328,-0.361717,1.30331,-0.455543,-1.63506,-0.860253,2.33231,1.38309,-0.416688,-1.00482,1.25633,-0.58146,-0.661329,0.99766,0.804525,1.02697,-1.00482,1.25633,-0.58146,-0.661329,0.99766,0.804525,1.02697,0.185516,-0.304457,1.07626,0.546735,-0.186164,0.140083,0.804239,-0.0136417,0.486515,0.07878,1.40777,-0.520159,1.81207,-3.32934,-0.0422418,0.443614,-3.32919,-0.0353694,0.484872,-0.514353,0.710889,-0.487835,-0.268375,0.49226,0.601844,0.549712,1
1.24006,-0.371318,-1.69812,-0.897035,2.38071,1.45474,-0.352369,1.24006,-0.371318,-1.69812,-0.897035,2.38071,1.45474,-0.352369,1.29362,-0.442494,-1.64254,-0.865592,2.34254,1.39323,-0.406244,-0.908711,1.22347,-0.700958,-0.500563,0.958964,0.950149,0.979309,-0.908711,1.22347,-0.700958,-0.500563,0.958964,0.950149,0.979309,0.185063,-0.299051,1.07694,0.544106,-0.188267,0.145741,0.804527,-0.0468045,0.461294,0.0793387,1.37458,-0.520995,1.81528,-3.31836,-0.0835478,0.320864,-3.32385,-0.0628948,0.382239,-0.535597,0.711763,-0.555843,-0.314429,0.38173,0.615103,0.538742,1
1.22825,-0.359627,-1.7115,-0.896751,2.38284,1.4646,-0.344548,1.22825,-0.359627,-1.7115,-0.896751,2.38284,1.4646,-0.344548,1.28438,-0.429655,-1.65168,-0.870347,2.35116,1.4043,-0.396394,-0.865749,1.20373,-0.856706,-0.445879,0.808815,1.03804,0.923466,-0.865749,1.20373,-0.856706,-0.445879,0.808815,1.03804,0.923466,0.1847,-0.293904,1.07731,0.542366,-0.190424,0.152241,0.803991,-0.0449977,0.431034,0.0545267,1.34163,-0.521644,1.81751,-3.29548,-0.0649273,0.223351,-3.30692,-0.0742376,0.272107,-0.561311,0.700289,-0.598282,-0.264037,0.316765,0.603066,0.518461,1
1.21353,-0.348147,-1.72397,-0.862945,2.38303,1.47472,-0.337733,1.21353,-0.348147,-1.72397,-0.862945,2.38303,1.47472,-0.337733,1.27458,-0.416751,-1.66195,-0.876251,2.3577,1.41545,-0.386656,-0.919309,1.20991,-0.963302,-0.553489,0.612787,1.04609,0.913066,-0.919309,1.20991,-0.963302,-0.553489,0.612787,1.04609,0.913066,0.18494,-0.288973,1.07714,0.54131,-0.191551,0.160008,0.802925,-0.00297022,0.405453,0.00381779,1.30858,-0.52264,1.81936,-3.30439,-0.0995994,0.184977,-3.29993,-0.0822634,0.204164,-0.610539,0.686039,-0.62018,0.133062,0.253342,0.592655,0.489235,1
1.19854,-0.337868,-1.73673,-0.841467,2.38839,1.48246,-0.332342,1.19854,-0.337868,-1.73673,-0.841467,2.38839,1.48246,-0.332342,1.26433,-0.404115,-1.67291,-0.880785,2.36326,1.42633,-0.377342,-0.960795,1.18475,-1.02774,-0.425175,0.521415,1.01935,0.873306,-0.960795,1.18475,-1.02774,-0.425175,0.521415,1.01935,0.873306,0.18471,-0.284439,1.07708,0.541281,-0.19266,0.168102,0.801024,-0.0512454,0.366839,0.0164133,1.27568,-0.523541,1.82,-3.29068,-0.0900626,0.0634432,-3.29753,-0.094831,0.12421,-0.657955,0.662473,-0.638176,0.393184,0.251334,0.561367,0.449998,1
1.18112,-0.329337,-1.74979,-0.850991,2.4027,1.48563,-0.31925,1.18112,-0.329337,-1.74979,-0.850991,2.4027,1.48563,-0.31925,1.25309,-0.391735,-1.68421,-0.876839,2.36763,1.43703,-0.36858,-1.05371,1.16076,-1.0589,0.370014,0.410089,1.00367,0.821485,-1.05371,1.16076,-1.0589,0.370014,0.410089,1.00367,0.821485,0.181317,-0.279824,1.07891,0.543733,-0.196745,0.176413,0.79657,-0.334056,0.36783,0.206379,1.24199,-0.524014,1.81953,-3.36831,-0.0472844,-0.0472069,-3.32949,-0.0686735,0.00811815,-0.71973,0.623985,-0.655895,0.258475,0.350671,0.485936,0.493306,1
1.16811,-0.319456,-1.76286,-0.896767,2.41346,1.48778,-0.311245,1.16811,-0.319456,-1.76286,-0.896767,2.41346,1.48778,-0.311245,1.24103,-0.37982,-1.69582,-0.869015,2.37223,1.44708,-0.360564,-1.1315,1.11719,-1.08933,0.733607,0.43055,0.94225,0.751572,-1.1315,1.11719,-1.08933,0.733607,0.43055,0.94225,0.751572,0.176367,-0.275469,1.08156,0.547628,-0.201875,0.18442,0.790784,-0.476181,0.345384,0.28754,1.20907,-0.524366,1.81777,-3.29274,-0.0352204,-0.175798,-3.33052,-0.0412524,-0.111502,-0.729123,0.603635,-0.670413,-0.277526,0.412345,0.406942,0.493198,1
1.15631,-0.304244,-1.77493,-0.919201,2.42768,1.48951,-0.302693,1.15631,-0.304244,-1.77493,-0.919201,2.42768,1.48951,-0.302693,1.22778,-0.368653,-1.70776,-0.865028,2.37897,1.45561,-0.351426,-1.24241,1.04701,-1.11935,0.373798,0.632046,0.799392,0.856857,-1.24241,1.04701,-1.11935,0.373798,0.632046,0.799392,0.856857,0.172289,-0.272403,1.08327,0.55089,-0.204477,0.191458,0.786163,-0.406152,0.238506,0.189696,1.1769,-0.524625,1.81515,-3.21656,-0.025928,-0.261915,-3.25465,-0.0305742,-0.218856,-0.714674,0.64409,-0.671674,-0.541725,0.487076,0.339015,0.487328,1
1.15124,-0.289143,-1.78487,-0.924584,2.43965,1.49915,-0.299786,1.15124,-0.289143,-1.78487,-0.924584,2.43965,1.49915,-0.299786,1.21458,-0.357771,-1.71995,-0.872049,2.3866,1.46272,-0.342538,-1.23736,1.02033,-1.14282,-0.658265,0.715384,0.667164,0.833344,-1.23736,1.02033,-1.14282,-0.658265,0.715384,0.667164,0.833344,0.17212,-0.270729,1.08235,0.552495,-0.201841,0.198008,0.784093,-0.0697252,0.123377,-0.0757474,1.14351,-0.5251,1.81166,-3.33934,-0.0475347,-0.348461,-3.27795,-0.0367314,-0.305188,-0.633396,0.686276,-0.649185,-0.525349,0.530563,0.364249,0.42752,1
1.14326,-0.276455,-1.79523,-0.930882,2.45335,1.50158,-0.295545,1.14326,-0.276455,-1.79523,-0.930882,2.45335,1.50158,-0.295545,1.20169,-0.345931,-1.73211,-0.882479,2.39568,1.46865,-0.333724,-1.20845,1.11008,-1.14019,-0.977869,0.851897,0.555505,0.82633,-1.20845,1.11008,-1.14019,-0.977869,0.851897,0.555505,0.82633,0.173363,-0.269044,1.0809,0.55336,-0.197472,0.204068,0.783041,0.0550537,0.132375,-0.134049,1.1108,-0.525453,1.80774,-3.27053,-0.0352323,-0.392783,-3.30493,-0.0413835,-0.370622,-0.584328,0.694755,-0.631228,-0.484033,0.576685,0.32936,0.381793,1
1.13286,-0.264559,-1.80917,-0.943979,2.46161,1.50985,-0.291959,1.13286,-0.264559,-1.80917,-0.943979,2.46161,1.50985,-0.291959,1.19053,-0.333369,-1.74378,-0.891792,2.40541,1.47539,-0.326217,-1.04628,1.1777,-1.09412,-0.873203,0.91188,0.632529,0.703839,-1.04628,1.1777,-1.09412,-0.873203,0.91188,0.632529,0.703839,0.174677,-0.26644,1.07979,0.553895,-0.19445,0.209791,0.781906,0.0733094,0.21643,-0.0964614,1.07782,-0.526346,1.80226,-3.29834,-0.0893354,-0.547314,-3.28444,-0.0622839,-0.470048,-0.576718,0.688098,-0.653857,-0.521866,0.561981,0.34459,0.342581,1
1.12515,-0.251664,-1.82068,-0.953121,2.47087,1.52402,-0.286219,1.12515,-0.251664,-1.82068,-0.953121,2.47087,1.52402,-0.286219,1.18007,-0.32078,-1.75516,-0.900439,2.41601,1.48119,-0.319432,-0.980387,1.18033,-1.06707,-0.810672,0.994264,0.543137,0.636102,-0.980387,1.18033,-1.06707,-0.810672,0.994264,0.543137,0.636102,0.175914,-0.263858,1.07895,0.554562,-0.191537,0.214729,0.780811,0.0704263,0.21954,-0.0737362,1.04501,-0.526904,1.79571,-3.28054,-0.0557482,-0.654805,-3.28944,-0.0725418,-0.601059,-0.549181,0.691156,-0.655159,-0.526824,0.548561,0.428311,0.332133,1
1.11283,-0.240554,-1.83292,-0.961756,2.4818,1.52768,-0.280528,1.11283,-0.240554,-1.83292,-0.961756,2.4818,1.52768,-0.280528,1.16963,-0.308344,-1.76711,-0.91007,2.4261,1.48753,-0.313355,-0.979181,1.16594,-1.11998,-0.902964,0.945547,0.594495,0.569765,-0.979181,1.16594,-1.11998,-0.902964,0.945547,0.594495,0.569765,0.177389,-0.261657,1.07766,0.555625,-0.188257,0.219788,0.779444,0.0873925,0.184082,-0.115845,1.01233,-0.527515,1.78804,-3.26834,-0.0611067,-0.767279,-3.27444,-0.0584275,-0.711042,-0.567987,0.677897,-0.658135,-0.516864,0.557049,0.401524,0.328275,1
1.10275,-0.230908,-1.8458,-0.972687,2.49302,1.53215,-0.279349,1.10275,-0.230908,-1.8458,-0.972687,2.49302,1.53215,-0.279349,1.15979,-0.295806,-1.77896,-0.919593,2.436,1.4956,-0.307353,-0.922339,1.17547,-1.11098,-0.892833,0.928491,0.756761,0.562771,-0.922339,1.17547,-1.11098,-0.892833,0.928491,0.756761,0.562771,0.178814,-0.25916,1.07622,0.556317,-0.185843,0.22505,0.778027,0.0880539,0.207859,-0.125515,0.97965,-0.527805,1.77943,-3.26787,-0.0290215,-0.860965,-3.2681,-0.0450641,-0.814122,-0.570383,0.648986,-0.668391,-0.530947,0.570187,0.365487,0.280036,1
1.09438,-0.219879,-1.85777,-0.982638,2.50388,1.54345,-0.276909,1.09438,-0.219879,-1.85777,-0.982638,2.50388,1.54345,-0.276909,1.1494,-0.283585,-1.7909,-0.928919,2.44613,1.5027,-0.301419,-0.973914,1.14586,-1.11914,-0.874416,0.949865,0.665316,0.556317,-0.973914,1.14586,-1.11914,-0.874416,0.949865,0.665316,0.556317,0.179944,-0.257217,1.07481,0.557545,-0.182946,0.229882,0.77642,0.0575843,0.160893,-0.124421,0.947312,-0.528529,1.76992,-3.23386,-0.0724196,-0.951684,-3.25086,-0.0507206,-0.906324,-0.550229,0.637059,-0.668746,-0.537185,0.5775,0.407568,0.245097,1
1.13594,-0.222989,-1.86932,-0.979567,2.51845,1.57024,-0.286367,1.13594,-0.222989,-1.86932,-0.979567,2.51845,1.57024,-0.286367,1.13908,-0.271933,-1.80304,-0.938601,2.45651,1.50921,-0.296537,-0.967475,1.09245,-1.13861,-0.907697,0.972389,0.610806,0.457702,-0.967475,1.09245,-1.13861,-0.907697,0.972389,0.610806,0.457702,0.180968,-0.255946,1.07323,0.559397,-0.179658,0.234059,0.774606,0.0458728,0.103765,-0.144157,0.932333,-0.544677,1.7411,-1.49791,-1.61483,-2.88199,-2.36588,-0.843626,-1.91684,-0.0314666,0.489439,-0.662784,-0.409663,0.619396,0.610311,0.101698,1
1.06934,-0.212578,-1.88483,-0.981826,2.52058,1.55176,-0.290916,1.06934,-0.212578,-1.88483,-0.981826,2.52058,1.55176,-0.290916,1.1292,-0.260418,-1.81515,-0.948342,2.46699,1.51679,-0.292195,-0.927104,1.07953,-1.13504,-0.913274,0.982569,0.710135,0.407057,-0.927104,1.07953,-1.13504,-0.913274,0.982569,0.710135,0.407057,0.181878,-0.254682,1.0715,0.56122,-0.176927,0.238092,0.772685,0.0389391,0.102273,-0.15613,0.882212,-0.529436,1.74755,-5.01207,1.52416,0.645339,-3.25499,-0.0453353,-1.11833,-0.598601,0.478408,-0.696827,-0.334842,0.535984,0.349718,0.0127932,1
1.06337,-0.199452,-1.89336,-1.0072,2.52873,1.51657,-0.285201,1.06337,-0.199452,-1.89336,-1.0072,2.52873,1.51657,-0.285201,1.13069,-0.252139,-1.82713,-0.955249,2.47837,1.52861,-0.290906,0.139818,0.776244,-1.12346,-0.647575,1.06721,1.10863,0.120868,0.139818,0.776244,-1.12346,-0.647575,1.06721,1.10863,0.120868,0.183211,-0.252655,1.06973,0.559994,-0.178944,0.239665,0.772623,0.128248,0.171717,-0.153188,0.85027,-0.529932,1.73492,-3.19425,-0.0496566,-1.2627,-4.10316,0.737253,-0.308681,-0.673214,0.526865,-0.662339,-0.5195,0.503605,-0.120399,0.0570536,1
1.06257,-0.188676,-1.90556,-1.00723,2.54505,1.5664,-0.26872,1.06257,-0.188676,-1.90556,-1.00723,2.54505,1.5664,-0.26872,1.11712,-0.243388,-1.83989,-0.961128,2.48771,1.53373,-0.290908,-1.27235,0.820454,-1.19662,-0.551178,0.875498,0.480041,-0.000204451,-1.27235,0.820454,-1.19662,-0.551178,0.875498,0.480041,-0.000204451,0.181358,-0.25373,1.0687,0.56655,-0.176312,0.242642,0.767502,-0.228739,-0.106818,-0.0928302,0.817701,-0.530521,1.72153,-3.2569,-0.0589192,-1.33945,-3.22557,-0.0542879,-1.30107,-0.545486,0.547123,-0.656654,-0.46103,0.573469,0.326743,0.221882,1
1.07338,-0.186209,-1.91558,-1.00591,2.56208,1.58346,-0.271774,1.07338,-0.186209,-1.91558,-1.00591,2.56208,1.58346,-0.271774,1.10523,-0.233669,-1.85172,-0.971319,2.49678,1.52993,-0.289646,-1.11472,0.911169,-1.10892,-0.955458,0.850753,-0.355876,0.118367,-1.11472,0.911169,-1.10892,-0.955458,0.850753,-0.355876,0.118367,0.182319,-0.255436,1.06738,0.572318,-0.168134,0.244224,0.764551,0.00920005,-0.138492,-0.141482,0.784776,-0.531913,1.70755,-3.29248,-0.139195,-1.39796,-3.27469,-0.099057,-1.3687,-0.318492,0.474604,-0.638608,-0.345871,0.652964,0.535288,0.178717,1
1.03854,-0.179484,-1.93359,-1.02231,2.56715,1.57013,-0.291256,1.03854,-0.179484,-1.93359,-1.02231,2.56715,1.57013,-0.291256,1.09579,-0.223717,-1.86363,-0.979262,2.50746,1.538,-0.285017,-0.884696,0.933116,-1.11653,-0.744771,1.00112,0.756344,0.433972,-0.884696,0.933116,-1.11653,-0.744771,1.00112,0.756344,0.433972,0.181899,-0.254969,1.06585,0.574417,-0.16641,0.24729,0.762365,-0.0756802,0.0325443,-0.136289,0.753449,-0.529536,1.69294,-3.13267,0.237787,-1.46068,-3.21257,0.049296,-1.42932,-0.572512,0.442333,-0.699598,-0.430431,0.596869,0.321251,-0.0623828,1
1.03085,-0.198891,-1.94368,-1.03787,2.5784,1.56467,-0.310687,1.03085,-0.198891,-1.94368,-1.03787,2.5784,1.56467,-0.310687,1.09083,-0.21542,-1.87512,-0.985156,2.51954,1.54806,-0.282088,-0.464818,0.777865,-1.07742,-0.552549,1.13272,0.942818,0.274642,-0.464818,0.777865,-1.07742,-0.552549,1.13272,0.942818,0.274642,0.181099,-0.254167,1.06459,0.575449,-0.167447,0.248856,0.760848,-0.0833772,0.0619116,-0.108533,0.720952,-0.530467,1.6764,-3.2497,-0.093168,-1.65439,-3.19119,0.0723094,-1.55753,-0.599823,0.165296,-0.685565,-0.527165,0.588595,0.166168,-0.285995,1
1.02811,-0.189971,-1.95595,-1.02069,2.58513,1.60007,-0.294476,1.02811,-0.189971,-1.95595,-1.02069,2.58513,1.60007,-0.294476,1.07927,-0.207471,-1.88805,-0.993373,2.53007,1.55294,-0.284116,-1.08455,0.745316,-1.21261,-0.770473,0.987324,0.457706,-0.190134,-1.08455,0.745316,-1.21261,-0.770473,0.987324,0.457706,-0.190134,0.179549,-0.256095,1.06289,0.58207,-0.164393,0.250108,0.756053,-0.196706,-0.173427,-0.162652,0.688252,-0.53398,1.65901,-3.26998,-0.351244,-1.73881,-3.25984,-0.222206,-1.6966,-0.511584,0.175005,-0.678943,-0.273169,0.5506,0.471296,-0.103599,1
1.01112,-0.205061,-1.96965,-1.00911,2.59212,1.60945,-0.285265,1.01112,-0.205061,-1.96965,-1.00911,2.59212,1.60945,-0.285265,1.06935,-0.203561,-1.89931,-1.0016,2.53959,1.5561,-0.287978,-1.02535,0.124364,-1.18148,-0.965884,1.03341,0.228329,-0.60475,-1.02535,0.124364,-1.18148,-0.965884,1.03341,0.228329,-0.60475,0.177398,-0.260028,1.06079,0.589023,-0.16093,0.249086,0.751738,-0.337401,-0.584556,-0.305572,0.655787,-0.534355,1.64063,-3.24656,-0.0375807,-1.83784,-3.25827,-0.194412,-1.78832,-0.582335,-0.0150052,-0.703352,-0.075067,0.525244,0.533507,0.0271335,1
1.00025,-0.226568,-1.98317,-1.04375,2.59374,1.60465,-0.325174,1.00025,-0.226568,-1.98317,-1.04375,2.59374,1.60465,-0.325174,1.06023,-0.200555,-1.91184,-1.00582,2.54967,1.56583,-0.289416,-0.855439,0.281855,-1.17463,-0.395879,0.944423,0.911894,-0.134752,-0.855439,0.281855,-1.17463,-0.395879,0.944423,0.911894,-0.134752,0.173175,-0.263097,1.05913,0.594775,-0.161727,0.249154,0.747,-0.414276,-0.286032,-0.152625,0.623669,-0.534878,1.62189,-3.21177,-0.0523031,-1.87391,-3.22917,-0.0449419,-1.85587,-0.599781,-0.260139,-0.713297,-0.379248,0.440683,0.388261,-0.357584,1
0.998825,-0.24407,-1.99351,-1.04528,2.59374,1.61839,-0.333201,0.998825,-0.24407,-1.99351,-1.04528,2.59374,1.61839,-0.333201,1.04937,-0.201551,-1.92463,-1.00655,2.55906,1.57548,-0.288497,-1.01852,-0.0934664,-1.19891,-0.0681199,0.880438,0.904769,0.0860813,-1.01852,-0.0934664,-1.19891,-0.0681199,0.880438,0.904769,0.0860813,0.166185,-0.268162,1.05782,0.601261,-0.163066,0.248369,0.741759,-0.669369,-0.46643,-0.123486,0.591212,-0.535579,1.60206,-3.24574,-0.0700295,-1.98301,-3.22875,-0.0611663,-1.92846,-0.50541,-0.425184,-0.6888,-0.387282,0.346856,0.429117,-0.447034,1
0.986091,-0.249886,-2.0055,-1.00558,2.60514,1.638,-0.333349,0.986091,-0.249886,-2.0055,-1.00558,2.60514,1.638,-0.333349,1.0385,-0.207085,-1.93758,-1.01478,2.56673,1.58193,-0.29661,-1.01863,-0.518846,-1.21416,-0.771483,0.719216,0.60511,-0.760662,-1.01863,-0.518846,-1.21416,-0.771483,0.719216,0.60511,-0.760662,0.159681,-0.277766,1.05383,0.611607,-0.160183,0.244087,0.735323,-0.647245,-0.852466,-0.403309,0.558558,-0.536162,1.58073,-3.26536,-0.0583351,-2.13318,-3.25555,-0.0641823,-2.05809,-0.524118,-0.428012,-0.679258,0.0919868,0.384151,0.560679,-0.367391,1
0.983517,-0.269313,-2.01773,-1.0368,2.61464,1.64533,-0.349018,0.983517,-0.269313,-2.01773,-1.0368,2.61464,1.64533,-0.349018,1.02973,-0.215266,-1.94995,-1.02153,2.5727,1.58999,-0.304704,-0.822886,-0.767052,-1.15998,-0.632559,0.560279,0.756129,-0.758878,-0.822886,-0.767052,-1.15998,-0.632559,0.560279,0.756129,-0.758878,0.152418,-0.28773,1.04954,0.621235,-0.158523,0.239512,0.729089,-0.704301,-0.88965,-0.429803,0.526195,-0.536727,1.5583,-3.23628,-0.0565052,-2.24254,-3.25082,-0.0574201,-2.18786,-0.462088,-0.540464,-0.677791,-0.152759,0.419313,0.553341,-0.443134,1
0.97129,-0.283707,-2.02938,-1.05051,2.6145,1.64435,-0.359174,0.97129,-0.283707,-2.02938,-1.05051,2.6145,1.64435,-0.359174,1.02007,-0.222924,-1.96224,-1.018,2.57988,1.60061,-0.31104,-0.904984,-0.718014,-1.15218,0.330698,0.672783,0.995576,-0.594096,-0.904984,-0.718014,-1.15218,0.330698,0.672783,0.995576,-0.594096,0.142208,-0.294844,1.04801,0.630805,-0.162407,0.236594,0.720924,-0.954062,-0.654643,-0.149917,0.494619,-0.53713,1.53525,-3.15759,-0.040251,-2.30523,-3.19693,-0.0483781,-2.27389,-0.487838,-0.607826,-0.671486,-0.325148,0.346208,0.437424,-0.481338,1
0.958466,-0.301756,-2.04315,-1.06809,2.62088,1.65974,-0.366889,0.958466,-0.301756,-2.04315,-1.06809,2.62088,1.65974,-0.366889,1.01199,-0.233185,-1.97451,-1.02216,2.58757,1.6105,-0.319441,-0.758176,-0.962084,-1.15086,-0.38997,0.720829,0.927394,-0.787635,-0.758176,-0.962084,-1.15086,-0.38997,0.720829,0.927394,-0.787635,0.133071,-0.304836,1.04379,0.640315,-0.162956,0.230879,0.714239,-0.858225,-0.895319,-0.422987,0.462496,-0.538177,1.5112,-3.21233,-0.104779,-2.40537,-3.18496,-0.072515,-2.3553,-0.535214,-0.685708,-0.686396,-0.45936,0.333165,0.492352,-0.474485,1
0.952065,-0.313782,-2.05608,-1.08348,2.62185,1.67634,-0.375825,0.952065,-0.313782,-2.05608,-1.08348,2.62185,1.67634,-0.375825,1.00299,-0.24436,-1.98665,-1.02843,2.59352,1.61799,-0.32823,-0.844054,-1.0478,-1.13807,-0.588089,0.558579,0.702066,-0.824058,-0.844054,-1.0478,-1.13807,-0.588089,0.558579,0.702066,-0.824058,0.124056,-0.315902,1.03875,0.650515,-0.161076,0.224785,0.707359,-0.861332,-0.980938,-0.508857,0.430972,-0.538579,1.48593,-3.15239,-0.0401616,-2.52681,-3.18236,-0.0724703,-2.46609,-0.509199,-0.694216,-0.694338,-0.550531,0.283222,0.583506,-0.475948,1
0.941793,-0.330818,-2.06723,-1.09281,2.62997,1.68234,-0.387218,0.941793,-0.330818,-2.06723,-1.09281,2.62997,1.68234,-0.387218,0.993138,-0.257056,-1.99915,-1.0372,2.59958,1.62723,-0.336781,-0.923315,-1.19037,-1.17183,-0.822617,0.567417,0.865829,-0.801788,-0.923315,-1.19037,-1.17183,-0.822617,0.567417,0.865829,-0.801788,0.114319,-0.328076,1.03233,0.66075,-0.158566,0.218023,0.700523,-0.929273,-1.07503,-0.643557,0.399,-0.538644,1.45967,-3.19724,-0.00648499,-2.62605,-3.17482,-0.0233233,-2.57643,-0.51345,-0.737615,-0.680815,-0.556038,0.303958,0.551177,-0.504363,1
0.930059,-0.345122,-2.08074,-1.10813,2.63945,1.6887,-0.399095,0.930059,-0.345122,-2.08074,-1.10813,2.63945,1.6887,-0.399095,0.984052,-0.269604,-2.01174,-1.04744,2.6045,1.63809,-0.345418,-0.85183,-1.17648,-1.18083,-0.959825,0.461881,1.01865,-0.809749,-0.85183,-1.17648,-1.18083,-0.959825,0.461881,1.01865,-0.809749,0.105012,-0.339819,1.02511,0.67039,-0.15599,0.211841,0.693806,-0.888998,-1.03723,-0.715368,0.367008,-0.53901,1.43189,-3.19913,-0.0365555,-2.77764,-3.19819,-0.0215203,-2.70184,-0.539938,-0.755176,-0.689975,-0.606943,0.349469,0.506101,-0.536774,1
0.916063,-0.359077,-2.09404,-1.12295,2.6337,1.69972,-0.408195,0.916063,-0.359077,-2.09404,-1.12295,2.6337,1.69972,-0.408195,0.974705,-0.283144,-2.02401,-1.05748,2.61014,1.64788,-0.354664,-0.876457,-1.26956,-1.15079,-0.940896,0.52823,0.9178,-0.866921,-0.876457,-1.26956,-1.15079,-0.940896,0.52823,0.9178,-0.866921,0.0949905,-0.351907,1.01763,0.68041,-0.153179,0.204583,0.686821,-0.950801,-1.06131,-0.744824,0.335021,-0.540058,1.40399,-3.19871,-0.104874,-2.79001,-3.19892,-0.070715,-2.78382,-0.586415,-0.759322,-0.70024,-0.654701,0.235644,0.518367,-0.535308,1
0.903724,-0.371103,-2.10775,-1.1372,2.60595,1.71203,-0.415704,0.903724,-0.371103,-2.10775,-1.1372,2.60595,1.71203,-0.415704,0.964829,-0.296854,-2.03656,-1.06868,2.61662,1.65691,-0.364492,-0.925902,-1.28533,-1.17638,-1.05061,0.607916,0.846582,-0.921449,-0.925902,-1.28533,-1.17638,-1.05061,0.607916,0.846582,-0.921449,0.0845888,-0.364232,1.00957,0.690828,-0.149627,0.196506,0.679525,-0.986236,-1.07352,-0.802504,0.303406,-0.541196,1.37531,-3.16151,-0.113791,-2.86794,-3.18011,-0.109333,-2.82897,-0.611046,-0.742494,-0.711918,-0.685208,-0.106701,0.551166,-0.512124,1
0.890418,-0.380991,-2.12095,-1.1522,2.58109,1.72215,-0.421704,0.890418,-0.380991,-2.12095,-1.1522,2.58109,1.72215,-0.421704,0.954042,-0.310617,-2.04928,-1.08068,2.6204,1.66638,-0.374159,-1.01134,-1.29043,-1.192,-1.12537,0.354223,0.887765,-0.906337,-1.01134,-1.29043,-1.192,-1.12537,0.354223,0.887765,-0.906337,0.0741122,-0.376283,1.00086,0.70135,-0.145202,0.189601,0.671622,-1.00437,-1.04728,-0.861218,0.272103,-0.542069,1.34554,-3.13037,-0.0873208,-2.97718,-3.14594,-0.100556,-2.92256,-0.636237,-0.703738,-0.716707,-0.715151,-0.393097,0.557712,-0.475451,1
0.873042,-0.397434,-2.1344,-1.16314,2.58959,1.71541,-0.435408,0.873042,-0.397434,-2.1344,-1.16314,2.58959,1.71541,-0.435408,0.942912,-0.323997,-2.06221,-1.09319,2.6172,1.67647,-0.383349,-1.04352,-1.2544,-1.21276,-1.1721,-0.299641,0.946677,-0.861601,-1.04352,-1.2544,-1.21276,-1.1721,-0.299641,0.946677,-0.861601,0.0645275,-0.38749,0.991536,0.71158,-0.139242,0.186043,0.663064,-0.946696,-0.976602,-0.909554,0.240449,-0.542745,1.31474,-3.16534,-0.0675797,-3.08032,-3.14785,-0.0774503,-3.02875,-0.698695,-0.73437,-0.721878,-0.699559,-0.276096,0.389399,-0.520597,1
0.861185,-0.413069,-2.14747,-1.17794,2.61284,1.70837,-0.44824,0.861185,-0.413069,-2.14747,-1.17794,2.61284,1.70837,-0.44824,0.9313,-0.336604,-2.0752,-1.10624,2.60921,1.68658,-0.391833,-1.08865,-1.18199,-1.2181,-1.22386,-0.748954,0.947221,-0.795441,-1.08865,-1.18199,-1.2181,-1.22386,-0.748954,0.947221,-0.795441,0.0556663,-0.397857,0.981859,0.721366,-0.131921,0.184899,0.654247,-0.898509,-0.901856,-0.936783,0.208704,-0.543288,1.28317,-3.17452,-0.0543058,-3.15651,-3.16993,-0.0609428,-3.11841,-0.701151,-0.764651,-0.722626,-0.716975,0.0362466,0.217892,-0.564068,1
0.849685,-0.426643,-2.16109,-1.19261,2.61831,1.72469,-0.455965,0.849685,-0.426643,-2.16109,-1.19261,2.61831,1.72469,-0.455965,0.918414,-0.350059,-2.0883,-1.11883,2.60487,1.69296,-0.401472,-1.2082,-1.26154,-1.22764,-1.18008,-0.40692,0.598042,-0.903702,-1.2082,-1.26154,-1.22764,-1.18008,-0.40692,0.598042,-0.903702,0.0452229,-0.408961,0.972223,0.732296,-0.123782,0.180947,0.644732,-1.03671,-0.94761,-0.943158,0.176701,-0.543887,1.25045,-3.20033,-0.0598967,-3.27239,-3.18742,-0.0571012,-3.21445,-0.687289,-0.76584,-0.727961,-0.737844,0.134393,0.31731,-0.544936,1
0.843739,-0.441216,-2.17454,-1.2069,2.61796,1.74554,-0.46469,0.843739,-0.441216,-2.17454,-1.2069,2.61796,1.74554,-0.46469,0.905755,-0.363997,-2.10138,-1.1319,2.60664,1.69637,-0.411817,-1.18685,-1.30674,-1.22708,-1.22588,0.165184,0.319593,-0.969909,-1.18685,-1.30674,-1.22708,-1.22588,0.165184,0.319593,-0.969909,0.0336668,-0.420618,0.962439,0.743565,-0.115498,0.17317,0.63544,-1.11677,-0.976706,-0.968357,0.14555,-0.544581,1.21742,-3.11503,-0.0693858,-3.30286,-3.15768,-0.0646412,-3.28763,-0.620156,-0.772188,-0.73157,-0.74995,0.113229,0.491727,-0.528731,1
0.826111,-0.454628,-2.18752,-1.22044,2.5977,1.74775,-0.475734,0.826111,-0.454628,-2.18752,-1.22044,2.5977,1.74775,-0.475734,0.893352,-0.377854,-2.11459,-1.14533,2.60922,1.70263,-0.421582,-1.16282,-1.29921,-1.23827,-1.25903,0.242171,0.587368,-0.915585,-1.16282,-1.29921,-1.23827,-1.25903,0.242171,0.587368,-0.915585,0.0217558,-0.431427,0.952145,0.754067,-0.108453,0.165532,0.626275,-1.13915,-0.90387,-1.01072,0.113407,-0.545697,1.18291,-3.21437,-0.111634,-3.45075,-3.1647,-0.0905097,-3.37681,-0.67241,-0.767739,-0.729266,-0.751126,-0.115206,0.451194,-0.541517,1
0.813937,-0.464244,-2.19985,-1.23334,2.57961,1.74151,-0.483793,0.813937,-0.464244,-2.19985,-1.23334,2.57961,1.74151,-0.483793,0.882378,-0.39187,-2.12785,-1.15895,2.61115,1.71212,-0.431118,-1.02891,-1.31404,-1.24328,-1.2768,0.181256,0.889857,-0.893995,-1.02891,-1.31404,-1.24328,-1.2768,0.181256,0.889857,-0.893995,0.010173,-0.441317,0.941279,0.763539,-0.102669,0.158611,0.617503,-1.09968,-0.829316,-1.05776,0.0815026,-0.546797,1.14756,-3.19041,-0.110006,-3.5356,-3.20239,-0.11082,-3.49318,-0.684409,-0.723741,-0.719969,-0.743902,-0.315473,0.293864,-0.526749,1
0.800449,-0.481159,-2.21363,-1.2464,2.58646,1.75431,-0.492514,0.800449,-0.481159,-2.21363,-1.2464,2.58646,1.75431,-0.492514,0.869932,-0.405752,-2.14105,-1.17255,2.60818,1.72,-0.440987,-1.1669,-1.30153,-1.23739,-1.27531,-0.279017,0.738884,-0.925287,-1.1669,-1.30153,-1.23739,-1.27531,-0.279017,0.738884,-0.925287,-0.00132396,-0.450757,0.930168,0.773327,-0.0949934,0.15354,0.607755,-1.11256,-0.782754,-1.07732,0.04949,-0.547685,1.11091,-3.20126,-0.0887394,-3.66502,-3.19583,-0.0993729,-3.60031,-0.694823,-0.754073,-0.725775,-0.738475,-0.217176,0.343101,-0.515273,1
0.789707,-0.495274,-2.2278,-1.26074,2.59344,1.76455,-0.502013,0.789707,-0.495274,-2.2278,-1.26074,2.59344,1.76455,-0.502013,0.857546,-0.41869,-2.15406,-1.186,2.60186,1.72476,-0.450456,-1.16126,-1.21305,-1.21942,-1.26066,-0.592532,0.445996,-0.887739,-1.16126,-1.21305,-1.21942,-1.26066,-0.592532,0.445996,-0.887739,-0.0119486,-0.459644,0.919288,0.782744,-0.0853359,0.149632,0.598031,-1.04518,-0.72526,-1.0534,0.0187864,-0.548723,1.07303,-3.07036,-0.103819,-3.78729,-3.13581,-0.0962794,-3.72615,-0.678384,-0.765836,-0.737395,-0.747384,-0.0841306,0.397945,-0.515572,1
0.775161,-0.510657,-2.23944,-1.27268,2.59307,1.75178,-0.51328,0.775161,-0.510657,-2.23944,-1.27268,2.59307,1.75178,-0.51328,0.844916,-0.432509,-2.16723,-1.19936,2.59845,1.7313,-0.459759,-1.18411,-1.29553,-1.23543,-1.25265,-0.31933,0.612894,-0.872244,-1.18411,-1.29553,-1.23543,-1.25265,-0.31933,0.612894,-0.872244,-0.0237893,-0.468241,0.907893,0.79199,-0.0769855,0.144339,0.588211,-1.14045,-0.696326,-1.10184,-0.0116411,-0.549694,1.03415,-3.04275,-0.0971019,-3.88825,-3.05656,-0.100461,-3.83777,-0.697552,-0.78149,-0.722051,-0.733221,-0.0537677,0.204842,-0.53521,1
0.766201,-0.524151,-2.25149,-1.28591,2.60648,1.74772,-0.523206,0.766201,-0.524151,-2.25149,-1.28591,2.60648,1.74772,-0.523206,0.832704,-0.446392,-2.18063,-1.21294,2.59734,1.73865,-0.469105,-1.14496,-1.30168,-1.25599,-1.2729,-0.10384,0.689716,-0.876293,-1.14496,-1.30168,-1.25599,-1.2729,-0.10384,0.689716,-0.876293,-0.0360338,-0.476348,0.896193,0.800952,-0.069406,0.138032,0.578451,-1.16424,-0.649452,-1.12995,-0.0421981,-0.550171,0.994356,-3.05569,-0.0477374,-3.97962,-3.04922,-0.0724196,-3.93393,-0.665024,-0.777584,-0.708606,-0.72976,0.0913516,0.0906613,-0.541001,1
0.757392,-0.53689,-2.26522,-1.30003,2.61521,1.76764,-0.528036,0.757392,-0.53689,-2.26522,-1.30003,2.61521,1.76764,-0.528036,0.819975,-0.460608,-2.19364,-1.22615,2.5964,1.74156,-0.478877,-1.19337,-1.33278,-1.21962,-1.23905,-0.0885396,0.272252,-0.916124,-1.19337,-1.33278,-1.21962,-1.23905,-0.0885396,0.272252,-0.916124,-0.0486525,-0.484667,0.884503,0.810229,-0.0601159,0.130426,0.568247,-1.19715,-0.651082,-1.13267,-0.0759199,-0.549447,0.95447,-3.37219,0.0724435,-3.98863,-3.21394,0.0123531,-3.98412,-0.625835,-0.762828,-0.715787,-0.738801,0.188083,0.260833,-0.491592,1
0.751028,-0.549431,-2.27827,-1.31393,2.6185,1.78054,-0.536758,0.751028,-0.549431,-2.27827,-1.31393,2.6185,1.78054,-0.536758,0.808081,-0.474663,-2.20644,-1.23937,2.59863,1.74292,-0.488682,-1.11526,-1.31786,-1.19984,-1.23941,0.20905,0.127804,-0.919367,-1.11526,-1.31786,-1.19984,-1.23941,0.20905,0.127804,-0.919367,-0.0613724,-0.492723,0.872812,0.8192,-0.0510345,0.121001,0.55827,-1.18928,-0.620193,-1.13406,-0.107684,-0.550045,0.913121,-3.17643,-0.0597775,-4.13494,-3.27431,0.00633299,-4.06179,-0.570528,-0.747677,-0.718367,-0.745647,0.198726,0.376169,-0.48076,1
0.736753,-0.564653,-2.29077,-1.32673,2.61708,1.77199,-0.551646,0.736753,-0.564653,-2.29077,-1.32673,2.61708,1.77199,-0.551646,0.796868,-0.488428,-2.21944,-1.25279,2.6023,1.74839,-0.497387,-1.05127,-1.29057,-1.21912,-1.25809,0.34384,0.512692,-0.816185,-1.05127,-1.29057,-1.21912,-1.25809,0.34384,0.512692,-0.816185,-0.074101,-0.499585,0.860813,0.827244,-0.0439789,0.11192,0.548824,-1.17746,-0.524074,-1.15654,-0.138648,-0.551227,0.871496,-3.09643,-0.118256,-4.16248,-3.13643,-0.0890166,-4.14871,-0.601153,-0.762253,-0.713352,-0.739402,0.147884,0.236036,-0.542589,1
0.727015,-0.576685,-2.30321,-1.34032,2.61984,1.76589,-0.56051,0.727015,-0.576685,-2.30321,-1.34032,2.61984,1.76589,-0.56051,0.786728,-0.501922,-2.23245,-1.26631,2.60588,1.7555,-0.506096,-0.950719,-1.26519,-1.2202,-1.26816,0.336095,0.666755,-0.816544,-0.950719,-1.26519,-1.2202,-1.26816,0.336095,0.666755,-0.816544,-0.0862585,-0.505658,0.848637,0.834664,-0.0376797,0.103258,0.539679,-1.11896,-0.458925,-1.16879,-0.169658,-0.552234,0.827158,-3.10098,-0.100702,-4.43376,-3.0987,-0.109479,-4.29812,-0.597136,-0.747632,-0.707601,-0.740044,0.139563,0.103951,-0.544142,1
0.721152,-0.588986,-2.31558,-1.35408,2.62824,1.7782,-0.56664,0.721152,-0.588986,-2.31558,-1.35408,2.62824,1.7782,-0.56664,0.775674,-0.515798,-2.24535,-1.27968,2.60836,1.75915,-0.516172,-1.03648,-1.30103,-1.20956,-1.25299,0.232364,0.342045,-0.944696,-1.03648,-1.30103,-1.20956,-1.25299,0.232364,0.342045,-0.944696,-0.0988161,-0.511816,0.836248,0.842603,-0.0296786,0.0940231,0.529433,-1.15866,-0.451362,-1.18923,-0.198528,-0.554642,0.783434,-2.887,-0.240731,-4.37242,-2.99399,-0.170717,-4.40309,-0.545218,-0.731877,-0.702246,-0.743991,0.19886,0.190572,-0.504684,1
0.712587,-0.602306,-2.32857,-1.36805,2.63898,1.78747,-0.574235,0.712587,-0.602306,-2.32857,-1.36805,2.63898,1.78747,-0.574235,0.76491,-0.529266,-2.25815,-1.29309,2.6109,1.76064,-0.525979,-1.00918,-1.26278,-1.2,-1.25767,0.238052,0.139933,-0.91957,-1.00918,-1.26278,-1.2,-1.25767,0.238052,0.139933,-0.91957,-0.111072,-0.51771,0.823881,0.850181,-0.0208055,0.0843503,0.519273,-1.12794,-0.420106,-1.18544,-0.228947,-0.554221,0.737078,-3.0419,0.0420928,-4.63557,-2.96445,-0.0993192,-4.504,-0.52323,-0.730401,-0.704153,-0.749612,0.280875,0.268333,-0.482559,1
0.699219,-0.61698,-2.34089,-1.38158,2.6443,1.78268,-0.585484,0.699219,-0.61698,-2.34089,-1.38158,2.6443,1.78268,-0.585484,0.755231,-0.542476,-2.27085,-1.30658,2.61473,1.76452,-0.534974,-0.907541,-1.23857,-1.191,-1.26482,0.359772,0.364287,-0.843294,-0.907541,-1.23857,-1.191,-1.26482,0.359772,0.364287,-0.843294,-0.122901,-0.522757,0.811406,0.85695,-0.0133367,0.0747058,0.509783,-1.07739,-0.352602,-1.19131,-0.259168,-0.555405,0.691562,-3.0221,-0.118405,-4.55166,-3.032,-0.0381559,-4.59361,-0.560119,-0.745042,-0.70032,-0.750021,0.2957,0.181504,-0.505101,1
0.690792,-0.629385,-2.35348,-1.39517,2.64775,1.78314,-0.594679,0.690792,-0.629385,-2.35348,-1.39517,2.64775,1.78314,-0.594679,0.745798,-0.55571,-2.28362,-1.32018,2.6201,1.7696,-0.543658,-0.88442,-1.24086,-1.19695,-1.2749,0.502951,0.475936,-0.81428,-0.88442,-1.24086,-1.19695,-1.2749,0.502951,0.475936,-0.81428,-0.134864,-0.527183,0.798713,0.863409,-0.00670132,0.0645884,0.500309,-1.0798,-0.298885,-1.20925,-0.289486,-0.555353,0.643722,-3.03177,0.00517964,-4.78398,-3.02693,-0.0566125,-4.66782,-0.550066,-0.736741,-0.698548,-0.749872,0.276489,0.135381,-0.510212,1
0.682864,-0.641555,-2.36625,-1.40853,2.64836,1.79958,-0.598686,0.682864,-0.641555,-2.36625,-1.40853,2.64836,1.79958,-0.598686,0.735495,-0.569263,-2.29629,-1.33376,2.62545,1.77249,-0.55291,-0.966039,-1.27072,-1.18768,-1.27352,0.502026,0.271156,-0.867447,-0.966039,-1.27072,-1.18768,-1.27352,0.502026,0.271156,-0.867447,-0.147335,-0.531454,0.785751,0.870039,0.000892757,0.0537319,0.490045,-1.12368,-0.273884,-1.23316,-0.319973,-0.556644,0.596967,-3.04869,-0.129056,-4.67545,-3.04023,-0.0619382,-4.72971,-0.526308,-0.722923,-0.699664,-0.747722,0.229065,0.270833,-0.457765,1
0.675648,-0.652032,-2.37815,-1.4198,2.6409,1.81322,-0.604003,0.675648,-0.652032,-2.37815,-1.4198,2.6409,1.81322,-0.604003,0.726481,-0.581276,-2.30763,-1.34594,2.63003,1.7748,-0.561196,-0.950407,-1.28115,-1.22082,-1.31102,0.471893,0.222078,-0.891682,-0.950407,-1.28115,-1.22082,-1.31102,0.471893,0.222078,-0.891682,-0.158286,-0.53489,0.774047,0.875686,0.00784522,0.0440398,0.480804,-1.1132,-0.246125,-1.2686,-0.352097,-0.557534,0.549318,-3.21242,-0.0890434,-4.76491,-3.13055,-0.10905,-4.72018,-0.508326,-0.707562,-0.705157,-0.738682,0.108728,0.38423,-0.428073,1
0.661415,-0.667582,-2.3903,-1.43393,2.6536,1.80642,-0.615082,0.661415,-0.667582,-2.3903,-1.43393,2.6536,1.80642,-0.615082,0.716833,-0.59461,-2.3206,-1.35978,2.63408,1.78028,-0.569489,-0.904593,-1.25019,-1.2158,-1.29827,0.380203,0.513857,-0.777547,-0.904593,-1.25019,-1.2158,-1.29827,0.380203,0.513857,-0.777547,-0.170088,-0.537842,0.760707,0.881342,0.0147649,0.0343031,0.471001,-1.05964,-0.16235,-1.26092,-0.383013,-0.557471,0.50041,-3.09159,0.00630021,-4.89082,-3.152,-0.0413716,-4.82786,-0.554176,-0.729722,-0.69704,-0.74153,0.195205,0.2614,-0.455936,1
0.651243,-0.682184,-2.40168,-1.44755,2.66762,1.79546,-0.625339,0.651243,-0.682184,-2.40168,-1.44755,2.66762,1.79546,-0.625339,0.707723,-0.607311,-2.33333,-1.37306,2.63559,1.78757,-0.577123,-0.85416,-1.19092,-1.19354,-1.24483,0.141397,0.683217,-0.715819,-0.85416,-1.19092,-1.19354,-1.24483,0.141397,0.683217,-0.715819,-0.180912,-0.539887,0.747761,0.886331,0.021157,0.0264722,0.461811,-0.977333,-0.0918335,-1.21937,-0.41345,-0.55964,0.448683,-3.04374,-0.216866,-5.17266,-3.06766,-0.105283,-5.03174,-0.564802,-0.74873,-0.683512,-0.744923,0.320283,0.0788863,-0.482157,1
0.64394,-0.694573,-2.41367,-1.46098,2.67315,1.81038,-0.628424,0.64394,-0.694573,-2.41367,-1.46098,2.67315,1.81038,-0.628424,0.69748,-0.620643,-2.34593,-1.38652,2.63958,1.79174,-0.58552,-0.960405,-1.24999,-1.18163,-1.26256,0.373576,0.391009,-0.787261,-0.960405,-1.24999,-1.18163,-1.26256,0.373576,0.391009,-0.787261,-0.192819,-0.54195,0.734374,0.891673,0.0283968,0.0164033,0.451491,-1.06318,-0.0772965,-1.2603,-0.442898,-0.560171,0.396161,-2.94479,-0.0531256,-5.25221,-2.99426,-0.134996,-5.21244,-0.535395,-0.739301,-0.677418,-0.744584,0.335773,0.186431,-0.429043,1
0.640879,-0.706578,-2.42712,-1.47339,2.67093,1.8336,-0.631547,0.640879,-0.706578,-2.42712,-1.47339,2.67093,1.8336,-0.631547,0.687252,-0.634256,-2.35826,-1.40002,2.64578,1.79256,-0.594328,-0.958897,-1.27629,-1.15616,-1.26561,0.5816,0.0771157,-0.825801,-0.958897,-1.27629,-1.15616,-1.26561,0.5816,0.0771157,-0.825801,-0.205019,-0.544133,0.720744,0.896913,0.0364928,0.004365,0.440677,-1.07674,-0.0757966,-1.2811,-0.472703,-0.561327,0.343721,-2.98052,-0.115609,-5.24401,-2.96265,-0.0843674,-5.24811,-0.463725,-0.72322,-0.688527,-0.733658,0.251475,0.410405,-0.372192,1
