Afshin1997/kuka_rl_ros2/src/catch_and_throw/output_files/tm/nn_ema7.00_jvws1_realball_D23H15M09S16/recorded_data.csv
pure_target_joint_0,pure_target_joint_1,pure_target_joint_2,pure_target_joint_3,pure_target_joint_4,pure_target_joint_5,pure_target_joint_6,target_joint_0,target_joint_1,target_joint_2,target_joint_3,target_joint_4,target_joint_5,target_joint_6,pos_joint_0,pos_joint_1,pos_joint_2,pos_joint_3,pos_joint_4,pos_joint_5,pos_joint_6,vel_joint_0,vel_joint_1,vel_joint_2,vel_joint_3,vel_joint_4,vel_joint_5,vel_joint_6,vel_smooth_joint_0,vel_smooth_joint_1,vel_smooth_joint_2,vel_smooth_joint_3,vel_smooth_joint_4,vel_smooth_joint_5,vel_smooth_joint_6,ee_pos_x,ee_pos_y,ee_pos_z,ee_or_w,ee_or_x,ee_or_y,ee_or_z,ee_vel_x,ee_vel_y,ee_vel_z,ball_pos_x,ball_pos_y,ball_pos_z,ball_raw_vx,ball_raw_vy,ball_raw_vz,ball_ema_vx,ball_ema_vy,ball_ema_vz,action_0,action_1,action_2,action_3,action_4,action_5,action_6,command_published
1.7341,-1.01428,-1.80949,-1.0814,1.99249,1.16926,-0.858556,1.7341,-1.01428,-1.80949,-1.0814,1.99249,1.16926,-0.858556,1.78025,-1.06469,-1.81516,-1.11706,1.93725,1.11689,-0.916342,0,0,0,0,0,0,0,0,0,0,0,0,0,0,0.531063,-0.45443,0.694253,0.57454,0.17519,0.152605,0.784808,0,0,0,2.9738,-0.456421,0.242906,-2.69864,0.329471,5.86163,-3.03962,0.15796,5.42752,-0.461531,0.504032,0.0566264,0.356601,0.552423,0.523624,0.577859,1
1.73532,-1.00983,-1.8061,-1.10356,1.99751,1.17137,-0.862711,1.73532,-1.00983,-1.8061,-1.10356,1.99751,1.17137,-0.862711,1.78025,-1.06469,-1.81516,-1.11706,1.93725,1.11689,-0.916342,0,0,0,0,0,0,0,0,0,0,0,0,0,0,0.531063,-0.45443,0.694253,0.57454,0.17519,0.152605,0.784808,0,0,0,2.94638,-0.452804,0.300982,-2.74155,0.361747,5.80767,-2.94611,0.225483,5.54845,-0.449317,0.548606,0.0905374,0.134974,0.602551,0.544776,0.536303,1
1.71123,-0.984702,-1.75611,-1.10698,2.00316,1.1273,-0.852993,1.71123,-0.984702,-1.75611,-1.10698,2.00316,1.1273,-0.852993,1.77483,-1.05877,-1.81449,-1.11287,1.94374,1.12305,-0.909552,-1.08465,1.18454,0.133079,0.838056,1.29826,1.23058,1.35804,-1.08465,1.18454,0.133079,0.838056,1.29826,1.23058,1.35804,0.526171,-0.457187,0.699442,0.575794,0.171133,0.148789,0.785517,-0.893534,-0.530139,0.992162,2.91818,-0.449192,0.357938,-2.82009,0.361174,5.69554,-2.86513,0.282802,5.59606,-0.635924,0.740629,0.583814,0.0589276,0.594216,0.0424931,0.565583,1
1.72883,-0.977411,-1.74982,-1.13143,2.01322,1.13993,-0.840218,1.72883,-0.977411,-1.74982,-1.13143,2.01322,1.13993,-0.840218,1.76596,-1.0484,-1.81299,-1.10851,1.95511,1.13352,-0.89876,-0.816026,1.02727,0.183335,0.131826,1.12889,1.00809,0.95998,-0.816026,1.02727,0.183335,0.131826,1.12889,1.00809,0.95998,0.518377,-0.46038,0.707841,0.576904,0.164334,0.142811,0.787262,-0.622215,-0.160588,0.733175,2.88953,-0.445503,0.413307,-2.86522,0.368962,5.53687,-2.81245,0.325152,5.57659,-0.371294,0.70992,0.631651,-0.22915,0.581042,0.064162,0.58542,1
1.70593,-0.965253,-1.74596,-1.10103,2.03401,1.10713,-0.847295,1.70593,-0.965253,-1.74596,-1.10103,2.03401,1.10713,-0.847295,1.75635,-1.03692,-1.80559,-1.10782,1.96516,1.13671,-0.889644,-1.20152,1.3905,1.31768,0.022424,1.01215,-0.25073,0.976018,-1.20152,1.3905,1.31768,0.022424,1.01215,-0.25073,0.976018,0.511429,-0.461138,0.717492,0.576648,0.158968,0.137976,0.789411,-0.723213,0.00195357,1.22696,2.86217,-0.441893,0.46729,-2.73569,0.360963,5.39832,-2.78963,0.348309,5.50936,-0.504267,0.716645,0.596263,0.0679204,0.68855,-0.295788,0.423494,1
1.73824,-0.950346,-1.73007,-1.12947,2.0389,1.16029,-0.829058,1.73824,-0.950346,-1.73007,-1.12947,2.0389,1.16029,-0.829058,1.74844,-1.02451,-1.7939,-1.11051,1.97475,1.13611,-0.880036,-0.522191,1.2543,1.17398,-0.557159,1.02457,0.101714,1.06037,-0.522191,1.2543,1.17398,-0.557159,1.02457,0.101714,1.06037,0.506058,-0.458598,0.72797,0.573503,0.154128,0.133798,0.793371,-0.329981,0.495492,0.96549,2.83533,-0.438269,0.520637,-2.68431,0.362399,5.33473,-2.7731,0.359642,5.40762,-0.102042,0.741644,0.6383,-0.189635,0.641533,0.241797,0.50978,1
1.69555,-0.940015,-1.71996,-1.09655,2.05807,1.09124,-0.819325,1.69555,-0.940015,-1.71996,-1.09655,2.05807,1.09124,-0.819325,1.74141,-1.01266,-1.7837,-1.11156,1.9857,1.1331,-0.87206,-0.944986,1.26256,1.00497,0.280538,1.28659,-0.691638,0.659499,-0.944986,1.26256,1.00497,0.280538,1.28659,-0.691638,0.659499,0.501222,-0.456836,0.737809,0.571173,0.15079,0.12955,0.796392,-0.590541,-0.069653,1.07901,2.80789,-0.434639,0.57371,-2.74339,0.363013,5.30726,-2.77079,0.363275,5.30383,-0.458571,0.726483,0.63742,0.150139,0.723682,-0.418595,0.527346,1
1.75938,-0.926111,-1.70766,-1.13535,2.06037,1.1634,-0.807637,1.75938,-0.926111,-1.70766,-1.13535,2.06037,1.1634,-0.807637,1.73736,-1.00042,-1.77349,-1.11258,1.99696,1.13361,-0.864439,0.0233681,1.33361,1.15605,-0.449947,1.11685,0.710694,0.942207,0.0233681,1.33361,1.15605,-0.449947,1.11685,0.710694,0.942207,0.497172,-0.453084,0.747976,0.567736,0.145445,0.125233,0.800523,-0.175601,0.79975,1.03159,2.78065,-0.430906,0.625984,-2.72498,0.373253,5.22746,-2.75708,0.364405,5.20671,0.220186,0.743134,0.658207,-0.22778,0.634118,0.297918,0.56802,1
1.6909,-0.915128,-1.69784,-1.08767,2.08102,1.09148,-0.808832,1.6909,-0.915128,-1.69784,-1.08767,2.08102,1.09148,-0.808832,1.73254,-0.988134,-1.76269,-1.11244,2.00849,1.1314,-0.855469,-0.984878,1.28141,1.13808,0.42328,1.32028,-1.06923,0.962523,-0.984878,1.28141,1.13808,0.42328,1.32028,-1.06923,0.962523,0.49285,-0.449989,0.7584,0.564175,0.141105,0.120764,0.804495,-0.606009,-0.0805599,1.1345,2.75329,-0.427023,0.676978,-2.73538,0.388345,5.0994,-2.73826,0.367696,5.11749,-0.416343,0.730061,0.648551,0.247746,0.725261,-0.399122,0.46637,1
1.76644,-0.902166,-1.68611,-1.1238,2.08543,1.17095,-0.791852,1.76644,-0.902166,-1.68611,-1.1238,2.08543,1.17095,-0.791852,1.73186,-0.975856,-1.7518,-1.11349,2.01973,1.13099,-0.8461,0.732896,1.32472,1.17524,-0.582283,1.0824,0.862958,1.0243,0.732896,1.32472,1.17524,-0.582283,1.0824,0.862958,1.0243,0.490345,-0.444113,0.768518,0.558208,0.135841,0.116777,0.810132,0.140934,1.22284,0.977389,2.72575,-0.423383,0.727043,-2.75431,0.363961,5.00643,-2.72781,0.369503,5.03547,0.345852,0.736902,0.656881,-0.103094,0.657003,0.399596,0.542485,1
1.68026,-0.888951,-1.67616,-1.08585,2.10392,1.08653,-0.783446,1.68026,-0.888951,-1.67616,-1.08585,2.10392,1.08653,-0.783446,1.7299,-0.963562,-1.74088,-1.11272,2.03114,1.12971,-0.837733,-1.03845,1.28983,1.1462,0.667142,1.32812,-1.01799,0.769641,-1.03845,1.28983,1.1462,0.667142,1.32812,-1.01799,0.769641,0.486964,-0.439383,0.778954,0.553622,0.130645,0.112585,0.814714,-0.684658,-0.139122,1.18497,2.6979,-0.42005,0.776178,-2.78518,0.333327,4.91352,-2.73783,0.367559,4.95266,-0.496399,0.746111,0.647163,0.268676,0.727743,-0.431832,0.542865,1
1.7727,-0.877729,-1.66368,-1.12158,2.10815,1.17339,-0.7744,1.7727,-0.877729,-1.66368,-1.12158,2.10815,1.17339,-0.7744,1.73015,-0.951325,-1.72998,-1.11143,2.04269,1.13059,-0.829345,0.966496,1.30913,1.16834,-0.329473,1.13802,1.0748,0.998445,0.966496,1.30913,1.16834,-0.329473,1.13802,1.0748,0.998445,0.48406,-0.433516,0.789478,0.548145,0.124218,0.108213,0.819998,0.150406,1.27153,1.01047,2.66987,-0.416454,0.824192,-2.80259,0.359577,4.80145,-2.75453,0.364803,4.8595,0.425498,0.735968,0.662987,-0.101576,0.654553,0.427943,0.549444,1
1.67509,-0.864226,-1.6563,-1.08004,2.1269,1.08736,-0.76689,1.67509,-0.864226,-1.6563,-1.08004,2.1269,1.08736,-0.76689,1.72805,-0.938899,-1.71911,-1.1097,2.05432,1.1296,-0.820064,-1.27264,1.33006,1.14356,0.635091,1.32077,-1.14698,0.975088,-1.27264,1.33006,1.14356,0.635091,1.32077,-1.14698,0.975088,0.480259,-0.428812,0.799979,0.543224,0.11872,0.103926,0.824629,-0.769554,-0.185085,1.17044,2.64193,-0.413161,0.870717,-2.79415,0.329322,4.65245,-2.7673,0.358252,4.75227,-0.529611,0.746729,0.628127,0.296608,0.72584,-0.422417,0.531733,1
1.77399,-0.853367,-1.6424,-1.11493,2.13035,1.17718,-0.75513,1.77399,-0.853367,-1.6424,-1.11493,2.13035,1.17718,-0.75513,1.72834,-0.926531,-1.70814,-1.10863,2.06579,1.13028,-0.810901,1.18121,1.29958,1.18392,-0.345024,1.12805,1.14793,0.971979,1.18121,1.29958,1.18392,-0.345024,1.12805,1.14793,0.971979,0.47732,-0.422476,0.810249,0.536945,0.1124,0.0998532,0.830112,0.21384,1.40359,0.977967,2.61424,-0.40999,0.915976,-2.76849,0.317049,4.52594,-2.77788,0.347858,4.63786,0.456528,0.731646,0.657378,-0.0630454,0.645678,0.468982,0.557709,1
1.67017,-0.839052,-1.63578,-1.07619,2.15028,1.08398,-0.745122,1.67017,-0.839052,-1.63578,-1.07619,2.15028,1.08398,-0.745122,1.72668,-0.91415,-1.69744,-1.10661,2.07736,1.12971,-0.801944,-1.37391,1.32943,1.09564,0.707495,1.31925,-1.12767,0.933465,-1.37391,1.32943,1.09564,0.707495,1.31925,-1.12767,0.933465,0.473512,-0.417365,0.820499,0.531746,0.106654,0.0957747,0.834684,-0.823225,-0.222018,1.1523,2.58689,-0.406673,0.960407,-2.73557,0.331789,4.44307,-2.77922,0.338304,4.5239,-0.565129,0.750978,0.616563,0.304225,0.729216,-0.457268,0.568222,1
1.77506,-0.828604,-1.62118,-1.11179,2.15249,1.18041,-0.736537,1.77506,-0.828604,-1.62118,-1.11179,2.15249,1.18041,-0.736537,1.72689,-0.901831,-1.68671,-1.10483,2.08872,1.13089,-0.792809,1.25426,1.29054,1.17972,-0.268877,1.10856,1.23251,1.00335,1.25426,1.29054,1.17972,-0.268877,1.10856,1.23251,1.00335,0.470223,-0.411036,0.830595,0.52544,0.100021,0.0918013,0.839929,0.195584,1.43413,0.962133,2.55909,-0.402915,1.00354,-2.77958,0.375763,4.3133,-2.77717,0.33794,4.40619,0.481694,0.732262,0.6553,-0.069597,0.637668,0.495202,0.562721,1
1.66871,-0.814548,-1.61498,-1.07018,2.17379,1.08373,-0.726335,1.66871,-0.814548,-1.61498,-1.07018,2.17379,1.08373,-0.726335,1.72511,-0.889428,-1.67613,-1.10251,2.10027,1.13018,-0.783298,-1.46303,1.34148,1.07436,0.70104,1.33165,-1.23028,1.01659,-1.46303,1.34148,1.07436,0.70104,1.33165,-1.23028,1.01659,0.466242,-0.405798,0.840614,0.519828,0.0943365,0.0879099,0.844483,-0.842416,-0.222068,1.12457,2.53116,-0.398888,1.04623,-2.79353,0.402731,4.26872,-2.77433,0.346621,4.29476,-0.564046,0.748801,0.611486,0.323334,0.735205,-0.464486,0.569635,1
1.77509,-0.804187,-1.60018,-1.10672,2.1743,1.18243,-0.716468,1.77509,-0.804187,-1.60018,-1.10672,2.1743,1.18243,-0.716468,1.72528,-0.877058,-1.66549,-1.10088,2.1116,1.13129,-0.773845,1.32554,1.29026,1.17998,-0.29074,1.08902,1.30806,0.993487,1.32554,1.29026,1.17998,-0.29074,1.08902,1.30806,0.993487,0.462886,-0.399153,0.850379,0.513001,0.0878122,0.0842284,0.84972,0.195051,1.49694,0.925211,2.50384,-0.395317,1.08751,-2.73204,0.357029,4.12803,-2.76713,0.353688,4.1876,0.498065,0.728702,0.653062,-0.0584465,0.627024,0.511423,0.573765,1
1.66695,-0.78971,-1.59444,-1.06398,2.19731,1.08314,-0.706302,1.66695,-0.78971,-1.59444,-1.06398,2.19731,1.08314,-0.706302,1.7238,-0.864688,-1.65496,-1.0984,2.12315,1.1308,-0.764394,-1.46701,1.33518,1.06458,0.751455,1.34876,-1.25331,1.01347,-1.46701,1.33518,1.06458,0.751455,1.34876,-1.25331,1.01347,0.458881,-0.393545,0.860135,0.506982,0.0820077,0.0805168,0.85426,-0.845104,-0.204113,1.10828,2.47681,-0.3921,1.12814,-2.70255,0.32177,4.06334,-2.75678,0.358267,4.08984,-0.568491,0.749777,0.605147,0.344168,0.741696,-0.476513,0.580916,1
1.77485,-0.779714,-1.57915,-1.10018,2.19679,1.1836,-0.696877,1.77485,-0.779714,-1.57915,-1.10018,2.19679,1.1836,-0.696877,1.72411,-0.85238,-1.64438,-1.09645,2.13441,1.13198,-0.754816,1.3575,1.28332,1.17686,-0.273421,1.06224,1.34344,1.02115,1.3575,1.28332,1.17686,-0.273421,1.06224,1.34344,1.02115,0.455408,-0.386697,0.869643,0.499789,0.0754322,0.0769944,0.859414,0.174406,1.52256,0.892274,2.44924,-0.3886,1.16782,-2.75679,0.349993,3.96751,-2.75147,0.360413,3.99626,0.507396,0.726663,0.65228,-0.0373051,0.623866,0.516214,0.579385,1
1.66483,-0.764946,-1.5747,-1.05691,2.22043,1.08313,-0.686458,1.66483,-0.764946,-1.5747,-1.05691,2.22043,1.08313,-0.686458,1.72268,-0.840019,-1.63393,-1.0937,2.14594,1.13148,-0.745139,-1.48411,1.33966,1.05139,0.791355,1.36816,-1.28701,1.03419,-1.48411,1.33966,1.05139,0.791355,1.36816,-1.28701,1.03419,0.451293,-0.380888,0.879156,0.493399,0.0696212,0.0734636,0.863894,-0.848973,-0.185433,1.0926,2.42158,-0.38526,1.2061,-2.76682,0.333962,3.82851,-2.74994,0.355914,3.89839,-0.578519,0.750726,0.592249,0.367889,0.744978,-0.483469,0.58681,1
1.77422,-0.75501,-1.55824,-1.09577,2.21911,1.18394,-0.676746,1.77422,-0.75501,-1.55824,-1.09577,2.21911,1.18394,-0.676746,1.72303,-0.827716,-1.6234,-1.09138,2.15724,1.13259,-0.735441,1.3799,1.27826,1.17826,-0.234363,1.05331,1.35848,1.02691,1.3799,1.27826,1.17826,-0.234363,1.05331,1.35848,1.02691,0.447662,-0.373906,0.888445,0.485896,0.0630521,0.0700718,0.868918,0.145721,1.5346,0.866437,2.39403,-0.381832,1.24315,-2.7545,0.342807,3.70475,-2.74623,0.34722,3.79601,0.511861,0.72706,0.65151,-0.0439227,0.618702,0.513487,0.586947,1
1.66314,-0.740239,-1.55493,-1.04992,2.24356,1.08283,-0.666091,1.66314,-0.740239,-1.55493,-1.04992,2.24356,1.08283,-0.666091,1.72157,-0.815362,-1.61309,-1.08824,2.16877,1.13207,-0.725686,-1.51086,1.34255,1.02214,0.834324,1.37584,-1.30319,1.04462,-1.51086,1.34255,1.02214,0.834324,1.37584,-1.30319,1.04462,0.443388,-0.367997,0.897724,0.47929,0.0572316,0.0667022,0.873245,-0.855825,-0.174422,1.07238,2.3667,-0.378358,1.27898,-2.73259,0.347444,3.58331,-2.7436,0.340715,3.68395,-0.584266,0.751234,0.581553,0.383229,0.747922,-0.492384,0.595954,1
1.77317,-0.730387,-1.53749,-1.09297,2.24172,1.18397,-0.656876,1.77317,-0.730387,-1.53749,-1.09297,2.24172,1.18397,-0.656876,1.72187,-0.803043,-1.60266,-1.08588,2.18004,1.13309,-0.715868,1.39399,1.27908,1.18278,-0.263469,1.04039,1.35409,1.04177,1.39399,1.27908,1.18278,-0.263469,1.04039,1.35409,1.04177,0.439667,-0.360818,0.906696,0.471432,0.050774,0.0635598,0.878142,0.130524,1.56525,0.825192,2.3397,-0.374825,1.31404,-2.70026,0.353238,3.50618,-2.74226,0.341886,3.57365,0.513001,0.726557,0.65173,-0.0708839,0.616797,0.508803,0.589917,1
1.66216,-0.715632,-1.53475,-1.04307,2.26664,1.08229,-0.645861,1.66216,-0.715632,-1.53475,-1.04307,2.26664,1.08229,-0.645861,1.7204,-0.790682,-1.59245,-1.08268,2.19156,1.13246,-0.705962,-1.52471,1.34326,0.999032,0.872355,1.38482,-1.32149,1.06173,-1.52471,1.34326,0.999032,0.872355,1.38482,-1.32149,1.06173,0.435341,-0.35469,0.915668,0.464451,0.0450642,0.0604299,0.882385,-0.855267,-0.156332,1.05132,2.31217,-0.37142,1.34863,-2.75371,0.340557,3.45907,-2.74248,0.344613,3.4672,-0.582414,0.750502,0.576978,0.396105,0.750804,-0.501606,0.601006,1
1.77283,-0.705885,-1.51687,-1.08898,2.26402,1.18394,-0.63649,1.77283,-0.705885,-1.51687,-1.08898,2.26402,1.18394,-0.63649,1.72066,-0.778367,-1.5821,-1.08049,2.20284,1.13336,-0.69606,1.39833,1.27771,1.18799,-0.332238,1.03532,1.34765,1.04348,1.39833,1.27771,1.18799,-0.332238,1.03532,1.34765,1.04348,0.431599,-0.347265,0.924261,0.456171,0.0387994,0.0575542,0.887181,0.121219,1.59966,0.772206,2.28511,-0.36787,1.38232,-2.70517,0.354952,3.36872,-2.73407,0.345988,3.36956,0.521707,0.724817,0.652254,-0.084919,0.611733,0.505774,0.595698,1
1.66111,-0.690948,-1.51481,-1.03645,2.28963,1.08138,-0.625489,1.66111,-0.690948,-1.51481,-1.03645,2.28963,1.08138,-0.625489,1.71923,-0.76602,-1.57191,-1.07739,2.21437,1.13261,-0.686098,-1.51994,1.34184,0.989583,0.913922,1.39186,-1.33989,1.07152,-1.51994,1.34184,0.989583,0.913922,1.39186,-1.33989,1.07152,0.427282,-0.340857,0.932892,0.448767,0.0332437,0.0546701,0.891356,-0.84861,-0.12957,1.03346,2.25793,-0.364182,1.4151,-2.71847,0.368771,3.27743,-2.72613,0.350338,3.28208,-0.581177,0.750715,0.570989,0.409375,0.752653,-0.51233,0.606095,1
1.77267,-0.681312,-1.49635,-1.08282,2.28636,1.18329,-0.615931,1.77267,-0.681312,-1.49635,-1.08282,2.28636,1.18329,-0.615931,1.71961,-0.753729,-1.56159,-1.07519,2.22562,1.13342,-0.676096,1.41728,1.2741,1.19079,-0.367275,1.02241,1.34527,1.05474,1.41728,1.2741,1.19079,-0.367275,1.02241,1.34527,1.05474,0.423527,-0.333182,0.941157,0.440052,0.0271093,0.052026,0.896054,0.109338,1.62766,0.726163,2.23045,-0.360567,1.44649,-2.74782,0.361532,3.13946,-2.72458,0.35393,3.19475,0.530621,0.724172,0.652433,-0.0762828,0.607403,0.498702,0.601654,1
1.66044,-0.666343,-1.49521,-1.02992,2.31255,1.08051,-0.604915,1.66044,-0.666343,-1.49521,-1.02992,2.31255,1.08051,-0.604915,1.71826,-0.741391,-1.55146,-1.07207,2.23713,1.13255,-0.666043,-1.52172,1.3433,0.975874,0.948553,1.39834,-1.36267,1.07998,-1.52172,1.3433,0.975874,0.948553,1.39834,-1.36267,1.07998,0.419213,-0.326529,0.949468,0.432254,0.0216973,0.0493869,0.900137,-0.840608,-0.103946,1.01346,2.20309,-0.357276,1.47718,-2.73576,0.329056,3.06875,-2.72705,0.353559,3.10694,-0.57811,0.750474,0.562496,0.421497,0.754228,-0.520339,0.611282,1
1.7722,-0.656608,-1.4762,-1.07607,2.30853,1.18208,-0.59516,1.7722,-0.656608,-1.4762,-1.07607,2.30853,1.18208,-0.59516,1.71872,-0.729101,-1.54118,-1.06964,2.24836,1.1332,-0.655949,1.43666,1.27264,1.19395,-0.35101,1.01214,1.33393,1.0657,1.43666,1.27264,1.19395,-0.35101,1.01214,1.33393,1.0657,0.415389,-0.318689,0.957469,0.423205,0.0156734,0.0469364,0.904682,0.0857108,1.63994,0.694345,2.17559,-0.353917,1.5068,-2.75056,0.335947,2.96271,-2.73269,0.351119,3.01264,0.534768,0.724931,0.649813,-0.0643486,0.601773,0.488758,0.607887,1
1.65963,-0.641734,-1.47568,-1.02367,2.33537,1.0794,-0.583881,1.65963,-0.641734,-1.47568,-1.02367,2.33537,1.0794,-0.583881,1.71747,-0.716771,-1.53113,-1.06634,2.25984,1.13221,-0.645803,-1.51862,1.3429,0.956639,0.969852,1.40364,-1.37662,1.08886,-1.51862,1.3429,0.956639,0.969852,1.40364,-1.37662,1.08886,0.411052,-0.311845,0.965496,0.415066,0.0103762,0.0445054,0.908643,-0.827058,-0.0751682,0.987634,2.14791,-0.350872,1.53525,-2.76797,0.304493,2.84437,-2.73807,0.344481,2.91033,-0.578425,0.750368,0.554452,0.426712,0.755324,-0.528043,0.619213,1
1.77154,-0.631908,-1.45639,-1.0679,2.33084,1.18029,-0.574368,1.77154,-0.631908,-1.45639,-1.0679,2.33084,1.18029,-0.574368,1.71799,-0.704472,-1.52095,-1.06371,2.27103,1.13271,-0.635612,1.44371,1.27466,1.19172,-0.329357,0.998799,1.31482,1.07724,1.44371,1.27466,1.19172,-0.329357,0.998799,1.31482,1.07724,0.407166,-0.303862,0.973214,0.405713,0.00449151,0.0422729,0.913012,0.0577911,1.64504,0.663773,2.12041,-0.347515,1.56229,-2.74975,0.335741,2.70401,-2.74648,0.336917,2.80186,0.535539,0.72564,0.645583,-0.0419662,0.59808,0.475849,0.612444,1
1.65858,-0.617181,-1.45649,-1.01685,2.35816,1.07845,-0.563006,1.65858,-0.617181,-1.45649,-1.01685,2.35816,1.07845,-0.563006,1.71675,-0.692137,-1.51099,-1.06028,2.28248,1.13156,-0.625339,-1.52124,1.34225,0.94022,0.975108,1.40862,-1.38905,1.10403,-1.52124,1.34225,0.94022,0.975108,1.40862,-1.38905,1.10403,0.402803,-0.296848,0.980944,0.397252,-0.000652491,0.0400756,0.916834,-0.810874,-0.0443223,0.957931,2.09253,-0.344243,1.58857,-2.78831,0.327152,2.62808,-2.75525,0.329739,2.69317,-0.581726,0.749563,0.544994,0.434369,0.756783,-0.531088,0.623327,1
1.77141,-0.607089,-1.43689,-1.06002,2.35338,1.17758,-0.55344,1.77141,-0.607089,-1.43689,-1.06002,2.35338,1.17758,-0.55344,1.71727,-0.679833,-1.50091,-1.05738,2.29364,1.13188,-0.615051,1.44537,1.27626,1.18564,-0.280166,0.990402,1.28922,1.0834,1.44537,1.27626,1.18564,-0.280166,0.990402,1.28922,1.0834,0.398829,-0.288779,0.988395,0.387644,-0.0063914,0.038034,0.921002,0.022646,1.63721,0.6395,2.06485,-0.340604,1.61399,-2.76761,0.363955,2.54251,-2.76109,0.329855,2.5885,0.541388,0.727446,0.640184,-0.0264083,0.597389,0.457042,0.616111,1
1.65784,-0.592692,-1.43718,-1.00986,2.38096,1.07717,-0.542115,1.65784,-0.592692,-1.43718,-1.00986,2.38096,1.07717,-0.542115,1.716,-0.667502,-1.49108,-1.05371,2.30508,1.13062,-0.604717,-1.52909,1.34007,0.921041,0.981676,1.41339,-1.38926,1.11076,-1.52909,1.34007,0.921041,0.981676,1.41339,-1.38926,1.11076,0.394397,-0.281676,0.995853,0.378966,-0.0114156,0.036026,0.924639,-0.796498,-0.0178874,0.927293,2.03739,-0.336727,1.63793,-2.74613,0.387627,2.39385,-2.76415,0.33894,2.47845,-0.581628,0.748102,0.539015,0.438505,0.758755,-0.534517,0.626018,1
1.77139,-0.582306,-1.41751,-1.05284,2.37664,1.17375,-0.532635,1.77139,-0.582306,-1.41751,-1.05284,2.37664,1.17375,-0.532635,1.71655,-0.655185,-1.48112,-1.05063,2.31626,1.13073,-0.594366,1.46068,1.28082,1.17783,-0.250156,0.988595,1.24772,1.08989,1.46068,1.28082,1.17783,-0.250156,0.988595,1.24772,1.08989,0.390385,-0.273491,1.00301,0.369083,-0.0169575,0.0341866,0.928613,-0.00201562,1.63948,0.610951,2.00986,-0.332957,1.66069,-2.75307,0.377041,2.27557,-2.7635,0.350289,2.36688,0.548382,0.728787,0.636149,-0.0220725,0.603786,0.430237,0.617311,1
1.65835,-0.568392,-1.41764,-1.00304,2.40394,1.07571,-0.521394,1.65835,-0.568392,-1.41764,-1.00304,2.40394,1.07571,-0.521394,1.71534,-0.642854,-1.47137,-1.04681,2.32771,1.12929,-0.583983,-1.53144,1.33586,0.910707,0.984075,1.41793,-1.38811,1.11495,-1.53144,1.33586,0.910707,0.984075,1.41793,-1.38811,1.11495,0.385948,-0.266238,1.01018,0.360111,-0.0218018,0.0323768,0.932092,-0.779635,0.0120044,0.896609,1.98269,-0.329813,1.68284,-2.71677,0.314391,2.2148,-2.75674,0.356459,2.26046,-0.569883,0.744621,0.537328,0.437728,0.762251,-0.535807,0.62589,1
1.7717,-0.55781,-1.39852,-1.04323,2.39988,1.16937,-0.511757,1.7717,-0.55781,-1.39852,-1.04323,2.39988,1.16937,-0.511757,1.71597,-0.630538,-1.4615,-1.04369,2.33898,1.12911,-0.573608,1.47598,1.28437,1.17139,-0.243598,1.00276,1.18872,1.09106,1.47598,1.28437,1.17139,-0.243598,1.00276,1.18872,1.09106,0.381952,-0.257908,1.01702,0.349895,-0.0270587,0.0307264,0.935894,-0.0193713,1.64494,0.576548,1.95531,-0.32671,1.70427,-2.73854,0.310349,2.14374,-2.74991,0.353294,2.16138,0.557373,0.727287,0.629805,0.00463045,0.608924,0.402607,0.61851,1
1.65997,-0.544133,-1.39853,-0.996442,2.42708,1.07385,-0.500679,1.65997,-0.544133,-1.39853,-0.996442,2.42708,1.07385,-0.500679,1.71494,-0.618234,-1.45178,-1.03986,2.35052,1.12747,-0.563224,-1.50692,1.32725,0.909183,0.98051,1.42246,-1.37816,1.11389,-1.50692,1.32725,0.909183,0.98051,1.42246,-1.37816,1.11389,0.377582,-0.250442,1.02387,0.340528,-0.0316583,0.0290921,0.939251,-0.755297,0.0520326,0.864532,1.92789,-0.323439,1.72462,-2.74167,0.327092,2.03429,-2.74179,0.346844,2.06288,-0.549763,0.741018,0.532542,0.434201,0.765632,-0.536178,0.625448,1
1.77216,-0.533467,-1.37998,-1.03169,2.42285,1.16472,-0.491107,1.77216,-0.533467,-1.37998,-1.03169,2.42285,1.16472,-0.491107,1.71575,-0.605966,-1.44198,-1.03644,2.36186,1.12703,-0.552839,1.4901,1.28236,1.15747,-0.180748,1.01235,1.12772,1.09397,1.4901,1.28236,1.15747,-0.180748,1.01235,1.12772,1.09397,0.373559,-0.242036,1.03045,0.330019,-0.0367095,0.0275498,0.942858,-0.050291,1.62855,0.554293,1.90039,-0.320304,1.74366,-2.75004,0.313452,1.90432,-2.73907,0.334727,1.96411,0.564156,0.72499,0.620031,0.0474491,0.6099,0.376936,0.617314,1
1.66257,-0.519665,-1.38072,-0.991018,2.45017,1.07151,-0.479761,1.66257,-0.519665,-1.38072,-0.991018,2.45017,1.07151,-0.479761,1.71499,-0.593707,-1.43237,-1.03244,2.37346,1.12517,-0.54245,-1.4653,1.32011,0.901166,0.958683,1.4278,-1.36656,1.11232,-1.4653,1.32011,0.901166,0.958683,1.4278,-1.36656,1.11232,0.369242,-0.234413,1.037,0.320294,-0.0410864,0.0260551,0.946068,-0.721457,0.100709,0.826649,1.87298,-0.317375,1.7616,-2.74053,0.292885,1.7943,-2.73914,0.320487,1.86691,-0.524221,0.740414,0.516522,0.414257,0.767063,-0.536554,0.626888,1
1.77315,-0.509132,-1.36164,-1.02179,2.44605,1.15801,-0.470406,1.77315,-0.509132,-1.36164,-1.02179,2.44605,1.15801,-0.470406,1.71601,-0.581488,-1.4227,-1.02862,2.38483,1.12449,-0.532085,1.49538,1.27875,1.13772,-0.0818109,1.01247,1.07115,1.09121,1.49538,1.27875,1.13772,-0.0818109,1.01247,1.07115,1.09121,0.365171,-0.225968,1.04333,0.309555,-0.0459651,0.0246108,0.949451,-0.0930492,1.59684,0.540714,1.84606,-0.313732,1.77848,-2.69192,0.364313,1.68756,-2.7347,0.317698,1.76532,0.571445,0.723558,0.610676,0.0682842,0.6122,0.335184,0.616795,1
1.66836,-0.495308,-1.36258,-0.987488,2.47336,1.06892,-0.458768,1.66836,-0.495308,-1.36258,-0.987488,2.47336,1.06892,-0.458768,1.71555,-0.569244,-1.41334,-1.02452,2.39645,1.12244,-0.521688,-1.41075,1.32023,0.868723,0.892192,1.43059,-1.35614,1.11647,-1.41075,1.32023,0.868723,0.892192,1.43059,-1.35614,1.11647,0.360951,-0.218182,1.04956,0.299517,-0.0500741,0.0233166,0.952491,-0.669846,0.162716,0.774678,1.81902,-0.310275,1.79453,-2.70487,0.345737,1.60543,-2.73005,0.32369,1.65888,-0.471897,0.739358,0.507616,0.370339,0.769101,-0.535191,0.629193,1
1.77357,-0.484644,-1.34479,-1.01325,2.4695,1.14396,-0.44981,1.77357,-0.484644,-1.34479,-1.01325,2.4695,1.14396,-0.44981,1.71682,-0.557039,-1.40388,-1.02073,2.40785,1.12134,-0.511314,1.49989,1.27573,1.12496,-0.0283995,1.01724,0.97659,1.08936,1.49989,1.27573,1.12496,-0.0283995,1.01724,0.97659,1.08936,0.357008,-0.209572,1.05554,0.28843,-0.0545295,0.022102,0.955691,-0.121366,1.57789,0.517895,1.7922,-0.306692,1.80999,-2.68135,0.358286,1.54546,-2.71922,0.331974,1.5564,0.567475,0.723953,0.590912,0.0747458,0.616574,0.226197,0.615037,1
1.67679,-0.470925,-1.34498,-0.984586,2.49633,1.0653,-0.437644,1.67679,-0.470925,-1.34498,-0.984586,2.49633,1.0653,-0.437644,1.71697,-0.544818,-1.39465,-1.01693,2.41951,1.11898,-0.500898,-1.29445,1.3184,0.853979,0.784066,1.43403,-1.3331,1.12187,-1.29445,1.3184,0.853979,0.784066,1.43403,-1.3331,1.12187,0.353058,-0.201397,1.06137,0.277781,-0.0582034,0.0210691,0.958648,-0.598939,0.258286,0.7144,1.76539,-0.302896,1.82453,-2.68137,0.379586,1.45413,-2.70659,0.342688,1.46186,-0.401781,0.738933,0.496731,0.323457,0.768247,-0.536841,0.632534,1
1.7728,-0.460419,-1.33163,-1.00352,2.49459,1.11635,-0.429627,1.7728,-0.460419,-1.33163,-1.00352,2.49459,1.11635,-0.429627,1.71858,-0.532613,-1.38546,-1.01345,2.43097,1.11673,-0.490526,1.46437,1.27738,1.08309,0.00516152,1.02626,0.725178,1.08422,1.46437,1.27738,1.08309,0.00516152,1.02626,0.725178,1.08422,0.34947,-0.192547,1.06694,0.266298,-0.0617603,0.0202256,0.961697,-0.12958,1.54451,0.489594,1.738,-0.299343,1.83776,-2.73925,0.3553,1.32278,-2.70083,0.35315,1.37018,0.542152,0.721946,0.538315,0.0992667,0.636248,-0.00378065,0.608993,1
1.67941,-0.446529,-1.32909,-0.976277,2.51913,1.05876,-0.41665,1.67941,-0.446529,-1.32909,-0.976277,2.51913,1.05876,-0.41665,1.71937,-0.52039,-1.37649,-1.01004,2.44264,1.11351,-0.48009,-1.13388,1.31723,0.839187,0.677679,1.42967,-1.28375,1.1303,-1.13388,1.31723,0.839187,0.677679,1.42967,-1.28375,1.1303,0.345922,-0.183978,1.07234,0.255084,-0.0646614,0.0195595,0.964556,-0.525928,0.366419,0.654396,1.71079,-0.296106,1.85048,-2.72017,0.323722,1.27199,-2.70119,0.357019,1.28276,-0.399614,0.738612,0.474,0.337586,0.764838,-0.547518,0.6344,1
1.76842,-0.435314,-1.32207,-1.01942,2.52315,1.07743,-0.409226,1.76842,-0.435314,-1.32207,-1.01942,2.52315,1.07743,-0.409226,1.72123,-0.508214,-1.36795,-1.00663,2.45431,1.10884,-0.469759,1.37303,1.27275,0.967103,0.0828403,1.07253,0.199884,1.06869,1.37303,1.27275,0.967103,0.0828403,1.07253,0.199884,1.06869,0.342883,-0.17512,1.07755,0.243493,-0.0666727,0.0191353,0.967419,-0.111347,1.45463,0.466973,1.70913,-0.287964,1.8491,-0.166368,0.814193,-0.138068,-2.43375,0.403541,1.05538,0.471813,0.729005,0.458786,-0.127907,0.688358,-0.314098,0.605333,1
1.68314,-0.423701,-1.31141,-0.967047,2.54303,1.05059,-0.397781,1.68314,-0.423701,-1.31141,-0.967047,2.54303,1.05059,-0.397781,1.72167,-0.49601,-1.35962,-1.00274,2.46611,1.10373,-0.459357,-1.12523,1.31762,0.812961,0.704735,1.41188,-1.19776,1.13725,-1.12523,1.31762,0.812961,0.704735,1.41188,-1.19776,1.13725,0.339535,-0.166866,1.08273,0.232624,-0.0684885,0.0187621,0.969971,-0.523028,0.383204,0.628006,1.6559,-0.290298,1.87314,-5.32308,-0.233409,2.4048,-2.53602,0.372059,1.01428,-0.385218,0.723086,0.48209,0.356942,0.769277,-0.531413,0.615765,1
1.75905,-0.408256,-1.31352,-1.01245,2.54828,1.05355,-0.387576,1.75905,-0.408256,-1.31352,-1.01245,2.54828,1.05355,-0.387576,1.72278,-0.483747,-1.35204,-1.00196,2.47831,1.09598,-0.449038,1.21529,1.28973,0.798038,-0.465059,1.19412,-0.493914,1.06016,1.21529,1.28973,0.798038,-0.465059,1.19412,-0.493914,1.06016,0.337844,-0.157655,1.08693,0.220879,-0.0676345,0.0194392,0.972759,0.103251,1.50666,0.28135,1.62836,-0.286893,1.88226,-2.75444,0.340515,0.912082,-2.64066,0.342759,0.962146,0.362743,0.754904,0.385225,-0.104948,0.699707,-0.424253,0.614617,1
1.66557,-0.397737,-1.30737,-0.955957,2.56537,1.03404,-0.375663,1.66557,-0.397737,-1.30737,-0.955957,2.56537,1.03404,-0.375663,1.72285,-0.471669,-1.34416,-0.999666,2.49056,1.08872,-0.438887,-1.05745,1.2774,0.872133,0.868652,1.39733,-1.01542,1.09467,-1.05745,1.2774,0.872133,0.868652,1.39733,-1.01542,1.09467,0.335393,-0.1492,1.09138,0.209839,-0.0674878,0.0196641,0.975206,-0.569543,0.374226,0.641372,1.60082,-0.283566,1.89027,-2.75358,0.332639,0.800312,-2.74243,0.316775,0.903214,-0.572884,0.739321,0.367845,0.437091,0.748084,-0.546843,0.632237,1
1.69838,-0.379689,-1.31566,-0.999068,2.57358,1.03065,-0.363884,1.69838,-0.379689,-1.31566,-0.999068,2.57358,1.03065,-0.363884,1.73086,-0.457642,-1.33738,-1.00249,2.50333,1.08094,-0.427537,0.750757,1.31516,0.635477,-0.265174,1.197,-0.729394,1.06417,0.750757,1.31516,0.635477,-0.265174,1.197,-0.729394,1.06417,0.335726,-0.135489,1.09456,0.19335,-0.0652501,0.0218808,0.978713,0.00523411,1.28302,0.287997,1.57345,-0.28011,1.89747,-2.73702,0.345689,0.720286,-2.83701,0.299466,0.842475,-0.324787,0.779528,0.217205,0.0342642,0.702468,-0.502929,0.636534,1
1.65784,-0.369672,-1.31427,-0.950532,2.5887,1.02012,-0.354163,1.65784,-0.369672,-1.31427,-0.950532,2.5887,1.02012,-0.354163,1.72611,-0.445482,-1.33138,-0.998058,2.51528,1.07259,-0.417298,-1.61238,1.27147,0.6393,1.12118,1.33393,-1.02669,1.10875,-1.61238,1.27147,0.6393,1.12118,1.33393,-1.02669,1.10875,0.332499,-0.129439,1.09908,0.185862,-0.0647454,0.0223884,0.980185,-0.650829,0.0846827,0.649659,1.54619,-0.276396,1.90358,-2.72622,0.371337,0.611007,-2.92951,0.291318,0.775663,-0.682669,0.758098,0.17113,0.475269,0.734203,-0.524714,0.631351,1
1.65215,-0.354135,-1.32327,-0.967039,2.59881,1.00646,-0.34304,1.65215,-0.354135,-1.32327,-0.967039,2.59881,1.00646,-0.34304,1.71657,-0.4328,-1.32704,-0.993811,2.52732,1.06367,-0.406704,-0.484483,1.41436,0.30315,-0.139982,1.23169,-0.879209,1.14033,-0.484483,1.41436,0.30315,-0.139982,1.23169,-0.879209,1.14033,0.329181,-0.124837,1.10333,0.181121,-0.0634914,0.0236015,0.981125,-0.110623,0.830059,0.271617,1.51883,-0.272892,1.9087,-2.73607,0.350454,0.511944,-3.01873,0.285013,0.710328,-0.644298,0.786652,0.0377635,0.267723,0.714821,-0.572112,0.636646,1
1.63818,-0.342217,-1.32113,-0.951233,2.61388,1.00323,-0.332797,1.63818,-0.342217,-1.32113,-0.951233,2.61388,1.00323,-0.332797,1.70358,-0.418836,-1.32422,-0.984238,2.5409,1.05403,-0.395082,-1.21805,1.30926,0.264978,0.89761,1.27293,-0.903118,1.08969,-1.21805,1.30926,0.264978,0.89761,1.27293,-0.903118,1.08969,0.324131,-0.122265,1.10894,0.178892,-0.0635171,0.0239148,0.981525,-0.469115,0.250287,0.521432,1.49148,-0.269794,1.91252,-2.73479,0.309715,0.382435,-2.73912,0.345297,0.458304,-0.653993,0.766194,0.030917,0.330045,0.729827,-0.508074,0.622848,1
1.62836,-0.327902,-1.32356,-0.950644,2.627,0.991841,-0.321084,1.62836,-0.327902,-1.32356,-0.950644,2.627,0.991841,-0.321084,1.69221,-0.404524,-1.32401,-0.980433,2.55371,1.04351,-0.38357,-1.06683,1.34189,0.0197065,0.3567,1.20095,-0.986776,1.07935,-1.06683,1.34189,0.0197065,0.3567,1.20095,-0.986776,1.07935,0.321901,-0.117751,1.11263,0.175968,-0.0604996,0.026389,0.982181,-0.229669,0.414757,0.338187,1.46439,-0.267037,1.91598,-2.70895,0.275791,0.345123,-2.73287,0.336895,0.360272,-0.638489,0.766224,0.00443506,0.297898,0.732924,-0.516687,0.624866,1
1.61651,-0.314062,-1.33063,-0.949856,2.63995,0.985326,-0.310251,1.61651,-0.314062,-1.33063,-0.949856,2.63995,0.985326,-0.310251,1.68026,-0.390742,-1.32337,-0.973974,2.56702,1.0346,-0.372339,-1.12038,1.29224,0.0597611,0.605602,1.24799,-0.835456,1.05302,-1.12038,1.29224,0.0597611,0.605602,1.24799,-0.835456,1.05302,0.318545,-0.114341,1.11688,0.173615,-0.0591948,0.0275912,0.982646,-0.321051,0.320389,0.39267,1.43729,-0.263719,1.91834,-2.71028,0.331712,0.236654,-2.72654,0.329602,0.264923,-0.637465,0.766801,-0.0725806,0.241188,0.729336,-0.492734,0.620886,1
1.60694,-0.30242,-1.33272,-0.943478,2.65275,0.979645,-0.300468,1.60694,-0.30242,-1.33272,-0.943478,2.65275,0.979645,-0.300468,1.6698,-0.378326,-1.32316,-0.968875,2.57893,1.02632,-0.362216,-1.10352,1.34282,-0.0107556,0.485503,1.28024,-0.918235,1.09538,-1.10352,1.34282,-0.0107556,0.485503,1.28024,-0.918235,1.09538,0.316008,-0.110945,1.12038,0.171328,-0.0575264,0.0289332,0.983108,-0.254297,0.380826,0.351483,1.41031,-0.260233,1.91959,-2.69736,0.348625,0.125051,-2.72018,0.32442,0.168445,-0.628545,0.759065,-0.0955927,0.253968,0.738203,-0.466772,0.617485,1
1.59507,-0.289268,-1.34012,-0.945374,2.66428,0.973091,-0.289843,1.59507,-0.289268,-1.34012,-0.945374,2.66428,0.973091,-0.289843,1.65924,-0.365546,-1.32408,-0.96475,2.59108,1.01793,-0.351845,-1.13784,1.37104,-0.174391,0.396631,1.30143,-0.868239,1.10767,-1.13784,1.37104,-0.174391,0.396631,1.30143,-0.868239,1.10767,0.314095,-0.107289,1.12346,0.169164,-0.0551874,0.0306777,0.983563,-0.201473,0.374145,0.303304,1.38332,-0.257264,1.91996,-2.6996,0.296915,0.037086,-2.71368,0.3171,0.0741132,-0.641683,0.76278,-0.160395,0.193754,0.731971,-0.448381,0.620016,1
1.58451,-0.276798,-1.34758,-0.945013,2.6766,0.968776,-0.279957,1.58451,-0.276798,-1.34758,-0.945013,2.6766,0.968776,-0.279957,1.64866,-0.35279,-1.32577,-0.960706,2.6034,1.01005,-0.341495,-1.11103,1.34138,-0.184964,0.458777,1.31424,-0.809701,1.09256,-1.11103,1.34138,-0.184964,0.458777,1.31424,-0.809701,1.09256,0.312364,-0.103778,1.12635,0.167265,-0.052872,0.0323624,0.983961,-0.211551,0.352089,0.306881,1.35595,-0.25415,1.91936,-2.73712,0.311378,-0.0607014,-2.71087,0.314601,-0.0197692,-0.641465,0.75992,-0.218007,0.156925,0.732065,-0.412741,0.615376,1
1.57322,-0.26427,-1.35298,-0.943879,2.68892,0.963764,-0.269677,1.57322,-0.26427,-1.35298,-0.943879,2.68892,0.963764,-0.269677,1.63804,-0.340103,-1.32818,-0.957118,2.61567,1.00255,-0.331171,-1.14428,1.35374,-0.317949,0.312736,1.29456,-0.784613,1.10058,-1.14428,1.35374,-0.317949,0.312736,1.29456,-0.784613,1.10058,0.31095,-0.100338,1.12894,0.165619,-0.0503949,0.034128,0.98431,-0.141833,0.355169,0.245277,1.32894,-0.250926,1.91761,-2.70026,0.322434,-0.174403,-2.7088,0.317263,-0.115547,-0.648199,0.758333,-0.248038,0.132384,0.73255,-0.387903,0.614939,1
1.56222,-0.251546,-1.35955,-0.948317,2.70079,0.959374,-0.259675,1.56222,-0.251546,-1.35955,-0.948317,2.70079,0.959374,-0.259675,1.62729,-0.327393,-1.3317,-0.954478,2.62787,0.99553,-0.320868,-1.13919,1.34736,-0.422834,0.252042,1.2978,-0.712472,1.08947,-1.13919,1.34736,-0.422834,0.252042,1.2978,-0.712472,1.08947,0.310068,-0.0969405,1.13108,0.164369,-0.0475392,0.0361397,0.98459,-0.104835,0.340404,0.208681,1.30228,-0.247506,1.91504,-2.66653,0.341943,-0.256979,-2.70496,0.322357,-0.216049,-0.650706,0.758466,-0.278521,0.0616063,0.729258,-0.361561,0.611925,1
1.55257,-0.239515,-1.3649,-0.950591,2.71345,0.955934,-0.250504,1.55257,-0.239515,-1.3649,-0.950591,2.71345,0.955934,-0.250504,1.6165,-0.314729,-1.33585,-0.952251,2.6401,0.989023,-0.310611,-1.15265,1.3437,-0.456397,0.222926,1.30021,-0.672628,1.09001,-1.15265,1.3437,-0.456397,0.222926,1.30021,-0.672628,1.09001,0.309444,-0.0936403,1.13296,0.163357,-0.0446214,0.0381606,0.984818,-0.0868837,0.333932,0.189394,1.27518,-0.24348,1.91146,-2.70963,0.402668,-0.358284,-2.70271,0.330395,-0.314633,-0.639303,0.752145,-0.290501,0.0165987,0.733526,-0.330893,0.601062,1
1.54297,-0.22732,-1.36962,-0.953596,2.72588,0.950064,-0.241267,1.54297,-0.22732,-1.36962,-0.953596,2.72588,0.950064,-0.241267,1.60564,-0.302073,-1.34041,-0.95092,2.65229,0.98292,-0.300381,-1.15608,1.34547,-0.509731,0.06933,1.29159,-0.62701,1.08395,-1.15608,1.34547,-0.509731,0.06933,1.29159,-0.62701,1.08395,0.309236,-0.0902692,1.13448,0.162436,-0.041426,0.040318,0.985024,-0.0246459,0.351433,0.13271,1.24804,-0.239908,1.90712,-2.71412,0.357188,-0.434136,-2.7027,0.339957,-0.4098,-0.626636,0.747527,-0.292123,-0.0267569,0.735881,-0.328559,0.591143,1
1.53386,-0.215109,-1.37375,-0.955332,2.73811,0.944375,-0.231957,1.53386,-0.215109,-1.37375,-0.955332,2.73811,0.944375,-0.231957,1.5949,-0.289482,-1.34527,-0.950612,2.66451,0.977307,-0.290299,-1.12712,1.33059,-0.5226,0.000554252,1.30327,-0.569158,1.0597,-1.12712,1.33059,-0.5226,0.000554252,1.30327,-0.569158,1.0597,0.309482,-0.0867901,1.13558,0.161489,-0.0379515,0.0425522,0.985226,0.00615029,0.357217,0.102391,1.2209,-0.236484,1.90184,-2.7137,0.342441,-0.527906,-2.7029,0.350973,-0.503578,-0.610398,0.743732,-0.284838,-0.0472014,0.736034,-0.329323,0.583421,1
1.52512,-0.203317,-1.3781,-0.951085,2.75075,0.939449,-0.222661,1.52512,-0.203317,-1.3781,-0.951085,2.75075,0.939449,-0.222661,1.58441,-0.276997,-1.35017,-0.95096,2.67679,0.97189,-0.280411,-1.1034,1.32285,-0.518036,-0.070191,1.30711,-0.581202,1.04238,-1.1034,1.32285,-0.518036,-0.070191,1.30711,-0.581202,1.04238,0.31007,-0.0832242,1.13641,0.160425,-0.0342422,0.0447453,0.985439,0.0435627,0.3707,0.0739638,1.19425,-0.233858,1.896,-2.66551,0.262521,-0.583649,-2.69789,0.347712,-0.591184,-0.592918,0.736799,-0.279316,-0.00124341,0.739541,-0.324413,0.577504,1
1.51486,-0.190954,-1.38532,-0.945817,2.76296,0.933137,-0.213046,1.51486,-0.190954,-1.38532,-0.945817,2.76296,0.933137,-0.213046,1.57417,-0.264573,-1.35496,-0.951747,2.68909,0.966394,-0.270659,-1.07349,1.31719,-0.500589,-0.095455,1.30541,-0.58633,1.03058,-1.07349,1.31719,-0.500589,-0.095455,1.30541,-0.58633,1.03058,0.310944,-0.0795432,1.13705,0.15921,-0.0302827,0.0469058,0.985665,0.0637502,0.383128,0.0597729,1.16691,-0.231069,1.88906,-2.73371,0.278914,-0.694513,-2.70155,0.335225,-0.676297,-0.593135,0.736199,-0.30362,0.0593066,0.738672,-0.332567,0.576129,1
1.50412,-0.178692,-1.3946,-0.946469,2.77476,0.93031,-0.20324,1.50412,-0.178692,-1.3946,-0.946469,2.77476,0.93031,-0.20324,1.56423,-0.252246,-1.35962,-0.952041,2.70142,0.960944,-0.261006,-1.04149,1.30295,-0.491946,0.0254717,1.31363,-0.572409,1.02108,-1.04149,1.30295,-0.491946,0.0254717,1.31363,-0.572409,1.02108,0.311727,-0.0759223,1.13776,0.157935,-0.0265449,0.0488333,0.985884,0.0321368,0.36404,0.0883367,1.1392,-0.227871,1.88063,-2.77081,0.31978,-0.842774,-2.7127,0.320629,-0.768421,-0.60107,0.735543,-0.349724,0.055723,0.733454,-0.306342,0.577652,1
1.49366,-0.167012,-1.40283,-0.944386,2.78711,0.930682,-0.194096,1.49366,-0.167012,-1.40283,-0.944386,2.78711,0.930682,-0.194096,1.55437,-0.23997,-1.36456,-0.951211,2.71376,0.955448,-0.251394,-1.05218,1.30528,-0.552783,0.143635,1.30994,-0.594118,1.02118,-1.05218,1.30528,-0.552783,0.143635,1.30994,-0.594118,1.02118,0.312217,-0.0725883,1.13871,0.15694,-0.0232174,0.0504831,0.986044,0.00876285,0.326906,0.113285,1.1118,-0.224339,1.87106,-2.74038,0.353283,-0.956964,-2.72076,0.310397,-0.867703,-0.607105,0.729583,-0.382701,0.068241,0.73341,-0.247652,0.572983,1
1.4816,-0.154394,-1.41249,-0.94848,2.79839,0.929473,-0.18465,1.4816,-0.154394,-1.41249,-0.94848,2.79839,0.929473,-0.18465,1.54437,-0.227687,-1.37024,-0.950094,2.72603,0.95018,-0.241759,-1.07178,1.3047,-0.648568,0.0965367,1.29764,-0.529131,1.02572,-1.07178,1.3047,-0.648568,0.0965367,1.29764,-0.529131,1.02572,0.312716,-0.0695549,1.13964,0.156426,-0.0200125,0.052077,0.986113,0.033125,0.299299,0.085772,1.08482,-0.220638,1.86064,-2.69762,0.370081,-1.04191,-2.72466,0.314598,-0.972725,-0.627743,0.732928,-0.422484,0.0161436,0.723586,-0.207075,0.571087,1
1.47041,-0.142362,-1.42219,-0.958797,2.8092,0.933774,-0.175581,1.47041,-0.142362,-1.42219,-0.958797,2.8092,0.933774,-0.175581,1.53424,-0.215477,-1.3766,-0.949048,2.73826,0.945829,-0.232164,-1.08052,1.29058,-0.698566,0.124118,1.30065,-0.403334,1.01373,-1.08052,1.29058,-0.698566,0.124118,1.30065,-0.403334,1.01373,0.313222,-0.0668069,1.14044,0.156303,-0.0171287,0.0535864,0.986106,0.0184505,0.26746,0.0844586,1.05822,-0.216848,1.84928,-2.66047,0.378975,-1.13579,-2.72149,0.328852,-1.07996,-0.638245,0.731149,-0.455918,-0.0974986,0.709334,-0.120552,0.565834,1
1.46061,-0.131004,-1.43226,-0.963124,2.82062,0.948687,-0.168309,1.46061,-0.131004,-1.43226,-0.963124,2.82062,0.948687,-0.168309,1.52384,-0.203274,-1.38353,-0.948497,2.75039,0.942336,-0.222634,-1.12505,1.30162,-0.771063,0.000472089,1.27817,-0.342541,1.01146,-1.12505,1.30162,-0.771063,0.000472089,1.27817,-0.342541,1.01146,0.313886,-0.0642503,1.14099,0.156572,-0.0143671,0.0551351,0.986022,0.0646596,0.255424,0.037015,1.03051,-0.2138,1.83662,-2.77102,0.304845,-1.26588,-2.72495,0.342329,-1.19169,-0.632388,0.722701,-0.487298,-0.146267,0.702324,0.0635106,0.543246,1
1.44793,-0.118482,-1.44614,-0.967883,2.82915,0.966438,-0.161275,1.44793,-0.118482,-1.44614,-0.967883,2.82915,0.966438,-0.161275,1.51318,-0.191048,-1.39108,-0.949706,2.76228,0.939996,-0.213166,-1.13897,1.29646,-0.828415,-0.242099,1.24934,-0.165704,1.00086,-1.13897,1.29646,-0.828415,-0.242099,1.24934,-0.165704,1.00086,0.315155,-0.061724,1.1409,0.157136,-0.011294,0.0569555,0.985869,0.138427,0.255444,-0.048001,1.00337,-0.210495,1.82282,-2.71389,0.330427,-1.3809,-2.71999,0.347699,-1.30184,-0.652527,0.725659,-0.550617,-0.181773,0.668664,0.264414,0.518914,1
1.43715,-0.106106,-1.45917,-0.981126,2.83389,0.982069,-0.154548,1.43715,-0.106106,-1.45917,-0.981126,2.83389,0.982069,-0.154548,1.50257,-0.178944,-1.39914,-0.952225,2.774,0.940372,-0.203998,-1.11751,1.27661,-0.881952,-0.290225,1.24158,0.221423,0.950359,-1.11751,1.27661,-0.881952,-0.290225,1.24158,0.221423,0.950359,0.316587,-0.0593007,1.14031,0.157925,-0.00890453,0.058819,0.985658,0.117181,0.233269,-0.0726044,0.976552,-0.208042,1.80852,-2.68171,0.245363,-1.4295,-2.71117,0.335764,-1.40298,-0.654234,0.728378,-0.600219,-0.289003,0.598865,0.416965,0.494495,1
1.42665,-0.09499,-1.47044,-0.997146,2.84253,0.986174,-0.147044,1.42665,-0.09499,-1.47044,-0.997146,2.84253,0.986174,-0.147044,1.4918,-0.166868,-1.4081,-0.955195,2.78531,0.944297,-0.195277,-1.16814,1.28848,-1.01296,-0.337866,1.16718,0.589579,0.905449,-1.16814,1.28848,-1.01296,-0.337866,1.16718,0.589579,0.905449,0.317716,-0.0571486,1.13948,0.159444,-0.00798729,0.0607619,0.985303,0.0995225,0.193101,-0.0997658,0.949493,-0.205342,1.79316,-2.7059,0.26996,-1.53632,-2.70825,0.316195,-1.50149,-0.651465,0.718785,-0.62341,-0.419509,0.572133,0.418769,0.482334,1
1.41926,-0.083432,-1.48074,-1.00909,2.8534,0.988687,-0.141198,1.41926,-0.083432,-1.48074,-1.00909,2.84842,0.988687,-0.141198,1.48083,-0.154711,-1.41804,-0.959558,2.79557,0.951031,-0.186965,-1.16324,1.29437,-1.09505,-0.574355,1.02046,0.826536,0.863275,-1.16324,1.29437,-1.09505,-0.574355,1.02046,0.826536,0.863275,0.319047,-0.0550837,1.13809,0.161846,-0.00774359,0.0632599,0.984756,0.164405,0.198697,-0.185202,0.922365,-0.202305,1.77678,-2.7128,0.303727,-1.63814,-2.70993,0.299174,-1.59983,-0.615668,0.712793,-0.626973,-0.495304,0.578349,0.376552,0.457673,1
1.4097,-0.0727086,-1.49247,-1.01714,2.86556,0.997577,-0.133217,1.4097,-0.0727086,-1.49247,-1.01714,2.84842,0.997577,-0.133217,1.46993,-0.142654,-1.42847,-0.966211,2.80506,0.958379,-0.178913,-1.15257,1.2693,-1.11782,-0.823812,0.997818,0.740189,0.848691,-1.15257,1.2693,-1.11782,-0.823812,0.997818,0.740189,0.848691,0.32125,-0.0530727,1.13588,0.164574,-0.00668379,0.0662141,0.984117,0.265239,0.177064,-0.271858,0.895411,-0.199129,1.75952,-2.69539,0.317574,-1.72563,-2.70923,0.290356,-1.69517,-0.602379,0.699452,-0.640002,-0.509265,0.605046,0.391978,0.456959,1
1.39977,-0.0626507,-1.50437,-1.02451,2.87598,1.00789,-0.125985,1.39977,-0.0626507,-1.50437,-1.02451,2.84842,1.00789,-0.125985,1.45949,-0.130752,-1.43896,-0.974457,2.81404,0.964823,-0.171177,-1.07132,1.26016,-1.11265,-0.922239,0.915482,0.635504,0.798338,-1.07132,1.26016,-1.11265,-0.922239,0.915482,0.635504,0.798338,0.324268,-0.0510962,1.1331,0.167349,-0.00441852,0.0693821,0.983443,0.317804,0.190003,-0.309957,0.868921,-0.196434,1.74168,-2.64899,0.269523,-1.78444,-2.69594,0.287738,-1.7828,-0.597184,0.681018,-0.654083,-0.500555,0.6194,0.430689,0.451914,1
1.38991,-0.0534763,-1.51496,-1.03208,2.88472,1.01465,-0.117855,1.38991,-0.0534763,-1.51496,-1.03208,2.84842,1.01465,-0.117855,1.44947,-0.119025,-1.44958,-0.983063,2.82164,0.971146,-0.163607,-1.05917,1.23343,-1.14205,-0.90741,0.712978,0.703868,0.80931,-1.05917,1.23343,-1.14205,-0.90741,0.712978,0.703868,0.80931,0.327488,-0.0491591,1.13011,0.170478,-0.00193074,0.0729606,0.982655,0.305922,0.165357,-0.314803,0.841983,-0.19296,1.72246,-2.69377,0.347364,-1.92199,-2.69107,0.292979,-1.87289,-0.595537,0.655488,-0.653816,-0.490198,0.630745,0.435001,0.457521,1
1.37915,-0.0436475,-1.5263,-1.04124,2.89101,1.01938,-0.111372,1.37915,-0.0436475,-1.5263,-1.04124,2.84842,1.01938,-0.111372,1.4395,-0.107598,-1.46047,-0.991467,2.82756,0.978205,-0.156035,-1.05807,1.19697,-1.16918,-0.880013,0.555268,0.790578,0.800248,-1.05807,1.19697,-1.16918,-0.880013,0.555268,0.790578,0.800248,0.330521,-0.047479,1.1271,0.174215,0.000119186,0.0769797,0.981694,0.28411,0.12756,-0.313897,0.81523,-0.189336,1.70221,-2.6753,0.362448,-2.0241,-2.68724,0.309831,-1.96937,-0.603521,0.639507,-0.658368,-0.497767,0.634456,0.411725,0.44663,1
1.3702,-0.0345378,-1.53735,-1.05057,2.89664,1.02759,-0.105134,1.3702,-0.0345378,-1.53735,-1.05057,2.84842,1.02759,-0.105134,1.42956,-0.0965778,-1.47142,-0.999666,2.83218,0.985565,-0.148433,-1.05571,1.14781,-1.1595,-0.863271,0.432443,0.774442,0.814293,-1.05571,1.14781,-1.1595,-0.863271,0.432443,0.774442,0.814293,0.333403,-0.0461356,1.12409,0.178365,0.00194675,0.0812533,0.980602,0.275142,0.0891153,-0.313861,0.788433,-0.185498,1.68122,-2.67969,0.383753,-2.09916,-2.68169,0.327281,-2.06426,-0.593581,0.6204,-0.659278,-0.508989,0.644615,0.420232,0.432987,1
1.36212,-0.0278602,-1.54869,-1.06134,2.90105,1.03788,-0.100897,1.36212,-0.0278602,-1.54869,-1.06134,2.84842,1.03788,-0.100897,1.41952,-0.0858888,-1.48239,-1.00791,2.83577,0.992554,-0.140907,-1.07511,1.1249,-1.16953,-0.887605,0.336787,0.714316,0.78653,-1.07511,1.1249,-1.16953,-0.887605,0.336787,0.714316,0.78653,0.336331,-0.0451311,1.121,0.182912,0.00401382,0.0857177,0.979377,0.286193,0.0530698,-0.327213,0.761894,-0.18204,1.65928,-2.65396,0.345829,-2.19479,-2.67521,0.339838,-2.15913,-0.573992,0.580286,-0.663047,-0.534262,0.652782,0.453232,0.400106,1
1.35495,-0.023052,-1.56013,-1.07232,2.90395,1.0463,-0.0981275,1.35495,-0.023052,-1.56013,-1.07232,2.84842,1.0463,-0.0981275,1.40954,-0.0754747,-1.4934,-1.01638,2.83857,0.999452,-0.133641,-1.0477,1.09016,-1.17045,-0.91033,0.26229,0.749281,0.759154,-1.0477,1.09016,-1.17045,-0.91033,0.26229,0.749281,0.759154,0.339322,-0.044409,1.11779,0.187801,0.00626146,0.090323,0.978025,0.28451,0.0275492,-0.339109,0.734947,-0.17973,1.63634,-2.6947,0.231035,-2.29348,-2.67499,0.337316,-2.25562,-0.545925,0.524227,-0.667322,-0.559407,0.653847,0.468532,0.355138,1
1.35027,-0.0205168,-1.5715,-1.08562,2.90549,1.05236,-0.0978085,1.35027,-0.0205168,-1.5715,-1.08562,2.84842,1.05236,-0.0978085,1.39989,-0.0656348,-1.50445,-1.02521,2.84075,1.00688,-0.126838,-1.00572,1.00595,-1.17806,-0.962174,0.204272,0.825335,0.690813,-1.00572,1.00595,-1.17806,-0.962174,0.204272,0.825335,0.690813,0.342285,-0.0441005,1.11442,0.192901,0.00843119,0.0948746,0.976584,0.280292,-0.0311591,-0.360092,0.708319,-0.176683,1.61263,-2.66281,0.304647,-2.37101,-2.67577,0.332177,-2.35109,-0.496165,0.45118,-0.670453,-0.604082,0.64747,0.454785,0.290293,1
1.35631,-0.020074,-1.58246,-1.10008,2.9047,1.06372,-0.104202,1.35631,-0.020074,-1.58246,-1.10008,2.84842,1.06372,-0.104202,1.39069,-0.0567141,-1.51558,-1.03449,2.84244,1.01473,-0.120774,-0.951884,0.896435,-1.18633,-1.00744,0.159087,0.840845,0.603089,-0.951884,0.896435,-1.18633,-1.00744,0.159087,0.840845,0.603089,0.345208,-0.0444567,1.11086,0.198257,0.0106143,0.0991514,0.975064,0.275708,-0.106635,-0.377617,0.68146,-0.174025,1.58781,-2.68591,0.265771,-2.48206,-2.67457,0.313851,-2.44282,-0.343853,0.366402,-0.66875,-0.655863,0.6226,0.489862,0.165721,1
1.3636,-0.0337828,-1.59339,-1.11287,2.90375,1.07629,-0.114364,1.3636,-0.0337828,-1.59339,-1.11287,2.84842,1.07629,-0.114364,1.38224,-0.0489702,-1.52677,-1.04442,2.84376,1.02243,-0.115727,-0.851202,0.757724,-1.19107,-1.09705,0.123897,0.79722,0.477185,-0.851202,0.757724,-1.19107,-1.09705,0.123897,0.79722,0.477185,0.348201,-0.0456067,1.10708,0.20384,0.0131489,0.102968,0.973485,0.288018,-0.188934,-0.409431,0.654357,-0.171073,1.56217,-2.71024,0.295202,-2.56424,-2.67908,0.296749,-2.53433,-0.186405,0.151874,-0.666214,-0.684483,0.599836,0.53862,0.0136325,1
1.35907,-0.0752934,-1.60579,-1.12369,2.89633,1.08782,-0.116031,1.35907,-0.0752934,-1.60579,-1.12369,2.84842,1.08782,-0.116031,1.37588,-0.0426243,-1.53795,-1.05523,2.84479,1.03038,-0.112515,-0.521105,0.600523,-1.18516,-1.19422,0.0964911,0.887697,0.221373,-0.521105,0.600523,-1.18516,-1.19422,0.0964911,0.887697,0.221373,0.351281,-0.0472081,1.10299,0.209294,0.015817,0.106218,0.971938,0.294033,-0.195227,-0.443115,0.628101,-0.167362,1.53514,-2.62557,0.371177,-2.70256,-2.67699,0.293025,-2.63211,-0.168065,-0.326691,-0.678353,-0.684519,0.515422,0.574364,-0.0351598,1
1.33444,-0.095071,-1.61745,-1.1352,2.89283,1.09538,-0.130993,1.33444,-0.095071,-1.61745,-1.1352,2.84842,1.09538,-0.130993,1.3724,-0.039247,-1.54908,-1.06666,2.84559,1.03923,-0.11187,-0.23453,0.145506,-1.17996,-1.23064,0.0751437,0.986747,-0.0664085,-0.23453,0.145506,-1.17996,-1.23064,0.0751437,0.986747,-0.0664085,0.35403,-0.050068,1.09873,0.214537,0.0180821,0.108139,0.970543,0.23447,-0.419006,-0.452107,0.601161,-0.163838,1.50733,-2.69402,0.352341,-2.78144,-2.67804,0.303396,-2.73109,-0.37964,-0.55824,-0.683699,-0.685404,0.472329,0.561459,-0.191224,1
1.31767,-0.111789,-1.62702,-1.1493,2.89104,1.09845,-0.15663,1.31767,-0.111789,-1.62702,-1.1493,2.84842,1.09845,-0.15663,1.36992,-0.0429159,-1.56034,-1.07815,2.84622,1.04878,-0.112618,-0.289042,-0.862181,-1.21024,-1.21258,0.058522,1.03945,-0.0908907,-0.289042,-0.862181,-1.21024,-1.21258,0.058522,1.03945,-0.0908907,0.355567,-0.0578677,1.09455,0.220039,0.0199935,0.106655,0.969437,0.0623768,-1.15175,-0.444783,0.574106,-0.160435,1.47852,-2.70554,0.34031,-2.88048,-2.67927,0.322275,-2.83117,-0.522498,-0.688733,-0.666781,-0.71153,0.448263,0.496679,-0.440124,1
1.3142,-0.122459,-1.63666,-1.15615,2.90446,1.1027,-0.162168,1.3142,-0.122459,-1.63666,-1.15615,2.84842,1.1027,-0.162168,1.36463,-0.0524017,-1.57176,-1.08957,2.8467,1.05831,-0.115131,-0.803901,-1.13624,-1.21664,-1.21487,0.045577,0.987186,-0.422386,-0.803901,-1.13624,-1.21664,-1.21487,0.045577,0.987186,-0.422386,0.355877,-0.0710067,1.09036,0.227857,0.0220447,0.102288,0.968056,-0.0293593,-1.52304,-0.463353,0.547024,-0.157117,1.4486,-2.70818,0.331767,-2.99205,-2.68496,0.332546,-2.93393,-0.504249,-0.700577,-0.648964,-0.665785,0.577592,0.443925,-0.470374,1
1.30868,-0.136505,-1.64709,-1.16003,2.90942,1.10573,-0.161444,1.30868,-0.136505,-1.64709,-1.16003,2.84842,1.10573,-0.161444,1.35598,-0.0638046,-1.58299,-1.10132,2.84708,1.06687,-0.121652,-1.02008,-1.27779,-1.17233,-1.27763,0.0354954,0.841051,-0.93144,-1.02008,-1.27779,-1.17233,-1.27763,0.0354954,0.841051,-0.93144,0.355659,-0.0866947,1.08586,0.239141,0.0247434,0.0969336,0.965817,-0.0640052,-1.68249,-0.509172,0.520304,-0.154429,1.41741,-2.67201,0.268884,-3.11891,-2.68618,0.334389,-3.03907,-0.473046,-0.727008,-0.640936,-0.587061,0.623334,0.388631,-0.397917,1
1.30057,-0.148542,-1.65839,-1.1751,2.90819,1.11817,-0.167408,1.30057,-0.148542,-1.65839,-1.1751,2.84842,1.11817,-0.167408,1.3471,-0.0756725,-1.59387,-1.11274,2.84738,1.07435,-0.13004,-0.875988,-1.24589,-1.13959,-1.15601,0.0276438,0.75482,-0.855548,-0.875988,-1.24589,-1.13959,-1.15601,0.0276438,0.75482,-0.855548,0.355093,-0.10265,1.08126,0.251292,0.0277534,0.0912995,0.963196,-0.102693,-1.58788,-0.486468,0.494255,-0.151701,1.38538,-2.60487,0.272758,-3.20293,-2.67871,0.323943,-3.14476,-0.465338,-0.728691,-0.645244,-0.623636,0.60811,0.438119,-0.373679,1
1.29793,-0.160718,-1.6693,-1.19007,2.90551,1.13269,-0.174126,1.29793,-0.160718,-1.6693,-1.19007,2.84842,1.13269,-0.174126,1.33917,-0.0876722,-1.60456,-1.1228,2.84761,1.08098,-0.137061,-0.812117,-1.30038,-1.13256,-0.991402,0.021529,0.659106,-0.649275,-0.812117,-1.30038,-1.13256,-0.991402,0.021529,0.659106,-0.649275,0.353982,-0.118195,1.07695,0.26233,0.030571,0.0855279,0.960694,-0.170023,-1.58759,-0.450618,0.467534,-0.149201,1.35259,-2.6721,0.249964,-3.27911,-2.67613,0.30272,-3.24516,-0.412441,-0.730457,-0.64739,-0.67275,0.578979,0.517065,-0.370649,1
1.28595,-0.173748,-1.68086,-1.20106,2.90057,1.14037,-0.183829,1.28595,-0.173748,-1.68086,-1.20106,2.84842,1.14037,-0.183829,1.33148,-0.0998884,-1.61529,-1.13281,2.84779,1.08792,-0.143156,-0.823073,-1.29559,-1.14764,-1.12638,0.0167668,0.805518,-0.645813,-0.823073,-1.29559,-1.14764,-1.12638,0.0167668,0.805518,-0.645813,0.35251,-0.133719,1.07242,0.272765,0.0332927,0.0796456,0.9582,-0.178152,-1.58202,-0.522589,0.441159,-0.146414,1.31868,-2.63753,0.278732,-3.39153,-2.664,0.286273,-3.34653,-0.455215,-0.738599,-0.655672,-0.68253,0.527878,0.524533,-0.406738,1
1.2748,-0.18631,-1.69217,-1.21335,2.89627,1.14666,-0.193052,1.2748,-0.18631,-1.69217,-1.21335,2.84842,1.14666,-0.193052,1.32433,-0.112081,-1.62611,-1.14392,2.84793,1.09631,-0.14931,-0.702963,-1.29515,-1.15007,-1.22901,0.013058,0.96858,-0.660847,-0.702963,-1.29515,-1.15007,-1.22901,0.013058,0.96858,-0.660847,0.350975,-0.148925,1.06727,0.282786,0.0358644,0.0738636,0.955662,-0.177455,-1.52534,-0.582571,0.414685,-0.143515,1.28373,-2.6474,0.289908,-3.49512,-2.65272,0.276408,-3.44664,-0.495331,-0.742292,-0.660623,-0.694271,0.483495,0.503461,-0.437424,1
1.27172,-0.198967,-1.70319,-1.22506,2.89645,1.15736,-0.199615,1.27172,-0.198967,-1.70319,-1.22506,2.84842,1.15736,-0.199615,1.31708,-0.124371,-1.63702,-1.15542,2.84803,1.10526,-0.155939,-0.828914,-1.31488,-1.16744,-1.2153,0.0101696,0.934877,-0.742691,-0.828914,-1.31488,-1.16744,-1.2153,0.0101696,0.934877,-0.742691,0.349172,-0.164141,1.06175,0.293008,0.038396,0.0680557,0.952912,-0.230483,-1.57617,-0.602989,0.388378,-0.140465,1.2484,-2.63064,0.304948,-3.53236,-2.64382,0.27525,-3.53814,-0.453611,-0.745965,-0.661676,-0.696421,0.484145,0.521024,-0.436755,1
1.26563,-0.212023,-1.71431,-1.23665,2.89648,1.16643,-0.206962,1.26563,-0.212023,-1.71431,-1.23665,2.84842,1.16643,-0.206962,1.30889,-0.136769,-1.64805,-1.16696,2.84812,1.11377,-0.163192,-0.907784,-1.31924,-1.17498,-1.23528,0.00792009,0.875906,-0.795139,-0.907784,-1.31924,-1.17498,-1.23528,0.00792009,0.875906,-0.795139,0.346978,-0.179716,1.05597,0.303968,0.0412363,0.062131,0.949759,-0.26454,-1.59832,-0.635101,0.362118,-0.137111,1.21219,-2.626,0.335395,-3.62141,-2.63985,0.286102,-3.62322,-0.432558,-0.75254,-0.662656,-0.696889,0.483595,0.526623,-0.437697,1
1.2561,-0.22464,-1.72523,-1.24898,2.89401,1.17329,-0.214834,1.2561,-0.22464,-1.72523,-1.24898,2.84842,1.17329,-0.214834,1.30098,-0.149215,-1.6591,-1.1786,2.84818,1.1223,-0.170568,-0.779231,-1.32486,-1.17398,-1.23733,0.00616817,0.933716,-0.77348,-0.779231,-1.32486,-1.17398,-1.23733,0.00616817,0.933716,-0.77348,0.344554,-0.195099,1.04992,0.314766,0.0441475,0.056166,0.946477,-0.276694,-1.539,-0.659317,0.335375,-0.134331,1.17487,-2.67438,0.27805,-3.73183,-2.64376,0.293708,-3.70937,-0.448803,-0.754248,-0.661279,-0.703826,0.458289,0.509904,-0.442656,1
1.24995,-0.237318,-1.73606,-1.26105,2.89128,1.18143,-0.221675,1.24995,-0.237318,-1.73606,-1.26105,2.84842,1.18143,-0.221675,1.29379,-0.161754,-1.67016,-1.19024,2.84824,1.13112,-0.177857,-0.750016,-1.33862,-1.17572,-1.23591,0.00480378,0.940202,-0.775046,-0.750016,-1.33862,-1.17572,-1.23591,0.00480378,0.940202,-0.775046,0.34193,-0.210135,1.04363,0.325094,0.0469517,0.0501642,0.943182,-0.301721,-1.52164,-0.683708,0.310961,-0.129078,1.13971,-2.44132,0.525334,-3.51572,-2.6209,0.324787,-3.76354,-0.438489,-0.755635,-0.658962,-0.708161,0.430412,0.503073,-0.438186,1
1.24292,-0.250476,-1.74712,-1.27277,2.88772,1.1902,-0.228837,1.24292,-0.250476,-1.74712,-1.27277,2.84842,1.1902,-0.228837,1.28645,-0.174356,-1.68121,-1.20195,2.84828,1.13974,-0.18522,-0.807986,-1.339,-1.1722,-1.25231,0.00374119,0.893486,-0.788599,-0.807986,-1.339,-1.1722,-1.25231,0.00374119,0.893486,-0.788599,0.339047,-0.22513,1.03708,0.335439,0.0499461,0.0440867,0.939703,-0.332102,-1.52587,-0.713663,0.289665,-0.123715,1.10684,-2.12969,0.536293,-3.28765,-2.55333,0.368238,-3.76101,-0.435296,-0.761203,-0.659123,-0.708162,0.394429,0.504627,-0.436175,1
1.22902,-0.263138,-1.75737,-1.28352,2.88589,1.19387,-0.238071,1.22902,-0.263138,-1.75737,-1.28352,2.84842,1.19387,-0.238071,1.27901,-0.186968,-1.69222,-1.21377,2.84831,1.14812,-0.192574,-0.773988,-1.34082,-1.16741,-1.25907,0.00291378,0.887132,-0.774972,-0.773988,-1.34082,-1.16741,-1.25907,0.00291378,0.887132,-0.774972,0.335946,-0.240007,1.03025,0.345701,0.0531552,0.0379537,0.936069,-0.348818,-1.4959,-0.739427,0.291646,-0.119015,1.10127,0.198141,0.469925,-0.556231,-2.20608,0.410834,-3.42487,-0.499946,-0.761699,-0.651568,-0.697475,0.375873,0.457548,-0.454967,1
1.2155,-0.275019,-1.76442,-1.29046,2.89534,1.17331,-0.252009,1.2155,-0.275019,-1.76442,-1.29046,2.84842,1.17331,-0.252009,1.27176,-0.199652,-1.70321,-1.22561,2.84833,1.15652,-0.199853,-0.768005,-1.35348,-1.16923,-1.25589,0.00226925,0.897047,-0.771861,-0.768005,-1.35348,-1.16923,-1.25589,0.00226925,0.897047,-0.771861,0.332611,-0.25469,1.02319,0.355739,0.0564058,0.0317611,0.932341,-0.378225,-1.48198,-0.763133,0.304292,-0.126052,1.10181,1.2646,-0.703701,0.0532389,-1.56755,0.321597,-2.8059,-0.562505,-0.753671,-0.612066,-0.648507,0.470067,0.16796,-0.521559,1
1.2054,-0.282827,-1.75916,-1.2782,2.90336,1.12677,-0.261801,1.2054,-0.282827,-1.75916,-1.2782,2.84842,1.12677,-0.261801,1.26374,-0.212382,-1.71413,-1.2373,2.84835,1.1644,-0.207349,-0.92479,-1.35166,-1.15157,-1.23078,0.0017673,0.784875,-0.81813,-0.92479,-1.35166,-1.15157,-1.23078,0.0017673,0.784875,-0.81813,0.32885,-0.269477,1.01594,0.366115,0.0598883,0.0254634,0.928291,-0.438995,-1.51091,-0.776146,0.322277,-0.133072,1.10348,1.79848,-0.701971,0.167167,-0.717879,0.138347,-2.02392,-0.583437,-0.704455,-0.450309,-0.409006,0.550129,-0.376239,-0.544523,1
1.2513,-0.273692,-1.6977,-1.21326,2.91801,1.12644,-0.259306,1.2513,-0.273692,-1.6977,-1.21326,2.84842,1.12644,-0.259306,1.25447,-0.225005,-1.72452,-1.24834,2.84836,1.1685,-0.215782,-1.03775,-1.33188,-1.06246,-1.12159,0.00137637,0.128093,-0.964717,-1.03775,-1.33188,-1.06246,-1.12159,0.00137637,0.128093,-0.964717,0.324901,-0.284526,1.00872,0.377257,0.0648886,0.0188901,0.923639,-0.442078,-1.52255,-0.754999,0.338032,-0.141819,1.10128,1.5755,-0.874691,-0.21975,0.161533,-0.117111,-1.26524,-0.031721,-0.486865,0.268241,0.35081,0.696507,-0.420659,-0.435235,1
1.30361,-0.290733,-1.67895,-1.22238,2.92348,1.13067,-0.246133,1.30361,-0.290733,-1.67895,-1.22238,2.84842,1.13067,-0.246133,1.24467,-0.236986,-1.73273,-1.25622,2.84838,1.1641,-0.224946,-1.0457,-1.22078,-0.703849,-0.585492,0.00107192,-0.993929,-0.981462,-1.0457,-1.22078,-0.703849,-0.585492,0.00107192,-0.993929,-0.981462,0.321243,-0.298999,1.00266,0.388283,0.072284,0.0120372,0.918622,-0.41214,-1.37716,-0.532507,0.35411,-0.150082,1.09971,1.60788,-0.82629,-0.157368,0.917187,-0.404566,-0.660448,0.589407,-0.537477,0.537769,0.338372,0.751065,-0.334271,-0.211868,1
1.30128,-0.312169,-1.67476,-1.22489,2.91837,1.17616,-0.252697,1.30128,-0.312169,-1.67476,-1.22489,2.84842,1.17616,-0.252697,1.24137,-0.246052,-1.73136,-1.25345,2.84838,1.1558,-0.232805,0.264368,-0.736044,0.896262,1.07026,0.000834811,-0.782026,-0.705718,0.264368,-0.736044,0.896262,1.07026,0.000834811,-0.782026,-0.705718,0.31889,-0.305884,1.00203,0.392816,0.0751705,0.00711428,0.916512,-0.114675,-0.0610406,0.353576,0.371497,-0.15767,1.0977,1.7387,-0.758789,-0.201118,1.44346,-0.642019,-0.311006,0.599106,-0.661167,0.565939,0.285597,0.699855,0.203558,-0.198914,1
1.3138,-0.314895,-1.66977,-1.21237,2.91571,1.21475,-0.251548,1.3138,-0.314895,-1.66977,-1.21237,2.84842,1.21475,-0.251548,1.24972,-0.254169,-1.72171,-1.24563,2.84839,1.1498,-0.237119,1.43514,-0.973733,1.13856,0.619187,0.000650152,-0.509528,-0.240038,1.43514,-0.973733,1.13856,0.619187,0.000650152,-0.509528,-0.240038,0.319667,-0.305072,1.00442,0.387423,0.0734219,0.00355115,0.918967,0.30588,0.255228,0.161037,0.389269,-0.164771,1.0947,1.77718,-0.710122,-0.29943,1.6397,-0.776827,-0.313251,0.640875,-0.607262,0.519406,0.332607,0.673183,0.64945,-0.144281,1
1.33075,-0.331979,-1.67438,-1.25451,2.90193,1.20658,-0.261164,1.33075,-0.331979,-1.67438,-1.25451,2.84842,1.20658,-0.261164,1.26136,-0.264776,-1.71176,-1.24078,2.8484,1.15092,-0.239885,1.06311,-1.26211,0.985238,0.423242,0.000506339,0.672185,-0.341196,1.06311,-1.26211,0.985238,0.423242,0.000506339,0.672185,-0.341196,0.320764,-0.304191,1.00535,0.37923,0.0696741,-0.000755992,0.922675,0.03532,-0.0166483,0.0347974,0.406557,-0.172146,1.09096,1.72873,-0.7375,-0.373781,1.69373,-0.776891,-0.391667,0.693822,-0.672038,0.37381,-0.13723,0.535293,0.556681,-0.212791,1
1.34466,-0.343918,-1.66262,-1.25879,2.90161,1.21594,-0.2731,1.34466,-0.343918,-1.66262,-1.25879,2.84842,1.21594,-0.2731,1.27167,-0.275579,-1.70299,-1.2358,2.8484,1.16103,-0.242584,1.12216,-1.04699,0.88467,0.623839,0.000394337,1.43043,-0.238715,1.12216,-1.04699,0.88467,0.623839,0.000394337,1.43043,-0.238715,0.31987,-0.3036,1.00636,0.372251,0.0615873,-0.00469266,0.926075,-0.0588795,0.133866,0.15089,0.423633,-0.178662,1.08593,1.70768,-0.651605,-0.503552,1.701,-0.757547,-0.479605,0.729991,-0.683388,0.403733,-0.229941,0.532114,0.549042,-0.305168,1
1.3592,-0.352718,-1.6532,-1.27947,2.90018,1.22325,-0.263161,1.3592,-0.352718,-1.6532,-1.27947,2.84842,1.22325,-0.263161,1.28298,-0.286283,-1.69618,-1.23557,2.8484,1.17196,-0.245696,1.2721,-1.2169,0.580643,-0.504388,0.00030711,0.922155,-0.411899,1.2721,-1.2169,0.580643,-0.504388,0.00030711,0.922155,-0.411899,0.32035,-0.303438,1.00529,0.365258,0.0556585,-0.00874993,0.9292,0.269301,-0.0604319,-0.357119,0.440649,-0.185767,1.07971,1.70158,-0.71049,-0.622153,1.72128,-0.726716,-0.553613,0.762245,-0.664344,0.429814,-0.43908,0.517717,0.512958,-0.174648,1
1.37034,-0.364619,-1.64901,-1.28474,2.89913,1.23054,-0.264965,1.37034,-0.364619,-1.64901,-1.28474,2.84842,1.23054,-0.264965,1.29518,-0.297794,-1.68998,-1.24026,2.84841,1.18072,-0.25052,1.31781,-1.2283,0.728646,-0.493506,0.000239177,0.938005,-0.601316,1.31781,-1.2283,0.728646,-0.493506,0.000239177,0.938005,-0.601316,0.322712,-0.303942,1.00203,0.3582,0.0533193,-0.0134438,0.932024,0.298319,0.00854801,-0.340546,0.45735,-0.19306,1.0728,1.67005,-0.729279,-0.690806,1.72281,-0.710782,-0.648132,0.751662,-0.668249,0.409636,-0.444848,0.507196,0.498289,-0.14445,1
1.38524,-0.375964,-1.64388,-1.28629,2.89935,1.24649,-0.274752,1.38524,-0.375964,-1.64388,-1.28629,2.84842,1.24649,-0.274752,1.30783,-0.309031,-1.68282,-1.24679,2.84841,1.18937,-0.254347,1.36796,-1.1634,0.788732,-0.870425,0.000186272,0.902406,-0.234721,1.36796,-1.1634,0.788732,-0.870425,0.000186272,0.902406,-0.234721,0.325968,-0.303704,0.998202,0.349781,0.0517956,-0.018079,0.935224,0.435737,0.102052,-0.463829,0.471466,-0.201527,1.06689,1.4116,-0.846699,-0.590444,1.67914,-0.720605,-0.726673,0.774082,-0.669329,0.389365,-0.395001,0.509429,0.571271,-0.204052,1
1.39814,-0.386735,-1.64003,-1.29165,2.89587,1.25596,-0.278222,1.39814,-0.386735,-1.64003,-1.29165,2.84842,1.25596,-0.278222,1.32051,-0.320093,-1.67577,-1.25464,2.84841,1.19772,-0.256509,1.32719,-1.1857,0.712636,-0.801695,0.000145062,0.874119,-0.22519,1.32719,-1.1857,0.712636,-0.801695,0.000145062,0.874119,-0.22519,0.329714,-0.303278,0.993887,0.340416,0.0510658,-0.0227259,0.938612,0.398797,0.0602795,-0.451979,0.473158,-0.21307,1.0716,0.169247,-1.15436,0.470912,1.48286,-0.778776,-0.666297,0.776335,-0.666427,0.357415,-0.370091,0.474647,0.582383,-0.217137,1
1.41108,-0.397361,-1.64056,-1.29483,2.88604,1.26711,-0.280856,1.41108,-0.397361,-1.64056,-1.29483,2.84842,1.26711,-0.280856,1.33328,-0.331275,-1.66925,-1.26148,2.84841,1.20685,-0.259529,1.38368,-1.19002,0.675592,-0.660667,0.000112974,1.05556,-0.405374,1.38368,-1.19002,0.675592,-0.660667,0.000112974,1.05556,-0.405374,0.333026,-0.302924,0.989873,0.331772,0.0495796,-0.0274139,0.941657,0.35619,0.0795607,-0.402599,0.466129,-0.223888,1.08547,-0.702927,-1.08176,1.38627,1.10208,-0.856437,-0.406983,0.778033,-0.660864,0.286879,-0.333521,0.376288,0.60254,-0.213263,1
1.42478,-0.40538,-1.64719,-1.28549,2.86778,1.28261,-0.284421,1.42478,-0.40538,-1.64719,-1.28549,2.84842,1.28261,-0.284421,1.34629,-0.342426,-1.66319,-1.2676,2.84841,1.21673,-0.263304,1.3807,-1.17992,0.61659,-0.640444,8.80E-05,1.04447,-0.397253,1.3807,-1.17992,0.61659,-0.640444,8.80E-05,1.04447,-0.397253,0.336072,-0.302511,0.986082,0.32369,0.0474888,-0.0320924,0.944426,0.349862,0.0726603,-0.401751,0.457489,-0.233893,1.10081,-0.864038,-1.00054,1.53461,0.601191,-0.935523,-0.00365975,0.78489,-0.629543,0.159984,-0.178905,0.193635,0.658787,-0.211168,1
1.43637,-0.409264,-1.67531,-1.24659,2.82703,1.29731,-0.293434,1.43637,-0.409264,-1.67531,-1.24659,2.82703,1.29731,-0.293434,1.35928,-0.353476,-1.65813,-1.27329,2.84841,1.22672,-0.266914,1.37949,-1.16864,0.46772,-0.573605,6.85E-05,1.07548,-0.371263,1.37949,-1.16864,0.46772,-0.573605,6.85E-05,1.07548,-0.371263,0.338944,-0.302333,0.982322,0.316055,0.0453267,-0.036791,0.946943,0.32163,0.0328561,-0.395787,0.447986,-0.243855,1.11563,-0.950217,-0.996193,1.48182,0.0605443,-0.993905,0.45132,0.77088,-0.557883,-0.171834,0.267021,-0.213801,0.705905,-0.265205,1
1.44079,-0.405434,-1.70039,-1.21943,2.79705,1.3116,-0.307591,1.44079,-0.405434,-1.70039,-1.21943,2.79705,1.3116,-0.307591,1.37235,-0.364125,-1.65502,-1.27696,2.84841,1.23748,-0.270417,1.39618,-1.09858,0.208569,-0.227134,5.34E-05,1.20195,-0.372931,1.39618,-1.09858,0.208569,-0.227134,5.34E-05,1.20195,-0.372931,0.341091,-0.302583,0.979125,0.309555,0.042147,-0.0413739,0.949045,0.218333,-0.0250921,-0.289522,0.43897,-0.25394,1.12898,-0.901625,-1.00851,1.33475,-0.420598,-1.02901,0.854352,0.684442,-0.413087,-0.453713,0.575281,-0.513668,0.741202,-0.371741,1
1.41698,-0.385717,-1.71242,-1.20529,2.78727,1.32334,-0.309072,1.41698,-0.385717,-1.71242,-1.20529,2.78727,1.32334,-0.309072,1.38531,-0.373707,-1.65659,-1.27427,2.8459,1.24919,-0.274573,1.35969,-0.946843,-0.498449,0.737222,-0.502456,1.28149,-0.502243,1.35969,-0.946843,-0.498449,0.737222,-0.502456,1.28149,-0.502243,0.341251,-0.303847,0.97787,0.306935,0.0363004,-0.0443933,0.950001,-0.0485666,-0.214643,-0.00124973,0.430311,-0.263431,1.14104,-0.865957,-0.94901,1.20587,-0.749943,-1.02649,1.11193,0.316726,-0.120103,-0.558264,0.689832,-0.586285,0.741552,-0.344987,1
1.35547,-0.387415,-1.72309,-1.19283,2.77981,1.33248,-0.301179,1.35547,-0.387415,-1.72309,-1.19283,2.77981,1.33248,-0.301179,1.39712,-0.381122,-1.66368,-1.26496,2.8382,1.26151,-0.280409,1.1629,-0.647399,-0.977601,1.2124,-1.09598,1.33373,-0.723827,1.1629,-0.647399,-0.977601,1.2124,-1.09598,1.33373,-0.723827,0.339337,-0.305777,0.978761,0.309985,0.027973,-0.0440162,0.94931,-0.201086,-0.245607,0.168514,0.422135,-0.273709,1.1523,-0.817543,-1.02787,1.12613,-0.868658,-1.00374,1.16211,-0.416537,-0.0629251,-0.59413,0.721309,-0.583934,0.709692,-0.2077,1
1.34277,-0.394546,-1.73306,-1.18262,2.76745,1.34155,-0.277366,1.34277,-0.394546,-1.73306,-1.18262,2.76745,1.34155,-0.277366,1.40398,-0.384183,-1.67322,-1.25323,2.82795,1.27397,-0.286596,0.346082,-0.0408545,-1.04399,1.27648,-1.08324,1.31475,-0.598531,0.346082,-0.0408545,-1.04399,1.27648,-1.08324,1.31475,-0.598531,0.335727,-0.307266,0.981159,0.317452,0.0185427,-0.0403616,0.947233,-0.403438,-0.189555,0.31871,0.412928,-0.28445,1.16254,-0.920671,-1.0741,1.02378,-0.885658,-1.00319,1.08424,-0.612161,-0.103624,-0.598444,0.706101,-0.605042,0.675806,0.0922944,1
1.32605,-0.352085,-1.74604,-1.16855,2.76648,1.34803,-0.328228,1.32605,-0.352085,-1.74604,-1.16855,2.76648,1.34803,-0.328228,1.39963,-0.384722,-1.68314,-1.24116,2.81808,1.28596,-0.29064,-1.17601,-0.0717042,-1.06391,1.287,-1.01899,1.23866,-0.280644,-1.17601,-0.0717042,-1.06391,1.287,-1.01899,1.23866,-0.280644,0.328873,-0.311041,0.984144,0.329345,0.00882696,-0.0356893,0.943494,-0.875246,-0.714233,0.304439,0.404114,-0.294479,1.17216,-0.881445,-1.00292,0.962615,-0.88241,-1.0097,0.982787,-0.735767,0.326369,-0.628993,0.726099,-0.516006,0.620694,-0.375878,1
1.31344,-0.349847,-1.75386,-1.15671,2.76024,1.35097,-0.33165,1.31344,-0.349847,-1.75386,-1.15671,2.76024,1.35097,-0.33165,1.38837,-0.386156,-1.69315,-1.22927,2.80816,1.29732,-0.290173,-1.21434,-0.22342,-1.06275,1.24229,-1.08413,1.17783,0.341036,-1.21434,-0.22342,-1.06275,1.24229,-1.08413,1.17783,0.341036,0.319859,-0.317461,0.986744,0.342266,-0.000506125,-0.0312954,0.939082,-0.895724,-0.781184,0.244211,0.395599,-0.303985,1.18049,-0.851545,-0.950542,0.832844,-0.87235,-1.00888,0.880168,-0.749334,0.36309,-0.607051,0.725588,-0.479223,0.536461,-0.414774,1
1.30323,-0.358736,-1.76856,-1.14599,2.73845,1.35792,-0.279743,1.30323,-0.358736,-1.76856,-1.14599,2.73845,1.35792,-0.279743,1.37632,-0.383022,-1.7035,-1.2173,2.79904,1.30787,-0.293317,-1.3385,0.823826,-1.13274,1.29809,-0.867149,1.06966,-0.929652,-1.3385,0.823826,-1.13274,1.29809,-0.867149,1.06966,-0.929652,0.31109,-0.321214,0.990407,0.357181,-0.00966599,-0.0248164,0.933656,-0.843453,-0.223767,0.513303,0.387316,-0.314133,1.1874,-0.828215,-1.0148,0.690985,-0.865738,-1.00877,0.778707,-0.730856,0.242865,-0.650536,0.71307,-0.605871,0.500554,0.135733,1
1.28968,-0.37455,-1.78244,-1.136,2.73375,1.36315,-0.302146,1.28968,-0.37455,-1.78244,-1.136,2.73375,1.36315,-0.302146,1.36372,-0.375916,-1.71383,-1.20512,2.7911,1.31709,-0.301441,-1.33894,0.694202,-1.06581,1.28918,-0.821946,0.901944,-0.804449,-1.33894,0.694202,-1.06581,1.28918,-0.821946,0.901944,-0.804449,0.302695,-0.322536,0.995101,0.374325,-0.0185315,-0.0168358,0.92696,-0.837311,-0.258811,0.484201,0.379225,-0.323568,1.19339,-0.809112,-0.943497,0.598717,-0.85794,-1.00283,0.675755,-0.740376,0.0136598,-0.686056,0.691199,-0.573571,0.460578,-0.00705105,1
1.27962,-0.338096,-1.78242,-1.1219,2.73853,1.39239,-0.33694,1.27962,-0.338096,-1.78242,-1.1219,2.73853,1.39239,-0.33694,1.3514,-0.371194,-1.72441,-1.19315,2.78172,1.3254,-0.302024,-1.28255,0.33175,-1.17555,1.25595,-1.15207,0.865878,0.593318,-1.28255,0.33175,-1.17555,1.25595,-1.15207,0.865878,0.593318,0.294375,-0.324905,0.999052,0.38792,-0.0265114,-0.00911085,0.921267,-0.847883,-0.429247,0.365431,0.370654,-0.333272,1.19844,-0.857079,-0.970381,0.505662,-0.852307,-0.987769,0.569214,-0.717764,0.330982,-0.580086,0.712498,-0.431908,0.669854,-0.34916,1
1.2635,-0.368327,-1.80203,-1.11232,2.72136,1.37469,-0.34481,1.2635,-0.368327,-1.80203,-1.11232,2.72136,1.37469,-0.34481,1.33915,-0.370296,-1.73581,-1.18155,2.77159,1.33321,-0.299728,-1.31741,-0.113273,-1.24174,1.21288,-1.00788,0.797342,-0.0643963,-1.31741,-0.113273,-1.24174,1.21288,-1.00788,0.797342,-0.0643963,0.285692,-0.329603,1.00177,0.400444,-0.0334252,-0.00265436,0.915708,-0.925895,-0.717688,0.22559,0.361205,-0.34321,1.20291,-0.944912,-0.99383,0.446808,-0.851649,-0.976594,0.466394,-0.756463,0.0196939,-0.662203,0.692282,-0.502317,0.414783,-0.450818,1
1.25701,-0.337943,-1.81012,-1.10123,2.70326,1.39922,-0.288379,1.25701,-0.337943,-1.81012,-1.10123,2.70326,1.39922,-0.288379,1.32702,-0.366954,-1.74612,-1.16982,2.76378,1.34327,-0.304351,-1.26242,0.768502,-0.966696,1.27592,-0.672626,1.30808,-0.867852,-1.26242,0.768502,-0.966696,1.27592,-0.672626,1.30808,-0.867852,0.276913,-0.332179,1.00521,0.415142,-0.0419176,0.00405356,0.908782,-0.851943,-0.0562763,0.499704,0.35231,-0.353192,1.20634,-0.889558,-0.998205,0.342429,-0.860218,-0.977594,0.365752,-0.70012,0.290104,-0.639966,0.685865,-0.605238,0.559458,0.159725,1
1.23587,-0.38853,-1.82723,-1.1005,2.70661,1.37687,-0.348928,1.23587,-0.38853,-1.82723,-1.1005,2.70661,1.37687,-0.348928,1.31465,-0.364123,-1.75645,-1.15809,2.75618,1.35206,-0.312485,-1.36192,-0.111963,-1.21366,1.21894,-0.927211,0.602763,-0.860832,-1.36192,-0.111963,-1.21366,1.21894,-0.927211,0.602763,-0.860832,0.268128,-0.334994,1.00848,0.431347,-0.049666,0.0104282,0.900757,-0.942833,-0.682773,0.227961,0.343709,-0.362859,1.20854,-0.860059,-0.966671,0.220358,-0.870362,-0.979935,0.269806,-0.787775,-0.244075,-0.707755,0.57595,-0.495672,0.248147,-0.364433,1
1.23898,-0.32206,-1.81706,-1.07454,2.70117,1.43038,-0.343395,1.23898,-0.32206,-1.81706,-1.07454,2.70117,1.43038,-0.343395,1.30257,-0.361482,-1.76749,-1.14666,2.74635,1.35994,-0.313004,-1.2132,0.626855,-1.13529,1.20993,-1.14754,1.04582,0.655782,-1.2132,0.626855,-1.13529,1.20993,-1.14754,1.04582,0.655782,0.259777,-0.337552,1.01149,0.444323,-0.056401,0.0180915,0.893906,-0.79674,-0.0897932,0.416202,0.335624,-0.372169,1.2089,-0.808486,-0.931025,0.0355482,-0.873047,-0.973608,0.166726,-0.635947,0.394229,-0.495792,0.721257,-0.451858,0.704322,-0.303906,1
1.21054,-0.367988,-1.84262,-1.0768,2.69951,1.3874,-0.343699,1.21054,-0.367988,-1.84262,-1.0768,2.69951,1.3874,-0.343699,1.29001,-0.36222,-1.77893,-1.13653,2.73721,1.36601,-0.314672,-1.44178,-0.700654,-1.28633,0.959517,-0.81491,0.289336,-0.912256,-1.44178,-0.700654,-1.28633,0.959517,-0.81491,0.289336,-0.912256,0.251194,-0.342582,1.01314,0.4579,-0.0611458,0.0237815,0.886579,-1.00455,-1.06272,-0.0234628,0.326586,-0.382352,1.20907,-0.903815,-1.01833,0.0177264,-0.876692,-0.977845,0.0628105,-0.794673,-0.0576823,-0.636892,0.597251,-0.377009,0.213981,-0.290276,1
1.21856,-0.336792,-1.8527,-1.06171,2.67138,1.43462,-0.29022,1.21856,-0.336792,-1.8527,-1.06171,2.67138,1.43462,-0.29022,1.2784,-0.360229,-1.78842,-1.12551,2.7298,1.3747,-0.321599,-1.04983,1.01647,-0.762912,1.35733,-0.762667,1.48279,-0.580427,-1.04983,1.01647,-0.762912,1.35733,-0.762667,1.48279,-0.580427,0.242791,-0.344699,1.01594,0.472196,-0.0683165,0.0300379,0.878329,-0.741533,0.349691,0.601306,0.317384,-0.392257,1.20827,-0.92026,-0.990438,-0.0805378,-0.87763,-0.979345,-0.0416058,-0.598379,0.234369,-0.642794,0.637974,-0.58428,0.599277,0.313793,1
1.18878,-0.39276,-1.86945,-1.09773,2.69134,1.416,-0.364151,1.18878,-0.39276,-1.86945,-1.09773,2.69134,1.416,-0.364151,1.26634,-0.357183,-1.79776,-1.1145,2.72328,1.38196,-0.326456,-1.48585,-0.287747,-1.19463,1.00387,-0.632812,0.144885,-0.459198,-1.48585,-0.287747,-1.19463,1.00387,-0.632812,0.144885,-0.459198,0.234575,-0.346196,1.01903,0.485418,-0.0748696,0.036474,0.870307,-0.968087,-0.77249,0.111878,0.30809,-0.402497,1.20648,-0.9294,-1.02405,-0.178468,-0.879724,-0.983872,-0.146049,-0.775539,-0.355769,-0.716979,0.167691,-0.319312,0.3404,-0.376949,1
