Afshin1997/kuka_rl_ros2/src/catch_and_throw/output_files/tm/nn_ema7.00_jvws1_realball_D24H10M08S10/recorded_data.csv
pure_target_joint_0,pure_target_joint_1,pure_target_joint_2,pure_target_joint_3,pure_target_joint_4,pure_target_joint_5,pure_target_joint_6,target_joint_0,target_joint_1,target_joint_2,target_joint_3,target_joint_4,target_joint_5,target_joint_6,pos_joint_0,pos_joint_1,pos_joint_2,pos_joint_3,pos_joint_4,pos_joint_5,pos_joint_6,vel_joint_0,vel_joint_1,vel_joint_2,vel_joint_3,vel_joint_4,vel_joint_5,vel_joint_6,vel_smooth_joint_0,vel_smooth_joint_1,vel_smooth_joint_2,vel_smooth_joint_3,vel_smooth_joint_4,vel_smooth_joint_5,vel_smooth_joint_6,ee_pos_x,ee_pos_y,ee_pos_z,ee_or_w,ee_or_x,ee_or_y,ee_or_z,ee_vel_x,ee_vel_y,ee_vel_z,ball_pos_x,ball_pos_y,ball_pos_z,ball_raw_vx,ball_raw_vy,ball_raw_vz,ball_ema_vx,ball_ema_vy,ball_ema_vz,action_0,action_1,action_2,action_3,action_4,action_5,action_6,command_published
1.71973,-1.00794,-1.84869,-1.07308,1.99848,1.18947,-0.922686,1.71973,-1.00794,-1.84869,-1.07308,1.99848,1.18947,-0.922686,1.78024,-1.0647,-1.81508,-1.11698,1.93722,1.11689,-0.916264,0,0,0,0,0,0,0,0,0,0,0,0,0,0,0.531043,-0.454448,0.694294,0.574533,0.175159,0.152575,0.784826,0,0,0,2.98738,-0.525084,0.356261,-3.33672,-0.1665,5.60236,-3.44732,-0.219245,5.43506,-0.605116,0.567576,-0.336115,0.438982,0.612611,0.725799,-0.0642221,1
1.71981,-1.0108,-1.84817,-1.07096,1.99941,1.18878,-0.917454,1.71981,-1.0108,-1.84817,-1.07096,1.99941,1.18878,-0.917454,1.78024,-1.0647,-1.81508,-1.11698,1.93722,1.11689,-0.916264,0,0,0,0,0,0,0,0,0,0,0,0,0,0,0.531043,-0.454448,0.694294,0.574533,0.175159,0.152575,0.784826,0,0,0,2.95246,-0.526958,0.410743,-3.49171,-0.187337,5.44824,-3.41897,-0.187265,5.41625,-0.604366,0.539055,-0.330913,0.460215,0.621947,0.718899,-0.0118992,1
1.69742,-0.983712,-1.84767,-1.08996,2.00675,1.17321,-0.930973,1.69742,-0.983712,-1.84767,-1.08996,2.00675,1.17321,-0.930973,1.77388,-1.05873,-1.81861,-1.11236,1.94366,1.12452,-0.916939,-1.27266,1.19371,-0.706903,0.92325,1.28842,1.52648,-0.13507,-1.27266,1.19371,-0.706903,0.92325,1.28842,1.52648,-0.13507,0.525774,-0.458557,0.698168,0.579886,0.171166,0.150237,0.782217,-0.987371,-0.798791,0.739412,2.91754,-0.528517,0.464342,-3.49221,-0.15595,5.35989,-3.42317,-0.169669,5.35372,-0.764554,0.7502,-0.290551,0.22401,0.630958,0.486912,-0.140335,1
1.68749,-0.973636,-1.84847,-1.10179,2.01601,1.18718,-0.94266,1.68749,-0.973636,-1.84847,-1.10179,2.01601,1.18718,-0.94266,1.7631,-1.04891,-1.82455,-1.10431,1.95468,1.13739,-0.917534,-1.01749,0.89586,-0.555104,0.783939,1.05132,1.20779,0.00188754,-1.01749,0.89586,-0.555104,0.783939,1.05132,1.20779,0.00188754,0.516687,-0.465504,0.704667,0.588725,0.164402,0.146113,0.777834,-0.808726,-0.651536,0.576852,2.88331,-0.53012,0.516463,-3.42243,-0.160271,5.21203,-3.43045,-0.168949,5.25569,-0.756121,0.752756,-0.239247,0.025261,0.613317,0.497951,-0.251255,1
1.67733,-0.961546,-1.86034,-1.07946,2.024,1.20013,-0.947183,1.67733,-0.961546,-1.86034,-1.07946,2.024,1.20013,-0.947183,1.75212,-1.03847,-1.8292,-1.09967,1.96437,1.14599,-0.91894,-1.28548,1.28695,-0.433945,0.228041,0.99628,0.639745,-0.282813,-1.28548,1.28695,-0.433945,0.228041,0.99628,0.639745,-0.282813,0.508555,-0.470724,0.710816,0.596477,0.15927,0.143686,0.773436,-0.813779,-0.447044,0.671415,2.84899,-0.531662,0.567628,-3.43268,-0.15415,5.11657,-3.43477,-0.167542,5.14773,-0.747908,0.769224,-0.311421,0.20204,0.596298,0.541401,-0.28243,1
1.66668,-0.950382,-1.8679,-1.06699,2.0312,1.21352,-0.949821,1.66668,-0.950382,-1.8679,-1.06699,2.0312,1.21352,-0.949821,1.74017,-1.0265,-1.83297,-1.09898,1.97379,1.15288,-0.922566,-1.23835,1.24243,-0.36447,-0.0660824,0.992455,0.806141,-0.472254,-1.23835,1.24243,-0.36447,-0.0660824,0.992455,0.806141,-0.472254,0.500776,-0.474216,0.716989,0.603916,0.154681,0.142635,0.768775,-0.759631,-0.300183,0.602546,2.81457,-0.533419,0.617642,-3.44145,-0.175738,5.00135,-3.44444,-0.165409,5.0381,-0.734933,0.761158,-0.349385,0.319815,0.574129,0.60632,-0.272541,1
1.65404,-0.938173,-1.87407,-1.06936,2.04204,1.2174,-0.951039,1.65404,-0.938173,-1.87407,-1.06936,2.04204,1.2174,-0.951039,1.72861,-1.01469,-1.8373,-1.09719,1.98304,1.16108,-0.927046,-1.20525,1.24913,-0.541511,0.416633,0.962606,0.917821,-0.473281,-1.20525,1.24913,-0.541511,0.416633,0.962606,0.917821,-0.473281,0.492786,-0.477767,0.72321,0.611987,0.149349,0.141556,0.763629,-0.843189,-0.447291,0.672196,2.78041,-0.535037,0.666526,-3.41597,-0.161791,4.88846,-3.44721,-0.164012,4.921,-0.745686,0.7652,-0.367659,0.278303,0.590023,0.563241,-0.23993,1
1.64291,-0.925893,-1.88025,-1.06971,2.0493,1.22411,-0.958561,1.64291,-0.925893,-1.88025,-1.06971,2.0493,1.22411,-0.958561,1.71727,-1.00293,-1.84269,-1.09235,1.99196,1.17027,-0.931336,-1.18899,1.23502,-0.592615,0.595823,0.922288,1.01644,-0.43445,-1.18899,1.23502,-0.592615,0.595823,0.922288,1.01644,-0.43445,0.484153,-0.482111,0.729896,0.621121,0.14315,0.140337,0.757642,-0.884588,-0.479149,0.698537,2.74643,-0.536979,0.714487,-3.39811,-0.194257,4.79605,-3.43242,-0.165723,4.80992,-0.743632,0.770356,-0.375577,0.226322,0.57339,0.538427,-0.272247,1
1.63193,-0.913708,-1.8865,-1.06015,2.05706,1.23352,-0.965438,1.63193,-0.913708,-1.8865,-1.06015,2.05706,1.23352,-0.965438,1.70586,-0.991174,-1.84836,-1.08754,2.00092,1.1793,-0.935147,-1.21796,1.2457,-0.604205,0.427386,0.966557,0.895683,-0.373505,-1.21796,1.2457,-0.604205,0.427386,0.966557,0.895683,-0.373505,0.475454,-0.486319,0.73647,0.630029,0.137088,0.139207,0.751593,-0.862891,-0.426987,0.654346,2.71278,-0.539072,0.761112,-3.36521,-0.209242,4.66248,-3.41648,-0.174134,4.69734,-0.739305,0.774658,-0.38138,0.273945,0.561475,0.542229,-0.302903,1
1.62089,-0.902063,-1.89485,-1.04986,2.06462,1.24483,-0.970271,1.62089,-0.902063,-1.89485,-1.04986,2.06462,1.24483,-0.970271,1.69436,-0.979322,-1.85414,-1.08396,2.00987,1.1876,-0.939105,-1.2094,1.25575,-0.613739,0.33476,0.926545,0.858275,-0.457272,-1.2094,1.25575,-0.613739,0.33476,0.926545,0.858275,-0.457272,0.467018,-0.489999,0.742701,0.638513,0.131551,0.13846,0.745536,-0.840412,-0.370145,0.630745,2.6792,-0.541145,0.80677,-3.35791,-0.207269,4.56588,-3.4032,-0.183767,4.58834,-0.73477,0.772588,-0.407149,0.340996,0.547465,0.572377,-0.311662,1
1.60963,-0.890267,-1.90221,-1.04377,2.07342,1.25385,-0.974272,1.60963,-0.890267,-1.90221,-1.04377,2.07342,1.25385,-0.974272,1.68296,-0.967394,-1.86,-1.08011,2.01855,1.19586,-0.943705,-1.19928,1.26179,-0.622954,0.46923,0.905296,0.885091,-0.510789,-1.19928,1.26179,-0.622954,0.46923,0.905296,0.885091,-0.510789,0.458535,-0.493446,0.749006,0.647235,0.125816,0.137948,0.739072,-0.871457,-0.379058,0.668635,2.64536,-0.542563,0.851925,-3.38342,-0.141877,4.51546,-3.39014,-0.186397,4.48476,-0.733207,0.771271,-0.422149,0.363433,0.548691,0.579893,-0.305669,1
1.59776,-0.878267,-1.91012,-1.03683,2.08102,1.26142,-0.97941,1.59776,-0.878267,-1.91012,-1.03683,2.08102,1.26142,-0.97941,1.67163,-0.955472,-1.86616,-1.07505,2.02702,1.20455,-0.948544,-1.19256,1.25529,-0.674417,0.592169,0.883829,0.946671,-0.510666,-1.19256,1.25529,-0.674417,0.592169,0.883829,0.946671,-0.510666,0.449715,-0.496982,0.755572,0.656391,0.119567,0.137437,0.732096,-0.905606,-0.394435,0.685881,2.61159,-0.543934,0.896278,-3.37708,-0.137073,4.43532,-3.37948,-0.181298,4.38925,-0.738709,0.772054,-0.439614,0.382258,0.540002,0.568658,-0.308664,1
1.58642,-0.866272,-1.91819,-1.02916,2.0884,1.26984,-0.985644,1.58642,-0.866272,-1.91819,-1.02916,2.0884,1.26984,-0.985644,1.66033,-0.943589,-1.87265,-1.06939,2.03543,1.21353,-0.953294,-1.19157,1.25324,-0.694841,0.602205,0.892684,0.947685,-0.49305,-1.19157,1.25324,-0.694841,0.602205,0.892684,0.947685,-0.49305,0.440686,-0.500477,0.762203,0.665641,0.113069,0.136947,0.724833,-0.914735,-0.37731,0.683757,2.57787,-0.545785,0.939186,-3.37219,-0.185138,4.29074,-3.37394,-0.177308,4.29419,-0.739121,0.77317,-0.455467,0.402305,0.529654,0.563075,-0.323504,1
1.57506,-0.854402,-1.92648,-1.02086,2.09559,1.27838,-0.991829,1.57506,-0.854402,-1.92648,-1.02086,2.09559,1.27838,-0.991829,1.64898,-0.931702,-1.87937,-1.06356,2.0438,1.22236,-0.958014,-1.20397,1.25591,-0.722661,0.628233,0.874662,0.918059,-0.50287,-1.20397,1.25591,-0.722661,0.628233,0.874662,0.918059,-0.50287,0.431554,-0.503837,0.768819,0.674869,0.106575,0.136576,0.717315,-0.929643,-0.368632,0.684935,2.54476,-0.5477,0.981279,-3.31161,-0.19145,4.2093,-3.36586,-0.172779,4.20011,-0.739207,0.773003,-0.471071,0.426914,0.517916,0.560208,-0.338145,1
1.56372,-0.842743,-1.93485,-1.01222,2.10268,1.28784,-0.998106,1.56372,-0.842743,-1.93485,-1.01222,2.10268,1.28784,-0.998106,1.63758,-0.919793,-1.88635,-1.05742,2.05199,1.23103,-0.962933,-1.20252,1.25798,-0.748576,0.66429,0.8557,0.912171,-0.533809,-1.20252,1.25798,-0.748576,0.66429,0.8557,0.912171,-0.533809,0.422305,-0.507064,0.775458,0.684196,0.100031,0.136392,0.709413,-0.942268,-0.35383,0.69039,2.51065,-0.549902,1.02322,-3.41048,-0.220239,4.19393,-3.367,-0.174371,4.11641,-0.738615,0.770498,-0.484995,0.452079,0.506831,0.56811,-0.351727,1
1.55252,-0.83114,-1.94302,-1.00368,2.10996,1.29734,-1.00449,1.55252,-0.83114,-1.94302,-1.00368,2.10996,1.29734,-1.00449,1.62619,-0.90788,-1.89356,-1.05092,2.06,1.23966,-0.968109,-1.20183,1.25697,-0.773616,0.706424,0.836496,0.91011,-0.557516,-1.20183,1.25697,-0.773616,0.706424,0.836496,0.91011,-0.557516,0.412934,-0.510135,0.782143,0.693632,0.0933479,0.136371,0.701116,-0.957152,-0.340372,0.696787,2.47708,-0.552056,1.06346,-3.35681,-0.215411,4.02402,-3.36648,-0.182784,4.02731,-0.736686,0.767404,-0.494577,0.472406,0.499501,0.576776,-0.363794,1
1.54135,-0.81961,-1.95123,-0.99504,2.11692,1.30694,-1.01086,1.54135,-0.81961,-1.95123,-0.99504,2.11692,1.30694,-1.01086,1.61481,-0.895998,-1.901,-1.04402,2.06784,1.24837,-0.973496,-1.20086,1.25171,-0.795478,0.747567,0.818791,0.927697,-0.57845,-1.20086,1.25171,-0.795478,0.747567,0.818791,0.927697,-0.57845,0.403418,-0.513043,0.788878,0.703148,0.0864695,0.136477,0.692445,-0.973682,-0.324907,0.702548,2.44312,-0.55371,1.10224,-3.39656,-0.165313,3.87837,-3.3678,-0.192145,3.92622,-0.734635,0.763873,-0.50228,0.489814,0.490832,0.585676,-0.3736,1
1.53006,-0.808162,-1.95961,-0.986054,2.12376,1.31659,-1.01715,1.53006,-0.808162,-1.95961,-0.986054,2.12376,1.31659,-1.01715,1.60345,-0.884166,-1.90861,-1.03679,2.07555,1.25723,-0.979071,-1.19706,1.24635,-0.808919,0.778159,0.808712,0.942615,-0.597428,-1.19706,1.24635,-0.808919,0.778159,0.808712,0.942615,-0.597428,0.393765,-0.515748,0.795658,0.712685,0.0793656,0.136672,0.683449,-0.986207,-0.303696,0.707943,2.40916,-0.55554,1.13978,-3.39561,-0.18307,3.75334,-3.37315,-0.196512,3.81708,-0.733943,0.76004,-0.510021,0.507319,0.482153,0.593593,-0.380834,1
1.51855,-0.796792,-1.96805,-0.976349,2.12972,1.32626,-1.02397,1.51855,-0.796792,-1.96805,-0.976349,2.12972,1.32626,-1.02397,1.59213,-0.872387,-1.91633,-1.02928,2.08314,1.26623,-0.984805,-1.1936,1.24049,-0.820386,0.804804,0.794157,0.956704,-0.612302,-1.1936,1.24049,-0.820386,0.804804,0.794157,0.956704,-0.612302,0.384003,-0.518215,0.802477,0.722187,0.0720476,0.13695,0.674166,-0.997163,-0.280113,0.712353,2.37508,-0.557527,1.17694,-3.40853,-0.198686,3.71675,-3.38254,-0.195403,3.71174,-0.735809,0.755955,-0.517217,0.529316,0.465791,0.600281,-0.391606,1
1.50701,-0.785496,-1.97638,-0.96671,2.13561,1.33598,-1.03082,1.50701,-0.785496,-1.97638,-0.96671,2.13561,1.33598,-1.03082,1.58082,-0.860667,-1.92416,-1.02151,2.09059,1.27536,-0.990658,-1.19319,1.2341,-0.833118,0.833434,0.779749,0.969146,-0.622766,-1.19319,1.2341,-0.833118,0.833434,0.779749,0.969146,-0.622766,0.374133,-0.520437,0.809328,0.731631,0.0645239,0.13732,0.664602,-1.00967,-0.257718,0.716666,2.34133,-0.559615,1.21294,-3.37481,-0.208741,3.60011,-3.39056,-0.194561,3.60272,-0.73818,0.751708,-0.522141,0.548025,0.450179,0.60617,-0.401605,1
1.49549,-0.774386,-1.98465,-0.9571,2.14157,1.34573,-1.03758,1.49549,-0.774386,-1.98465,-0.9571,2.14157,1.34573,-1.03758,1.5695,-0.849009,-1.93211,-1.01343,2.09783,1.28459,-0.996654,-1.19752,1.22733,-0.844635,0.871486,0.749578,0.979408,-0.641939,-1.19752,1.22733,-0.844635,0.871486,0.749578,0.979408,-0.641939,0.364135,-0.522422,0.816221,0.741042,0.0567809,0.137814,0.654706,-1.02537,-0.236229,0.723366,2.30767,-0.561761,1.24759,-3.36533,-0.214636,3.46446,-3.38743,-0.194676,3.48851,-0.740106,0.746224,-0.525377,0.563263,0.437466,0.611341,-0.40924,1
1.48394,-0.763384,-1.99308,-0.94733,2.14699,1.35553,-1.04424,1.48394,-0.763384,-1.99308,-0.94733,2.14699,1.35553,-1.04424,1.55813,-0.837416,-1.94015,-1.00502,2.1048,1.29392,-1.00282,-1.20169,1.22035,-0.851497,0.90056,0.724111,0.98858,-0.658163,-1.20169,1.22035,-0.851497,0.90056,0.724111,0.98858,-0.658163,0.354011,-0.524156,0.823158,0.750414,0.0488135,0.138451,0.644459,-1.03823,-0.211224,0.728541,2.27419,-0.563875,1.28114,-3.34816,-0.211412,3.35531,-3.38353,-0.198688,3.38183,-0.741958,0.740323,-0.529267,0.576947,0.421919,0.616079,-0.414243,1
1.47242,-0.752467,-2.00164,-0.937446,2.15203,1.36552,-1.05071,1.47242,-0.752467,-2.00164,-0.937446,2.15203,1.36552,-1.05071,1.54673,-0.825902,-1.94824,-0.996379,2.11157,1.30332,-1.00911,-1.2045,1.21084,-0.855857,0.923236,0.705282,0.996662,-0.669187,-1.2045,1.21084,-0.855857,0.923236,0.705282,0.996662,-0.669187,0.343789,-0.525618,0.830118,0.759687,0.0406499,0.139205,0.633912,-1.04836,-0.18484,0.731111,2.24098,-0.566126,1.31362,-3.32103,-0.225091,3.24793,-3.37051,-0.207688,3.27684,-0.743088,0.734345,-0.534049,0.589329,0.404659,0.621973,-0.416068,1
1.46073,-0.741805,-2.0105,-0.927226,2.15663,1.37549,-1.05717,1.46073,-0.741805,-2.0105,-0.927226,2.15663,1.37549,-1.05717,1.53531,-0.81448,-1.95638,-0.987525,2.11811,1.3128,-1.01548,-1.20744,1.20098,-0.862522,0.944764,0.678732,1.00415,-0.675988,-1.20744,1.20098,-0.862522,0.944764,0.678732,1.00415,-0.675988,0.333491,-0.526798,0.837081,0.768825,0.0323116,0.140082,0.62309,-1.05694,-0.157581,0.732072,2.20735,-0.56827,1.34543,-3.36335,-0.21444,3.18049,-3.35985,-0.21303,3.17323,-0.745758,0.726749,-0.541182,0.602987,0.385133,0.626889,-0.416894,1
1.44887,-0.731206,-2.01941,-0.917038,2.16151,1.38513,-1.06351,1.44887,-0.731206,-2.01941,-0.917038,2.16151,1.38513,-1.06351,1.52386,-0.80315,-1.96459,-0.978476,2.1244,1.32237,-1.02189,-1.20897,1.19127,-0.870842,0.964381,0.649489,1.0143,-0.677429,-1.20897,1.19127,-0.870842,0.964381,0.649489,1.0143,-0.677429,0.323137,-0.527684,0.844032,0.777797,0.0238044,0.141114,0.612006,-1.06353,-0.128746,0.731817,2.17388,-0.569585,1.37632,-3.34668,-0.131458,3.08957,-3.35082,-0.206607,3.06833,-0.74992,0.719441,-0.548145,0.614385,0.37112,0.627638,-0.416187,1
1.43703,-0.720639,-2.02826,-0.906959,2.16573,1.39485,-1.07001,1.43703,-0.720639,-2.02826,-0.906959,2.16573,1.39485,-1.07001,1.51238,-0.79193,-1.97291,-0.969226,2.13039,1.33202,-1.02831,-1.21401,1.17816,-0.883557,0.987173,0.616751,1.02191,-0.67824,-1.21401,1.17816,-0.883557,0.987173,0.616751,1.02191,-0.67824,0.312732,-0.528285,0.850952,0.786593,0.0151438,0.14232,0.600655,-1.07181,-0.103314,0.729346,2.14055,-0.571378,1.40643,-3.33283,-0.179321,3.0113,-3.34553,-0.197623,2.97222,-0.753553,0.712906,-0.553578,0.622663,0.353382,0.628398,-0.416997,1
1.42535,-0.710099,-2.03709,-0.897003,2.16975,1.4049,-1.07665,1.42535,-0.710099,-2.03709,-0.897003,2.16975,1.4049,-1.07665,1.50084,-0.780827,-1.98133,-0.959785,2.13613,1.34169,-1.03473,-1.22155,1.16626,-0.894844,1.00471,0.596521,1.02097,-0.676425,-1.22155,1.16626,-0.894844,1.00471,0.596521,1.02097,-0.676425,0.302273,-0.528624,0.85783,0.795205,0.00637617,0.143686,0.589036,-1.0795,-0.0782062,0.726475,2.10742,-0.573706,1.43533,-3.31318,-0.232798,2.8892,-3.33977,-0.193931,2.88036,-0.754915,0.707286,-0.557554,0.627822,0.336198,0.632065,-0.419215,1
1.41366,-0.699646,-2.0458,-0.88699,2.17397,1.41492,-1.08329,1.41366,-0.699646,-2.0458,-0.88699,2.17397,1.41492,-1.08329,1.48924,-0.769828,-1.98985,-0.950207,2.14163,1.35137,-1.04115,-1.2272,1.15611,-0.902818,1.01647,0.56632,1.02203,-0.678405,-1.2272,1.15611,-0.902818,1.01647,0.56632,1.02203,-0.678405,0.291788,-0.528682,0.864659,0.803609,-0.00247663,0.145218,0.577164,-1.08274,-0.0488256,0.722918,2.07435,-0.575745,1.46345,-3.30763,-0.203884,2.8125,-3.33377,-0.192422,2.79053,-0.755778,0.701826,-0.559433,0.632175,0.323396,0.635458,-0.421424,1
1.40201,-0.689362,-2.05444,-0.876899,2.17794,1.42506,-1.09003,1.40201,-0.689362,-2.05444,-0.876899,2.17794,1.42506,-1.09003,1.47761,-0.758918,-1.99843,-0.940543,2.14686,1.36109,-1.0476,-1.22822,1.14742,-0.908526,1.02332,0.538101,1.02961,-0.682846,-1.22822,1.14742,-0.908526,1.02332,0.538101,1.02961,-0.682846,0.28132,-0.52842,0.871433,0.811777,-0.0114341,0.146939,0.565064,-1.08163,-0.0157867,0.718875,2.04086,-0.578045,1.49086,-3.34909,-0.230032,2.74069,-3.33161,-0.195816,2.70275,-0.755986,0.695566,-0.560081,0.636442,0.310863,0.63967,-0.42432,1
1.39036,-0.679278,-2.06311,-0.866689,2.18169,1.43544,-1.09672,1.39036,-0.679278,-2.06311,-0.866689,2.18169,1.43544,-1.09672,1.46597,-0.748091,-2.00705,-0.930814,2.15186,1.37087,-1.05409,-1.22931,1.13862,-0.910589,1.03001,0.519641,1.03514,-0.68642,-1.22931,1.13862,-0.910589,1.03001,0.519641,1.03514,-0.68642,0.270889,-0.527823,0.878153,0.819685,-0.0205019,0.148819,0.552765,-1.07996,0.0170897,0.715478,2.00704,-0.580236,1.51699,-3.38175,-0.219101,2.61331,-3.33285,-0.204233,2.60996,-0.756052,0.688132,-0.560565,0.641254,0.29827,0.645678,-0.426288,1
1.37868,-0.669482,-2.07178,-0.856321,2.18499,1.44601,-1.10338,1.37868,-0.669482,-2.07178,-0.856321,2.18499,1.44601,-1.10338,1.45432,-0.737356,-2.01568,-0.92102,2.15668,1.38072,-1.06062,-1.22943,1.12803,-0.911003,1.037,0.499615,1.04218,-0.691382,-1.22943,1.12803,-0.911003,1.037,0.499615,1.04218,-0.691382,0.260505,-0.526896,0.884818,0.827322,-0.0296766,0.150832,0.540285,-1.07679,0.0498827,0.711142,1.97304,-0.582278,1.54158,-3.39944,-0.204134,2.45936,-3.34328,-0.214763,2.5087,-0.756386,0.678742,-0.561014,0.646994,0.283098,0.652977,-0.427618,1
1.36692,-0.659802,-2.08048,-0.845937,2.18854,1.45641,-1.10998,1.36692,-0.659802,-2.08048,-0.845937,2.18854,1.45641,-1.10998,1.44267,-0.726732,-2.02432,-0.911155,2.16131,1.39064,-1.06718,-1.22944,1.11533,-0.911745,1.0451,0.478856,1.05289,-0.694192,-1.22944,1.11533,-0.911745,1.0451,0.478856,1.05289,-0.694192,0.250177,-0.525644,0.891415,0.834676,-0.0389631,0.152976,0.527633,-1.0732,0.0817928,0.705539,1.9393,-0.584307,1.56537,-3.37446,-0.202894,2.37818,-3.35655,-0.215785,2.40305,-0.757462,0.669305,-0.561629,0.652173,0.272277,0.657695,-0.427961,1
1.35514,-0.650302,-2.08906,-0.835446,2.19241,1.46685,-1.11647,1.35514,-0.650302,-2.08906,-0.835446,2.19241,1.46685,-1.11647,1.43102,-0.716246,-2.03296,-0.901204,2.16572,1.40068,-1.07377,-1.23013,1.09911,-0.9125,1.0549,0.452971,1.06545,-0.695964,-1.23013,1.09911,-0.9125,1.0549,0.452971,1.06545,-0.695964,0.239909,-0.52408,0.897929,0.841739,-0.0483627,0.155257,0.514813,-1.06933,0.112017,0.698051,1.90569,-0.586596,1.58819,-3.3609,-0.228971,2.28206,-3.36823,-0.214378,2.29693,-0.758756,0.659448,-0.561033,0.657576,0.266861,0.661626,-0.427041,1
1.34354,-0.641151,-2.0974,-0.824955,2.19659,1.47775,-1.1228,1.34354,-0.641151,-2.0974,-0.824955,2.19659,1.47775,-1.1228,1.41935,-0.70591,-2.04161,-0.891169,2.16994,1.41081,-1.08036,-1.23226,1.08369,-0.913571,1.06308,0.43732,1.07186,-0.696069,-1.23226,1.08369,-0.913571,1.06308,0.43732,1.07186,-0.696069,0.229704,-0.522222,0.904351,0.848504,-0.0578509,0.157662,0.501834,-1.06534,0.140818,0.690461,1.87256,-0.589239,1.61,-3.31289,-0.264239,2.18087,-3.36938,-0.220191,2.1881,-0.758098,0.647588,-0.557869,0.66214,0.266569,0.669415,-0.424429,1
1.33201,-0.632202,-2.10574,-0.814446,2.20125,1.48867,-1.12899,1.33201,-0.632202,-2.10574,-0.814446,2.20125,1.48867,-1.12899,1.40767,-0.695723,-2.05026,-0.881052,2.17405,1.42099,-1.08694,-1.23449,1.06756,-0.912036,1.07189,0.431486,1.07767,-0.693946,-1.23449,1.06756,-0.912036,1.07189,0.431486,1.07767,-0.693946,0.219559,-0.520084,0.910684,0.854963,-0.0674044,0.160146,0.488721,-1.06152,0.168923,0.683251,1.83893,-0.591667,1.63039,-3.36279,-0.242877,2.03897,-3.36455,-0.225679,2.07569,-0.756525,0.63521,-0.554793,0.666064,0.27197,0.676764,-0.420468,1
1.32054,-0.623769,-2.11428,-0.803764,2.20659,1.49963,-1.13506,1.32054,-0.623769,-2.11428,-0.803764,2.20659,1.49963,-1.13506,1.39598,-0.68571,-2.05887,-0.870862,2.17815,1.43128,-1.09349,-1.23246,1.04728,-0.905588,1.07896,0.433508,1.09229,-0.688867,-1.23246,1.04728,-0.905588,1.07896,0.433508,1.09229,-0.688867,0.209481,-0.517671,0.91692,0.861094,-0.0770349,0.162656,0.475528,-1.05549,0.197027,0.674166,1.80553,-0.593958,1.64996,-3.33993,-0.229084,1.95739,-3.35525,-0.231707,1.96834,-0.754362,0.619416,-0.554094,0.670972,0.284397,0.683544,-0.415612,1
1.30916,-0.615787,-2.12282,-0.793166,2.21184,1.5107,-1.14096,1.30916,-0.615787,-2.12282,-0.793166,2.21184,1.5107,-1.14096,1.38432,-0.67589,-2.06742,-0.860609,2.18231,1.44169,-1.09999,-1.22935,1.02681,-0.900545,1.08498,0.445011,1.10429,-0.681746,-1.22935,1.02681,-0.900545,1.08498,0.445011,1.10429,-0.681746,0.199479,-0.514992,0.923049,0.866879,-0.0867421,0.165143,0.462303,-1.04875,0.223714,0.664422,1.77239,-0.596381,1.66844,-3.31407,-0.242275,1.84778,-3.3437,-0.238161,1.86408,-0.751571,0.601034,-0.554027,0.674425,0.295229,0.690122,-0.409719,1
1.29772,-0.608078,-2.13135,-0.782706,2.2176,1.52156,-1.14682,1.29772,-0.608078,-2.13135,-0.782706,2.2176,1.52156,-1.14682,1.37269,-0.666298,-2.07595,-0.850287,2.18665,1.4522,-1.1064,-1.22561,0.999578,-0.900688,1.09344,0.468668,1.11478,-0.673429,-1.22561,0.999578,-0.900688,1.09344,0.468668,1.11478,-0.673429,0.189544,-0.512087,0.929053,0.872325,-0.0964928,0.16756,0.449067,-1.04411,0.244632,0.651477,1.73929,-0.598091,1.6863,-3.31023,-0.171018,1.78589,-3.33445,-0.23444,1.76162,-0.749746,0.582196,-0.554011,0.675816,0.309573,0.693592,-0.404182,1
1.28614,-0.600758,-2.13991,-0.772324,2.22409,1.53219,-1.15252,1.28614,-0.600758,-2.13991,-0.772324,2.22409,1.53219,-1.15252,1.3611,-0.656984,-2.08449,-0.839902,2.19117,1.46282,-1.11273,-1.22078,0.968272,-0.900994,1.09845,0.485651,1.12539,-0.663363,-1.22078,0.968272,-0.900994,1.09845,0.485651,1.12539,-0.663363,0.179676,-0.508997,0.934902,0.877435,-0.106254,0.169892,0.435838,-1.03725,0.26333,0.635038,1.70603,-0.599448,1.70322,-3.32607,-0.135642,1.69247,-3.32878,-0.21776,1.6634,-0.749591,0.562263,-0.554189,0.675786,0.32922,0.693771,-0.397922,1
1.27468,-0.594148,-2.14852,-0.761866,2.22974,1.54299,-1.15801,1.27468,-0.594148,-2.14852,-0.761866,2.22974,1.54299,-1.15801,1.34955,-0.647964,-2.09302,-0.82949,2.1959,1.4735,-1.11897,-1.21831,0.937497,-0.90093,1.09963,0.51023,1.12964,-0.65454,-1.21831,0.937497,-0.90093,1.09963,0.51023,1.12964,-0.65454,0.169886,-0.505744,0.940579,0.882211,-0.115992,0.172137,0.422632,-1.03054,0.28017,0.618092,1.67299,-0.601799,1.71924,-3.30375,-0.235122,1.60142,-3.32412,-0.204906,1.57045,-0.748675,0.538165,-0.554975,0.67624,0.338403,0.694895,-0.390396,1
1.26332,-0.588642,-2.1573,-0.751361,2.23436,1.55398,-1.1637,1.26332,-0.588642,-2.1573,-0.751361,2.23436,1.55398,-1.1637,1.338,-0.639247,-2.10156,-0.819076,2.2009,1.48419,-1.12512,-1.21894,0.90466,-0.901297,1.09887,0.545067,1.12818,-0.644084,-1.21894,0.90466,-0.901297,1.09887,0.545067,1.12818,-0.644084,0.160161,-0.502358,0.946077,0.88667,-0.12566,0.174257,0.409464,-1.02584,0.293544,0.600111,1.63965,-0.604218,1.73419,-3.33374,-0.241965,1.49561,-3.31886,-0.201432,1.48126,-0.746876,0.50605,-0.55735,0.67715,0.334556,0.697887,-0.385739,1
1.25223,-0.584159,-2.16604,-0.740802,2.23808,1.56504,-1.16937,1.25223,-0.584159,-2.16604,-0.740802,2.23808,1.56504,-1.16937,1.32646,-0.630882,-2.11011,-0.80866,2.20612,1.49489,-1.13116,-1.21713,0.863417,-0.902884,1.09987,0.555131,1.13044,-0.631173,-1.21713,0.863417,-0.902884,1.09987,0.555131,1.13044,-0.631173,0.150507,-0.498874,0.951369,0.890816,-0.135234,0.176282,0.396338,-1.01898,0.30328,0.577406,1.60703,-0.606591,1.74806,-3.26222,-0.237215,1.38713,-3.3117,-0.20457,1.38841,-0.742325,0.467236,-0.559354,0.678579,0.319589,0.701464,-0.382074,1
1.24146,-0.582023,-2.1749,-0.730088,2.24074,1.57622,-1.17518,1.24146,-0.582023,-2.1749,-0.730088,2.24074,1.57622,-1.17518,1.31495,-0.622984,-2.11869,-0.798231,2.21131,1.50563,-1.13711,-1.21365,0.807181,-0.907529,1.10166,0.541751,1.13642,-0.624933,-1.21365,0.807181,-0.907529,1.10166,0.541751,1.13642,-0.624933,0.140941,-0.49535,0.956392,0.894659,-0.144686,0.178293,0.383227,-1.01158,0.304721,0.546514,1.57384,-0.609031,1.76156,-3.31913,-0.244009,1.34995,-3.30909,-0.213282,1.29956,-0.734863,0.409607,-0.562097,0.681425,0.294309,0.705917,-0.3807,1
1.23095,-0.582238,-2.18366,-0.719206,2.24201,1.58756,-1.18122,1.23095,-0.582238,-2.18366,-0.719206,2.24201,1.58756,-1.18122,1.3035,-0.615669,-2.1273,-0.787781,2.21629,1.51643,-1.143,-1.20494,0.740631,-0.910672,1.10421,0.511988,1.14254,-0.619684,-1.20494,0.740631,-0.910672,1.10421,0.511988,1.14254,-0.619684,0.131485,-0.491853,0.961085,0.898209,-0.153981,0.180344,0.370117,-1.00168,0.300735,0.510882,1.53963,-0.61111,1.77364,-3.42081,-0.207889,1.20754,-3.31896,-0.225047,1.20548,-0.725434,0.334314,-0.56359,0.685747,0.257105,0.71127,-0.382183,1
1.2204,-0.58856,-2.19269,-0.707989,2.24134,1.59879,-1.18733,1.2204,-0.58856,-2.19269,-0.707989,2.24134,1.59879,-1.18733,1.29215,-0.609166,-2.13595,-0.777293,2.22092,1.52729,-1.14887,-1.19131,0.637974,-0.915381,1.10952,0.466011,1.15012,-0.618425,-1.19131,0.637974,-0.915381,1.10952,0.466011,1.15012,-0.618425,0.122137,-0.488516,0.965349,0.901485,-0.163039,0.182439,0.357013,-0.994936,0.276053,0.45896,1.50634,-0.613339,1.78448,-3.32907,-0.222933,1.08448,-3.32712,-0.232528,1.107,-0.717505,0.206053,-0.56737,0.693044,0.204283,0.714943,-0.384585,1
1.21071,-0.604786,-2.20134,-0.696472,2.24126,1.60993,-1.19378,1.21071,-0.604786,-2.20134,-0.696472,2.24126,1.60993,-1.19378,1.28094,-0.60378,-2.14463,-0.766743,2.225,1.53823,-1.15475,-1.17501,0.506332,-0.917285,1.11731,0.399725,1.1593,-0.622293,-1.17501,0.506332,-0.917285,1.11731,0.399725,1.1593,-0.622293,0.112868,-0.485524,0.969052,0.904524,-0.171756,0.184564,0.343906,-0.991377,0.234932,0.394628,1.47308,-0.615403,1.79448,-3.32617,-0.206405,1.00008,-3.33485,-0.227044,1.00679,-0.702391,-0.010062,-0.567054,0.702706,0.162578,0.716935,-0.390303,1
1.20362,-0.625339,-2.20911,-0.684281,2.23606,1.62151,-1.20225,1.20362,-0.625339,-2.20911,-0.684281,2.23606,1.62151,-1.20225,1.26987,-0.600152,-2.15336,-0.756091,2.22832,1.54924,-1.16066,-1.16286,0.272456,-0.924412,1.13061,0.306154,1.16448,-0.626689,-1.16286,0.272456,-0.924412,1.13061,0.306154,1.16448,-0.626689,0.103563,-0.483275,0.971923,0.907411,-0.179875,0.186646,0.330778,-1.00886,0.133449,0.2846,1.44018,-0.61786,1.8031,-3.28994,-0.245714,0.861824,-3.33508,-0.224493,0.901756,-0.662536,-0.251868,-0.557537,0.718098,0.0774524,0.722687,-0.415825,1
1.19984,-0.629694,-2.21754,-0.672164,2.21776,1.6331,-1.21029,1.19984,-0.629694,-2.21754,-0.672164,2.21776,1.6331,-1.21029,1.259,-0.599549,-2.1621,-0.745295,2.2309,1.56029,-1.16665,-1.13503,-0.1231,-0.92215,1.14755,0.243324,1.16678,-0.637477,-1.13503,-0.1231,-0.92215,1.14755,0.243324,1.16678,-0.637477,0.0939611,-0.48254,0.973446,0.910312,-0.186913,0.188289,0.317714,-1.05604,-0.0589074,0.105642,1.40691,-0.620648,1.81071,-3.3272,-0.278783,0.761259,-3.33658,-0.229015,0.792421,-0.591531,-0.30145,-0.554399,0.731302,-0.131435,0.72815,-0.43637,1
1.19328,-0.638653,-2.22492,-0.660877,2.22137,1.64401,-1.21563,1.19328,-0.638653,-2.22492,-0.660877,2.22137,1.64401,-1.21563,1.24863,-0.602754,-2.17074,-0.734284,2.23242,1.5714,-1.17295,-1.0579,-0.530856,-0.90191,1.1753,0.0856108,1.17793,-0.688592,-1.0579,-0.530856,-0.90191,1.1753,0.0856108,1.17793,-0.688592,0.0840447,-0.483723,0.973299,0.913313,-0.192667,0.189347,0.304772,-1.07747,-0.247662,-0.0793431,1.37393,-0.622999,1.81725,-3.29767,-0.235134,0.653565,-3.32619,-0.233941,0.677985,-0.553517,-0.358998,-0.541818,0.734077,-0.110483,0.726126,-0.426762,1
1.19347,-0.645746,-2.23206,-0.650276,2.24609,1.65475,-1.2194,1.19347,-0.645746,-2.23206,-0.650276,2.24609,1.65475,-1.2194,1.23926,-0.607712,-2.17927,-0.723046,2.23122,1.5826,-1.17963,-0.926543,-0.516666,-0.899559,1.19595,-0.316402,1.18698,-0.720604,-0.926543,-0.516666,-0.899559,1.19595,-0.316402,1.18698,-0.720604,0.074674,-0.48552,0.972263,0.916043,-0.197912,0.191161,0.291809,-0.96455,-0.197289,-0.0884345,1.34066,-0.625391,1.82318,-3.32724,-0.23914,0.59315,-3.31397,-0.240747,0.572846,-0.457913,-0.38034,-0.527847,0.727699,0.148643,0.721471,-0.397644,1
1.19701,-0.654141,-2.24043,-0.640502,2.25679,1.66528,-1.22537,1.19701,-0.654141,-2.24043,-0.640502,2.25679,1.66528,-1.22537,1.23072,-0.613034,-2.18767,-0.71172,2.22892,1.59381,-1.1863,-0.880019,-0.602161,-0.875466,1.19505,-0.177384,1.17987,-0.689208,-0.880019,-0.602161,-0.875466,1.19505,-0.177384,1.17987,-0.689208,0.0658291,-0.487222,0.970997,0.918395,-0.203078,0.193409,0.279112,-0.968568,-0.222529,-0.123095,1.30741,-0.627457,1.82808,-3.32501,-0.206649,0.490367,-3.31388,-0.240963,0.472681,-0.337098,-0.411068,-0.527514,0.712185,0.278736,0.714707,-0.390659,1
1.20492,-0.651958,-2.24878,-0.631538,2.25477,1.6754,-1.23389,1.20492,-0.651958,-2.24878,-0.631538,2.25477,1.6754,-1.23389,1.22328,-0.618885,-2.19585,-0.700474,2.23001,1.60494,-1.19254,-0.700534,-0.631317,-0.851064,1.17982,0.377735,1.17059,-0.631178,-0.700534,-0.631317,-0.851064,1.17982,0.377735,1.17059,-0.631178,0.0569547,-0.489042,0.969653,0.920561,-0.208219,0.193863,0.267636,-0.939323,-0.217992,-0.118797,1.27474,-0.629357,1.83191,-3.26717,-0.189984,0.382662,-3.31007,-0.234997,0.373998,-0.183526,-0.330726,-0.529286,0.689364,0.247547,0.704525,-0.413432,1
1.19962,-0.656653,-2.25806,-0.624125,2.26753,1.68439,-1.23673,1.19962,-0.656653,-2.25806,-0.624125,2.26753,1.68439,-1.23673,1.21771,-0.62512,-2.20394,-0.689444,2.23434,1.61598,-1.19852,-0.486573,-0.682083,-0.857487,1.1503,0.52765,1.15887,-0.630997,-0.486573,-0.682083,-0.857487,1.1503,0.52765,1.15887,-0.630997,0.0485082,-0.490909,0.968226,0.9225,-0.213412,0.192586,0.257605,-0.847546,-0.229303,-0.149908,1.24282,-0.630637,1.83497,-3.19165,-0.127995,0.3057,-3.29622,-0.215024,0.281541,-0.180921,-0.315328,-0.541159,0.653188,0.331848,0.684182,-0.38206,1
1.19739,-0.665347,-2.26642,-0.613569,2.27763,1.69406,-1.24115,1.19739,-0.665347,-2.26642,-0.613569,2.27763,1.69406,-1.24115,1.21442,-0.630673,-2.21209,-0.678749,2.2386,1.62686,-1.20477,-0.223109,-0.500251,-0.862224,1.10961,0.379948,1.14066,-0.684387,-0.223109,-0.500251,-0.862224,1.10961,0.379948,1.14066,-0.684387,0.041477,-0.492215,0.966957,0.923952,-0.21891,0.191387,0.24852,-0.642779,-0.115072,-0.0858508,1.20951,-0.63353,1.83723,-3.33097,-0.289267,0.226116,-3.28691,-0.206738,0.191841,-0.170307,-0.346739,-0.543297,0.6518,0.390282,0.671936,-0.3638,1
1.19578,-0.668963,-2.27584,-0.603933,2.27994,1.70472,-1.24765,1.19578,-0.668963,-2.27584,-0.603933,2.27994,1.70472,-1.24765,1.21197,-0.635408,-2.22038,-0.668562,2.24317,1.63748,-1.21087,-0.290261,-0.49932,-0.885648,1.04441,0.57257,1.1026,-0.607785,-0.290261,-0.49932,-0.885648,1.04441,0.57257,1.1026,-0.607785,0.0351793,-0.493056,0.965895,0.925094,-0.224466,0.190327,0.239981,-0.68026,-0.125813,-0.0997956,1.17696,-0.636059,1.83829,-3.25481,-0.25295,0.106084,-3.27782,-0.209419,0.100366,-0.161909,-0.335544,-0.55468,0.646292,0.367701,0.672401,-0.367864,1
1.19422,-0.675777,-2.28471,-0.594805,2.28124,1.71494,-1.25315,1.19422,-0.675777,-2.28471,-0.594805,2.28124,1.71494,-1.25315,1.20927,-0.640556,-2.22876,-0.658597,2.24908,1.64785,-1.21649,-0.279352,-0.58268,-0.88503,1.05831,0.670981,1.08615,-0.57962,-0.279352,-0.58268,-0.88503,1.05831,0.670981,1.08615,-0.57962,0.0285693,-0.494154,0.964626,0.926257,-0.229652,0.188694,0.231736,-0.701786,-0.160927,-0.13441,1.14453,-0.638467,1.83865,-3.24333,-0.240743,0.0354648,-3.26609,-0.216444,0.00758061,-0.150504,-0.352212,-0.559435,0.637918,0.321605,0.670937,-0.366653,1
1.19099,-0.684021,-2.29341,-0.584542,2.2851,1.72522,-1.25838,1.19099,-0.684021,-2.29341,-0.584542,2.2851,1.72522,-1.25838,1.20673,-0.645876,-2.23726,-0.648611,2.25501,1.65817,-1.22208,-0.257542,-0.542612,-0.906893,1.0501,0.585753,1.09399,-0.600987,-0.257542,-0.542612,-0.906893,1.0501,0.585753,1.09399,-0.600987,0.0220463,-0.495262,0.963232,0.927315,-0.234762,0.187109,0.223526,-0.667041,-0.131117,-0.127509,1.11104,-0.640906,1.83807,-3.34889,-0.243974,-0.0570297,-3.2692,-0.228531,-0.0830031,-0.157405,-0.381445,-0.561522,0.640692,0.300877,0.670454,-0.36301,1
1.18917,-0.692528,-2.30167,-0.574353,2.28531,1.73552,-1.26381,1.18917,-0.692528,-2.30167,-0.574353,2.28531,1.73552,-1.26381,1.20439,-0.651193,-2.24588,-0.638749,2.26012,1.66852,-1.22776,-0.238929,-0.577807,-0.912591,1.03281,0.496528,1.09089,-0.596836,-0.238929,-0.577807,-0.912591,1.03281,0.496528,1.09089,-0.596836,0.0158355,-0.4963,0.961707,0.928197,-0.239792,0.186024,0.215281,-0.645168,-0.144069,-0.156333,1.07736,-0.643412,1.8361,-3.36782,-0.250548,-0.197852,-3.28809,-0.241572,-0.177921,-0.152206,-0.413348,-0.557953,0.643963,0.251918,0.669923,-0.360521,1
1.1861,-0.701021,-2.30988,-0.564421,2.28548,1.74586,-1.26912,1.1861,-0.701021,-2.30988,-0.564421,2.28548,1.74586,-1.26912,1.20202,-0.656959,-2.25453,-0.628913,2.26473,1.67885,-1.23337,-0.259204,-0.636045,-0.913784,1.04286,0.478736,1.08976,-0.587988,-0.259204,-0.636045,-0.913784,1.04286,0.478736,1.08976,-0.587988,0.00966222,-0.497515,0.959903,0.928996,-0.244586,0.18516,0.207025,-0.662882,-0.164643,-0.186036,1.04443,-0.645721,1.83326,-3.29331,-0.230914,-0.2841,-3.30497,-0.249511,-0.277221,-0.159205,-0.440625,-0.553489,0.644918,0.207432,0.670011,-0.357544,1
1.18216,-0.710174,-2.31786,-0.554168,2.28508,1.75589,-1.27431,1.18216,-0.710174,-2.31786,-0.554168,2.28508,1.75589,-1.27431,1.19963,-0.663246,-2.26315,-0.619,2.26881,1.68918,-1.23892,-0.245981,-0.688227,-0.905503,1.04937,0.387704,1.08916,-0.584908,-0.245981,-0.688227,-0.905503,1.04937,0.387704,1.08916,-0.584908,0.00349343,-0.498916,0.957817,0.929719,-0.249167,0.184502,0.198738,-0.651452,-0.181107,-0.215773,1.01084,-0.648232,1.82933,-3.3586,-0.251096,-0.392818,-3.31513,-0.244199,-0.379737,-0.174711,-0.469284,-0.54711,0.648321,0.162682,0.667089,-0.35383,1
1.17841,-0.719662,-2.32527,-0.543666,2.28302,1.76612,-1.27939,1.17841,-0.719662,-2.32527,-0.543666,2.28302,1.76612,-1.27939,1.19722,-0.669974,-2.27169,-0.609059,2.27212,1.6995,-1.24444,-0.261428,-0.729717,-0.897659,1.04914,0.313959,1.08957,-0.580095,-0.261428,-0.729717,-0.897659,1.04914,0.313959,1.08957,-0.580095,-0.00259722,-0.500464,0.955461,0.930341,-0.253542,0.184177,0.190425,-0.65328,-0.192928,-0.241822,0.977873,-0.6509,1.82403,-3.29721,-0.266838,-0.529957,-3.32592,-0.24596,-0.486583,-0.188144,-0.496884,-0.535863,0.653929,0.10904,0.666222,-0.349515,1
1.17672,-0.728996,-2.33292,-0.533067,2.27985,1.7764,-1.28486,1.17672,-0.728996,-2.33292,-0.533067,2.27985,1.7764,-1.28486,1.19459,-0.677123,-2.28014,-0.599086,2.27474,1.70979,-1.2499,-0.292205,-0.776813,-0.886584,1.05572,0.243105,1.0834,-0.57353,-0.292205,-0.776813,-0.886584,1.05572,0.243105,1.0834,-0.57353,-0.00872244,-0.502148,0.952855,0.930886,-0.257688,0.18417,0.182015,-0.665948,-0.206387,-0.268212,0.944842,-0.653925,1.81742,-3.30306,-0.302434,-0.660467,-3.3283,-0.254222,-0.601894,-0.178773,-0.518736,-0.527789,0.660193,0.0511055,0.666146,-0.349577,1
1.17528,-0.738667,-2.34054,-0.522802,2.28143,1.7861,-1.28975,1.17528,-0.738667,-2.34054,-0.522802,2.28143,1.7861,-1.28975,1.19172,-0.684706,-2.28843,-0.589031,2.27658,1.72005,-1.2553,-0.31287,-0.821572,-0.865872,1.06623,0.151345,1.08276,-0.566218,-0.31287,-0.821572,-0.865872,1.06623,0.151345,1.08276,-0.566218,-0.0148897,-0.503956,0.950002,0.931348,-0.261618,0.184508,0.173504,-0.670703,-0.216126,-0.292815,0.912284,-0.656327,1.81038,-3.25587,-0.240225,-0.704467,-3.31385,-0.258809,-0.713087,-0.164469,-0.539606,-0.521092,0.662298,0.0484913,0.660491,-0.344478,1
1.17309,-0.747786,-2.34819,-0.512698,2.28556,1.79565,-1.29465,1.17309,-0.747786,-2.34819,-0.512698,2.28556,1.79565,-1.29465,1.18889,-0.692653,-2.29658,-0.578877,2.27753,1.73031,-1.26068,-0.286149,-0.854179,-0.854065,1.07669,0.0544464,1.08331,-0.568423,-0.286149,-0.854179,-0.854065,1.07669,0.0544464,1.08331,-0.568423,-0.0209269,-0.505846,0.946932,0.931683,-0.265393,0.185228,0.164994,-0.647837,-0.221894,-0.312871,0.879474,-0.658706,1.80246,-3.28098,-0.237936,-0.791836,-3.29989,-0.259957,-0.816314,-0.158029,-0.551326,-0.516161,0.661789,0.0802979,0.653351,-0.339767,1
1.16991,-0.756655,-2.3563,-0.502511,2.28946,1.80495,-1.30012,1.16991,-0.756655,-2.3563,-0.502511,2.28946,1.80495,-1.30012,1.18631,-0.700912,-2.30462,-0.568669,2.27816,1.74052,-1.26601,-0.259456,-0.887406,-0.844321,1.0781,0.0769011,1.07142,-0.557973,-0.259456,-0.887406,-0.844321,1.0781,0.0769011,1.07142,-0.557973,-0.0267974,-0.507818,0.943681,0.931915,-0.269035,0.186057,0.156644,-0.637134,-0.231067,-0.331048,0.846806,-0.660664,1.79344,-3.26679,-0.19573,-0.902104,-3.29002,-0.254295,-0.917264,-0.164073,-0.557428,-0.516783,0.661583,0.11296,0.644307,-0.341087,1
1.16644,-0.766012,-2.36398,-0.492257,2.29308,1.81449,-1.30559,1.16644,-0.766012,-2.36398,-0.492257,2.29308,1.81449,-1.30559,1.18388,-0.709394,-2.31258,-0.558467,2.27925,1.7506,-1.27126,-0.253748,-0.902375,-0.837012,1.07577,0.14844,1.05873,-0.549945,-0.253748,-0.902375,-0.837012,1.07577,0.14844,1.05873,-0.549945,-0.0326455,-0.509839,0.940315,0.9321,-0.272573,0.186663,0.148495,-0.638805,-0.230548,-0.339616,0.81453,-0.66215,1.78396,-3.22755,-0.148636,-0.947845,-3.27302,-0.235936,-1.008,-0.174392,-0.566175,-0.513987,0.662098,0.138357,0.638916,-0.343383,1
1.16436,-0.775468,-2.37195,-0.481744,2.29536,1.82435,-1.31087,1.16436,-0.775468,-2.37195,-0.481744,2.29536,1.82435,-1.31087,1.1814,-0.717977,-2.32053,-0.548276,2.28091,1.76056,-1.27649,-0.27011,-0.909103,-0.840692,1.07567,0.20077,1.04336,-0.555308,-0.27011,-0.909103,-0.840692,1.07567,0.20077,1.04336,-0.555308,-0.0385668,-0.511842,0.936893,0.932257,-0.276034,0.187054,0.140402,-0.649318,-0.22556,-0.345012,0.781907,-0.664479,1.77327,-3.26232,-0.232929,-1.06864,-3.26428,-0.219729,-1.0933,-0.170358,-0.574909,-0.514175,0.665323,0.144448,0.63798,-0.343778,1
1.1623,-0.785133,-2.38023,-0.471297,2.29876,1.83405,-1.31618,1.1623,-0.785133,-2.38023,-0.471297,2.29876,1.83405,-1.31618,1.17874,-0.726668,-2.32847,-0.538078,2.283,1.77041,-1.28178,-0.289094,-0.924751,-0.834769,1.077,0.237025,1.03628,-0.559823,-0.289094,-0.924751,-0.834769,1.077,0.237025,1.03628,-0.559823,-0.0445976,-0.513818,0.933403,0.932385,-0.279418,0.18732,0.132266,-0.661042,-0.222624,-0.354793,0.748918,-0.66745,1.76159,-3.29896,-0.297076,-1.16874,-3.26239,-0.215444,-1.17935,-0.164472,-0.584649,-0.517643,0.667816,0.157669,0.636399,-0.344021,1
1.1599,-0.795025,-2.38878,-0.460764,2.30053,1.84363,-1.32208,1.1599,-0.795025,-2.38878,-0.460764,2.30053,1.84363,-1.32208,1.17607,-0.735502,-2.33638,-0.527842,2.28525,1.78023,-1.28708,-0.275285,-0.939371,-0.835998,1.08352,0.237689,1.03717,-0.559247,-0.275285,-0.939371,-0.835998,1.08352,0.237689,1.03717,-0.559247,-0.0506349,-0.515774,0.929819,0.932448,-0.282753,0.187559,0.124152,-0.652109,-0.220144,-0.365252,0.71687,-0.66983,1.74884,-3.20477,-0.238043,-1.2751,-3.25804,-0.220763,-1.27335,-0.161734,-0.595225,-0.523971,0.670779,0.152862,0.634049,-0.350065,1
1.15812,-0.804945,-2.39732,-0.450118,2.29933,1.85329,-1.32797,1.15812,-0.804945,-2.39732,-0.450118,2.29933,1.85329,-1.32797,1.17352,-0.744482,-2.34434,-0.517558,2.28762,1.79004,-1.29238,-0.26387,-0.955469,-0.843606,1.08734,0.26195,1.03433,-0.559452,-0.26387,-0.955469,-0.843606,1.08734,0.26195,1.03433,-0.559452,-0.0566048,-0.517721,0.92613,0.932431,-0.286043,0.187801,0.116113,-0.647067,-0.219589,-0.376803,0.684178,-0.672281,1.7358,-3.26917,-0.245041,-1.30376,-3.2549,-0.229848,-1.36274,-0.154041,-0.604625,-0.529847,0.674399,0.117128,0.632508,-0.355934,1
1.15754,-0.815413,-2.40607,-0.43932,2.29618,1.86276,-1.33397,1.15754,-0.815413,-2.40607,-0.43932,2.29618,1.86276,-1.33397,1.17103,-0.753623,-2.35239,-0.507232,2.29003,1.79982,-1.29774,-0.261685,-0.973131,-0.855279,1.0922,0.246946,1.02987,-0.572177,-0.261685,-0.973131,-0.855279,1.0922,0.246946,1.02987,-0.572177,-0.0625224,-0.519676,0.922322,0.932348,-0.289249,0.188101,0.108078,-0.642895,-0.220052,-0.390487,0.651376,-0.674651,1.72117,-3.28022,-0.237024,-1.46239,-3.25725,-0.24134,-1.45556,-0.134956,-0.617905,-0.53684,0.679128,0.0615133,0.629473,-0.362279,1
1.15541,-0.826405,-2.41531,-0.428793,2.29406,1.87153,-1.33989,1.15541,-0.826405,-2.41531,-0.428793,2.29406,1.87153,-1.33989,1.16863,-0.762916,-2.36054,-0.496853,2.29199,1.80956,-1.30321,-0.247015,-0.987868,-0.864602,1.09848,0.172496,1.02779,-0.581964,-0.247015,-0.987868,-0.864602,1.09848,0.172496,1.02779,-0.581964,-0.0683003,-0.521644,0.918379,0.932165,-0.292342,0.188687,0.100013,-0.62425,-0.220354,-0.404067,0.618428,-0.676897,1.70556,-3.29486,-0.224608,-1.56155,-3.26468,-0.247914,-1.55427,-0.132202,-0.634898,-0.547692,0.680608,0.0207015,0.619646,-0.366793,1
1.15153,-0.837712,-2.42429,-0.417908,2.28743,1.87991,-1.34578,1.15153,-0.837712,-2.42429,-0.417908,2.28743,1.87991,-1.34578,1.16647,-0.772391,-2.36879,-0.486405,2.29312,1.81927,-1.30877,-0.210002,-1.0112,-0.876349,1.10672,0.0717709,1.02224,-0.592164,-0.210002,-1.0112,-0.876349,1.10672,0.0717709,1.02224,-0.592164,-0.0737962,-0.523664,0.914274,0.931854,-0.295286,0.18972,0.0919862,-0.59231,-0.228017,-0.422526,0.585294,-0.679695,1.68904,-3.31333,-0.279808,-1.65175,-3.27255,-0.247725,-1.65148,-0.149407,-0.653202,-0.554983,0.684974,-0.0569195,0.606339,-0.370085,1
1.14755,-0.849172,-2.43284,-0.406758,2.28323,1.88908,-1.35206,1.14755,-0.849172,-2.43284,-0.406758,2.28323,1.88908,-1.35206,1.16447,-0.78212,-2.37719,-0.475916,2.29351,1.82886,-1.31442,-0.212967,-1.04091,-0.89596,1.1076,0.0130104,1.00287,-0.598703,-0.212967,-1.04091,-0.89596,1.1076,0.0130104,1.00287,-0.598703,-0.0790855,-0.525792,0.909972,0.931455,-0.297984,0.191172,0.0839721,-0.58724,-0.238464,-0.444691,0.552168,-0.682818,1.67136,-3.31258,-0.312269,-1.76804,-3.28268,-0.251606,-1.75181,-0.16916,-0.670525,-0.556521,0.691582,-0.102791,0.602157,-0.376415,1
1.14303,-0.861462,-2.44179,-0.396295,2.28405,1.89805,-1.3579,1.14303,-0.861462,-2.44179,-0.396295,2.28405,1.89805,-1.3579,1.16226,-0.792133,-2.38573,-0.465381,2.29292,1.83824,-1.32011,-0.252045,-1.07129,-0.906283,1.11583,-0.129063,0.979263,-0.603364,-0.252045,-1.07129,-0.906283,1.11583,-0.129063,0.979263,-0.603364,-0.0843286,-0.528033,0.905459,0.930985,-0.300326,0.193194,0.0758163,-0.593597,-0.245361,-0.466907,0.519611,-0.685306,1.65206,-3.25571,-0.248772,-1.92987,-3.29242,-0.259086,-1.86189,-0.192276,-0.693283,-0.560603,0.690867,-0.0886941,0.598089,-0.37789,1
1.13695,-0.874061,-2.45052,-0.386465,2.28798,1.90728,-1.36489,1.13695,-0.874061,-2.45052,-0.386465,2.28798,1.90728,-1.36489,1.1597,-0.802421,-2.39431,-0.454749,2.29139,1.84751,-1.32589,-0.285525,-1.09887,-0.905612,1.12801,-0.191707,0.976993,-0.615132,-0.285525,-1.09887,-0.905612,1.12801,-0.191707,0.976993,-0.615132,-0.089609,-0.530334,0.900751,0.930424,-0.302383,0.195764,0.0674666,-0.605965,-0.245398,-0.484892,0.487407,-0.688041,1.63182,-3.22047,-0.273496,-2.02464,-3.28609,-0.266104,-1.97989,-0.227553,-0.716406,-0.562088,0.682844,-0.0340593,0.597681,-0.389999,1
1.13112,-0.886386,-2.45904,-0.376568,2.28663,1.91756,-1.37261,1.13112,-0.886386,-2.45904,-0.376568,2.28663,1.91756,-1.37261,1.1568,-0.813029,-2.40293,-0.444086,2.28985,1.85674,-1.33172,-0.323779,-1.13833,-0.913316,1.12325,-0.136195,0.971065,-0.615422,-0.323779,-1.13833,-0.913316,1.12325,-0.136195,0.971065,-0.615422,-0.095074,-0.532689,0.895839,0.929831,-0.304239,0.198422,0.0590104,-0.634452,-0.251596,-0.510694,0.455092,-0.690915,1.61109,-3.23151,-0.287479,-2.07239,-3.27349,-0.273895,-2.08825,-0.256807,-0.73357,-0.561071,0.675176,-0.0322262,0.608231,-0.408894,1
1.12698,-0.898899,-2.46697,-0.366805,2.28829,1.9275,-1.38081,1.12698,-0.898899,-2.46697,-0.366805,2.28829,1.9275,-1.38081,1.15342,-0.824005,-2.41159,-0.433529,2.28911,1.86594,-1.33767,-0.387195,-1.17649,-0.914962,1.10617,-0.0264504,0.971593,-0.639717,-0.387195,-1.17649,-0.914962,1.10617,-0.0264504,0.971593,-0.639717,-0.100914,-0.535101,0.890697,0.929281,-0.305909,0.200784,0.0504221,-0.680651,-0.252834,-0.537375,0.422754,-0.693204,1.58961,-3.23371,-0.228894,-2.14783,-3.25781,-0.273515,-2.19028,-0.264423,-0.748948,-0.553816,0.667244,-0.00821171,0.615627,-0.431401,1
1.11618,-0.911542,-2.47625,-0.357799,2.29861,1.93598,-1.38849,1.11618,-0.911542,-2.47625,-0.357799,2.29861,1.93598,-1.38849,1.14953,-0.835275,-2.42025,-0.42311,2.28874,1.87526,-1.3439,-0.432484,-1.20127,-0.911761,1.09389,-0.0496913,0.994229,-0.674587,-0.432484,-1.20127,-0.911761,1.09389,-0.0496913,0.994229,-0.674587,-0.107056,-0.537512,0.885325,0.928714,-0.307462,0.203039,0.0416281,-0.699753,-0.248215,-0.561182,0.390703,-0.69483,1.56711,-3.20517,-0.162584,-2.25078,-3.23972,-0.256383,-2.28669,-0.333442,-0.762674,-0.560056,0.653113,0.0986717,0.607193,-0.445859,1
1.10529,-0.923829,-2.48478,-0.348534,2.30332,1.94565,-1.39647,1.10529,-0.923829,-2.48478,-0.348534,2.30332,1.94565,-1.39647,1.14542,-0.846775,-2.42881,-0.412809,2.28849,1.88473,-1.35049,-0.433511,-1.22508,-0.896983,1.08126,-0.0048799,1.00523,-0.71269,-0.433511,-1.22508,-0.896983,1.08126,-0.0048799,1.00523,-0.71269,-0.113293,-0.539904,0.879752,0.928084,-0.308976,0.205238,0.0327414,-0.701133,-0.246425,-0.5806,0.358854,-0.696343,1.54372,-3.18485,-0.151306,-2.33867,-3.2229,-0.231389,-2.37514,-0.401273,-0.770539,-0.559725,0.642758,0.148281,0.609147,-0.459879,1
1.08805,-0.934731,-2.49385,-0.337103,2.28302,1.95719,-1.40333,1.08805,-0.934731,-2.49385,-0.337103,2.28302,1.95719,-1.40333,1.14061,-0.858491,-2.43739,-0.402695,2.28954,1.89415,-1.35734,-0.574203,-1.24687,-0.913356,1.05521,0.213173,0.983165,-0.732222,-0.574203,-1.24687,-0.913356,1.05521,0.213173,0.983165,-0.732222,-0.120056,-0.542209,0.874034,0.927514,-0.310389,0.20693,0.0235781,-0.799458,-0.226715,-0.596864,0.325446,-0.699368,1.51981,-3.3408,-0.302505,-2.39047,-3.22853,-0.223957,-2.45329,-0.525601,-0.7624,-0.564588,0.655928,-0.065218,0.630469,-0.459898,1
1.07541,-0.945911,-2.50374,-0.325329,2.26611,1.96731,-1.41084,1.07541,-0.945911,-2.50374,-0.325329,2.26611,1.96731,-1.41084,1.1346,-0.870355,-2.44603,-0.392775,2.29184,1.9035,-1.36438,-0.688735,-1.25683,-0.910791,1.03981,0.269839,0.990633,-0.754233,-0.688735,-1.25683,-0.910791,1.03981,0.269839,0.990633,-0.754233,-0.127597,-0.544314,0.868199,0.926987,-0.311662,0.20825,0.0139217,-0.864198,-0.200049,-0.609634,0.293255,-0.702319,1.49394,-3.21915,-0.295097,-2.58745,-3.23445,-0.224573,-2.54313,-0.591928,-0.755566,-0.577102,0.674463,-0.257326,0.638123,-0.464575,1
1.06578,-0.959978,-2.51327,-0.318164,2.27124,1.9751,-1.41888,1.06578,-0.959978,-2.51327,-0.318164,2.27124,1.9751,-1.41888,1.12695,-0.882157,-2.45471,-0.382757,2.29199,1.91311,-1.3715,-0.914153,-1.23568,-0.919985,1.07303,-0.210991,1.03607,-0.748047,-0.914153,-1.23568,-0.919985,1.07303,-0.210991,1.03607,-0.748047,-0.135648,-0.546068,0.86225,0.926121,-0.312675,0.211003,0.00351583,-0.935033,-0.144329,-0.613149,0.261886,-0.704218,1.46764,-3.1369,-0.189865,-2.63044,-3.22812,-0.223842,-2.63932,-0.61163,-0.778211,-0.585675,0.645933,-0.207503,0.619915,-0.473794,1
1.05452,-0.973536,-2.52447,-0.310919,2.27082,1.98449,-1.42702,1.05452,-0.973536,-2.52447,-0.310919,2.27082,1.98449,-1.42702,1.11787,-0.893808,-2.46355,-0.372422,2.28843,1.92296,-1.37863,-0.997954,-1.22459,-0.944716,1.10684,-0.52455,1.04241,-0.757046,-0.997954,-1.22459,-0.944716,1.10684,-0.52455,1.04241,-0.757046,-0.143885,-0.547476,0.856212,0.924732,-0.313301,0.216001,-0.00758125,-0.946927,-0.112374,-0.615028,0.229532,-0.706768,1.44065,-3.23541,-0.254995,-2.69808,-3.22465,-0.233723,-2.73427,-0.63348,-0.797278,-0.60921,0.615025,-0.176047,0.615288,-0.483838,1
1.04466,-0.98569,-2.53376,-0.30196,2.2699,1.99516,-1.43584,1.04466,-0.98569,-2.53376,-0.30196,2.2699,1.99516,-1.43584,1.10839,-0.90567,-2.47256,-0.362284,2.28452,1.93262,-1.38589,-1.00148,-1.27641,-0.956953,1.03698,-0.312033,0.998574,-0.775223,-1.00148,-1.27641,-0.956953,1.03698,-0.312033,0.998574,-0.775223,-0.152259,-0.548865,0.849957,0.923245,-0.313523,0.221294,-0.0187405,-0.968367,-0.127478,-0.657991,0.197251,-0.708742,1.41278,-3.22807,-0.197417,-2.78771,-3.22343,-0.240837,-2.82604,-0.637335,-0.8002,-0.612003,0.603245,-0.146163,0.625477,-0.499453,1
1.03312,-0.998461,-2.54386,-0.294562,2.27076,2.00488,-1.44429,1.03312,-0.998461,-2.54386,-0.294562,2.27076,2.00488,-1.44429,1.09872,-0.917917,-2.48185,-0.352731,2.28183,1.94207,-1.39332,-1.03885,-1.30723,-1.00169,0.982712,-0.258717,0.996982,-0.79188,-1.03885,-1.30723,-1.00169,0.982712,-0.258717,0.996982,-0.79188,-0.160883,-0.550354,0.843357,0.92186,-0.313328,0.226081,-0.0297726,-0.990414,-0.12629,-0.696146,0.164562,-0.711413,1.38349,-3.26886,-0.267136,-2.92912,-3.22496,-0.244308,-2.92163,-0.655945,-0.805444,-0.620099,0.581691,-0.110735,0.628127,-0.509688,1
1.02153,-1.01155,-2.55455,-0.288532,2.27154,2.01493,-1.45273,1.02153,-1.01155,-2.55455,-0.288532,2.27154,2.01062,-1.45273,1.08887,-0.930278,-2.49132,-0.343457,2.27954,1.95164,-1.40096,-1.03918,-1.30236,-0.997496,0.975324,-0.226489,1.02285,-0.819688,-1.03918,-1.30236,-0.997496,0.975324,-0.226489,1.02285,-0.819688,-0.169599,-0.551728,0.836571,0.920375,-0.31302,0.230797,-0.0407517,-0.986562,-0.100898,-0.70011,0.132047,-0.714549,1.35339,-3.2515,-0.313616,-3.00953,-3.2222,-0.24377,-3.01798,-0.673438,-0.812767,-0.632286,0.549255,-0.0799573,0.632868,-0.517668,1
1.00956,-1.02455,-2.56547,-0.283572,2.26831,2.0256,-1.46044,1.00956,-1.02455,-2.56547,-0.283572,2.26831,2.01062,-1.46044,1.07885,-0.942663,-2.50084,-0.33441,2.27771,1.96134,-1.4088,-1.07473,-1.31146,-1.01114,0.936573,-0.163417,1.02342,-0.834108,-1.07473,-1.31146,-1.01114,0.936573,-0.163417,1.02342,-0.834108,-0.178407,-0.552913,0.829677,0.918775,-0.312691,0.235384,-0.0516777,-1.00542,-0.0830695,-0.718621,0.0992378,-0.717355,1.32202,-3.28096,-0.280577,-3.13733,-3.2382,-0.251489,-3.11222,-0.692887,-0.818833,-0.646369,0.508384,-0.0940107,0.64266,-0.516366,1
0.99767,-1.03745,-2.57646,-0.277741,2.26103,2.03565,-1.46853,0.99767,-1.03745,-2.57646,-0.277741,2.26103,2.01062,-1.46853,1.06852,-0.955158,-2.51053,-0.325836,2.27641,1.97062,-1.41676,-1.10441,-1.3255,-1.03445,0.87677,-0.114292,0.940252,-0.845399,-1.10441,-1.3255,-1.03445,0.87677,-0.114292,0.940252,-0.845399,-0.187387,-0.554046,0.822621,0.91721,-0.311945,0.239797,-0.062562,-1.01927,-0.0807102,-0.739861,0.0674406,-0.719702,1.289,-3.17971,-0.234711,-3.30224,-3.24688,-0.262272,-3.2235,-0.708494,-0.822901,-0.659266,0.480948,-0.153793,0.650339,-0.517725,1
0.986891,-1.04963,-2.58656,-0.269424,2.24838,2.04423,-1.47509,0.986891,-1.04963,-2.58656,-0.269424,2.24838,2.01062,-1.47509,1.0579,-0.967762,-2.52045,-0.317881,2.2751,1.97859,-1.42474,-1.13611,-1.33467,-1.05819,0.806412,-0.159575,0.752931,-0.839096,-1.13611,-1.33467,-1.05819,0.806412,-0.159575,0.752931,-0.839096,-0.196462,-0.5553,0.815439,0.91582,-0.310239,0.24421,-0.0733916,-1.02475,-0.0911702,-0.755749,0.0357991,-0.72231,1.25555,-3.16415,-0.260764,-3.345,-3.23622,-0.266033,-3.337,-0.710071,-0.818644,-0.661046,0.484573,-0.267136,0.656383,-0.503461,1
0.976871,-1.06185,-2.59663,-0.265946,2.2395,2.05148,-1.48088,0.976871,-1.06185,-2.59663,-0.265946,2.2395,2.01062,-1.48088,1.04702,-0.980434,-2.53058,-0.310431,2.27298,1.98497,-1.4327,-1.15984,-1.34009,-1.0784,0.768364,-0.280918,0.6029,-0.842158,-1.15984,-1.34009,-1.0784,0.768364,-0.280918,0.6029,-0.842158,-0.20553,-0.556713,0.808173,0.914569,-0.307393,0.248967,-0.0841886,-1.02177,-0.0941726,-0.766908,0.00405736,-0.725175,1.22085,-3.17417,-0.286537,-3.46954,-3.22041,-0.272308,-3.45021,-0.701445,-0.814134,-0.660514,0.44485,-0.334797,0.665043,-0.481723,1
0.966209,-1.07413,-2.60668,-0.262437,2.23369,2.05674,-1.48773,0.966209,-1.07413,-2.60668,-0.262437,2.23369,2.01062,-1.48773,1.03605,-0.993075,-2.54078,-0.303043,2.26927,1.99008,-1.44053,-1.15545,-1.3292,-1.07589,0.790195,-0.490864,0.482764,-0.812141,-1.15545,-1.3292,-1.07589,0.790195,-0.490864,0.482764,-0.812141,-0.214421,-0.558178,0.800918,0.913261,-0.303656,0.254448,-0.0948868,-0.997053,-0.0853944,-0.756706,-0.0271089,-0.727281,1.18607,-3.11663,-0.210589,-3.47823,-3.1944,-0.263609,-3.54932,-0.698404,-0.81056,-0.658936,0.406053,-0.355755,0.66652,-0.472012,1
0.954691,-1.0865,-2.61704,-0.261294,2.2291,2.06036,-1.49494,0.954691,-1.0865,-2.61704,-0.261294,2.2291,2.01062,-1.49494,1.0252,-1.00563,-2.55096,-0.295978,2.26417,1.99418,-1.44803,-1.13595,-1.32138,-1.07337,0.705877,-0.579922,0.386568,-0.772113,-1.13595,-1.32138,-1.07337,0.705877,-0.579922,0.386568,-0.772113,-0.223023,-0.559735,0.793629,0.911921,-0.299119,0.260506,-0.10519,-0.965432,-0.0974438,-0.774342,-0.0593645,-0.728977,1.1506,-3.22556,-0.169605,-3.5465,-3.17969,-0.245031,-3.63718,-0.705095,-0.808728,-0.660743,0.346842,-0.350709,0.661844,-0.469125,1
0.943859,-1.09888,-2.62791,-0.26759,2.22463,2.06365,-1.50194,0.943859,-1.09888,-2.62791,-0.26759,2.22463,2.01062,-1.50194,1.01445,-1.01812,-2.56112,-0.289625,2.25865,1.99745,-1.45529,-1.13385,-1.31644,-1.07079,0.639024,-0.5865,0.309539,-0.762489,-1.13385,-1.31644,-1.07079,0.639024,-0.5865,0.309539,-0.762489,-0.231452,-0.561399,0.786215,0.910662,-0.293875,0.266637,-0.115054,-0.95498,-0.0971061,-0.788103,-0.0915245,-0.731187,1.11343,-3.216,-0.220954,-3.71774,-3.1743,-0.232201,-3.72157,-0.705901,-0.807545,-0.667856,0.220349,-0.340107,0.661994,-0.466498,1
0.933822,-1.11084,-2.63849,-0.29127,2.21794,2.06691,-1.51052,0.933822,-1.11084,-2.63849,-0.29127,2.21794,2.01062,-1.51052,1.00363,-1.03058,-2.57129,-0.284087,2.25319,2.00008,-1.46252,-1.15017,-1.31431,-1.07535,0.535744,-0.566193,0.247859,-0.762101,-1.15017,-1.31431,-1.07535,0.535744,-0.566193,0.247859,-0.762101,-0.239873,-0.563113,0.778634,0.909505,-0.288022,0.272605,-0.12462,-0.955586,-0.0979886,-0.814634,-0.123445,-0.734014,1.07609,-3.19201,-0.282711,-3.73374,-3.18116,-0.230322,-3.79718,-0.698034,-0.802523,-0.672058,-0.0718327,-0.352473,0.6683,-0.480032,1
0.924111,-1.12236,-2.64923,-0.317552,2.21693,2.07,-1.52086,0.924111,-1.12236,-2.64923,-0.317552,2.21693,2.01062,-1.52086,0.992736,-1.04303,-2.58155,-0.280207,2.24792,2.00218,-1.46971,-1.14881,-1.31271,-1.08964,0.296566,-0.54732,0.19847,-0.757559,-1.14881,-1.31271,-1.08964,0.296566,-0.54732,0.19847,-0.757559,-0.248242,-0.565049,0.770646,0.908595,-0.28133,0.278291,-0.133654,-0.93504,-0.130787,-0.881197,-0.154954,-0.736212,1.03686,-3.15098,-0.219786,-3.92256,-3.18457,-0.22603,-3.88649,-0.686249,-0.79332,-0.676825,-0.373445,-0.30994,0.678215,-0.511485,1
0.914104,-1.13581,-2.66062,-0.338954,2.27798,2.06856,-1.52488,0.914104,-1.13581,-2.66062,-0.338954,2.27798,2.01062,-1.52488,0.981941,-1.05541,-2.5919,-0.280183,2.24258,2.00386,-1.47704,-1.131,-1.30267,-1.0952,-0.260593,-0.579004,0.158923,-0.786968,-1.131,-1.30267,-1.0952,-0.260593,-0.579004,0.158923,-0.786968,-0.256294,-0.567711,0.761678,0.9083,-0.27312,0.283504,-0.141502,-0.874351,-0.23025,-1.03476,-0.186149,-0.738385,0.996527,-3.11948,-0.217354,-4.03349,-3.17997,-0.223313,-3.98533,-0.678364,-0.80394,-0.687194,-0.58771,0.354051,0.647004,-0.478402,1
0.90164,-1.14923,-2.67157,-0.349179,2.29691,2.06599,-1.52746,0.90164,-1.14923,-2.67157,-0.349179,2.29691,2.01062,-1.52746,0.971331,-1.06767,-2.60231,-0.285156,2.23756,2.00521,-1.4848,-1.10989,-1.28546,-1.10278,-0.761434,-0.485007,0.127255,-0.847689,-1.10989,-1.28546,-1.10278,-0.761434,-0.485007,0.127255,-0.847689,-0.263968,-0.571264,0.751461,0.908835,-0.2632,0.287836,-0.147972,-0.829963,-0.303416,-1.1687,-0.21834,-0.740683,0.956602,-3.21909,-0.229722,-3.99256,-3.18105,-0.228734,-4.08254,-0.696913,-0.815603,-0.692608,-0.640222,0.593534,0.607829,-0.426633,1
0.89048,-1.15914,-2.67961,-0.345137,2.30719,2.06679,-1.53589,0.89048,-1.15914,-2.67961,-0.345137,2.30719,2.01062,-1.53589,0.96087,-1.07998,-2.61286,-0.293862,2.23987,2.00629,-1.49241,-1.09919,-1.31217,-1.12255,-1.05986,0.895794,0.101898,-0.763239,-1.09919,-1.31217,-1.12255,-1.05986,0.895794,0.101898,-0.763239,-0.272269,-0.574898,0.740574,0.910651,-0.252986,0.288265,-0.153678,-0.932252,-0.268406,-1.22026,-0.249971,-0.743418,0.915436,-3.16314,-0.273585,-4.11657,-3.17199,-0.238165,-4.17396,-0.703898,-0.791622,-0.66752,-0.512745,0.673221,0.604989,-0.434871,1
0.879824,-1.17055,-2.68883,-0.353426,2.31699,2.0693,-1.54727,0.879824,-1.17055,-2.68883,-0.353426,2.31699,2.01062,-1.54727,0.95024,-1.09252,-2.62353,-0.303923,2.24946,2.00715,-1.49915,-1.14232,-1.333,-1.12928,-1.06371,1.1155,0.0815936,-0.66547,-1.14232,-1.333,-1.12928,-1.06371,1.1155,0.0815936,-0.66547,-0.281557,-0.578029,0.729513,0.913354,-0.243076,0.285191,-0.159264,-0.985025,-0.217825,-1.23779,-0.282182,-0.746826,0.872991,-3.22104,-0.340718,-4.2445,-3.1729,-0.2507,-4.26024,-0.704162,-0.780328,-0.653089,-0.495028,0.675337,0.621522,-0.481262,1
0.868669,-1.18235,-2.69903,-0.35987,2.32304,2.07225,-1.55646,0.868669,-1.18235,-2.69903,-0.35987,2.32304,2.01062,-1.55646,0.939382,-1.10486,-2.63394,-0.312515,2.25999,2.00784,-1.50568,-1.14943,-1.2759,-1.07332,-0.766746,1.10939,0.0653351,-0.710222,-1.14943,-1.2759,-1.07332,-0.766746,1.10939,0.0653351,-0.710222,-0.291191,-0.580356,0.718933,0.915743,-0.233783,0.281741,-0.165477,-1.00117,-0.110029,-1.12008,-0.313015,-0.749097,0.830049,-3.08334,-0.227171,-4.29426,-3.16782,-0.255396,-4.34626,-0.707137,-0.774861,-0.650874,-0.47355,0.630453,0.644036,-0.507826,1
0.859164,-1.19444,-2.70955,-0.369159,2.32727,2.07453,-1.56224,0.859164,-1.19444,-2.70955,-0.369159,2.32727,2.01062,-1.56224,0.928517,-1.11688,-2.64401,-0.319887,2.27043,2.0084,-1.51289,-1.14445,-1.2615,-1.05343,-0.788257,1.09433,0.0523137,-0.808041,-1.14445,-1.2615,-1.05343,-0.788257,1.09433,0.0523137,-0.808041,-0.300855,-0.582041,0.708818,0.917692,-0.225119,0.278244,-0.172465,-0.992828,-0.0820024,-1.12512,-0.344659,-0.751027,0.784723,-3.1644,-0.192964,-4.53256,-3.16675,-0.257187,-4.43924,-0.69353,-0.775615,-0.655383,-0.49272,0.568419,0.661296,-0.493443,1
0.848123,-1.20647,-2.71923,-0.379597,2.3291,2.0761,-1.5703,0.848123,-1.20647,-2.71923,-0.379597,2.3291,2.01062,-1.5703,0.917642,-1.12881,-2.65402,-0.327248,2.28034,2.00884,-1.52071,-1.15102,-1.25823,-1.05799,-0.766734,1.0035,0.0418896,-0.840199,-1.15102,-1.25823,-1.05799,-0.766734,1.0035,0.0418896,-0.840199,-0.310472,-0.58346,0.698636,0.919403,-0.216422,0.274827,-0.179805,-0.989735,-0.0505297,-1.13024,-0.375675,-0.752441,0.738624,-3.10161,-0.141388,-4.6099,-3.15807,-0.244766,-4.54591,-0.695185,-0.77655,-0.652132,-0.523491,0.487569,0.672627,-0.4959,1
0.837349,-1.21876,-2.72862,-0.391458,2.33117,2.07766,-1.57961,0.837349,-1.21876,-2.72862,-0.391458,2.33117,2.01062,-1.57961,0.906884,-1.14075,-2.66409,-0.334725,2.28929,2.0092,-1.52844,-1.12156,-1.26182,-1.06843,-0.809314,0.892541,0.0335425,-0.794334,-1.12156,-1.26182,-1.06843,-0.809314,0.892541,0.0335425,-0.794334,-0.319917,-0.58474,0.688258,0.920934,-0.207441,0.271783,-0.187037,-0.959437,-0.0454141,-1.16056,-0.405922,-0.756045,0.690659,-3.02469,-0.360435,-4.7965,-3.13083,-0.24405,-4.67758,-0.695345,-0.780126,-0.645265,-0.567323,0.418736,0.68467,-0.511718,1
0.828583,-1.22951,-2.73598,-0.401101,2.31957,2.08165,-1.5836,0.828583,-1.22951,-2.73598,-0.401101,2.31957,2.01062,-1.5836,0.896214,-1.15271,-2.67417,-0.342684,2.29705,2.00948,-1.53602,-1.13029,-1.26338,-1.05909,-0.867572,0.753156,0.0268588,-0.805615,-1.13029,-1.26338,-1.05909,-0.867572,0.753156,0.0268588,-0.805615,-0.329158,-0.585956,0.677557,0.922345,-0.198013,0.269136,-0.194004,-0.946803,-0.0294787,-1.19418,-0.448837,-0.767433,0.649071,-4.29147,-1.13875,-4.15884,-3.23835,-0.335091,-4.73281,-0.676312,-0.767991,-0.618132,-0.584165,0.225162,0.721713,-0.475774,1
0.824005,-1.24014,-2.74428,-0.402314,2.33525,2.08204,-1.58838,0.824005,-1.24014,-2.74428,-0.402314,2.33525,2.01062,-1.58838,0.885498,-1.16472,-2.68414,-0.351287,2.30366,2.00971,-1.54383,-1.13166,-1.27025,-1.04552,-0.944142,0.64661,0.0215068,-0.840954,-1.13166,-1.27025,-1.04552,-0.944142,0.64661,0.0215068,-0.840954,-0.338269,-0.587078,0.666483,0.923627,-0.188144,0.266764,-0.200879,-0.931493,-0.0170523,-1.23564,-0.448837,-0.767433,0.649071,0,0,0,-2.97454,-0.36968,-4.27779,-0.614931,-0.754253,-0.601401,-0.510265,0.315933,0.723345,-0.445506,1
0.827214,-1.25045,-2.7528,-0.37873,2.3733,2.07817,-1.58358,0.827214,-1.25045,-2.7528,-0.37873,2.3733,2.01062,-1.58358,0.874982,-1.17662,-2.69377,-0.360306,2.30792,2.00989,-1.55138,-1.09054,-1.24321,-0.992034,-0.958824,0.273837,0.0172213,-0.75725,-1.09054,-1.24321,-0.992034,-0.958824,0.273837,0.0172213,-0.75725,-0.34694,-0.588182,0.655144,0.924719,-0.177819,0.265199,-0.20723,-0.863481,-0.0166542,-1.24333,-0.448837,-0.767433,0.649071,0,0,0,-2.46065,-0.367177,-3.47783,-0.477681,-0.738325,-0.590213,-0.184245,0.653769,0.68275,-0.321978,1
0.846275,-1.25445,-2.73526,-0.345629,2.38882,2.07097,-1.58237,0.846275,-1.25445,-2.73526,-0.345629,2.38882,2.01062,-1.58237,0.865255,-1.18828,-2.70306,-0.368562,2.31189,2.01004,-1.55831,-0.969508,-1.21906,-0.968787,-0.79327,0.54905,0.0137897,-0.706946,-0.969508,-1.21906,-0.968787,-0.79327,0.54905,0.0137897,-0.706946,-0.355085,-0.589092,0.644111,0.925667,-0.167891,0.263695,-0.213116,-0.817472,0.0127989,-1.16798,-0.448837,-0.767433,0.649071,0,0,0,-1.79204,-0.323529,-2.49162,-0.189795,-0.66174,-0.322003,0.22933,0.769256,0.609373,-0.240679,1
