Afshin1997/kuka_rl_ros2/src/catch_and_throw/output_files/tm/nn_ema7.00_jvws1_realball_D22H15M23S16/recorded_data.csv
pure_target_joint_0,pure_target_joint_1,pure_target_joint_2,pure_target_joint_3,pure_target_joint_4,pure_target_joint_5,pure_target_joint_6,target_joint_0,target_joint_1,target_joint_2,target_joint_3,target_joint_4,target_joint_5,target_joint_6,pos_joint_0,pos_joint_1,pos_joint_2,pos_joint_3,pos_joint_4,pos_joint_5,pos_joint_6,vel_joint_0,vel_joint_1,vel_joint_2,vel_joint_3,vel_joint_4,vel_joint_5,vel_joint_6,vel_smooth_joint_0,vel_smooth_joint_1,vel_smooth_joint_2,vel_smooth_joint_3,vel_smooth_joint_4,vel_smooth_joint_5,vel_smooth_joint_6,ee_pos_x,ee_pos_y,ee_pos_z,ee_or_w,ee_or_x,ee_or_y,ee_or_z,ee_vel_x,ee_vel_y,ee_vel_z,ball_pos_x,ball_pos_y,ball_pos_z,ball_raw_vx,ball_raw_vy,ball_raw_vz,ball_ema_vx,ball_ema_vy,ball_ema_vz,action_0,action_1,action_2,action_3,action_4,action_5,action_6,command_published
1.74768,-1.02565,-1.83163,-1.11959,1.9797,1.17948,-0.861791,1.77977,-1.06402,-1.81554,-1.1171,1.93802,1.11813,-0.91545,1.78027,-1.06463,-1.81528,-1.11706,1.93736,1.11715,-0.916301,0,0,0,0,0,0,0,0,0,0,0,0,0,0,0.531039,-0.454422,0.694259,0.574536,0.175108,0.152572,0.784835,0,0,0,2.9746,-0.486679,0.199355,-3.05225,-0.093243,5.35755,-3.40651,-0.0745463,4.96048,-0.325957,0.389781,-0.163509,-0.0252464,0.423426,0.623265,0.545107,1
1.75104,-1.03175,-1.83634,-1.0819,1.97349,1.18537,-0.861025,1.77676,-1.06046,-1.81714,-1.11675,1.94189,1.12406,-0.910327,1.78027,-1.06463,-1.81528,-1.11706,1.93736,1.11715,-0.916301,0,0,0,0,0,0,0,0,0,0,0,0,0,0,0.531039,-0.454422,0.694259,0.574536,0.175108,0.152572,0.784835,0,0,0,2.94553,-0.48815,0.253658,-2.92365,-0.14793,5.4611,-3.27537,-0.10436,5.17092,-0.292318,0.328814,-0.21061,0.351609,0.361336,0.682227,0.552768,1
1.74035,-1.03424,-1.84855,-1.05894,1.96543,1.18756,-0.862085,1.76927,-1.05194,-1.82161,-1.11345,1.95111,1.13926,-0.897496,1.7802,-1.06454,-1.81532,-1.11707,1.93746,1.1173,-0.916171,-0.0156362,0.0187003,-0.00784469,-0.00121051,0.0203137,0.0298984,0.0261513,-0.0156362,0.0187003,-0.00784469,-0.00121051,0.0203137,0.0298984,0.0261513,0.530975,-0.454442,0.694308,0.574525,0.17505,0.152529,0.784865,-0.0116397,-0.00413283,0.00924048,2.91667,-0.48968,0.307136,-2.89971,-0.153789,5.37314,-3.14448,-0.124291,5.29888,-0.398478,0.302949,-0.332328,0.581264,0.279729,0.702544,0.540859,1
1.74605,-1.03231,-1.81037,-1.05891,1.95684,1.18244,-0.857144,1.75896,-1.04139,-1.82837,-1.10325,1.962,1.16024,-0.880304,1.77961,-1.06384,-1.81563,-1.11702,1.93821,1.11845,-0.91518,-0.103416,0.122667,-0.0549442,0.0099445,0.133457,0.203655,0.17601,-0.103416,0.122667,-0.0549442,0.0099445,0.133457,0.203655,0.17601,0.530479,-0.454627,0.69469,0.57447,0.174593,0.152192,0.785073,-0.0802514,-0.0341544,0.0640316,2.88821,-0.491384,0.359314,-2.82975,-0.16939,5.18739,-3.02906,-0.136882,5.34641,-0.335672,0.315336,0.0526183,0.581158,0.186272,0.639957,0.58036,1
1.74091,-1.00932,-1.78783,-1.05983,1.97163,1.18194,-0.848357,1.75032,-1.0342,-1.8326,-1.0867,1.96752,1.17671,-0.866937,1.77765,-1.06158,-1.81674,-1.11644,1.94067,1.12237,-0.911835,-0.304107,0.349638,-0.176446,0.108447,0.378583,0.612446,0.520073,-0.304107,0.349638,-0.176446,0.108447,0.378583,0.612446,0.520073,0.528736,-0.455423,0.696022,0.574454,0.172975,0.151019,0.785669,-0.248664,-0.131574,0.196149,2.86022,-0.492984,0.410049,-2.81076,-0.16066,5.09472,-2.93907,-0.144422,5.32186,-0.367474,0.522555,0.289161,0.566067,0.309606,0.595732,0.634775,1
1.73065,-0.989518,-1.77324,-1.06211,1.98585,1.18866,-0.841154,1.7454,-1.02984,-1.82777,-1.07104,1.96711,1.18348,-0.859884,1.7737,-1.05723,-1.81916,-1.11403,1.9453,1.13038,-0.905131,-0.534514,0.574416,-0.334052,0.390789,0.605563,1.08314,0.900535,-0.534514,0.574416,-0.334052,0.390789,0.605563,1.08314,0.900535,0.525011,-0.457511,0.698827,0.574934,0.1695,0.148595,0.786537,-0.466972,-0.307236,0.361348,2.83239,-0.49494,0.460765,-2.78577,-0.195779,5.07655,-2.87405,-0.155139,5.25978,-0.430466,0.677071,0.459231,0.519133,0.405499,0.582816,0.639773,1
1.72784,-0.982413,-1.77173,-1.06052,1.99222,1.19879,-0.832804,1.74227,-1.02243,-1.81272,-1.06256,1.96751,1.18459,-0.8548,1.76819,-1.05163,-1.82242,-1.10843,1.95088,1.14137,-0.896041,-0.648316,0.632234,-0.369356,0.788319,0.603404,1.28194,1.0557,-0.648316,0.632234,-0.369356,0.788319,0.603404,1.28194,1.0557,0.519466,-0.461168,0.703034,0.576521,0.164235,0.1452,0.787126,-0.614432,-0.472436,0.487564,2.80401,-0.497112,0.510419,-2.71887,-0.208079,4.75686,-2.83763,-0.172085,5.17971,-0.403502,0.692202,0.506881,0.479129,0.413403,0.574166,0.632374,1
1.7364,-0.977728,-1.77152,-1.05223,1.99851,1.212,-0.82499,1.73852,-1.00974,-1.79438,-1.06036,1.9733,1.18626,-0.84839,1.76237,-1.04602,-1.82457,-1.09987,1.95553,1.15243,-0.886708,-0.615484,0.586995,-0.1161,1.04557,0.419796,1.12631,0.972998,-0.615484,0.586995,-0.1161,1.04557,0.419796,1.12631,0.972998,0.51309,-0.465559,0.70838,0.579126,0.157821,0.141523,0.787196,-0.637395,-0.483766,0.60174,2.77585,-0.498486,0.559597,-2.93787,-0.143347,5.13189,-2.82209,-0.176523,5.09226,-0.259683,0.682947,0.530416,0.47638,0.429729,0.59572,0.617178,1
1.72918,-0.973118,-1.77516,-1.03703,2.00275,1.22235,-0.820479,1.73451,-0.995844,-1.78083,-1.05954,1.98242,1.19157,-0.840873,1.75708,-1.0403,-1.82316,-1.09039,1.95888,1.1614,-0.878324,-0.537117,0.648195,0.378862,1.00955,0.313227,0.841144,0.853295,-0.537117,0.648195,0.378862,1.00955,0.313227,0.841144,0.853295,0.506774,-0.469058,0.715107,0.581706,0.150643,0.137879,0.787346,-0.594867,-0.305732,0.778722,2.74757,-0.50015,0.607859,-2.77466,-0.163281,4.73486,-2.81507,-0.177641,5.01108,-0.279046,0.671796,0.480032,0.533692,0.43873,0.609471,0.578451,1
1.71054,-0.965419,-1.77544,-1.02492,2.01249,1.22947,-0.820824,1.73187,-0.985146,-1.77453,-1.0561,1.99102,1.20036,-0.833425,1.75231,-1.03328,-1.81739,-1.08217,1.96221,1.16823,-0.870671,-0.500134,0.854046,0.834556,0.791072,0.402032,0.654059,0.808219,-0.500134,0.854046,0.834556,0.791072,0.402032,0.654059,0.808219,0.500734,-0.470534,0.723612,0.583236,0.142688,0.134122,0.788345,-0.563161,-0.0626644,0.981791,2.7191,-0.50178,0.655023,-2.80165,-0.160424,4.64149,-2.81836,-0.175232,4.9342,-0.417703,0.678652,0.419469,0.572457,0.502779,0.612421,0.498477,1
1.70615,-0.955562,-1.76774,-1.02079,2.01917,1.23582,-0.817075,1.72934,-0.977844,-1.77315,-1.0486,1.99806,1.21068,-0.82713,1.74778,-1.02448,-1.80878,-1.07586,1.96676,1.17416,-0.863201,-0.481533,1.0386,1.01393,0.592039,0.56832,0.631722,0.809924,-0.481533,1.0386,1.01393,0.592039,0.56832,0.631722,0.809924,0.494835,-0.470087,0.73352,0.583532,0.134059,0.130158,0.790302,-0.549238,0.107001,1.08932,2.69134,-0.503508,0.700699,-2.85852,-0.177952,4.70304,-2.82011,-0.172468,4.84966,-0.416286,0.689145,0.410431,0.550697,0.524122,0.61661,0.461265,1
1.70612,-0.945367,-1.75853,-1.01671,2.02188,1.24234,-0.806827,1.72388,-0.971442,-1.77307,-1.03851,2.00463,1.22043,-0.822563,1.74361,-1.01472,-1.79989,-1.0707,1.97252,1.18044,-0.855728,-0.425991,1.07266,0.920055,0.529689,0.67124,0.722563,0.809005,-0.425991,1.07266,0.920055,0.529689,0.67124,0.722563,0.809005,0.489066,-0.468643,0.743717,0.583076,0.125133,0.126128,0.792752,-0.528899,0.157651,1.05803,2.66241,-0.505136,0.745084,-2.88707,-0.162419,4.43011,-2.82856,-0.166694,4.74623,-0.374891,0.693505,0.413612,0.539923,0.493603,0.618996,0.489013,1
1.70341,-0.935945,-1.75,-1.01108,2.02486,1.24962,-0.796467,1.71605,-0.963992,-1.77116,-1.02892,2.01122,1.22869,-0.818749,1.7399,-1.00521,-1.79249,-1.06541,1.97884,1.18767,-0.84844,-0.383056,0.992784,0.701623,0.609783,0.696919,0.834515,0.77296,-0.383056,0.992784,0.701623,0.609783,0.696919,0.834515,0.77296,0.4834,-0.467281,0.753265,0.582628,0.116273,0.122158,0.795048,-0.526227,0.0983684,0.95895,2.63438,-0.506624,0.788683,-2.99416,-0.158956,4.65643,-2.82852,-0.161408,4.63788,-0.364839,0.692687,0.424864,0.54331,0.460145,0.619417,0.51973,1
1.70371,-0.926832,-1.74231,-1.00617,2.02862,1.25759,-0.785268,1.70951,-0.955187,-1.76608,-1.02168,2.01706,1.23586,-0.813565,1.73606,-0.996473,-1.787,-1.0591,1.9853,1.19569,-0.841698,-0.441976,0.907936,0.505253,0.746919,0.701081,0.897376,0.694084,-0.441976,0.907936,0.505253,0.746919,0.701081,0.897376,0.694084,0.477506,-0.466819,0.76197,0.58297,0.107635,0.118247,0.796604,-0.577257,-0.0259974,0.878701,2.60816,-0.508524,0.831834,-2.69613,-0.195408,4.43787,-2.80763,-0.165781,4.53008,-0.323582,0.696408,0.44681,0.529307,0.433225,0.619003,0.564296,1
1.70231,-0.917961,-1.73696,-1.00052,2.03266,1.26555,-0.77644,1.70598,-0.945696,-1.75868,-1.01619,2.02156,1.24279,-0.80583,1.73141,-0.988234,-1.78275,-1.05179,1.99179,1.20397,-0.835688,-0.557172,0.879308,0.420502,0.829548,0.704773,0.896657,0.614435,-0.557172,0.879308,0.420502,0.829548,0.704773,0.896657,0.614435,0.471062,-0.467372,0.770176,0.584376,0.0991833,0.114379,0.797235,-0.647483,-0.118086,0.850806,2.57952,-0.510254,0.873748,-2.80882,-0.169655,4.11025,-2.79636,-0.167556,4.42598,-0.29096,0.70273,0.457983,0.512662,0.408688,0.615755,0.592486,1
1.69604,-0.909042,-1.73296,-0.993308,2.03992,1.27304,-0.770536,1.70427,-0.936211,-1.75077,-1.01111,2.02528,1.25003,-0.7963,1.72605,-0.98001,-1.77869,-1.04419,1.99819,1.21208,-0.830091,-0.599988,0.900411,0.457292,0.816794,0.684271,0.86249,0.599426,-0.599988,0.900411,0.457292,0.816794,0.684271,0.86249,0.599426,0.464215,-0.46823,0.778309,0.586269,0.0907502,0.110639,0.797378,-0.669721,-0.10158,0.863218,2.54977,-0.511137,0.914562,-2.95519,-0.0876797,4.05365,-2.80675,-0.160535,4.32666,-0.30006,0.709679,0.457254,0.508866,0.417276,0.609578,0.595551,1
1.68808,-0.900401,-1.72925,-0.984847,2.04878,1.28136,-0.766387,1.70261,-0.926995,-1.7437,-1.00568,2.02928,1.25764,-0.786666,1.72082,-0.971517,-1.77398,-1.03697,2.00423,1.21989,-0.824219,-0.538188,0.936593,0.554947,0.753616,0.628637,0.830866,0.667012,-0.538188,0.936593,0.554947,0.753616,0.628637,0.830866,0.667012,0.457447,-0.468475,0.786605,0.587693,0.0821432,0.107163,0.797738,-0.634277,-0.000424977,0.888488,2.51984,-0.513492,0.953666,-2.95865,-0.232828,3.86644,-2.83799,-0.162792,4.22471,-0.32737,0.711159,0.447314,0.521228,0.445446,0.614766,0.578322,1
1.68147,-0.891751,-1.72476,-0.976065,2.0571,1.28968,-0.763115,1.69967,-0.918008,-1.73792,-0.999546,2.03441,1.26544,-0.778327,1.71635,-0.962741,-1.76843,-1.0303,2.00972,1.22749,-0.817543,-0.438301,0.962286,0.640406,0.696091,0.564582,0.817626,0.770512,-0.438301,0.962286,0.640406,0.696091,0.564582,0.817626,0.770512,0.451086,-0.467689,0.795072,0.588088,0.0732745,0.104018,0.798726,-0.581353,0.109869,0.904697,2.49457,-0.51463,0.993563,-2.54095,-0.11447,4.01099,-2.825,-0.160113,4.13617,-0.348857,0.7099,0.436667,0.542348,0.473867,0.621864,0.544278,1
1.6735,-0.882893,-1.72091,-0.967958,2.06326,1.29768,-0.758614,1.69476,-0.909166,-1.73321,-0.992487,2.04097,1.27337,-0.771852,1.71267,-0.953806,-1.76234,-1.02403,2.01474,1.23505,-0.810042,-0.364829,0.972476,0.676056,0.665597,0.527292,0.819361,0.847903,-0.364829,0.972476,0.676056,0.665597,0.527292,0.819361,0.847903,0.445123,-0.466041,0.803586,0.587527,0.0641976,0.10116,0.800286,-0.545269,0.180615,0.904094,2.46559,-0.516792,1.03073,-2.99356,-0.223285,3.83875,-2.83302,-0.164123,4.03399,-0.391714,0.709123,0.414231,0.560678,0.485149,0.62635,0.51428,1
1.66852,-0.873453,-1.71462,-0.961995,2.0688,1.30495,-0.751274,1.6883,-0.900396,-1.72898,-0.984634,2.0485,1.28141,-0.766865,1.70937,-0.944826,-1.75617,-1.01788,2.01965,1.24265,-0.802136,-0.351683,0.972717,0.661709,0.665092,0.535263,0.826745,0.863575,-0.351683,0.972717,0.661709,0.665092,0.535263,0.826745,0.863575,0.43932,-0.463995,0.812015,0.586487,0.0550377,0.0984632,0.802065,-0.543095,0.196761,0.891409,2.4386,-0.518345,1.06729,-2.67685,-0.154039,3.62757,-2.82767,-0.164399,3.92624,-0.408519,0.713727,0.415468,0.558881,0.491457,0.62298,0.50862,1
1.66634,-0.863812,-1.7081,-0.957193,2.07258,1.31217,-0.741599,1.68139,-0.891581,-1.72466,-0.976608,2.05594,1.28945,-0.762285,1.70587,-0.935866,-1.75027,-1.0116,2.02484,1.25033,-0.794393,-0.402776,0.968474,0.618734,0.693305,0.585174,0.835623,0.817592,-0.402776,0.968474,0.618734,0.693305,0.585174,0.835623,0.817592,0.433354,-0.462046,0.820298,0.585559,0.0458935,0.0957644,0.803644,-0.57744,0.165165,0.876055,2.41022,-0.51924,1.10233,-2.79543,-0.0881944,3.45021,-2.80176,-0.159554,3.81526,-0.395261,0.720548,0.421686,0.544081,0.477349,0.618451,0.527938,1
1.66619,-0.854081,-1.70132,-0.952615,2.07535,1.31942,-0.731599,1.67513,-0.882568,-1.7198,-0.969191,2.06245,1.29729,-0.756846,1.70173,-0.926951,-1.74479,-1.00498,2.03057,1.25809,-0.787237,-0.486905,0.963206,0.57322,0.737873,0.650239,0.845593,0.738926,-0.486905,0.963206,0.57322,0.737873,0.650239,0.845593,0.738926,0.426969,-0.460507,0.828442,0.585171,0.0367823,0.0929385,0.804727,-0.631561,0.113677,0.864081,2.38194,-0.521334,1.13657,-2.78992,-0.206543,3.37767,-2.78107,-0.163582,3.70382,-0.355372,0.728705,0.434696,0.523627,0.447764,0.613298,0.556387,1
1.6635,-0.844679,-1.69621,-0.946966,2.07848,1.32672,-0.723127,1.6704,-0.873277,-1.71421,-0.962829,2.06774,1.30484,-0.749789,1.69686,-0.91807,-1.73964,-0.997979,2.03679,1.26594,-0.780759,-0.561083,0.960806,0.543503,0.775139,0.694415,0.852927,0.670097,-0.561083,0.960806,0.543503,0.775139,0.694415,0.852927,0.670097,0.42011,-0.459387,0.836481,0.585395,0.0276644,0.0899863,0.805264,-0.679236,0.0766841,0.856034,2.35446,-0.523131,1.17042,-2.62066,-0.171436,3.22869,-2.7742,-0.159909,3.59952,-0.333576,0.733918,0.43434,0.510127,0.416907,0.607857,0.576328,1
1.65765,-0.835426,-1.69147,-0.940185,2.08408,1.33408,-0.716189,1.66732,-0.863779,-1.70813,-0.957325,2.07196,1.31218,-0.741325,1.69151,-0.909178,-1.73465,-0.990782,2.04322,1.27381,-0.774688,-0.594198,0.965181,0.538549,0.783137,0.697571,0.851898,0.647116,-0.594198,0.965181,0.538549,0.783137,0.697571,0.851898,0.647116,0.412947,-0.458418,0.844442,0.585949,0.0185023,0.0870457,0.805446,-0.699631,0.077892,0.850296,2.32724,-0.523382,1.20259,-2.73071,-0.0251088,3.22677,-2.78899,-0.149721,3.48476,-0.338661,0.737521,0.431851,0.505974,0.408563,0.602719,0.584988,1
1.65171,-0.826337,-1.68619,-0.933149,2.09184,1.34168,-0.710082,1.6649,-0.854242,-1.7021,-0.952014,2.07571,1.31946,-0.732443,1.68614,-0.900208,-1.72958,-0.983685,2.04948,1.28162,-0.768547,-0.57114,0.97684,0.557526,0.756473,0.662164,0.84201,0.680376,-0.57114,0.97684,0.557526,0.756473,0.662164,0.84201,0.680376,0.40578,-0.457198,0.852334,0.586342,0.00928599,0.0843079,0.805611,-0.683892,0.123096,0.845292,2.29949,-0.525018,1.23442,-2.74598,-0.161895,3.14993,-2.77427,-0.138008,3.392,-0.344373,0.738714,0.433968,0.505363,0.423581,0.600547,0.584648,1
1.64844,-0.817237,-1.68011,-0.926875,2.09896,1.34935,-0.704002,1.66176,-0.844809,-1.69651,-0.946285,2.07993,1.32679,-0.724136,1.68121,-0.891116,-1.72429,-0.976928,2.05531,1.28933,-0.76193,-0.50371,0.991547,0.586336,0.711026,0.603947,0.828659,0.747363,-0.50371,0.991547,0.586336,0.711026,0.603947,0.828659,0.747363,0.398902,-0.455394,0.860153,0.586135,2.24997e-05,0.081924,0.806061,-0.641364,0.195456,0.839011,2.27182,-0.526309,1.2648,-2.67925,-0.125094,2.94253,-2.77326,-0.133917,3.29551,-0.327667,0.738785,0.441785,0.500533,0.436569,0.600168,0.579284,1
1.6437,-0.808068,-1.6751,-0.920083,2.10524,1.35684,-0.697414,1.65748,-0.835524,-1.6912,-0.939994,2.08531,1.33421,-0.716789,1.6769,-0.881903,-1.71878,-0.970556,2.0606,1.29692,-0.754726,-0.435231,1.00329,0.605035,0.672549,0.547827,0.817402,0.808232,-0.435231,1.00329,0.605035,0.672549,0.547827,0.817402,0.808232,0.392428,-0.452923,0.867878,0.585199,-0.00926925,0.0799435,0.806886,-0.599032,0.261196,0.829857,2.24411,-0.527717,1.29407,-2.84976,-0.144708,3.00932,-2.76263,-0.133094,3.19893,-0.332046,0.738352,0.436814,0.504723,0.446387,0.599159,0.573116,1
1.63923,-0.798583,-1.66941,-0.914171,2.11088,1.36414,-0.690101,1.65272,-0.826341,-1.68588,-0.933405,2.09173,1.34172,-0.710147,1.67302,-0.872613,-1.7132,-0.96442,2.06553,1.30444,-0.747134,-0.408168,1.00852,0.605393,0.657791,0.522131,0.810664,0.834162,-0.408168,1.00852,0.605393,0.657791,0.522131,0.810664,0.834162,0.38623,-0.449989,0.875488,0.583764,-0.0185621,0.078283,0.807928,-0.58211,0.293816,0.818721,2.2166,-0.52916,1.32252,-2.78673,-0.146208,2.88176,-2.75767,-0.127061,3.09778,-0.337878,0.740305,0.437866,0.502488,0.453483,0.597047,0.570323,1
1.63624,-0.789124,-1.66408,-0.908725,2.114,1.37144,-0.681894,1.64814,-0.817167,-1.68042,-0.926841,2.0984,1.34925,-0.703676,1.66917,-0.863306,-1.70765,-0.958314,2.07044,1.31191,-0.739487,-0.42388,1.0077,0.59659,0.66447,0.539544,0.808651,0.823266,-0.42388,1.0077,0.59659,0.66447,0.539544,0.808651,0.823266,0.380059,-0.446906,0.882981,0.582186,-0.02784,0.0767554,0.808945,-0.592151,0.295327,0.808142,2.18934,-0.530805,1.34988,-2.67267,-0.161279,2.68328,-2.75721,-0.13313,2.99251,-0.329286,0.741819,0.435688,0.49589,0.435634,0.595254,0.575929,1
1.63495,-0.779768,-1.65863,-0.903343,2.11599,1.37864,-0.673438,1.64389,-0.807916,-1.67495,-0.920502,2.10449,1.35673,-0.696895,1.66513,-0.854021,-1.70217,-0.952109,2.07564,1.31938,-0.732033,-0.449969,1.00399,0.591078,0.678408,0.583725,0.810013,0.793821,-0.449969,1.00399,0.591078,0.678408,0.583725,0.810013,0.793821,0.37375,-0.443859,0.890369,0.58068,-0.0371122,0.0751797,0.809803,-0.610691,0.288049,0.799159,2.16187,-0.532265,1.37659,-2.65798,-0.141324,2.58424,-2.75575,-0.1467,2.89516,-0.301743,0.742535,0.435386,0.487664,0.403442,0.592607,0.585953,1
1.63292,-0.770488,-1.65355,-0.897983,2.1176,1.38583,-0.665187,1.64013,-0.798569,-1.6695,-0.9145,2.10946,1.3641,-0.689556,1.66091,-0.844766,-1.69671,-0.945799,2.08123,1.32687,-0.724836,-0.46311,1.00112,0.590907,0.68769,0.622995,0.811817,0.767542,-0.46311,1.00112,0.590907,0.68769,0.622995,0.811817,0.767542,0.367299,-0.440849,0.897662,0.579247,-0.0463977,0.0734958,0.810505,-0.622142,0.289027,0.790537,2.13404,-0.533977,1.40206,-2.82445,-0.173675,2.58451,-2.75365,-0.149564,2.79397,-0.279886,0.742785,0.431667,0.478162,0.363763,0.589586,0.59649,1
1.62905,-0.761217,-1.6486,-0.892185,2.12038,1.39345,-0.657514,1.6371,-0.78918,-1.66411,-0.908823,2.11312,1.3714,-0.681689,1.65664,-0.835523,-1.69126,-0.939452,2.08703,1.33436,-0.717797,-0.462142,1.00137,0.59157,0.687376,0.633427,0.811194,0.758146,-0.462142,1.00137,0.59157,0.687376,0.633427,0.811194,0.758146,0.360795,-0.437773,0.904854,0.577781,-0.0557004,0.0717911,0.811118,-0.622647,0.302071,0.780705,2.10706,-0.535643,1.42732,-2.64528,-0.163429,2.47752,-2.74697,-0.155814,2.70578,-0.27585,0.743058,0.426577,0.472673,0.333499,0.590858,0.602826,1
1.62285,-0.751979,-1.64418,-0.885484,2.12499,1.40108,-0.650093,1.63457,-0.779818,-1.65882,-0.9033,2.11581,1.37868,-0.673565,1.65245,-0.826262,-1.6858,-0.933159,2.09274,1.34183,-0.710745,-0.446587,1.00452,0.591038,0.676822,0.606334,0.807651,0.768603,-0.446587,1.00452,0.591038,0.676822,0.606334,0.807651,0.768603,0.354352,-0.434508,0.911927,0.57616,-0.0650064,0.0702382,0.811714,-0.610932,0.327383,0.768763,2.07957,-0.537504,1.44986,-2.86485,-0.193946,2.3485,-2.7428,-0.162507,2.60415,-0.295992,0.742831,0.416211,0.476744,0.32245,0.592463,0.606514,1
1.61687,-0.742804,-1.64054,-0.878582,2.12918,1.40933,-0.643082,1.6317,-0.770508,-1.65373,-0.897665,2.11831,1.38604,-0.665517,1.64849,-0.81697,-1.68035,-0.926998,2.09804,1.34927,-0.703531,-0.413023,1.00803,0.58915,0.659271,0.546747,0.802711,0.79227,-0.413023,1.00803,0.58915,0.659271,0.546747,0.802711,0.79227,0.348095,-0.430938,0.918859,0.574273,-0.0742983,0.069009,0.81236,-0.586747,0.363176,0.754407,2.05219,-0.539212,1.47239,-2.86464,-0.178574,2.3567,-2.74135,-0.167615,2.50106,-0.316181,0.741669,0.398147,0.484161,0.311377,0.600635,0.604487,1
1.61051,-0.733755,-1.63804,-0.871572,2.13236,1.4175,-0.636046,1.62774,-0.761244,-1.64898,-0.891681,2.12131,1.39358,-0.657758,1.64488,-0.807656,-1.67493,-0.920998,2.10273,1.35666,-0.696092,-0.373702,1.00974,0.584528,0.641975,0.474358,0.798747,0.817123,-0.373702,1.00974,0.584528,0.641975,0.474358,0.798747,0.817123,0.342099,-0.427009,0.925629,0.572068,-0.0835634,0.0682021,0.813083,-0.558953,0.399816,0.738394,2.0244,-0.54135,1.49411,-2.67582,-0.205906,2.09153,-2.74521,-0.175198,2.40027,-0.343674,0.739007,0.368938,0.494263,0.296315,0.608425,0.600463,1
1.60411,-0.724657,-1.63451,-0.865062,2.13671,1.42504,-0.628595,1.62258,-0.752028,-1.64474,-0.885264,2.12493,1.40136,-0.650316,1.64151,-0.798335,-1.66959,-0.915116,2.10682,1.36403,-0.688471,-0.355864,1.00937,0.575004,0.632991,0.416633,0.798399,0.832591,-0.355864,1.00937,0.575004,0.632991,0.416633,0.798399,0.832591,0.336317,-0.422787,0.932233,0.569621,-0.0927971,0.0678028,0.813832,-0.543602,0.422997,0.722501,1.99696,-0.542914,1.51455,-2.73394,-0.155878,2.03615,-2.74603,-0.179503,2.29653,-0.374017,0.736787,0.350771,0.500545,0.2989,0.610109,0.598754,1
1.59774,-0.715406,-1.63065,-0.859586,2.14031,1.43211,-0.620646,1.61668,-0.742863,-1.64104,-0.878571,2.12882,1.40928,-0.643066,1.63812,-0.789025,-1.66436,-0.909251,2.11054,1.37143,-0.680773,-0.376764,1.00769,0.557837,0.637318,0.390784,0.803724,0.834814,-0.376764,1.00769,0.557837,0.637318,0.390784,0.803724,0.834814,0.330583,-0.418444,0.938679,0.567119,-0.102004,0.0677058,0.814486,-0.550447,0.424664,0.707928,1.9701,-0.543565,1.53416,-2.71464,-0.0657222,1.98197,-2.73999,-0.168394,2.19637,-0.403804,0.736188,0.33711,0.496648,0.297737,0.606857,0.60127,1
1.59156,-0.705884,-1.62572,-0.855156,2.1433,1.43859,-0.612308,1.61045,-0.733725,-1.63765,-0.871935,2.13267,1.41714,-0.635787,1.63439,-0.779735,-1.65935,-0.903285,2.11415,1.3789,-0.673107,-0.428171,1.00504,0.530086,0.653662,0.391222,0.814589,0.826678,-0.428171,1.00504,0.530086,0.653662,0.391222,0.814589,0.826678,0.324711,-0.414166,0.944976,0.564765,-0.111191,0.0677962,0.814912,-0.574565,0.408916,0.693863,1.94312,-0.544142,1.55427,-2.69659,-0.0577156,2.01023,-2.73573,-0.147569,2.1128,-0.42825,0.738512,0.336327,0.481288,0.291548,0.596904,0.607989,1
1.58634,-0.696533,-1.62133,-0.850625,2.14496,1.44546,-0.603786,1.60415,-0.72455,-1.63412,-0.865736,2.13639,1.42467,-0.628258,1.63014,-0.770474,-1.65464,-0.897149,2.1178,1.38648,-0.665533,-0.488141,1.00154,0.493239,0.673894,0.39961,0.82702,0.814957,-0.488141,1.00154,0.493239,0.673894,0.39961,0.82702,0.814957,0.318609,-0.410056,0.951122,0.562686,-0.120353,0.068022,0.81503,-0.602538,0.387331,0.678704,1.91559,-0.545797,1.5719,-2.77703,-0.166916,1.77816,-2.7299,-0.131972,2.03539,-0.437972,0.73941,0.333123,0.465246,0.271629,0.589769,0.617475,1
1.58119,-0.687386,-1.61741,-0.845206,2.14894,1.45335,-0.595672,1.59796,-0.715284,-1.63017,-0.860187,2.13982,1.43183,-0.620378,1.62537,-0.761244,-1.65027,-0.890864,2.12152,1.39415,-0.658047,-0.540866,0.998197,0.457552,0.686609,0.404706,0.833697,0.807452,-0.540866,0.998197,0.457552,0.686609,0.404706,0.833697,0.807452,0.312299,-0.406114,0.957107,0.560883,-0.129463,0.0683926,0.814845,-0.62376,0.370847,0.662547,1.88809,-0.547762,1.58857,-2.70074,-0.193021,1.63705,-2.72765,-0.127762,1.94221,-0.441801,0.738582,0.328613,0.456578,0.274261,0.592008,0.623749,1
1.57593,-0.678328,-1.61437,-0.839721,2.1519,1.46185,-0.588002,1.59204,-0.705955,-1.62591,-0.855143,2.14286,1.43883,-0.612223,1.62017,-0.752035,-1.64615,-0.884547,2.12525,1.40182,-0.650581,-0.581021,0.996966,0.436359,0.682304,0.404199,0.828768,0.809726,-0.581021,0.996966,0.436359,0.682304,0.404199,0.828768,0.809726,0.305868,-0.402259,0.962932,0.559245,-0.138476,0.0689354,0.814443,-0.633708,0.366455,0.646965,1.86047,-0.550035,1.60298,-2.7997,-0.230351,1.46107,-2.72874,-0.135656,1.82998,-0.442429,0.737066,0.317801,0.448257,0.266478,0.600211,0.625787,1
1.57012,-0.669277,-1.61141,-0.834025,2.15627,1.46987,-0.580316,1.58647,-0.696657,-1.62171,-0.850201,2.14577,1.44605,-0.604003,1.61468,-0.742821,-1.64213,-0.878363,2.12893,1.4094,-0.643043,-0.606627,0.998868,0.434035,0.659295,0.394846,0.813621,0.822131,-0.606627,0.998868,0.434035,0.659295,0.394846,0.813621,0.822131,0.299427,-0.398368,0.968606,0.557607,-0.14735,0.0696802,0.813946,-0.631411,0.376423,0.632652,1.83308,-0.551873,1.6179,-2.72719,-0.183003,1.48593,-2.73548,-0.15513,1.72149,-0.445592,0.73544,0.307236,0.443379,0.273323,0.604746,0.627271,1
1.56376,-0.660267,-1.60905,-0.828164,2.15957,1.47795,-0.572841,1.58108,-0.687458,-1.61791,-0.845034,2.14889,1.45371,-0.59593,1.60903,-0.733583,-1.63809,-0.872436,2.13249,1.41683,-0.635367,-0.616187,1.00211,0.44177,0.627225,0.376384,0.797863,0.839442,-0.616187,1.00211,0.44177,0.627225,0.376384,0.797863,0.839442,0.293078,-0.394329,0.974138,0.555823,-0.15607,0.070656,0.813456,-0.61939,0.396541,0.618785,1.80646,-0.55375,1.63235,-2.65169,-0.18705,1.43913,-2.73611,-0.179487,1.6176,-0.452664,0.733155,0.290399,0.442718,0.270784,0.611191,0.62526,1
1.55732,-0.651022,-1.6057,-0.823012,2.16459,1.48536,-0.564874,1.57559,-0.678347,-1.61458,-0.83959,2.15236,1.46172,-0.588075,1.60336,-0.724324,-1.63399,-0.866775,2.13587,1.42418,-0.627544,-0.61252,1.00351,0.445348,0.601178,0.358843,0.793289,0.85386,-0.61252,1.00351,0.445348,0.601178,0.358843,0.793289,0.85386,0.286875,-0.390094,0.979526,0.553832,-0.164666,0.0718628,0.813014,-0.604106,0.41761,0.604246,1.77949,-0.55479,1.64605,-2.64951,-0.102139,1.34588,-2.72915,-0.185579,1.51997,-0.460383,0.733017,0.282847,0.437637,0.287147,0.611831,0.626704,1
1.55131,-0.641919,-1.60367,-0.818227,2.1672,1.49348,-0.556959,1.56979,-0.669272,-1.61161,-0.834015,2.1561,1.46978,-0.580359,1.59775,-0.715069,-1.62992,-0.861284,2.13916,1.43155,-0.619632,-0.604372,1.0015,0.435902,0.589415,0.353009,0.803716,0.859705,-0.604372,1.0015,0.435902,0.589415,0.353009,0.803716,0.859705,0.280808,-0.385695,0.98476,0.551663,-0.173192,0.0732553,0.812592,-0.592252,0.431856,0.58865,1.75154,-0.557259,1.6566,-2.90687,-0.256784,1.09665,-2.72631,-0.186282,1.42299,-0.464323,0.7315,0.262522,0.430573,0.280459,0.619265,0.626724,1
1.54591,-0.632593,-1.60125,-0.814671,2.1721,1.50137,-0.548449,1.56371,-0.660177,-1.60882,-0.828537,2.16,1.47772,-0.572634,1.59218,-0.705843,-1.62601,-0.855842,2.14245,1.43906,-0.611707,-0.601756,0.997319,0.414421,0.589455,0.359494,0.821625,0.857159,-0.601756,0.997319,0.414421,0.589455,0.359494,0.821625,0.857159,0.274828,-0.381204,0.989835,0.549404,-0.18169,0.0747758,0.812128,-0.586618,0.437428,0.572575,1.72406,-0.558182,1.66625,-2.79704,-0.093973,0.982766,-2.72687,-0.173664,1.3158,-0.462643,0.732502,0.247526,0.411711,0.296522,0.623065,0.63258,1
1.54001,-0.623623,-1.60124,-0.811739,2.1742,1.51001,-0.540607,1.55757,-0.651038,-1.60619,-0.823433,2.1639,1.48559,-0.564776,1.58659,-0.696656,-1.62231,-0.850379,2.14583,1.44672,-0.603824,-0.60924,0.993259,0.388195,0.593558,0.372486,0.836222,0.851083,-0.60924,0.993259,0.388195,0.593558,0.372486,0.836222,0.851083,0.268884,-0.376689,0.99475,0.547138,-0.190162,0.0763914,0.811568,-0.585764,0.437492,0.55704,1.69664,-0.559892,1.67555,-2.62106,-0.163447,0.888803,-2.7301,-0.163214,1.20941,-0.465805,0.73033,0.210709,0.386396,0.283663,0.632895,0.63217,1
1.53258,-0.614323,-1.60181,-0.811363,2.18029,1.5179,-0.532645,1.55156,-0.641868,-1.60395,-0.818978,2.16771,1.49353,-0.556761,1.58089,-0.687497,-1.61885,-0.844899,2.14934,1.45448,-0.595986,-0.623167,0.990945,0.3638,0.593468,0.386436,0.843152,0.847025,-0.623167,0.990945,0.3638,0.593468,0.386436,0.843152,0.847025,0.262957,-0.372174,0.999513,0.544902,-0.198577,0.0781011,0.810894,-0.585305,0.437313,0.54221,1.66891,-0.561184,1.68282,-2.79714,-0.130292,0.733865,-2.7413,-0.155749,1.07626,-0.483132,0.731738,0.170413,0.33536,0.309461,0.634225,0.633414,1
1.52843,-0.605884,-1.60283,-0.82225,2.19108,1.52569,-0.525606,1.54562,-0.632706,-1.60243,-0.815618,2.17161,1.50161,-0.548688,1.57508,-0.678349,-1.6156,-0.839478,2.15296,1.46227,-0.58816,-0.634921,0.990634,0.341298,0.58195,0.396746,0.845813,0.848168,-0.634921,0.990634,0.341298,0.58195,0.396746,0.845813,0.848168,0.257075,-0.367641,1.00412,0.542667,-0.206893,0.0799295,0.810135,-0.579464,0.441218,0.526411,1.64217,-0.560603,1.67278,-2.63707,0.0573184,-0.990137,-2.74612,-0.128494,0.763563,-0.466511,0.724656,0.127693,0.172273,0.381136,0.634143,0.625538,1
1.52127,-0.597063,-1.61978,-0.829783,2.19288,1.53467,-0.519726,1.5396,-0.623611,-1.60211,-0.81439,2.1762,1.50975,-0.540758,1.56919,-0.6692,-1.61259,-0.834246,2.15665,1.4701,-0.580301,-0.639452,0.991359,0.313474,0.553785,0.401323,0.849798,0.853843,-0.639452,0.991359,0.313474,0.553785,0.401323,0.849798,0.853843,0.251313,-0.363049,1.00856,0.540372,-0.215064,0.0819248,0.809341,-0.564264,0.449495,0.506692,1.61553,-0.563989,1.69745,-2.68679,-0.341476,2.48743,-2.73484,-0.133162,0.725518,-0.479239,0.721371,-0.0718617,0.0446224,0.36232,0.645637,0.605749,1
1.51396,-0.589125,-1.64252,-0.846722,2.19447,1.54302,-0.515948,1.53354,-0.614657,-1.60421,-0.8167,2.18182,1.51791,-0.533251,1.56328,-0.660046,-1.60991,-0.829402,2.16038,1.47798,-0.572389,-0.640712,0.991626,0.271152,0.499951,0.407216,0.856859,0.859658,-0.640712,0.991626,0.271152,0.499951,0.407216,0.856859,0.859658,0.245771,-0.358377,1.01276,0.537966,-0.223011,0.0841416,0.808566,-0.538032,0.458521,0.479325,1.58867,-0.564969,1.70308,-2.70533,-0.0987044,0.567087,-2.71481,-0.126619,0.711039,-0.493212,0.709209,-0.32615,-0.173203,0.340903,0.650391,0.56441,1
1.51419,-0.585882,-1.65374,-0.852137,2.19088,1.55539,-0.511535,1.5275,-0.605991,-1.61091,-0.823122,2.18741,1.52621,-0.526516,1.55735,-0.650899,-1.60774,-0.825306,2.16427,1.48593,-0.564453,-0.643851,0.989787,0.204101,0.395944,0.43282,0.864077,0.859435,-0.643851,0.989787,0.204101,0.395944,0.43282,0.864077,0.859435,0.240594,-0.353642,1.01665,0.535409,-0.230573,0.0866105,0.807881,-0.494668,0.464645,0.437832,1.56139,-0.566585,1.70748,-2.70666,-0.160371,0.436141,-2.70485,-0.136313,0.690625,-0.431634,0.650175,-0.460034,-0.268312,0.266057,0.694614,0.529182,1
1.53292,-0.581058,-1.65605,-0.845923,2.18465,1.56596,-0.509673,1.52211,-0.598005,-1.62292,-0.832327,2.19104,1.535,-0.520831,1.55139,-0.641789,-1.60647,-0.822566,2.16852,1.49394,-0.556584,-0.647517,0.984129,0.0817653,0.212787,0.482578,0.869521,0.846316,-0.647517,0.984129,0.0817653,0.212787,0.482578,0.869521,0.846316,0.236023,-0.348904,1.02004,0.532679,-0.237448,0.0893775,0.807393,-0.421417,0.463112,0.371584,1.53501,-0.56802,1.71061,-2.6651,-0.145,0.316175,-2.69084,-0.141261,0.659917,-0.184697,0.607312,-0.495842,-0.233565,0.161326,0.720219,0.469106,1
1.51548,-0.573769,-1.6629,-0.813407,2.18807,1.57298,-0.503772,1.51918,-0.591194,-1.63705,-0.840579,2.1917,1.54456,-0.516187,1.5454,-0.632768,-1.60686,-0.821889,2.17314,1.50201,-0.548936,-0.649261,0.971229,-0.146919,-0.0447019,0.51733,0.877795,0.813199,-0.649261,0.971229,-0.146919,-0.0447019,0.51733,0.877795,0.813199,0.232404,-0.344287,1.02268,0.529896,-0.243191,0.0926505,0.807146,-0.312448,0.44348,0.272176,1.5085,-0.569514,1.71375,-2.55934,-0.144158,0.303863,-2.67749,-0.151504,0.637363,-0.299197,0.589992,-0.560399,0.0848192,0.149271,0.709698,0.45164,1
1.53135,-0.566962,-1.66797,-0.813074,2.17018,1.58238,-0.500731,1.5198,-0.585441,-1.64876,-0.842608,2.18986,1.55463,-0.512224,1.5395,-0.623951,-1.60985,-0.823652,2.17775,1.51022,-0.541708,-0.630915,0.941123,-0.473933,-0.31466,0.482271,0.898825,0.757213,-0.630915,0.941123,-0.473933,-0.31466,0.482271,0.898825,0.757213,0.230049,-0.339967,1.02432,0.527352,-0.247427,0.0967905,0.807038,-0.181185,0.401325,0.148615,1.48205,-0.570808,1.71591,-2.73863,-0.134031,0.223213,-2.67174,-0.159706,0.605396,-0.0814596,0.569896,-0.581178,0.105772,-0.0756522,0.721616,0.40977,1
1.51521,-0.559982,-1.67864,-0.846151,2.19223,1.58612,-0.499397,1.52206,-0.579836,-1.65675,-0.836505,2.18672,1.56434,-0.508473,1.53412,-0.615551,-1.61572,-0.827378,2.18161,1.51871,-0.535077,-0.542039,0.883495,-0.773688,-0.478853,0.365645,0.937864,0.685191,-0.542039,0.883495,-0.773688,-0.478853,0.365645,0.937864,0.685191,0.228998,-0.336044,1.02494,0.525266,-0.250251,0.101944,0.806893,-0.0619938,0.354419,0.0397563,1.45513,-0.572535,1.71659,-2.69486,-0.172831,0.0683758,-2.66905,-0.14373,0.319145,-0.189133,0.555691,-0.629199,-0.187733,0.106155,0.674156,0.3568,1
1.53623,-0.553248,-1.68604,-0.87004,2.20705,1.59163,-0.501385,1.52344,-0.573644,-1.66314,-0.829056,2.18413,1.57294,-0.504913,1.52998,-0.607763,-1.62357,-0.831431,2.18419,1.52758,-0.529114,-0.369179,0.809694,-0.913728,-0.405398,0.205767,0.981154,0.612642,-0.369179,0.809694,-0.913728,-0.405398,0.205767,0.981154,0.612642,0.228808,-0.332449,1.0249,0.523616,-0.25246,0.107759,0.806522,-0.00673311,0.324279,-0.000823487,1.42805,-0.5741,1.71551,-2.76688,-0.159959,-0.110886,-2.66912,-0.15029,0.217194,0.0624612,0.545147,-0.624782,-0.386087,0.228575,0.640438,0.277287,1
1.48578,-0.563587,-1.69913,-0.84945,2.21984,1.58615,-0.523466,1.52347,-0.5672,-1.67012,-0.830504,2.18545,1.58002,-0.502555,1.52744,-0.600575,-1.63193,-0.833663,2.18532,1.53674,-0.52375,-0.195185,0.752274,-0.900178,-0.103112,0.0509616,1.00114,0.554158,-0.195185,0.752274,-0.900178,-0.103112,0.0509616,1.00114,0.554158,0.228676,-0.329017,1.02486,0.522371,-0.255131,0.113688,0.805675,-0.0386861,0.311346,0.0394117,1.40088,-0.576009,1.71375,-2.66201,-0.187022,-0.171757,-2.67446,-0.155191,0.112411,-0.416645,0.369876,-0.67197,-0.157877,0.345219,0.494035,0.00283783,1
1.48919,-0.581642,-1.70696,-0.817561,2.2155,1.59553,-0.53972,1.52106,-0.562338,-1.67841,-0.840787,2.19298,1.58514,-0.503633,1.52613,-0.593746,-1.63995,-0.833325,2.18532,1.54589,-0.518873,-0.0974117,0.729136,-0.841265,0.154837,-0.0432121,0.98141,0.50638,-0.0974117,0.729136,-0.841265,0.154837,-0.0432121,0.98141,0.50638,0.228118,-0.325606,1.02522,0.521514,-0.258668,0.119457,0.804266,-0.0861542,0.312236,0.0935871,1.37444,-0.577433,1.71148,-2.58512,-0.139237,-0.22208,-2.68207,-0.159009,0.00796829,-0.36941,0.121037,-0.670068,0.157643,0.301848,0.496483,-0.208467,1
1.4893,-0.562807,-1.71431,-0.784614,2.18741,1.59668,-0.547465,1.51355,-0.561667,-1.68772,-0.847135,2.20331,1.58834,-0.510384,1.52537,-0.587058,-1.6476,-0.832337,2.18518,1.55464,-0.514554,-0.0688725,0.720315,-0.817126,0.0665045,0.00982706,0.920443,0.435244,-0.0688725,0.720315,-0.817126,0.0665045,0.00982706,0.920443,0.435244,0.227532,-0.322166,1.02572,0.520751,-0.262336,0.124951,0.802737,-0.0484265,0.319635,0.0783197,1.34893,-0.578382,1.70934,-2.51387,-0.0935003,-0.211364,-2.67211,-0.154749,-0.089063,-0.360727,0.242513,-0.667116,0.477235,0.0222761,0.420379,-0.329115,1
1.49157,-0.550767,-1.72452,-0.824071,2.19083,1.59913,-0.54929,1.50229,-0.564837,-1.69731,-0.839449,2.20897,1.59076,-0.522142,1.52446,-0.580683,-1.65525,-0.833396,2.18641,1.56262,-0.511318,-0.123601,0.665417,-0.839917,-0.268094,0.238098,0.816734,0.278761,-0.123601,0.665417,-0.839917,-0.268094,0.238098,0.816734,0.278761,0.227543,-0.319031,1.0258,0.519939,-0.264959,0.129743,0.80164,0.03285,0.270729,-0.00588107,1.32177,-0.580631,1.70531,-2.76691,-0.229154,-0.410898,-2.66725,-0.158912,-0.179805,-0.328883,0.299152,-0.692712,0.0932453,0.0441955,0.365124,-0.379725,1
1.486,-0.55072,-1.73227,-0.846971,2.23371,1.60101,-0.54431,1.49341,-0.566618,-1.70648,-0.823749,2.20675,1.59351,-0.534471,1.52235,-0.575379,-1.66325,-0.836466,2.18986,1.5695,-0.510176,-0.318944,0.497385,-0.88778,-0.387015,0.487693,0.683537,-0.00755939,-0.318944,0.497385,-0.88778,-0.387015,0.487693,0.683537,-0.00755939,0.227752,-0.317188,1.02524,0.520112,-0.26615,0.133159,0.800572,-0.00594058,0.0820678,-0.0798389,1.29468,-0.581983,1.69963,-2.66902,-0.133208,-0.55929,-2.6637,-0.156352,-0.270402,-0.363493,0.24659,-0.690198,-0.105056,0.438516,0.315127,-0.341345,1
1.46351,-0.567934,-1.73961,-0.808796,2.24938,1.60172,-0.53494,1.4895,-0.56327,-1.71519,-0.815221,2.20345,1.5964,-0.542616,1.51812,-0.571979,-1.67166,-0.83831,2.19454,1.57521,-0.51204,-0.574244,0.259067,-0.930498,-0.0413154,0.523265,0.564116,-0.366434,-0.574244,0.259067,-0.930498,-0.0413154,0.523265,0.564116,-0.366434,0.226844,-0.317579,1.02444,0.523068,-0.266712,0.13503,0.798142,-0.204637,-0.186133,-0.0768647,1.26805,-0.583262,1.69367,-2.66907,-0.128222,-0.5968,-2.66084,-0.152254,-0.356882,-0.546146,0.0404496,-0.67951,0.295138,0.548401,0.265089,-0.228998,1
1.45636,-0.545251,-1.74901,-0.798772,2.2487,1.6182,-0.533871,1.48624,-0.558196,-1.7237,-0.818149,2.20924,1.599,-0.544808,1.51227,-0.570228,-1.68034,-0.836223,2.19829,1.58004,-0.516796,-0.684358,0.130944,-0.94845,0.452451,0.306862,0.488685,-0.641107,-0.684358,0.130944,-0.94845,0.452451,0.306862,0.488685,-0.641107,0.224214,-0.31977,1.02399,0.52929,-0.267753,0.136196,0.79348,-0.386359,-0.322922,-0.00971694,1.2407,-0.58523,1.68576,-2.80473,-0.201722,-0.81129,-2.66979,-0.153285,-0.461793,-0.559142,0.249766,-0.686769,0.374507,0.50409,0.381589,-0.170751,1
1.44954,-0.538883,-1.75776,-0.793026,2.24442,1.63056,-0.531086,1.47904,-0.555684,-1.73206,-0.82099,2.22428,1.60232,-0.54232,1.50632,-0.568691,-1.68909,-0.831378,2.20018,1.5843,-0.523057,-0.610361,0.196611,-0.947001,0.586066,0.118641,0.438963,-0.709474,-0.610361,0.196611,-0.947001,0.586066,0.118641,0.438963,-0.709474,0.220838,-0.322107,1.02404,0.53704,-0.269419,0.137757,0.787417,-0.386689,-0.25259,0.0413373,1.2137,-0.586746,1.67799,-2.73106,-0.153416,-0.78636,-2.68705,-0.158089,-0.568792,-0.567843,0.29808,-0.686773,0.383514,0.442354,0.462594,-0.0802875,1
1.4613,-0.542964,-1.76644,-0.812858,2.24997,1.63853,-0.545087,1.46879,-0.55378,-1.7404,-0.815033,2.23864,1.60837,-0.538224,1.50105,-0.566375,-1.69779,-0.827247,2.202,1.58813,-0.528938,-0.537403,0.29668,-0.93966,0.330006,0.262701,0.394152,-0.575669,-0.537403,0.29668,-0.93966,0.330006,0.262701,0.394152,-0.575669,0.217987,-0.323677,1.02423,0.544064,-0.270871,0.139692,0.781734,-0.285337,-0.16017,0.0255468,1.18705,-0.588398,1.66872,-2.63957,-0.163584,-0.917699,-2.69907,-0.162584,-0.679788,-0.397586,0.234111,-0.686432,0.143893,0.479753,0.503954,-0.161495,1
1.45891,-0.564165,-1.77616,-0.841309,2.25874,1.63849,-0.561323,1.46027,-0.549755,-1.74897,-0.806674,2.24582,1.61755,-0.536169,1.49575,-0.563671,-1.70642,-0.825104,2.20636,1.59172,-0.533055,-0.605944,0.2897,-0.930125,0.149249,0.650099,0.38435,-0.336083,-0.605944,0.2897,-0.930125,0.149249,0.650099,0.38435,-0.336083,0.215532,-0.325138,1.02425,0.549645,-0.27165,0.140962,0.77732,-0.286114,-0.196971,-0.00371796,1.16055,-0.589774,1.65812,-2.68254,-0.139272,-1.07305,-2.69029,-0.156221,-0.782313,-0.368417,-0.00494232,-0.697426,-0.162045,0.523775,0.467705,-0.282683,1
1.44669,-0.57836,-1.78539,-0.839304,2.26092,1.64486,-0.567433,1.45661,-0.547228,-1.7578,-0.806592,2.24862,1.62733,-0.538991,1.48944,-0.561115,-1.71497,-0.823024,2.21364,1.59565,-0.535052,-0.748898,0.266035,-0.922545,0.289814,0.906489,0.461299,-0.115038,-0.748898,0.266035,-0.922545,0.289814,0.906489,0.461299,-0.115038,0.212347,-0.327176,1.02431,0.554488,-0.272476,0.141215,0.773536,-0.416575,-0.26486,0.024477,1.13501,-0.591543,1.64919,-2.6872,-0.186138,-0.939835,-2.67028,-0.160253,-0.855231,-0.427502,-0.172455,-0.70421,-0.162803,0.472741,0.492008,-0.323807,1
1.43099,-0.581949,-1.79473,-0.840573,2.26457,1.64943,-0.565993,1.45571,-0.551509,-1.76685,-0.816406,2.25185,1.63493,-0.546822,1.48228,-0.558418,-1.72349,-0.819475,2.22183,1.60067,-0.535636,-0.798374,0.314209,-0.923885,0.464318,0.870186,0.612222,-0.0193325,-0.798374,0.314209,-0.923885,0.464318,0.870186,0.612222,-0.0193325,0.208112,-0.329317,1.02467,0.559196,-0.274265,0.141356,0.769478,-0.502889,-0.234445,0.0695651,1.10864,-0.592658,1.63747,-2.46183,-0.104101,-1.09417,-2.65286,-0.15658,-0.934429,-0.512847,-0.235312,-0.712398,-0.210973,0.427373,0.487639,-0.30357,1
1.42235,-0.586502,-1.80337,-0.8459,2.27262,1.64635,-0.570064,1.4525,-0.561874,-1.77606,-0.828982,2.25646,1.64008,-0.55626,1.47548,-0.555574,-1.73207,-0.815834,2.22906,1.60696,-0.53622,-0.684483,0.30274,-0.933299,0.335218,0.709447,0.739103,-0.100496,-0.684483,0.30274,-0.933299,0.335218,0.709447,0.739103,-0.100496,0.203908,-0.330999,1.02495,0.563649,-0.276724,0.142064,0.765207,-0.42079,-0.182484,0.022799,1.08237,-0.593983,1.62298,-2.64785,-0.133523,-1.46018,-2.63281,-0.147248,-1.03187,-0.531264,-0.309275,-0.712984,-0.300657,0.435581,0.393904,-0.338437,1
1.42142,-0.596524,-1.81046,-0.832072,2.27987,1.64596,-0.577491,1.44461,-0.572986,-1.78529,-0.837374,2.26137,1.64378,-0.563404,1.46999,-0.553865,-1.74075,-0.814721,2.2351,1.6139,-0.538208,-0.517977,0.0854799,-0.946538,-0.0611396,0.607478,0.763015,-0.312462,-0.517977,0.0854799,-0.946538,-0.0611396,0.607478,0.763015,-0.312462,0.200983,-0.332872,1.02421,0.56773,-0.278473,0.14276,0.761416,-0.241325,-0.257887,-0.145317,1.05564,-0.595861,1.60958,-2.67515,-0.187989,-1.34204,-2.62667,-0.147853,-1.1335,-0.48566,-0.426587,-0.697058,-0.173516,0.447632,0.320608,-0.392831,1
1.41801,-0.600911,-1.81777,-0.790328,2.28812,1.65879,-0.58307,1.43464,-0.581561,-1.79422,-0.839578,2.26663,1.64626,-0.567865,1.46545,-0.554788,-1.74957,-0.817129,2.24056,1.62065,-0.542099,-0.46976,-0.256987,-0.961089,-0.429926,0.576761,0.704679,-0.513665,-0.46976,-0.256987,-0.961089,-0.429926,0.576761,0.704679,-0.513665,0.199467,-0.3362,1.02189,0.571874,-0.278419,0.14252,0.758374,-0.12352,-0.456496,-0.343654,1.02942,-0.597422,1.59525,-2.6166,-0.155723,-1.42907,-2.62627,-0.148875,-1.22755,-0.474403,-0.46123,-0.682042,0.268013,0.475613,0.381408,-0.409713,1
1.43008,-0.605641,-1.82561,-0.787368,2.29899,1.67093,-0.592285,1.42673,-0.588321,-1.80259,-0.834596,2.27298,1.64827,-0.572034,1.46057,-0.558503,-1.75849,-0.821778,2.24582,1.62673,-0.54721,-0.578708,-0.525328,-0.971831,-0.565707,0.564114,0.618449,-0.587396,-0.578708,-0.525328,-0.971831,-0.565707,0.564114,0.618449,-0.587396,0.198447,-0.341487,1.01824,0.576667,-0.276601,0.141231,0.755646,-0.137116,-0.651542,-0.464778,1.00295,-0.598393,1.57855,-2.72822,-0.100137,-1.72177,-2.63203,-0.145776,-1.33746,-0.304834,-0.47138,-0.671162,0.3441,0.531692,0.442084,-0.450751,1
1.43132,-0.61498,-1.83483,-0.806849,2.306,1.67403,-0.601339,1.4231,-0.594696,-1.81045,-0.821854,2.28057,1.65215,-0.577582,1.45451,-0.563925,-1.76746,-0.826537,2.25103,1.63194,-0.552485,-0.720916,-0.639693,-0.970612,-0.473007,0.565571,0.519396,-0.557837,-0.720916,-0.639693,-0.970612,-0.473007,0.565571,0.519396,-0.557837,0.196947,-0.348214,1.01405,0.582315,-0.273828,0.139358,0.752666,-0.231047,-0.760275,-0.480853,0.977099,-0.598918,1.56164,-2.45532,-0.0498847,-1.60623,-2.63589,-0.132266,-1.45795,-0.231881,-0.510551,-0.673756,0.196879,0.549698,0.420935,-0.488539,1
1.41782,-0.620129,-1.84488,-0.825092,2.30477,1.68442,-0.606215,1.42349,-0.600964,-1.81821,-0.807505,2.28885,1.65915,-0.58451,1.44766,-0.569962,-1.77633,-0.829469,2.25643,1.63631,-0.557485,-0.759456,-0.665914,-0.952616,-0.185964,0.60036,0.433766,-0.527704,-0.759456,-0.665914,-0.952616,-0.185964,0.60036,0.433766,-0.527704,0.194455,-0.355583,1.0101,0.588699,-0.271096,0.137113,0.749093,-0.349232,-0.79359,-0.41963,0.950707,-0.600147,1.5446,-2.75664,-0.12833,-1.77917,-2.63221,-0.124535,-1.54397,-0.298403,-0.501669,-0.685513,0.0437723,0.483408,0.481145,-0.487305,1
1.41045,-0.625623,-1.85399,-0.837747,2.30633,1.69399,-0.607949,1.42516,-0.607238,-1.82642,-0.802057,2.29654,1.66771,-0.592064,1.44117,-0.576145,-1.78498,-0.828966,2.26229,1.64029,-0.562461,-0.655528,-0.672876,-0.923665,0.257964,0.663229,0.429899,-0.548473,-0.655528,-0.672876,-0.923665,0.257964,0.663229,0.429899,-0.548473,0.190773,-0.363013,1.00688,0.595621,-0.26946,0.1343,0.744708,-0.470502,-0.781596,-0.317925,0.923989,-0.60201,1.52497,-2.53522,-0.176788,-1.86297,-2.63331,-0.121967,-1.63427,-0.307234,-0.494785,-0.690115,-0.0878096,0.440462,0.536947,-0.454878,1
1.41071,-0.632103,-1.86143,-0.832126,2.31905,1.69356,-0.613202,1.42419,-0.613656,-1.83526,-0.808696,2.30222,1.67605,-0.59908,1.43611,-0.582366,-1.79339,-0.824747,2.26874,1.64473,-0.567811,-0.457566,-0.674565,-0.90012,0.625399,0.729292,0.522981,-0.605713,-0.457566,-0.674565,-0.90012,0.625399,0.729292,0.522981,-0.605713,0.186121,-0.370127,1.00442,0.602732,-0.269557,0.130768,0.739563,-0.534675,-0.737045,-0.2398,0.900078,-0.603846,1.5063,-2.418,-0.185636,-1.88762,-2.60641,-0.124591,-1.72972,-0.253983,-0.497375,-0.680382,-0.073791,0.503133,0.488336,-0.453915,1
1.41296,-0.64326,-1.86931,-0.830701,2.32933,1.69439,-0.622221,1.41967,-0.620035,-1.84436,-0.82045,2.30635,1.68358,-0.604716,1.43279,-0.588601,-1.80169,-0.819023,2.27562,1.65013,-0.573704,-0.276865,-0.67599,-0.897012,0.615391,0.75865,0.637786,-0.665926,-0.276865,-0.67599,-0.897012,0.615391,0.75865,0.637786,-0.665926,0.181374,-0.376774,1.00216,0.609484,-0.270845,0.126725,0.734243,-0.477596,-0.686375,-0.255302,0.87345,-0.604464,1.48524,-2.75029,-0.0638409,-2.17586,-2.59555,-0.125443,-1.82571,-0.198338,-0.546589,-0.676214,-0.116775,0.537071,0.442574,-0.485167,1
1.39778,-0.656524,-1.87837,-0.841137,2.33346,1.69463,-0.630166,1.41454,-0.626681,-1.85318,-0.829172,2.31138,1.68946,-0.609595,1.43048,-0.594869,-1.81005,-0.815233,2.28242,1.65639,-0.579986,-0.228113,-0.681419,-0.914198,0.237117,0.718087,0.712946,-0.692559,-0.228113,-0.681419,-0.914198,0.237117,0.718087,0.712946,-0.692559,0.177537,-0.383089,0.999324,0.615498,-0.27191,0.122704,0.7295,-0.342045,-0.66015,-0.358903,0.847495,-0.606182,1.46359,-2.77393,-0.183638,-2.3134,-2.58673,-0.136275,-1.91416,-0.32698,-0.616552,-0.68314,-0.259039,0.510331,0.382336,-0.501798,1
1.37792,-0.666581,-1.88848,-0.858369,2.33457,1.69303,-0.63818,1.41044,-0.634637,-1.86158,-0.83331,2.31853,1.69279,-0.615225,1.428,-0.601174,-1.8186,-0.815184,2.28867,1.66312,-0.586264,-0.302174,-0.684125,-0.934656,-0.190978,0.641222,0.741935,-0.669304,-0.302174,-0.684125,-0.934656,-0.190978,0.641222,0.741935,-0.669304,0.174893,-0.389321,0.995535,0.620827,-0.271763,0.11919,0.725612,-0.233731,-0.658178,-0.470695,0.820491,-0.607715,1.43936,-2.67721,-0.151931,-2.40231,-2.59566,-0.146117,-2.03066,-0.500791,-0.654071,-0.698856,-0.431843,0.458984,0.299044,-0.519169,1
1.36878,-0.672776,-1.89655,-0.864937,2.3383,1.69132,-0.643999,1.40474,-0.644387,-1.86999,-0.837183,2.32598,1.69388,-0.622218,1.42485,-0.607541,-1.82725,-0.818016,2.29445,1.66982,-0.592243,-0.374014,-0.694256,-0.940319,-0.404671,0.614108,0.712359,-0.629385,-0.374014,-0.694256,-0.940319,-0.404671,0.614108,0.712359,-0.629385,0.172968,-0.395641,0.991026,0.625784,-0.27044,0.116132,0.722336,-0.197109,-0.67,-0.529106,0.794692,-0.60915,1.41569,-2.50246,-0.139186,-2.29593,-2.59866,-0.145547,-2.14525,-0.560696,-0.652354,-0.692972,-0.469213,0.438477,0.214957,-0.517563,1
1.3607,-0.678718,-1.90578,-0.871471,2.34002,1.7035,-0.647167,1.39479,-0.654871,-1.87878,-0.844537,2.33153,1.69392,-0.629807,1.4213,-0.614188,-1.83589,-0.821814,2.30035,1.6759,-0.598026,-0.393883,-0.741769,-0.931662,-0.417007,0.659489,0.612435,-0.623853,-0.393883,-0.741769,-0.931662,-0.417007,0.659489,0.612435,-0.623853,0.171165,-0.402235,0.986211,0.630731,-0.268371,0.11297,0.719301,-0.209866,-0.705833,-0.547845,0.768821,-0.610949,1.39067,-2.63355,-0.183186,-2.54745,-2.60441,-0.14527,-2.25007,-0.606027,-0.645297,-0.69887,-0.496572,0.396671,0.275974,-0.491406,1
1.35299,-0.684439,-1.91571,-0.879579,2.33649,1.7208,-0.649888,1.38223,-0.664368,-1.88783,-0.854425,2.33499,1.69455,-0.636805,1.41735,-0.621481,-1.84446,-0.825667,2.30665,1.68086,-0.603975,-0.457281,-0.830843,-0.925905,-0.417707,0.701267,0.472507,-0.661715,-0.457281,-0.830843,-0.925905,-0.417707,0.701267,0.472507,-0.661715,0.169144,-0.409401,0.981201,0.636058,-0.265598,0.109294,0.7162,-0.246479,-0.776933,-0.579422,0.742772,-0.612323,1.3649,-2.59063,-0.136687,-2.56246,-2.62135,-0.147753,-2.36163,-0.643551,-0.62958,-0.712476,-0.539123,0.298392,0.399456,-0.459135,1
1.35117,-0.692323,-1.92539,-0.892807,2.32981,1.73668,-0.656871,1.37068,-0.672131,-1.89694,-0.863971,2.33693,1.6984,-0.642494,1.41225,-0.629584,-1.85305,-0.83006,2.31298,1.68455,-0.610311,-0.633005,-0.917232,-0.933289,-0.525116,0.672952,0.33958,-0.707173,-0.633005,-0.917232,-0.933289,-0.525116,0.672952,0.33958,-0.707173,0.166786,-0.417351,0.975801,0.642085,-0.261766,0.105303,0.712823,-0.294712,-0.859945,-0.640856,0.71652,-0.613586,1.33792,-2.73678,-0.131652,-2.81292,-2.61395,-0.153158,-2.45729,-0.610709,-0.627392,-0.723404,-0.627463,0.168306,0.521243,-0.465601,1
1.35204,-0.699787,-1.93463,-0.905358,2.30854,1.74708,-0.665102,1.36195,-0.678786,-1.90618,-0.872667,2.33672,1.70737,-0.647144,1.40537,-0.63821,-1.86173,-0.835682,2.31877,1.68731,-0.616912,-0.839476,-0.94883,-0.94662,-0.679872,0.588346,0.262931,-0.721567,-0.839476,-0.94883,-0.94662,-0.679872,0.588346,0.262931,-0.721567,0.16409,-0.425923,0.969895,0.64881,-0.25675,0.101531,0.709096,-0.3407,-0.905797,-0.698866,0.689914,-0.614839,1.30994,-2.59671,-0.122229,-2.73063,-2.61645,-0.146025,-2.55228,-0.533309,-0.615776,-0.729,-0.69676,-0.102311,0.597735,-0.481899,1
1.33679,-0.706785,-1.94499,-0.916885,2.2816,1.74807,-0.671387,1.3559,-0.685362,-1.91566,-0.882075,2.33241,1.72016,-0.651914,1.39704,-0.646817,-1.87053,-0.842461,2.32366,1.68995,-0.623424,-0.955955,-0.918222,-0.957996,-0.780243,0.481179,0.306646,-0.691711,-0.955955,-0.918222,-0.957996,-0.780243,0.481179,0.306646,-0.691711,0.161135,-0.434594,0.963614,0.655836,-0.251093,0.0983975,0.705089,-0.368573,-0.887257,-0.726743,0.664,-0.616168,1.28148,-2.43009,-0.124694,-2.66845,-2.6119,-0.140632,-2.6353,-0.602498,-0.599683,-0.744591,-0.744243,-0.42062,0.581159,-0.479628,1
1.3196,-0.718169,-1.95438,-0.923591,2.2869,1.73856,-0.677322,1.35113,-0.692403,-1.92529,-0.892951,2.32229,1.73267,-0.657733,1.38823,-0.655014,-1.87943,-0.849893,2.32739,1.69372,-0.629544,-0.953034,-0.862288,-0.970276,-0.826087,0.338462,0.495006,-0.638415,-0.953034,-0.862288,-0.970276,-0.826087,0.338462,0.495006,-0.638415,0.15811,-0.44279,0.957115,0.66261,-0.245682,0.0961605,0.700957,-0.364499,-0.81993,-0.739735,0.63789,-0.617777,1.25202,-2.6586,-0.163826,-2.99995,-2.61752,-0.138703,-2.72977,-0.686253,-0.631554,-0.749431,-0.736983,-0.404907,0.448392,-0.47778,1
1.30728,-0.732227,-1.96241,-0.929651,2.29916,1.70405,-0.684428,1.34474,-0.70014,-1.93495,-0.904261,2.30815,1.74026,-0.664387,1.37985,-0.662762,-1.88847,-0.857793,2.32938,1.69956,-0.635265,-0.868735,-0.819749,-0.986248,-0.880761,0.110069,0.747337,-0.603908,-0.868735,-0.819749,-0.986248,-0.880761,0.110069,0.747337,-0.603908,0.155351,-0.450185,0.950377,0.66876,-0.241039,0.0950656,0.696867,-0.315839,-0.736321,-0.764954,0.612356,-0.619202,1.22159,-2.50707,-0.139844,-2.98744,-2.61313,-0.136597,-2.81929,-0.72569,-0.694653,-0.739368,-0.718584,-0.302142,0.0449157,-0.491629,1
1.30135,-0.743158,-1.96971,-0.937833,2.31393,1.69114,-0.691658,1.33461,-0.709062,-1.94449,-0.914439,2.29669,1.7391,-0.671148,1.37233,-0.670249,-1.89766,-0.866346,2.32868,1.70732,-0.640878,-0.768948,-0.803592,-1.00228,-0.965043,-0.231931,0.919714,-0.611385,-0.768948,-0.803592,-1.00228,-0.965043,-0.231931,0.919714,-0.611385,0.153244,-0.456763,0.943283,0.674259,-0.236948,0.0954071,0.692913,-0.234374,-0.664078,-0.804993,0.586734,-0.620121,1.18986,-2.63699,-0.0946147,-3.26596,-2.60166,-0.134148,-2.91313,-0.709721,-0.72909,-0.720537,-0.714867,-0.147482,-0.161799,-0.507798,1
1.29583,-0.753593,-1.97788,-0.946897,2.32384,1.70404,-0.6972,1.32219,-0.719565,-1.95356,-0.922949,2.29434,1.72848,-0.677786,1.36534,-0.677717,-1.90697,-0.875624,2.3247,1.71567,-0.646677,-0.746956,-0.813346,-1.01491,-1.03874,-0.600372,0.891902,-0.642381,-0.746956,-0.813346,-1.01491,-1.03874,-0.600372,0.891902,-0.642381,0.151864,-0.462813,0.935815,0.679461,-0.232633,0.097305,0.689018,-0.178109,-0.633885,-0.84213,0.561673,-0.621602,1.15797,-2.55773,-0.151173,-3.2544,-2.58051,-0.134447,-2.99954,-0.695044,-0.75876,-0.709112,-0.712731,-0.00863396,-0.116254,-0.505227,1
1.28925,-0.761758,-1.98779,-0.958416,2.30939,1.73411,-0.703485,1.31089,-0.731067,-1.96202,-0.930638,2.30072,1.71438,-0.684428,1.35795,-0.685443,-1.91637,-0.885304,2.31825,1.72246,-0.652735,-0.846251,-0.856723,-1.01991,-1.05682,-0.782104,0.603469,-0.667862,-0.846251,-0.856723,-1.01991,-1.05682,-0.782104,0.603469,-0.667862,0.15074,-0.468959,0.928117,0.684967,-0.22713,0.100193,0.684977,-0.201872,-0.676012,-0.862123,0.536433,-0.623448,1.12509,-2.38908,-0.174706,-3.11282,-2.55804,-0.139423,-3.08476,-0.686959,-0.763155,-0.714253,-0.731116,-0.0885716,0.11648,-0.507497,1
1.28479,-0.764385,-1.99722,-0.972215,2.3096,1.76743,-0.710741,1.30232,-0.742206,-1.97022,-0.938844,2.30926,1.70774,-0.691009,1.34942,-0.693751,-1.92573,-0.894869,2.31178,1.72555,-0.658974,-0.987782,-0.936368,-1.0094,-1.01853,-0.632319,0.106521,-0.682371,-0.987782,-0.936368,-1.0094,-1.01853,-0.632319,0.106521,-0.682371,0.149189,-0.475953,0.920392,0.69128,-0.219664,0.102658,0.680692,-0.287897,-0.782078,-0.866017,0.511013,-0.624483,1.09084,-2.54449,-0.103653,-3.42842,-2.54485,-0.138166,-3.17652,-0.646339,-0.706344,-0.714883,-0.773458,-0.0217803,0.418814,-0.51767,1
1.29471,-0.76511,-2.00738,-0.983127,2.34819,1.77667,-0.718275,1.29598,-0.751696,-1.97875,-0.948431,2.31429,1.71568,-0.697465,1.33997,-0.702834,-1.93492,-0.904009,2.30781,1.72421,-0.665326,-1.0548,-1.02404,-0.982926,-0.965865,-0.257153,-0.356731,-0.69284,-1.0548,-1.02404,-0.982926,-0.965865,-0.257153,-0.356731,-0.69284,0.146878,-0.484159,0.91274,0.698413,-0.210177,0.103265,0.6763,-0.369697,-0.888551,-0.867983,0.485574,-0.625947,1.0559,-2.57696,-0.148294,-3.5389,-2.53549,-0.137144,-3.26659,-0.452582,-0.622762,-0.724651,-0.791179,0.403807,0.524576,-0.529493,1
1.29583,-0.776158,-2.01511,-0.991747,2.3574,1.76657,-0.728314,1.29178,-0.758794,-1.98785,-0.959409,2.31748,1.73487,-0.704081,1.33041,-0.712547,-1.94386,-0.912818,2.30711,1.72041,-0.671751,-1.01891,-1.07578,-0.956012,-0.94401,0.0777963,-0.459336,-0.698496,-1.01891,-1.07578,-0.956012,-0.94401,0.0777963,-0.459336,-0.698496,0.143941,-0.493181,0.905055,0.705809,-0.199731,0.101712,0.672009,-0.408692,-0.923128,-0.883958,0.460375,-0.627302,1.0195,-2.51994,-0.135432,-3.64,-2.53187,-0.138692,-3.36189,-0.345805,-0.636108,-0.712498,-0.789291,0.502855,0.46165,-0.565628,1
1.27597,-0.791347,-2.02422,-1.00003,2.35391,1.76623,-0.735475,1.29035,-0.764121,-1.99725,-0.970893,2.32517,1.75455,-0.711273,1.32147,-0.722412,-1.95264,-0.921667,2.30849,1.71804,-0.678201,-0.924851,-1.0622,-0.94692,-0.970758,0.210045,-0.0854115,-0.698722,-0.924851,-1.0622,-0.94692,-0.970758,0.210045,-0.0854115,-0.698722,0.140703,-0.502067,0.897127,0.712713,-0.190133,0.098986,0.667901,-0.407401,-0.859691,-0.913126,0.434821,-0.628899,0.982816,-2.58303,-0.161434,-3.70829,-2.53283,-0.143684,-3.4545,-0.455051,-0.68935,-0.715763,-0.783652,0.45413,0.481926,-0.57274,1
1.25425,-0.806841,-2.03244,-1.00688,2.34473,1.75026,-0.742648,1.28976,-0.770147,-2.00648,-0.981663,2.33777,1.76562,-0.71914,1.3136,-0.731803,-1.96144,-0.930939,2.31063,1.72032,-0.684677,-0.791541,-0.979024,-0.958058,-1.03263,0.248565,0.527955,-0.703776,-0.791541,-0.979024,-0.958058,-1.03263,0.248565,0.527955,-0.703776,0.13749,-0.509917,0.888886,0.718603,-0.182842,0.0962192,0.664018,-0.371301,-0.730154,-0.932411,0.409462,-0.628875,0.943263,-2.52666,0.00239926,-3.94086,-2.53748,-0.126918,-3.57146,-0.593507,-0.750385,-0.710063,-0.759402,0.341046,0.299439,-0.579703,1
1.24314,-0.816923,-2.04141,-1.01517,2.32811,1.74263,-0.748929,1.28505,-0.779313,-2.01536,-0.991101,2.34755,1.76653,-0.72727,1.3072,-0.740272,-1.97037,-0.940772,2.31375,1.72746,-0.691282,-0.610972,-0.865045,-0.974999,-1.09252,0.414296,0.982579,-0.72509,-0.610972,-0.865045,-0.974999,-1.09252,0.414296,0.982579,-0.72509,0.134592,-0.516451,0.880516,0.723379,-0.17805,0.0934857,0.660516,-0.305623,-0.605006,-0.924208,0.383924,-0.630659,0.903917,-2.55475,-0.178464,-3.93613,-2.54064,-0.119164,-3.6848,-0.640594,-0.766513,-0.710414,-0.743927,0.14359,0.151627,-0.576469,1
1.24336,-0.824025,-2.04955,-1.02445,2.33139,1.75623,-0.752398,1.27384,-0.791446,-2.02402,-0.999476,2.34858,1.7612,-0.735005,1.30233,-0.747957,-1.97941,-0.950964,2.31892,1.73684,-0.698156,-0.455813,-0.804852,-0.982163,-1.11349,0.683631,1.04392,-0.761095,-0.455813,-0.804852,-0.982163,-1.11349,0.683631,1.04392,-0.761095,0.132101,-0.522169,0.87223,0.727426,-0.174606,0.0900144,0.657466,-0.251601,-0.554652,-0.907803,0.358538,-0.632572,0.864342,-2.54657,-0.191987,-3.96985,-2.54157,-0.125939,-3.78462,-0.589693,-0.760676,-0.701491,-0.734812,0.124687,0.193886,-0.542419,1
1.24758,-0.833594,-2.05795,-1.03438,2.35776,1.77751,-0.758607,1.26014,-0.804073,-2.0326,-1.0075,2.34318,1.75514,-0.741878,1.29805,-0.755655,-1.98844,-0.961115,2.32577,1.74514,-0.705353,-0.47124,-0.858131,-0.976419,-1.08763,0.79005,0.775841,-0.794975,-0.47124,-0.858131,-0.976419,-1.08763,0.79005,0.775841,-0.794975,0.129668,-0.527989,0.86398,0.73153,-0.170789,0.0855126,0.654509,-0.27577,-0.600713,-0.91924,0.333606,-0.634051,0.823432,-2.49188,-0.147785,-4.08889,-2.53742,-0.130761,-3.88083,-0.504643,-0.779391,-0.695012,-0.732643,0.31991,0.323671,-0.532543,1
1.24298,-0.841261,-2.06796,-1.04569,2.37427,1.78292,-0.767986,1.25011,-0.815133,-2.04116,-1.01589,2.33915,1.75409,-0.747891,1.29264,-0.764224,-1.9974,-0.970901,2.3321,1.75038,-0.712753,-0.681918,-0.98738,-0.965305,-1.03644,0.597719,0.392166,-0.807097,-0.681918,-0.98738,-0.965305,-1.03644,0.597719,0.392166,-0.807097,0.126674,-0.5346,0.855519,0.736447,-0.165309,0.0807293,0.651,-0.385432,-0.696349,-0.961229,0.309061,-0.635727,0.781308,-2.58908,-0.176768,-4.44345,-2.52606,-0.14028,-3.97242,-0.496597,-0.77037,-0.70551,-0.747903,0.421762,0.325325,-0.552331,1
1.23482,-0.847233,-2.07645,-1.05635,2.38023,1.77889,-0.77458,1.24566,-0.82446,-2.04976,-1.02506,2.34319,1.76048,-0.75367,1.28521,-0.773879,-2.00627,-0.980233,2.33594,1.75252,-0.720116,-0.909239,-1.09518,-0.955256,-0.98911,0.262592,0.0950966,-0.789334,-0.909239,-1.09518,-0.955256,-0.98911,0.262592,0.0950966,-0.789334,0.12283,-0.542025,0.846711,0.742327,-0.157935,0.0766437,0.646632,-0.495359,-0.762304,-1.00204,0.282151,-0.640046,0.737481,-2.5934,-0.416239,-4.22375,-2.5326,-0.180495,-4.07287,-0.503874,-0.733544,-0.701881,-0.7612,0.442853,0.263696,-0.544645,1
1.22517,-0.856807,-2.08435,-1.0654,2.38182,1.77861,-0.780463,1.24366,-0.832808,-2.05852,-1.03502,2.35495,1.77024,-0.760032,1.27656,-0.784136,-2.01505,-0.989251,2.33737,1.7531,-0.727208,-0.95949,-1.12431,-0.947191,-0.966284,0.0644305,0.0358724,-0.750224,-0.95949,-1.12431,-0.947191,-0.966284,0.0644305,0.0358724,-0.750224,0.118499,-0.549702,0.837643,0.748575,-0.149536,0.073454,0.641778,-0.522366,-0.753298,-1.01987,0.259499,-0.637719,0.695254,-2.22029,0.228018,-4.13879,-2.5104,-0.173085,-4.14262,-0.513979,-0.726714,-0.693021,-0.761515,0.444452,0.25506,-0.532554,1
1.21517,-0.868852,-2.09254,-1.07354,2.38187,1.77461,-0.787432,1.24008,-0.840756,-2.06738,-1.04535,2.36788,1.77704,-0.767048,1.26838,-0.794354,-2.02377,-0.998211,2.3385,1.75436,-0.733958,-0.82415,-1.09197,-0.942679,-0.973884,0.170082,0.221913,-0.714965,-0.82415,-1.09197,-0.942679,-0.973884,0.170082,0.221913,-0.714965,0.114261,-0.557004,0.828469,0.754394,-0.141485,0.0703991,0.637115,-0.475156,-0.690231,-1.02061,0.236503,-0.640964,0.65182,-2.3132,-0.32641,-4.36913,-2.4707,-0.168595,-4.21577,-0.532088,-0.744972,-0.68769,-0.753334,0.433749,0.202498,-0.534739,1
1.20883,-0.880801,-2.10083,-1.08162,2.38277,1.7683,-0.796465,1.23355,-0.848987,-2.07605,-1.05542,2.37653,1.77872,-0.774116,1.26163,-0.80417,-2.03248,-1.00735,2.34163,1.75759,-0.740522,-0.652055,-1.03875,-0.944614,-1.00348,0.482972,0.458611,-0.707646,-0.652055,-1.03875,-0.944614,-1.00348,0.482972,0.458611,-0.707646,0.110351,-0.563688,0.819286,0.759462,-0.134619,0.0664948,0.632988,-0.420565,-0.624448,-1.01567,0.24329,-0.660099,0.619342,0.674172,-1.90075,-3.22616,-2.1054,-0.351429,-4.15812,-0.528055,-0.766314,-0.683487,-0.742683,0.411343,0.107058,-0.55943,1
1.20854,-0.891168,-2.10832,-1.08982,2.3919,1.76146,-0.802429,1.22532,-0.858352,-2.08439,-1.06476,2.38062,1.77689,-0.78105,1.25599,-0.813508,-2.04122,-1.01678,2.34739,1.76222,-0.74713,-0.57698,-0.98831,-0.948818,-1.03641,0.74319,0.537405,-0.722446,-0.57698,-0.98831,-0.948818,-1.03641,0.74319,0.537405,-0.722446,0.106619,-0.569908,0.810146,0.764043,-0.12866,0.0614526,0.629212,-0.403433,-0.585361,-1.00756,0.250789,-0.681133,0.587951,0.751039,-2.10654,-3.1438,-1.52015,-0.681824,-3.98583,-0.474514,-0.776596,-0.670975,-0.730377,0.445095,-0.00764277,-0.552995,1
1.21105,-0.901335,-2.11112,-1.09569,2.40742,1.74214,-0.804044,1.21762,-0.868971,-2.09244,-1.07335,2.38314,1.77286,-0.788073,1.25048,-0.822496,-2.04997,-1.02643,2.35453,1.76668,-0.753861,-0.613887,-0.960924,-0.945888,-1.05184,0.798037,0.436589,-0.734715,-0.613887,-0.960924,-0.945888,-1.05184,0.798037,0.436589,-0.734715,0.102803,-0.575938,0.801069,0.768579,-0.122717,0.0557951,0.625391,-0.424757,-0.573298,-1.00096,0.258652,-0.702707,0.556701,0.789872,-2.16728,-3.13944,-0.822007,-1.09106,-3.74568,-0.394248,-0.788394,-0.611498,-0.692607,0.528871,-0.245446,-0.501827,1
1.25276,-0.909729,-2.10387,-1.08977,2.4142,1.76919,-0.797826,1.21308,-0.880033,-2.09973,-1.08118,2.38737,1.76687,-0.794636,1.24441,-0.831443,-2.05864,-1.03608,2.36139,1.76981,-0.760667,-0.692781,-0.976083,-0.933896,-1.04033,0.697475,0.256726,-0.739339,-0.692781,-0.976083,-0.933896,-1.04033,0.697475,0.256726,-0.739339,0.0987478,-0.581994,0.791994,0.77332,-0.1161,0.0501719,0.621273,-0.46169,-0.580018,-1.00649,0.267135,-0.722874,0.522878,0.856088,-2.03505,-3.41301,-0.115914,-1.4951,-3.51709,0.0834053,-0.782857,-0.452289,-0.536902,0.528081,-0.00626486,-0.371587,1
1.2961,-0.914433,-2.09925,-1.0591,2.42419,1.8262,-0.796769,1.21559,-0.890596,-2.10481,-1.08688,2.39489,1.76177,-0.799141,1.23782,-0.840701,-2.06718,-1.04553,2.36723,1.7712,-0.767523,-0.73276,-1.02544,-0.916393,-1.00931,0.576965,0.0602099,-0.745392,-0.73276,-1.02544,-0.916393,-1.00931,0.576965,0.0602099,-0.745392,0.0944947,-0.588208,0.782812,0.778268,-0.108556,0.0447809,0.616854,-0.48183,-0.595347,-1.02388,0.274779,-0.74352,0.48884,0.740115,-1.99919,-3.29602,0.437379,-1.87081,-3.35632,0.582777,-0.737323,-0.320694,-0.135694,0.569596,0.55004,-0.292454,1
1.29213,-0.924386,-2.11427,-1.05303,2.42898,1.82905,-0.803197,1.22933,-0.900075,-2.10645,-1.08716,2.40457,1.7652,-0.800543,1.2314,-0.850413,-2.07546,-1.05462,2.37239,1.77075,-0.774356,-0.664395,-1.07442,-0.880412,-0.963482,0.543469,-0.140789,-0.735605,-0.664395,-1.07442,-0.880412,-0.963482,0.543469,-0.140789,-0.735605,0.0903623,-0.59459,0.77351,0.78318,-0.100137,0.0393347,0.612417,-0.44683,-0.603194,-1.03332,0.28317,-0.764197,0.454192,0.844706,-2.08128,-3.48759,0.783308,-2.06528,-3.28201,0.60732,-0.739728,-0.38818,0.0158464,0.565948,0.582996,-0.288416,1
1.28398,-0.935983,-2.1288,-1.09985,2.43208,1.82474,-0.809258,1.25249,-0.908456,-2.10622,-1.08056,2.41404,1.78195,-0.800128,1.22659,-0.860431,-2.08312,-1.06302,2.37779,1.76887,-0.780796,-0.398971,-1.09417,-0.786806,-0.865402,0.620389,-0.257421,-0.665412,-0.398971,-1.09417,-0.786806,-0.865402,0.620389,-0.257421,-0.665412,0.0870271,-0.600919,0.764314,0.787467,-0.0913963,0.0333673,0.608629,-0.308796,-0.575356,-1.00199,0.292005,-0.786304,0.418645,0.903061,-2.25987,-3.63379,0.810834,-2.09126,-3.34812,0.573932,-0.755515,-0.456829,-0.36826,0.54292,0.558717,-0.284619,1
1.2904,-0.946192,-2.13576,-1.11812,2.44036,1.82554,-0.818223,1.27444,-0.916588,-2.10845,-1.07352,2.42189,1.80447,-0.8008,1.22558,-0.870437,-2.08952,-1.06983,2.38412,1.76738,-0.786211,0.136075,-1.07506,-0.614056,-0.628766,0.741602,-0.0790243,-0.519839,0.136075,-1.07506,-0.614056,-0.628766,0.741602,-0.0790243,-0.519839,0.0854594,-0.606614,0.755732,0.790246,-0.0839171,0.0266809,0.606431,-0.0427525,-0.480584,-0.89848,0.299286,-0.807994,0.381951,0.736447,-2.19372,-3.71109,0.815116,-2.10392,-3.43857,0.648188,-0.757553,-0.462413,-0.482958,0.562313,0.581587,-0.320112,1
1.30258,-0.955469,-2.1324,-1.11319,2.44256,1.83491,-0.824975,1.28619,-0.925567,-2.11543,-1.07658,2.42814,1.82016,-0.80437,1.2302,-0.880125,-2.09428,-1.07373,2.39137,1.76934,-0.79021,0.808436,-1.02766,-0.433065,-0.247742,0.822027,0.457591,-0.359743,0.808436,-1.02766,-0.433065,-0.247742,0.822027,0.457591,-0.359743,0.0863264,-0.610973,0.748307,0.790918,-0.0798648,0.0196092,0.606371,0.265611,-0.334892,-0.741847,0.306489,-0.829137,0.344252,0.718274,-2.10841,-3.7595,0.803712,-2.1154,-3.53356,0.723844,-0.753443,-0.381196,-0.394657,0.511842,0.655718,-0.347652,1
1.31582,-0.963111,-2.1309,-1.11222,2.44845,1.84513,-0.829559,1.29028,-0.935478,-2.12424,-1.09063,2.43351,1.82648,-0.81038,1.23989,-0.889405,-2.09801,-1.07458,2.399,1.77637,-0.793125,1.25342,-0.986037,-0.378715,0.0386561,0.830109,1.01919,-0.278394,1.25342,-0.986037,-0.378715,0.0386561,0.830109,1.01919,-0.278394,0.0892153,-0.613867,0.741975,0.789874,-0.0798545,0.0127227,0.607915,0.451493,-0.220286,-0.642801,0.31459,-0.850833,0.305883,0.794965,-2.12892,-3.76498,0.792505,-2.13895,-3.61573,0.759324,-0.737062,-0.328905,-0.376364,0.494444,0.687584,-0.36434,1
1.32681,-0.972767,-2.13597,-1.11689,2.45728,1.85428,-0.831432,1.29495,-0.945434,-2.1303,-1.10509,2.43864,1.83017,-0.81723,1.25149,-0.898489,-2.10204,-1.07475,2.40645,1.78674,-0.795848,1.25888,-0.982211,-0.485705,-0.0663079,0.786823,1.21229,-0.30909,1.25888,-0.982211,-0.485705,-0.0663079,0.786823,1.21229,-0.30909,0.0929185,-0.616011,0.735726,0.788257,-0.0816066,0.00628341,0.609878,0.469668,-0.194808,-0.703344,0.323005,-0.87133,0.265704,0.849868,-2.07021,-4.05793,0.792872,-2.1412,-3.71578,0.753225,-0.742781,-0.339273,-0.421419,0.508259,0.675335,-0.355835,1
1.334,-0.983011,-2.14914,-1.12854,2.46723,1.86149,-0.830928,1.30368,-0.954825,-2.13281,-1.11252,2.44399,1.83629,-0.823351,1.26195,-0.907686,-2.10719,-1.07743,2.41342,1.79719,-0.799187,1.02768,-1.00809,-0.61845,-0.478799,0.728729,1.06251,-0.406013,1.02768,-1.00809,-0.61845,-0.478799,0.728729,1.06251,-0.406013,0.0966215,-0.618249,0.728427,0.786942,-0.0819724,0.000115798,0.611558,0.434592,-0.218372,-0.864098,0.330929,-0.891917,0.224665,0.786083,-2.04229,-4.07129,0.787789,-2.12876,-3.82332,0.720475,-0.75325,-0.419533,-0.511126,0.538064,0.643054,-0.317417,1
1.34095,-0.992565,-2.15702,-1.13918,2.4764,1.86732,-0.83236,1.31451,-0.963899,-2.13498,-1.11585,2.45032,1.8446,-0.827716,1.2707,-0.917093,-2.11295,-1.08339,2.4199,1.80606,-0.803411,0.879742,-1.02804,-0.629416,-0.787122,0.67946,0.874758,-0.501238,0.879742,-1.02804,-0.629416,-0.787122,0.67946,0.874758,-0.501238,0.100329,-0.620762,0.719979,0.785999,-0.0799984,-0.00607247,0.613,0.439664,-0.221141,-0.963409,0.33901,-0.91242,0.183001,0.80189,-2.0346,-4.13445,0.788634,-2.10139,-3.92875,0.702489,-0.754728,-0.440727,-0.557905,0.564925,0.612626,-0.289489,1
1.35044,-1.00167,-2.1615,-1.14606,2.48288,1.87679,-0.837067,1.32477,-0.973176,-2.1399,-1.12074,2.45809,1.85313,-0.830238,1.27892,-0.926568,-2.11825,-1.09068,2.42604,1.81383,-0.808268,0.898432,-1.02497,-0.527979,-0.79209,0.651309,0.814734,-0.547121,0.898432,-1.02497,-0.527979,-0.79209,0.651309,0.814734,-0.547121,0.10429,-0.623212,0.711222,0.785103,-0.0770248,-0.0123935,0.614433,0.477257,-0.191342,-0.942066,0.347572,-0.933035,0.140593,0.861563,-2.07436,-4.2673,0.807991,-2.08133,-4.02782,0.715203,-0.751061,-0.43241,-0.553812,0.56842,0.629617,-0.287988,1
