Afshin1997/kuka_rl_ros2/src/catch_and_throw/output_files/tm/nn_ema7.00_jvws1_realball_D23H17M26S26/recorded_data.csv
pure_target_joint_0,pure_target_joint_1,pure_target_joint_2,pure_target_joint_3,pure_target_joint_4,pure_target_joint_5,pure_target_joint_6,target_joint_0,target_joint_1,target_joint_2,target_joint_3,target_joint_4,target_joint_5,target_joint_6,pos_joint_0,pos_joint_1,pos_joint_2,pos_joint_3,pos_joint_4,pos_joint_5,pos_joint_6,vel_joint_0,vel_joint_1,vel_joint_2,vel_joint_3,vel_joint_4,vel_joint_5,vel_joint_6,vel_smooth_joint_0,vel_smooth_joint_1,vel_smooth_joint_2,vel_smooth_joint_3,vel_smooth_joint_4,vel_smooth_joint_5,vel_smooth_joint_6,ee_pos_x,ee_pos_y,ee_pos_z,ee_or_w,ee_or_x,ee_or_y,ee_or_z,ee_vel_x,ee_vel_y,ee_vel_z,ball_pos_x,ball_pos_y,ball_pos_z,ball_raw_vx,ball_raw_vy,ball_raw_vz,ball_ema_vx,ball_ema_vy,ball_ema_vz,action_0,action_1,action_2,action_3,action_4,action_5,action_6,command_published
1.70608,-1.01172,-1.86767,-1.04196,1.90393,1.1718,-0.879662,1.7617,-1.05144,-1.8282,-1.09819,1.92892,1.13062,-0.907199,1.78024,-1.06469,-1.81504,-1.11694,1.93725,1.11689,-0.916378,0,0,0,0,0,0,0,0,0,0,0,0,0,0,0.53103,-0.454457,0.694327,0.574588,0.175132,0.152556,0.784795,0,0,0,2.89333,-0.483275,0.409745,-34.4278,0.935975,50.6319,-6.83981,-0.162702,8.46282,-0.741661,0.529653,-0.526262,0.749784,-0.333219,0.549156,0.36716,1
1.70705,-1.00728,-1.86915,-1.0444,1.88327,1.17731,-0.892001,1.72486,-1.02385,-1.85488,-1.06132,1.9071,1.15945,-0.891926,1.78024,-1.06469,-1.81504,-1.11694,1.93725,1.11689,-0.916378,0,0,0,0,0,0,0,0,0,0,0,0,0,0,0.53103,-0.454457,0.694327,0.574588,0.175132,0.152556,0.784795,0,0,0,2.86089,-0.481918,0.457403,-3.24364,0.13577,4.76571,-9.05728,0.00170938,12.0723,-0.731921,0.574072,-0.541049,0.72534,-0.539861,0.604177,0.243776,1
1.70514,-0.997572,-1.87071,-1.04389,1.88146,1.17534,-0.882588,1.70633,-1.00596,-1.86917,-1.04367,1.88798,1.17544,-0.886563,1.77807,-1.06313,-1.81659,-1.11474,1.93628,1.1185,-0.9153,-0.435726,0.311172,-0.309181,0.4405,-0.195766,0.32263,0.215707,-0.435726,0.311172,-0.309181,0.4405,-0.195766,0.32263,0.215707,0.529473,-0.455941,0.69525,0.576345,0.17402,0.153064,0.783655,-0.302996,-0.305715,0.180828,2.82716,-0.480078,0.504573,-3.37255,0.183961,4.71703,-10.1206,0.151421,13.9882,-0.729235,0.65558,-0.541252,0.708416,-0.548114,0.56836,0.327114,1
1.69486,-0.989412,-1.87368,-1.03632,1.8825,1.17662,-0.870242,1.70305,-0.997958,-1.87106,-1.04213,1.88217,1.17615,-0.881855,1.77012,-1.0573,-1.82229,-1.10674,1.93209,1.12457,-0.911713,-1.20508,0.890782,-0.867837,1.2097,-0.665398,0.928852,0.526919,-1.20508,0.890782,-0.867837,1.2097,-0.665398,0.928852,0.526919,0.523751,-0.461123,0.698678,0.582897,0.169723,0.155332,0.779293,-0.849932,-0.803933,0.513761,2.79412,-0.478338,0.550722,-3.30408,0.173995,4.61488,-10.0576,0.237376,14.1816,-0.752601,0.678907,-0.513898,0.704279,-0.495861,0.520511,0.414715,1
1.67984,-0.977405,-1.88271,-1.02322,1.87704,1.18592,-0.859598,1.69367,-0.98845,-1.8752,-1.03494,1.88088,1.17862,-0.870667,1.75601,-1.04595,-1.83266,-1.09279,1.92233,1.13582,-0.90615,-1.32285,1.06474,-0.972176,1.30815,-0.914606,1.05496,0.521584,-1.32285,1.06474,-0.972176,1.30815,-0.914606,1.05496,0.521584,0.513468,-0.469269,0.705182,0.594837,0.161228,0.161068,0.770864,-0.952205,-0.796936,0.605221,2.76111,-0.476928,0.595266,-3.30102,0.141066,4.45448,-8.88991,0.268813,12.6254,-0.761696,0.685411,-0.500516,0.695692,-0.452848,0.500969,0.465523,1
1.66932,-0.967697,-1.88747,-1.01167,1.87752,1.19818,-0.850633,1.68096,-0.97798,-1.88164,-1.02361,1.87853,1.18666,-0.860018,1.74463,-1.03616,-1.84096,-1.08174,1.91405,1.14467,-0.901264,-1.10743,1.01736,-0.801699,1.055,-0.848864,0.838374,0.516878,-1.10743,1.01736,-0.801699,1.055,-0.848864,0.838374,0.516878,0.505095,-0.475197,0.71075,0.604092,0.154278,0.16629,0.763949,-0.802147,-0.580636,0.570777,2.72864,-0.475547,0.638891,-3.24743,0.138065,4.36246,-6.63602,0.241214,9.33841,-0.75309,0.684639,-0.465072,0.700688,-0.365304,0.535126,0.506313,1
1.67475,-0.962087,-1.8347,-1.01117,1.9445,1.20726,-0.838175,1.67331,-0.968722,-1.87309,-1.01443,1.89415,1.19739,-0.84976,1.73544,-1.02771,-1.84762,-1.07298,1.907,1.15163,-0.896971,-0.862467,0.792318,-0.624363,0.821634,-0.661096,0.652926,0.402545,-0.862467,0.792318,-0.624363,0.821634,-0.661096,0.652926,0.402545,0.498297,-0.479503,0.715517,0.6113,0.148581,0.170983,0.758288,-0.631599,-0.436961,0.446958,2.69571,-0.474165,0.681851,-3.29242,0.138152,4.29602,-3.29781,0.154368,4.33567,-0.606842,0.656238,0.129203,0.618138,0.37501,0.556309,0.587958,1
1.65573,-0.948814,-1.82515,-1.01073,1.94756,1.19133,-0.830696,1.66864,-0.960171,-1.8455,-1.01119,1.92852,1.20101,-0.83942,1.72339,-1.01671,-1.85515,-1.06206,1.9007,1.15938,-0.888797,-1.1297,1.03141,-0.70567,1.02396,-0.590499,0.726459,0.766402,-1.1297,1.03141,-0.70567,1.02396,-0.590499,0.726459,0.766402,0.489356,-0.484991,0.722058,0.61908,0.142166,0.175616,0.752122,-0.831259,-0.544609,0.613263,2.66258,-0.472728,0.723501,-3.31388,0.143746,4.16501,-3.29758,0.150666,4.23222,-0.676528,0.678962,0.299903,0.513255,0.468636,0.319516,0.581005,1
1.64585,-0.934664,-1.82139,-0.999989,1.94906,1.20514,-0.82276,1.65802,-0.948595,-1.8266,-1.00816,1.94717,1.19877,-0.830582,1.7131,-1.00706,-1.86,-1.05248,1.89763,1.16668,-0.881226,-1.05971,1.02084,-0.348464,1.01306,-0.0928179,0.817848,0.837948,-1.05971,1.02084,-0.348464,1.01306,-0.0928179,0.817848,0.837948,0.481232,-0.489345,0.728563,0.625177,0.136072,0.178152,0.747596,-0.846956,-0.459025,0.745432,2.62954,-0.471078,0.763825,-3.30362,0.164986,4.03235,-3.29059,0.146367,4.12107,-0.672567,0.723911,0.386113,0.524871,0.514307,0.384657,0.584656,1
1.63895,-0.920667,-1.81674,-0.995908,1.96267,1.21585,-0.814078,1.64659,-0.934702,-1.82117,-1.00165,1.95209,1.20437,-0.822573,1.70327,-0.996685,-1.85679,-1.04334,1.90446,1.17427,-0.871978,-0.922154,0.972361,0.300653,0.856357,0.640641,0.712098,0.867039,-0.922154,0.972361,0.300653,0.856357,0.640641,0.712098,0.867039,0.472094,-0.492397,0.738561,0.628748,0.128269,0.17422,0.746907,-0.79744,-0.284381,0.907152,2.59713,-0.469314,0.802993,-3.24092,0.176406,3.91679,-3.28639,0.148537,4.00907,-0.643169,0.760176,0.400577,0.474341,0.582011,0.415817,0.579004,1
1.6365,-0.910737,-1.80489,-0.996268,1.97429,1.21882,-0.808081,1.64006,-0.921684,-1.81494,-0.997018,1.96217,1.21392,-0.814749,1.69436,-0.987248,-1.85208,-1.03587,1.91198,1.17992,-0.863738,-0.96785,1.02934,0.678443,0.73813,0.937272,0.501871,0.882953,-0.96785,1.02934,0.678443,0.73813,0.937272,0.501871,0.882953,0.463878,-0.494543,0.747978,0.631338,0.121377,0.169925,0.746863,-0.810103,-0.190542,1.02567,2.56447,-0.467617,0.841659,-3.26586,0.169739,3.86664,-3.28255,0.155306,3.90484,-0.578607,0.765107,0.471832,0.396049,0.623098,0.388983,0.556563,1
1.62856,-0.900791,-1.79859,-0.989651,1.98137,1.22516,-0.799964,1.63513,-0.910733,-1.80628,-0.994524,1.97315,1.21966,-0.807551,1.68498,-0.977065,-1.8458,-1.02898,1.92034,1.18475,-0.855463,-1.02219,1.12814,0.656022,0.727634,0.845474,0.522447,0.875853,-1.02219,1.12814,0.656022,0.727634,0.845474,0.522447,0.875853,0.455408,-0.496041,0.758091,0.633572,0.114259,0.165305,0.747131,-0.84202,-0.143892,1.06047,2.53216,-0.466711,0.879727,-3.23155,0.0905275,3.80681,-3.27635,0.153636,3.80577,-0.564155,0.762746,0.472167,0.39327,0.610349,0.40409,0.554991,1
1.62158,-0.888247,-1.79147,-0.982298,1.98969,1.23543,-0.790399,1.6288,-0.900141,-1.79838,-0.989467,1.98168,1.22614,-0.799602,1.67504,-0.964815,-1.83898,-1.02191,1.92959,1.1912,-0.846457,-0.93156,1.1486,0.640095,0.66284,0.867541,0.604936,0.844387,-0.93156,1.1486,0.640095,0.66284,0.867541,0.604936,0.844387,0.446142,-0.496542,0.769574,0.635655,0.105484,0.160742,0.747649,-0.796721,-0.049422,1.04391,2.49959,-0.465173,0.916898,-3.25685,0.153801,3.71707,-3.26531,0.151681,3.71224,-0.534664,0.765685,0.47501,0.396103,0.600982,0.442314,0.560578,1
1.61597,-0.876268,-1.78474,-0.976289,1.99946,1.24534,-0.781754,1.62192,-0.888388,-1.79157,-0.982634,1.99005,1.23534,-0.790629,1.66621,-0.952852,-1.83174,-1.01585,1.93923,1.1975,-0.837851,-0.827826,1.12165,0.678156,0.567952,0.903441,0.590296,0.806897,-0.827826,1.12165,0.678156,0.567952,0.903441,0.590296,0.806897,0.437612,-0.496059,0.780646,0.636859,0.0967827,0.156196,0.748763,-0.7266,0.0397177,1.00693,2.46664,-0.463857,0.952486,-3.29475,0.131673,3.5588,-3.25959,0.146522,3.62084,-0.502398,0.76584,0.470068,0.395621,0.602268,0.478476,0.560967,1
1.60807,-0.865701,-1.77868,-0.970104,2.00812,1.25176,-0.774292,1.6154,-0.876621,-1.78491,-0.976245,1.99918,1.24447,-0.78205,1.65859,-0.942291,-1.82518,-1.01054,1.94773,1.20316,-0.830215,-0.793415,1.12246,0.713629,0.561161,0.904027,0.611993,0.815227,-0.793415,1.12246,0.713629,0.561161,0.904027,0.611993,0.815227,0.430124,-0.495265,0.790365,0.637667,0.0889108,0.152274,0.749859,-0.713444,0.0869023,1.00772,2.43381,-0.462488,0.987197,-3.28341,0.136849,3.47115,-3.26095,0.139742,3.52979,-0.50522,0.765901,0.465067,0.404359,0.603816,0.485966,0.559226,1
1.5992,-0.853676,-1.77137,-0.963907,2.01663,1.25874,-0.765528,1.60783,-0.865336,-1.77836,-0.970101,2.00808,1.2519,-0.773967,1.65048,-0.930368,-1.81775,-1.00437,1.9571,1.21028,-0.821458,-0.760558,1.11793,0.697159,0.578746,0.877669,0.667416,0.820995,-0.760558,1.11793,0.697159,0.578746,0.877669,0.667416,0.820995,0.421761,-0.493842,0.801282,0.638247,0.0794897,0.148048,0.751268,-0.706701,0.120551,0.994645,2.40142,-0.460763,1.02124,-3.23825,0.172544,3.40471,-3.26417,0.138449,3.43782,-0.512845,0.766914,0.46374,0.404596,0.59537,0.484624,0.559305,1
1.59228,-0.842884,-1.76447,-0.958603,2.02385,1.26455,-0.757144,1.59969,-0.853984,-1.77147,-0.96413,2.01631,1.25845,-0.765623,1.6434,-0.919699,-1.81117,-0.998809,1.96546,1.21689,-0.813631,-0.745631,1.14719,0.699519,0.600882,0.898012,0.7343,0.84101,-0.745631,1.14719,0.699519,0.600882,0.898012,0.7343,0.84101,0.414309,-0.492272,0.810924,0.638582,0.0708708,0.144419,0.752551,-0.715332,0.157677,1.00851,2.36811,-0.459807,1.05383,-3.33116,0.0955284,3.25866,-3.27259,0.135751,3.33518,-0.511186,0.768149,0.467065,0.402054,0.583911,0.476517,0.564872,1
1.58456,-0.831902,-1.75809,-0.953426,2.03225,1.27044,-0.74851,1.59208,-0.842837,-1.7646,-0.958635,2.02414,1.26457,-0.757081,1.63632,-0.908844,-1.80459,-0.993096,1.97396,1.22387,-0.805695,-0.758569,1.15857,0.69846,0.612335,0.908505,0.74647,0.844909,-0.758569,1.15857,0.69846,0.612335,0.908505,0.74647,0.844909,0.406735,-0.490423,0.820604,0.638782,0.0619284,0.140873,0.753842,-0.728036,0.175741,1.0069,2.33506,-0.458729,1.08498,-3.30496,0.107828,3.11536,-3.28374,0.134901,3.22285,-0.517604,0.769421,0.46505,0.3967,0.582855,0.465731,0.571855,1
1.57641,-0.82085,-1.75147,-0.948841,2.0414,1.27609,-0.740172,1.58445,-0.831885,-1.75803,-0.953574,2.03244,1.27038,-0.748584,1.62906,-0.897886,-1.79798,-0.987308,1.98248,1.23084,-0.797697,-0.782115,1.16907,0.705949,0.617194,0.900893,0.735206,0.854094,-0.782115,1.16907,0.705949,0.617194,0.900893,0.735206,0.854094,0.39904,-0.488392,0.830245,0.638906,0.0528777,0.13747,0.755053,-0.740555,0.193446,1.004,2.30238,-0.457466,1.11508,-3.26822,0.126293,3.00927,-3.2874,0.128776,3.10775,-0.52648,0.770364,0.465158,0.384663,0.589221,0.452542,0.575241,1
1.56892,-0.808625,-1.7438,-0.944131,2.05125,1.28323,-0.730962,1.57657,-0.820557,-1.7512,-0.94881,2.04157,1.27646,-0.739954,1.62088,-0.885709,-1.7906,-0.980965,1.99169,1.2383,-0.788712,-0.766905,1.14166,0.692333,0.594638,0.864147,0.699546,0.842311,-0.766905,1.14166,0.692333,0.594638,0.864147,0.699546,0.842311,0.390511,-0.485892,0.84078,0.638873,0.0428995,0.133978,0.75634,-0.7198,0.214123,0.965885,2.26988,-0.455871,1.14455,-3.25017,0.159511,2.94746,-3.28392,0.128694,2.99892,-0.519537,0.770846,0.468009,0.368338,0.595584,0.449311,0.577505,1
1.56156,-0.796626,-1.73588,-0.94029,2.0612,1.2887,-0.721493,1.56895,-0.808681,-1.74373,-0.944349,2.05128,1.28281,-0.730897,1.61282,-0.873803,-1.78339,-0.974906,2.00071,1.24539,-0.779836,-0.755468,1.11626,0.675463,0.56806,0.844953,0.665322,0.832216,-0.755468,1.11626,0.675463,0.56806,0.844953,0.665322,0.832216,0.382219,-0.483205,0.850883,0.638626,0.0332292,0.130761,0.757598,-0.700234,0.230929,0.928152,2.23723,-0.453974,1.1734,-3.26469,0.189671,2.88441,-3.28052,0.13452,2.89449,-0.512587,0.771773,0.475177,0.346164,0.604981,0.433075,0.583427,1
1.55397,-0.784775,-1.72772,-0.93716,2.07153,1.29276,-0.712039,1.5615,-0.796663,-1.73582,-0.940468,2.0613,1.28835,-0.721497,1.6048,-0.862025,-1.77627,-0.969134,2.00975,1.25227,-0.771014,-0.751684,1.10427,0.667553,0.541207,0.847568,0.644317,0.827102,-0.751684,1.10427,0.667553,0.541207,0.847568,0.644317,0.827102,0.374082,-0.480302,0.860671,0.63815,0.0237513,0.12772,0.758873,-0.687017,0.250641,0.900787,2.20487,-0.45241,1.20096,-3.23567,0.156388,2.75635,-3.27354,0.141359,2.79229,-0.508324,0.772507,0.485523,0.319739,0.617793,0.404931,0.589747,1
1.54604,-0.773983,-1.72021,-0.935097,2.08085,1.29338,-0.703481,1.55389,-0.785039,-1.72788,-0.937427,2.07128,1.2919,-0.712263,1.59766,-0.851457,-1.76985,-0.964114,2.01793,1.25837,-0.76308,-0.764479,1.13908,0.695453,0.526336,0.888084,0.651024,0.856982,-0.764479,1.13908,0.695453,0.526336,0.888084,0.651024,0.856982,0.366873,-0.477447,0.869295,0.6375,0.01527,0.125113,0.760071,-0.692404,0.288006,0.911661,2.1725,-0.451135,1.22745,-3.23787,0.127521,2.649,-3.25847,0.15052,2.69687,-0.516209,0.774744,0.496433,0.290173,0.629286,0.350183,0.595988,1
1.5399,-0.761582,-1.71062,-0.934005,2.09142,1.29437,-0.693697,1.54649,-0.77358,-1.71969,-0.93534,2.08116,1.29348,-0.703174,1.58967,-0.839337,-1.76232,-0.958884,2.02752,1.265,-0.753882,-0.749893,1.13636,0.705802,0.490391,0.899433,0.621815,0.86237,-0.749893,1.13636,0.705802,0.490391,0.899433,0.621815,0.86237,0.358901,-0.473792,0.878944,0.636289,0.00576938,0.12223,0.761684,-0.670524,0.31968,0.890729,2.14023,-0.449889,1.25315,-3.22609,0.124592,2.57009,-3.24733,0.152292,2.60589,-0.497621,0.777547,0.517068,0.248789,0.638998,0.293752,0.601845,1
1.53522,-0.74934,-1.70038,-0.940083,2.10219,1.28973,-0.683189,1.54027,-0.761622,-1.71045,-0.935797,2.09147,1.29296,-0.693516,1.58175,-0.827326,-1.7547,-0.954137,2.0372,1.27095,-0.744676,-0.742009,1.12606,0.714267,0.444988,0.907476,0.557955,0.863111,-0.742009,1.12606,0.714267,0.444988,0.907476,0.557955,0.863111,0.354822,-0.471751,0.883923,0.635481,0.000957464,0.120758,0.762614,-0.732337,0.37824,0.984989,2.10758,-0.448628,1.27804,-3.26545,0.12612,2.48851,-3.24436,0.14756,2.51473,-0.465333,0.779863,0.543249,0.140546,0.649936,0.187777,0.614868,1
1.53065,-0.738207,-1.69236,-0.931215,2.11279,1.28186,-0.675514,1.53525,-0.749617,-1.70093,-0.936346,2.10215,1.28892,-0.683897,1.57472,-0.816626,-1.74781,-0.950196,2.0459,1.27577,-0.736438,-0.7517,1.14626,0.748819,0.395604,0.939071,0.471512,0.885778,-0.7517,1.14626,0.748819,0.395604,0.939071,0.471512,0.885778,0.348074,-0.468224,0.892096,0.634042,-0.00705612,0.118413,0.764146,-0.567311,0.30975,0.757049,2.07546,-0.447151,1.30147,-3.21174,0.147688,2.34373,-3.23995,0.140617,2.41512,-0.440665,0.784192,0.554435,0.189809,0.668867,0.0608738,0.609239,1
1.52553,-0.726454,-1.68347,-0.937905,2.12242,1.27125,-0.666815,1.53051,-0.738052,-1.69214,-0.935104,2.11254,1.28117,-0.675258,1.56774,-0.805699,-1.7405,-0.946963,2.05491,1.27963,-0.727945,-0.731667,1.17374,0.800166,0.297342,0.973589,0.355204,0.916822,-0.731667,1.17374,0.800166,0.297342,0.973589,0.355204,0.916822,0.341521,-0.464408,0.900207,0.632232,-0.0146956,0.116134,0.765885,-0.550784,0.33835,0.75234,2.04343,-0.445539,1.32379,-3.20354,0.161269,2.2321,-3.23267,0.136902,2.31002,-0.422144,0.792453,0.570324,0.0905857,0.675051,-0.0837607,0.6113,1
1.52648,-0.714976,-1.67456,-0.942275,2.13264,1.26743,-0.658385,1.52705,-0.726523,-1.68347,-0.937325,2.12256,1.27295,-0.666882,1.56108,-0.794539,-1.73274,-0.944558,2.06425,1.2821,-0.719199,-0.687772,1.19622,0.846886,0.21867,1.00912,0.181609,0.940062,-0.687772,1.19622,0.846886,0.21867,1.00912,0.181609,0.940062,0.335473,-0.460081,0.908208,0.629745,-0.0217683,0.113968,0.768087,-0.506397,0.388035,0.742848,2.01145,-0.444045,1.34523,-3.19824,0.149328,2.14393,-3.2257,0.139383,2.20654,-0.345954,0.795629,0.581798,0.0228267,0.683856,-0.146718,0.608142,1
1.52072,-0.70349,-1.66702,-0.939079,2.14328,1.26011,-0.649192,1.5248,-0.714974,-1.6749,-0.940384,2.13274,1.26655,-0.658194,1.55481,-0.783243,-1.72467,-0.942596,2.07386,1.2827,-0.710375,-0.646915,1.2034,0.866116,0.199485,1.03024,-0.0406557,0.93514,-0.646915,1.2034,0.866116,0.199485,1.03024,-0.0406557,0.93514,0.330058,-0.45531,0.916117,0.626618,-0.0280308,0.111878,0.770744,-0.451419,0.433104,0.734806,1.97933,-0.442723,1.36629,-3.2117,0.132254,2.10596,-3.2187,0.142912,2.10876,-0.340849,0.797532,0.576514,0.0351623,0.694263,-0.225892,0.611832,1
1.51677,-0.692111,-1.65934,-0.940632,2.15422,1.25055,-0.641063,1.52117,-0.703517,-1.66698,-0.940266,2.14336,1.25955,-0.649458,1.54902,-0.771892,-1.71646,-0.941199,2.08359,1.28139,-0.701623,-0.58525,1.20815,0.878487,0.103174,1.03779,-0.224978,0.925116,-0.58525,1.20815,0.878487,0.103174,1.03779,-0.224978,0.925116,0.325183,-0.450392,0.923955,0.623233,-0.0332924,0.109846,0.773567,-0.407006,0.4517,0.728592,1.94713,-0.44131,1.38657,-3.22026,0.141251,2.02742,-3.21375,0.145193,2.01616,-0.322508,0.797806,0.571151,0.00567258,0.706298,-0.308481,0.605603,1
1.52787,-0.680834,-1.65213,-0.948416,2.16458,1.24092,-0.633134,1.52053,-0.692137,-1.65946,-0.94219,2.15408,1.25053,-0.641113,1.5439,-0.760499,-1.70815,-0.940702,2.09341,1.27877,-0.692918,-0.508568,1.21236,0.88548,0.0084737,1.04751,-0.325436,0.924695,-0.508568,1.21236,0.88548,0.0084737,1.04751,-0.325436,0.924695,0.321144,-0.445119,0.931508,0.619324,-0.0375038,0.10802,0.776765,-0.335586,0.488623,0.702203,1.91492,-0.439685,1.40545,-3.22084,0.162509,1.88825,-3.20987,0.147595,1.92475,-0.160281,0.796653,0.560235,-0.0771431,0.711725,-0.378564,0.597836,1
1.52939,-0.669846,-1.64533,-0.951582,2.17614,1.22816,-0.625673,1.52548,-0.680906,-1.65223,-0.947262,2.16488,1.24014,-0.633251,1.53925,-0.749083,-1.69987,-0.940618,2.10336,1.27525,-0.68421,-0.481345,1.21344,0.875678,0.00935046,1.06521,-0.418089,0.925467,-0.481345,1.21344,0.875678,0.00935046,1.06521,-0.418089,0.925467,0.317895,-0.439404,0.938762,0.614779,-0.0410306,0.106378,0.780415,-0.266039,0.532047,0.674323,1.88275,-0.438471,1.423,-3.21708,0.121403,1.75521,-3.21247,0.14458,1.83297,-0.0986272,0.792367,0.545321,-0.109648,0.727812,-0.470861,0.58537,1
1.5265,-0.658402,-1.64269,-0.952143,2.18663,1.21927,-0.617243,1.52829,-0.669732,-1.64637,-0.950931,2.17587,1.22913,-0.625431,1.53518,-0.737666,-1.69171,-0.940766,2.11346,1.27072,-0.675543,-0.389885,1.21247,0.858869,-0.0379197,1.08153,-0.537552,0.916874,-0.389885,1.21247,0.858869,-0.0379197,1.08153,-0.537552,0.916874,0.314927,-0.433621,0.945905,0.610075,-0.0440753,0.104782,0.784147,-0.242794,0.540803,0.663946,1.85065,-0.437035,1.43998,-3.2097,0.143656,1.69752,-3.2148,0.141779,1.74015,-0.08671,0.792642,0.49021,-0.113772,0.73169,-0.514484,0.582992,1
1.52059,-0.653365,-1.64821,-0.943762,2.19153,1.21399,-0.613828,1.52575,-0.660004,-1.64473,-0.949908,2.18523,1.22017,-0.618497,1.53346,-0.732317,-1.68792,-0.940933,2.11824,1.26834,-0.671497,-0.344056,1.06995,0.757914,-0.0334624,0.954402,-0.474365,0.809099,-0.344056,1.06995,0.757914,-0.0334624,0.954402,-0.474365,0.809099,0.312692,-0.427559,0.952803,0.604907,-0.046385,0.103292,0.788205,-0.179065,0.56979,0.640822,1.81871,-0.435531,1.45602,-3.19424,0.15038,1.60413,-3.21411,0.141997,1.64342,-0.128668,0.789518,0.397104,-0.0282912,0.732932,-0.543568,0.576694,1
1.52925,-0.637407,-1.64093,-0.940112,2.20876,1.20688,-0.604079,1.52423,-0.650635,-1.64501,-0.944945,2.19461,1.21353,-0.612244,1.53129,-0.714927,-1.67607,-0.943343,2.13411,1.25823,-0.658618,-0.079976,1.20356,0.790908,-0.202061,1.11204,-0.774996,0.883787,-0.079976,1.20356,0.790908,-0.202061,1.11204,-0.774996,0.883787,0.311834,-0.420833,0.959283,0.598735,-0.0477823,0.101967,0.792992,-0.0563581,0.635015,0.601372,1.78598,-0.434495,1.47095,-3.27247,0.10362,1.49287,-3.21837,0.138907,1.54068,-0.0203889,0.775201,0.351453,0.032317,0.74648,-0.513477,0.545396,1
1.51514,-0.626688,-1.63824,-0.932867,2.21931,1.20073,-0.59392,1.52356,-0.638717,-1.64207,-0.939213,2.20709,1.20712,-0.603976,1.53033,-0.703787,-1.66931,-0.944902,2.14445,1.25074,-0.650463,-0.122006,1.16596,0.654543,-0.133318,1.08605,-0.814058,0.851253,-0.122006,1.16596,0.654543,-0.133318,1.08605,-0.814058,0.851253,0.311777,-0.413878,0.96543,0.592119,-0.0483518,0.100788,0.798059,0.0126088,0.659508,0.569803,1.75325,-0.433271,1.48434,-3.27355,0.122344,1.33914,-3.22695,0.133711,1.4333,-0.151842,0.770986,0.310679,0.120348,0.748566,-0.500081,0.565425,1
1.50669,-0.620829,-1.64365,-0.934858,2.22363,1.19665,-0.589319,1.51656,-0.627903,-1.64026,-0.935176,2.21775,1.20125,-0.595309,1.52979,-0.698642,-1.66642,-0.94549,2.14924,1.24715,-0.646707,-0.107665,1.0289,0.577604,-0.117647,0.958394,-0.718369,0.751193,-0.107665,1.0289,0.577604,-0.117647,0.958394,-0.718369,0.751193,0.311551,-0.40762,0.971226,0.586275,-0.0483917,0.0998172,0.802481,-0.00838215,0.595335,0.537474,1.72095,-0.431388,1.49699,-3.22933,0.188348,1.26504,-3.23413,0.135117,1.3295,-0.231014,0.778131,0.227666,0.106315,0.743835,-0.505006,0.573877,1
1.48798,-0.60412,-1.6348,-0.924689,2.2388,1.19299,-0.57728,1.50412,-0.618117,-1.64009,-0.931818,2.22634,1.19675,-0.587459,1.52797,-0.682229,-1.65938,-0.944646,2.1649,1.23588,-0.634958,-0.11754,1.15876,0.46083,0.144676,1.12362,-0.76593,0.82506,-0.11754,1.15876,0.46083,0.144676,1.12362,-0.76593,0.82506,0.310963,-0.402079,0.976847,0.581347,-0.0484169,0.0988999,0.80617,-0.0439799,0.527796,0.521798,1.68897,-0.430261,1.50837,-3.19819,0.112703,1.13803,-3.23634,0.136375,1.22301,-0.399925,0.781089,0.245819,0.199568,0.739067,-0.428893,0.576782,1
1.4735,-0.591811,-1.63079,-0.925887,2.24746,1.18649,-0.566452,1.48904,-0.60522,-1.63601,-0.927531,2.23717,1.19228,-0.577583,1.52617,-0.671334,-1.65534,-0.94297,2.17548,1.22883,-0.627087,-0.256104,1.15657,0.401433,0.207555,1.12562,-0.734518,0.846241,-0.256104,1.15657,0.401433,0.207555,1.12562,-0.734518,0.846241,0.309987,-0.396593,0.982758,0.576616,-0.048859,0.09778,0.80967,-0.0770647,0.522397,0.549087,1.65682,-0.428501,1.51936,-3.2156,0.175965,1.09931,-3.23572,0.140171,1.1175,-0.526752,0.795232,0.245463,0.170824,0.719743,-0.423359,0.606347,1
1.47257,-0.581955,-1.62089,-0.928618,2.25889,1.1799,-0.558,1.47689,-0.592424,-1.62932,-0.926271,2.24815,1.18647,-0.567046,1.52259,-0.660577,-1.65198,-0.940851,2.18584,1.2222,-0.619135,-0.491615,1.13073,0.316833,0.240555,1.07851,-0.677645,0.843537,-0.491615,1.13073,0.316833,0.240555,1.07851,-0.677645,0.843537,0.308327,-0.391658,0.988623,0.572562,-0.049368,0.0967328,0.812637,-0.141365,0.470354,0.545064,1.62581,-0.427859,1.52905,-3.1002,0.0641614,0.968468,-3.21889,0.135757,1.0141,-0.500109,0.786217,0.310914,0.122329,0.73049,-0.423005,0.611353,1
1.46129,-0.571145,-1.6161,-0.921939,2.26945,1.1695,-0.549091,1.46998,-0.581717,-1.62217,-0.926266,2.25867,1.17895,-0.557886,1.51673,-0.649669,-1.64887,-0.938349,2.19607,1.21605,-0.610968,-0.737464,1.1837,0.342536,0.288098,1.0945,-0.632871,0.889061,-0.737464,1.1837,0.342536,0.288098,1.0945,-0.632871,0.889061,0.305765,-0.387628,0.994224,0.569703,-0.049831,0.0959757,0.814705,-0.228124,0.384286,0.521167,1.59407,-0.426541,1.53798,-3.17419,0.131866,0.893688,-3.19549,0.134185,0.917502,-0.554402,0.785247,0.327763,0.164103,0.733777,-0.465455,0.618768,1
1.45031,-0.559359,-1.61055,-0.921584,2.27928,1.1599,-0.539913,1.46137,-0.570901,-1.61591,-0.92352,2.26927,1.1697,-0.549024,1.50918,-0.638334,-1.64524,-0.935808,2.20645,1.21011,-0.602345,-0.859845,1.22259,0.424027,0.253992,1.11042,-0.629453,0.940027,-0.859845,1.22259,0.424027,0.253992,1.11042,-0.629453,0.940027,0.302133,-0.383865,1.0001,0.567545,-0.0507076,0.0953528,0.816229,-0.326085,0.357726,0.547501,1.56248,-0.425359,1.54582,-3.15945,0.118163,0.783682,-3.17583,0.127969,0.825409,-0.588616,0.789752,0.346936,0.142241,0.728246,-0.502102,0.624324,1
1.44724,-0.548583,-1.60488,-0.924944,2.29043,1.15434,-0.531611,1.45229,-0.559611,-1.61052,-0.922513,2.27961,1.16091,-0.540132,1.50122,-0.62692,-1.64088,-0.933698,2.21691,1.20399,-0.593461,-0.831855,1.20374,0.498252,0.197912,1.11199,-0.666949,0.947326,-0.831855,1.20374,0.498252,0.197912,1.11199,-0.666949,0.947326,0.298185,-0.379857,1.0061,0.565242,-0.0517194,0.0948253,0.817823,-0.354247,0.379832,0.558479,1.53057,-0.423889,1.55292,-3.19048,0.147006,0.709736,-3.16741,0.122355,0.733259,-0.539862,0.783379,0.360002,0.0875433,0.735188,-0.496511,0.618493,1
1.4439,-0.538414,-1.60159,-0.918672,2.30171,1.14887,-0.524448,1.44717,-0.548734,-1.60547,-0.922536,2.29046,1.15436,-0.531896,1.4933,-0.61565,-1.636,-0.931731,2.2274,1.19737,-0.58455,-0.850359,1.19164,0.535151,0.218656,1.11501,-0.736775,0.946035,-0.850359,1.19164,0.535151,0.218656,1.11501,-0.736775,0.946035,0.294601,-0.375547,1.01195,0.562395,-0.0525233,0.0942313,0.819801,-0.320337,0.409202,0.543561,1.49869,-0.42221,1.55892,-3.18826,0.167859,0.599825,-3.16667,0.128125,0.641165,-0.494032,0.772363,0.344152,0.130593,0.743166,-0.485013,0.601021,1
1.43453,-0.527374,-1.60003,-0.915475,2.31227,1.14132,-0.515548,1.44239,-0.538196,-1.60202,-0.919441,2.30153,1.14835,-0.524014,1.48517,-0.604425,-1.63093,-0.929797,2.23787,1.19021,-0.575647,-0.875597,1.19336,0.543451,0.193963,1.11142,-0.780372,0.94573,-0.875597,1.19336,0.543451,0.193963,1.11142,-0.780372,0.94573,0.291035,-0.371252,1.01779,0.55953,-0.0531024,0.0935464,0.8218,-0.319644,0.40946,0.543028,1.46722,-0.42101,1.56398,-3.14664,0.120002,0.506079,-3.16615,0.130076,0.544706,-0.506416,0.770515,0.309002,0.143217,0.744003,-0.488971,0.600994,1
1.42717,-0.51626,-1.5964,-0.916934,2.32296,1.13493,-0.506295,1.43503,-0.527355,-1.59951,-0.916639,2.3123,1.14161,-0.51546,1.4773,-0.593234,-1.62582,-0.928188,2.24838,1.18296,-0.566823,-0.802175,1.18499,0.541774,0.150515,1.12064,-0.761606,0.930085,-0.802175,1.18499,0.541774,0.150515,1.12064,-0.761606,0.930085,0.287625,-0.366888,1.02351,0.556629,-0.0533833,0.0929691,0.823815,-0.307241,0.416516,0.53076,1.43649,-0.419761,1.56789,-3.07351,0.124964,0.391364,-3.16236,0.137518,0.448619,-0.501256,0.769746,0.294154,0.112542,0.745776,-0.480303,0.605285,1
1.42202,-0.505407,-1.59389,-0.914406,2.33388,1.12973,-0.497796,1.42772,-0.516325,-1.59668,-0.915937,2.32302,1.13523,-0.506483,1.47007,-0.582153,-1.62091,-0.926574,2.25899,1.17593,-0.558171,-0.7371,1.17052,0.50308,0.18996,1.13287,-0.734472,0.909581,-0.7371,1.17052,0.50308,0.18996,1.13287,-0.734472,0.909581,0.28469,-0.362222,1.02899,0.553304,-0.0535899,0.092423,0.8261,-0.263067,0.444477,0.508723,1.40467,-0.41819,1.57182,-3.18166,0.157121,0.392568,-3.15545,0.139746,0.359631,-0.480523,0.767459,0.270202,0.121677,0.748948,-0.46204,0.603753,1
1.41348,-0.494447,-1.59367,-0.910864,2.34451,1.12369,-0.489126,1.42117,-0.50538,-1.59446,-0.914153,2.33381,1.12952,-0.497753,1.46308,-0.571156,-1.61644,-0.924667,2.26967,1.16904,-0.54961,-0.746989,1.16636,0.450778,0.21378,1.13542,-0.730394,0.909409,-0.746989,1.16636,0.450778,0.21378,1.13542,-0.730394,0.909409,0.281914,-0.357514,1.03436,0.54992,-0.0539201,0.0918008,0.828404,-0.247305,0.448118,0.499239,1.37274,-0.416971,1.57443,-3.19297,0.121897,0.261307,-3.15432,0.139336,0.273562,-0.496019,0.767091,0.227729,0.138031,0.748482,-0.453504,0.604843,1
1.41351,-0.489465,-1.59953,-0.920294,2.34956,1.11948,-0.485031,1.41562,-0.495941,-1.59519,-0.914107,2.34312,1.12415,-0.49027,1.45979,-0.566009,-1.61445,-0.923724,2.27468,1.16581,-0.545598,-0.659247,1.02936,0.397829,0.18867,1.00205,-0.644601,0.802589,-0.659247,1.02936,0.397829,0.18867,1.00205,-0.644601,0.802589,0.279145,-0.352929,1.03961,0.546716,-0.0541661,0.0912447,0.830567,-0.247735,0.43654,0.487613,1.34061,-0.415597,1.57578,-3.21358,0.137326,0.135207,-3.15838,0.136343,0.183774,-0.462733,0.76544,0.149235,0.0343018,0.748864,-0.463311,0.605663,1
1.39434,-0.473558,-1.59613,-0.905398,2.36627,1.11546,-0.471669,1.40871,-0.486734,-1.59721,-0.914212,2.35248,1.11953,-0.482714,1.44899,-0.549186,-1.60863,-0.921079,2.29106,1.15558,-0.53234,-0.740772,1.16652,0.377311,0.184444,1.13837,-0.693967,0.921023,-0.740772,1.16652,0.377311,0.184444,1.13837,-0.693967,0.921023,0.27657,-0.348309,1.04465,0.543453,-0.0542396,0.090837,0.832746,-0.231258,0.439363,0.467417,1.30941,-0.414269,1.57576,-3.12008,0.132853,-0.00193119,-3.16012,0.133718,0.0881629,-0.546488,0.756283,0.125037,0.156808,0.752048,-0.401138,0.606714,1
1.3813,-0.461005,-1.60571,-0.916269,2.37509,1.10839,-0.460768,1.39587,-0.474396,-1.59937,-0.91184,2.3643,1.1147,-0.472284,1.44218,-0.538387,-1.60558,-0.919542,2.30161,1.14918,-0.52381,-0.707304,1.1303,0.276834,0.144721,1.10532,-0.666714,0.893152,-0.707304,1.1303,0.276834,0.144721,1.10532,-0.666714,0.893152,0.274122,-0.343666,1.04953,0.540182,-0.0543,0.0905149,0.834902,-0.219851,0.440809,0.453422,1.27828,-0.413023,1.57521,-3.11283,0.124571,-0.0551701,-3.16097,0.134065,-0.00925663,-0.608869,0.773826,-0.00121241,0.0327278,0.734828,-0.407957,0.630426,1
1.37754,-0.452893,-1.61107,-0.919458,2.38671,1.11723,-0.455161,1.38362,-0.462115,-1.60465,-0.914348,2.37579,1.11237,-0.462091,1.4355,-0.527916,-1.60352,-0.918352,2.31189,1.1431,-0.515504,-0.713261,1.09666,0.16803,0.110232,1.08072,-0.627717,0.873142,-0.713261,1.09666,0.16803,0.110232,1.08072,-0.627717,0.873142,0.272048,-0.339266,1.05396,0.537107,-0.0540147,0.0903939,0.836915,-0.188659,0.417684,0.411314,1.24622,-0.411836,1.5739,-3.20526,0.118658,-0.130785,-3.16756,0.131455,-0.106582,-0.579519,0.750231,-0.0754339,-0.0110578,0.748196,-0.258731,0.60343,1
1.36508,-0.443518,-1.6268,-0.910407,2.39638,1.13542,-0.448106,1.37537,-0.452577,-1.61366,-0.916398,2.38623,1.11957,-0.454799,1.42806,-0.517357,-1.60238,-0.917157,2.32226,1.13732,-0.507025,-0.857202,1.144,0.0800919,0.141604,1.11946,-0.602361,0.925114,-0.857202,1.144,0.0800919,0.141604,1.11946,-0.602361,0.925114,0.270176,-0.335234,1.05796,0.534388,-0.0534264,0.0904518,0.838685,-0.173213,0.382712,0.37129,1.21399,-0.410162,1.57105,-3.22299,0.167403,-0.285494,-3.16927,0.131869,-0.214038,-0.629877,0.738392,-0.244241,0.0675067,0.741268,-0.0189764,0.589192,1
1.35756,-0.432598,-1.63148,-0.910738,2.40634,1.15367,-0.439083,1.36631,-0.443132,-1.62404,-0.912752,2.39646,1.13544,-0.447614,1.4195,-0.506411,-1.60234,-0.916276,2.33291,1.13204,-0.498143,-0.955532,1.17956,-0.0616744,0.0513282,1.14195,-0.523946,0.960016,-0.955532,1.17956,-0.0616744,0.0513282,1.14195,-0.523946,0.960016,0.267857,-0.331474,1.06198,0.53226,-0.052834,0.09069,0.84005,-0.216037,0.356517,0.373625,1.18231,-0.409607,1.56741,-3.16805,0.0555664,-0.3636,-3.17031,0.126405,-0.315645,-0.619468,0.738134,-0.291434,0.0553769,0.734322,0.216235,0.590593,1
1.35873,-0.430569,-1.64165,-0.904351,2.41073,1.16961,-0.437817,1.35973,-0.434821,-1.63285,-0.909059,2.40495,1.15309,-0.441022,1.41529,-0.501206,-1.60261,-0.916049,2.33795,1.12973,-0.493907,-0.843294,1.04101,-0.05443,0.0452992,1.00781,-0.462403,0.847252,-0.843294,1.04101,-0.05443,0.0452992,1.00781,-0.462403,0.847252,0.265654,-0.327922,1.06558,0.530524,-0.0519222,0.0913487,0.841132,-0.209377,0.334948,0.335002,1.15108,-0.40798,1.5627,-3.12299,0.162703,-0.470769,-3.16797,0.125132,-0.41463,-0.565533,0.706377,-0.39044,0.116981,0.727823,0.398765,0.560893,1
1.33396,-0.412198,-1.66256,-0.939121,2.41808,1.1713,-0.422839,1.35224,-0.426483,-1.64434,-0.914641,2.41147,1.16604,-0.434389,1.40174,-0.48489,-1.60728,-0.91573,2.35425,1.12842,-0.480833,-0.94341,1.11203,-0.446192,0.0792957,1.12405,0.186897,0.884632,-0.94341,1.11203,-0.446192,0.0792957,1.12405,0.186897,0.884632,0.263519,-0.324746,1.06854,0.529269,-0.0515743,0.0922668,0.841844,-0.201555,0.294825,0.275949,1.1197,-0.406471,1.55725,-3.13884,0.150925,-0.544918,-3.16937,0.12754,-0.510806,-0.677826,0.726914,-0.552768,-0.23391,0.638345,0.428782,0.579939,1
1.34133,-0.412268,-1.66583,-0.962,2.42066,1.18845,-0.424564,1.34199,-0.416808,-1.65815,-0.936149,2.41689,1.17516,-0.427015,1.39758,-0.479983,-1.60925,-0.91538,2.35921,1.12924,-0.47693,-0.832517,0.981313,-0.393744,0.0699748,0.991925,0.164928,0.780648,-0.832517,0.981313,-0.393744,0.0699748,0.991925,0.164928,0.780648,0.260639,-0.321902,1.07126,0.528789,-0.0530262,0.0933408,0.841937,-0.261167,0.255507,0.256278,1.08804,-0.404991,1.55056,-3.16583,0.147995,-0.669932,-3.16674,0.132187,-0.612875,-0.562432,0.677145,-0.565739,-0.466204,0.614519,0.592066,0.523658,1
1.33677,-0.405103,-1.67672,-0.9551,2.42244,1.1994,-0.423424,1.33835,-0.41046,-1.66773,-0.954556,2.42046,1.1869,-0.423848,1.3892,-0.469993,-1.61447,-0.913982,2.36932,1.13452,-0.468987,-0.784883,0.936611,-0.489462,0.131099,0.948645,0.494599,0.744668,-0.784883,0.936611,-0.489462,0.131099,0.948645,0.494599,0.744668,0.257282,-0.31914,1.07376,0.528669,-0.0561614,0.094587,0.84167,-0.296149,0.239812,0.238307,1.05686,-0.403713,1.54275,-3.11807,0.127739,-0.780118,-3.15227,0.135178,-0.716381,-0.524322,0.6489,-0.62251,-0.411184,0.531195,0.648794,0.455631,1
1.32053,-0.385463,-1.68718,-0.969387,2.44209,1.19283,-0.411984,1.33385,-0.401984,-1.67661,-0.960397,2.42691,1.19502,-0.420849,1.37644,-0.45525,-1.62543,-0.916715,2.38314,1.14545,-0.457301,-0.917357,1.02372,-0.871217,-0.517519,0.898695,0.791304,0.806543,-0.917357,1.02372,-0.871217,-0.517519,0.898695,0.791304,0.806543,0.254493,-0.316592,1.07545,0.52879,-0.0591133,0.0964795,0.841177,-0.247804,0.214915,0.163144,1.02594,-0.402346,1.53437,-3.09194,0.136679,-0.838149,-3.13619,0.136516,-0.812453,-0.559158,0.697873,-0.617429,-0.526724,0.589513,0.473825,0.453173,1
1.31711,-0.375689,-1.69506,-0.983913,2.45308,1.18455,-0.408448,1.32373,-0.387929,-1.68653,-0.969447,2.43993,1.1924,-0.41396,1.36839,-0.446001,-1.6338,-0.923177,2.39102,1.1534,-0.45023,-0.800124,0.94648,-0.90375,-0.835632,0.783873,0.892065,0.702569,-0.800124,0.94648,-0.90375,-0.835632,0.783873,0.892065,0.702569,0.253515,-0.314254,1.07553,0.528792,-0.0599406,0.0995655,0.840757,-0.0989894,0.19271,0.0113941,0.994923,-0.401704,1.52507,-3.10137,0.0642091,-0.92994,-3.12608,0.134755,-0.907776,-0.512875,0.703118,-0.612656,-0.607362,0.620551,0.311498,0.417819,1
1.30997,-0.369535,-1.70482,-0.992992,2.46137,1.18441,-0.402282,1.31618,-0.376594,-1.69553,-0.982551,2.45241,1.18659,-0.40779,1.36122,-0.437143,-1.64235,-0.930804,2.39829,1.16176,-0.444042,-0.728835,0.936296,-0.912502,-0.788075,0.76204,0.885589,0.617634,-0.728835,0.936296,-0.912502,-0.788075,0.76204,0.885589,0.617634,0.253931,-0.311981,1.07443,0.528394,-0.0598393,0.103129,0.840585,0.0223306,0.185349,-0.0992466,0.964224,-0.400334,1.51475,-3.06998,0.137013,-1.03182,-3.11509,0.125404,-1.0014,-0.512472,0.676086,-0.624733,-0.621876,0.630793,0.226501,0.417596,1
1.30999,-0.370173,-1.71075,-0.997213,2.46414,1.20136,-0.404235,1.31176,-0.371233,-1.70386,-0.991777,2.45999,1.18868,-0.404312,1.358,-0.433012,-1.64637,-0.934281,2.40166,1.16567,-0.441316,-0.643164,0.826239,-0.805241,-0.69544,0.672466,0.781492,0.545034,-0.643164,0.826239,-0.805241,-0.69544,0.672466,0.781492,0.545034,0.254383,-0.309714,1.07338,0.528257,-0.059871,0.1066,0.840236,0.0266381,0.185309,-0.0947457,0.933076,-0.398968,1.50349,-3.1148,0.13659,-1.12638,-3.10507,0.120816,-1.0949,-0.480116,0.628386,-0.643789,-0.629321,0.624819,0.356872,0.370816,1
1.30247,-0.348829,-1.72255,-1.00101,2.4792,1.22287,-0.3973,1.30811,-0.364678,-1.71222,-0.997108,2.46721,1.2025,-0.402013,1.3464,-0.417582,-1.65999,-0.946818,2.41509,1.17335,-0.432037,-0.8048,1.09153,-0.946475,-0.951594,0.993739,0.35256,0.64569,-0.8048,1.09153,-0.946475,-0.951594,0.993739,0.35256,0.64569,0.255113,-0.30737,1.07252,0.528277,-0.0586283,0.109939,0.83988,0.0443158,0.198261,-0.0778631,0.902208,-0.397805,1.4914,-3.08675,0.116336,-1.20867,-3.09558,0.118068,-1.18427,-0.439336,0.68753,-0.625626,-0.54194,0.641063,0.495217,0.347366,1
1.29738,-0.341852,-1.73363,-1.00934,2.48593,1.23278,-0.393409,1.30308,-0.352421,-1.72237,-1.00214,2.47712,1.21997,-0.398061,1.3392,-0.407886,-1.66883,-0.955806,2.42424,1.17652,-0.426265,-0.730585,0.976076,-0.932956,-0.957927,0.952177,0.323881,0.584618,-0.730585,0.976076,-0.932956,-0.957927,0.952177,0.323881,0.584618,0.25657,-0.305281,1.07143,0.528108,-0.0556442,0.1129,0.839797,0.101992,0.183574,-0.102877,0.87162,-0.396643,1.47843,-3.05885,0.116155,-1.2977,-3.08935,0.117959,-1.27321,-0.418141,0.660334,-0.648015,-0.535325,0.616987,0.562586,0.328555,1
1.28524,-0.340036,-1.74411,-1.02648,2.49588,1.22757,-0.401651,1.29562,-0.343143,-1.73348,-1.01154,2.48673,1.229,-0.396443,1.3327,-0.399008,-1.67756,-0.964389,2.43299,1.18083,-0.421139,-0.654887,0.914225,-0.922948,-0.871299,0.911241,0.576929,0.509323,-0.654887,0.914225,-0.922948,-0.871299,0.911241,0.576929,0.509323,0.258121,-0.303843,1.07001,0.528022,-0.0523695,0.115367,0.839727,0.110212,0.127345,-0.13357,0.840414,-0.395339,1.46464,-3.12055,0.130421,-1.37904,-3.08997,0.12026,-1.36374,-0.474602,0.589717,-0.665523,-0.620918,0.62883,0.467344,0.194875,1
1.26919,-0.33284,-1.7532,-1.03687,2.50519,1.20869,-0.399161,1.28426,-0.338691,-1.74376,-1.02479,2.49572,1.22415,-0.398968,1.32667,-0.389974,-1.68642,-0.972218,2.44173,1.18768,-0.416444,-0.628225,1.00004,-0.957396,-0.796929,0.942452,0.859859,0.489534,-0.628225,1.00004,-0.957396,-0.796929,0.942452,0.859859,0.489534,0.259171,-0.30241,1.0686,0.528063,-0.0505739,0.117691,0.839488,0.0738665,0.122497,-0.130655,0.808997,-0.393894,1.44983,-3.14173,0.144467,-1.48095,-3.09591,0.127658,-1.4537,-0.57479,0.571337,-0.667762,-0.646519,0.634672,0.210148,0.172832,1
1.25999,-0.321071,-1.76148,-1.04658,2.51112,1.20518,-0.386953,1.2709,-0.331697,-1.753,-1.0367,2.50435,1.21253,-0.396731,1.32057,-0.380577,-1.69568,-0.979942,2.45068,1.19588,-0.412187,-0.664575,0.996892,-1.00673,-0.841527,0.960046,0.881894,0.41929,-0.664575,0.996892,-1.00673,-0.841527,0.960046,0.881894,0.41929,0.259761,-0.30027,1.06747,0.528146,-0.0504471,0.120348,0.839067,0.04104,0.179805,-0.10251,0.777952,-0.392395,1.43338,-3.10451,0.149956,-1.64523,-3.10274,0.130111,-1.55084,-0.605867,0.595059,-0.657968,-0.666377,0.604354,0.0929505,0.252343,1
1.2552,-0.315693,-1.77201,-1.05561,2.5194,1.2326,-0.382102,1.26109,-0.322669,-1.76204,-1.04641,2.51171,1.21291,-0.388792,1.31372,-0.371774,-1.70525,-0.988489,2.45971,1.20264,-0.409001,-0.784403,0.880949,-1.02562,-0.966732,0.958787,0.572906,0.267177,-0.784403,0.880949,-1.02562,-0.966732,0.958787,0.572906,0.267177,0.260307,-0.298466,1.06612,0.528753,-0.0501341,0.122939,0.838328,0.0347075,0.149473,-0.123669,0.748085,-0.391379,1.4161,-2.98666,0.101554,-1.72726,-3.09324,0.12977,-1.65294,-0.585216,0.560803,-0.667636,-0.671249,0.596887,0.29962,0.268994,1
1.25848,-0.325251,-1.78273,-1.06091,2.53062,1.26123,-0.390109,1.25722,-0.319427,-1.77206,-1.05468,2.52014,1.2329,-0.385317,1.30563,-0.363634,-1.71485,-0.997919,2.46869,1.20603,-0.406519,-0.924886,0.85045,-1.0157,-1.03272,0.94941,0.17313,0.260642,-0.924886,0.85045,-1.0157,-1.03272,0.94941,0.17313,0.260642,0.261057,-0.298204,1.06416,0.530566,-0.0476824,0.124815,0.837047,0.0397493,0.0186868,-0.182637,0.717073,-0.389883,1.39855,-3.10119,0.149593,-1.75568,-3.08906,0.132988,-1.75174,-0.471481,0.383827,-0.678741,-0.629918,0.619241,0.55193,0.164099,1
1.27729,-0.320348,-1.79088,-1.06711,2.54346,1.26677,-0.410046,1.26236,-0.321636,-1.78209,-1.06114,2.53102,1.25546,-0.393092,1.2968,-0.355509,-1.72435,-1.00764,2.47744,1.20752,-0.403421,-0.950862,0.874491,-1.00357,-1.03249,0.912445,0.143737,0.38956,-0.950862,0.874491,-1.00357,-1.03249,0.912445,0.143737,0.38956,0.261996,-0.298981,1.06201,0.533146,-0.043001,0.126262,0.835443,0.0424093,-0.0663434,-0.204126,0.685584,-0.388663,1.37968,-3.14888,0.122058,-1.88644,-3.09178,0.133457,-1.85052,-0.195076,0.351604,-0.665321,-0.594761,0.660131,0.59256,-0.0662475,1
1.25226,-0.316273,-1.80207,-1.08006,2.54857,1.25951,-0.412701,1.26633,-0.320555,-1.79164,-1.0688,2.54153,1.26357,-0.405725,1.28844,-0.347864,-1.73387,-1.01719,2.48601,1.21106,-0.399777,-0.831556,0.757235,-1.01698,-0.998413,0.90864,0.581672,0.385066,-0.831556,0.757235,-1.01698,-0.998413,0.90864,0.581672,0.385066,0.262893,-0.299733,1.05988,0.535405,-0.03812,0.127852,0.833992,0.0369566,-0.0638777,-0.201889,0.654261,-0.387091,1.35992,-3.13234,0.157183,-1.97566,-3.09344,0.134712,-1.94735,-0.361853,0.315904,-0.682058,-0.628758,0.625588,0.484528,-0.129238,1
1.22303,-0.364233,-1.81057,-1.08896,2.54953,1.25255,-0.425865,1.25121,-0.329282,-1.8014,-1.07905,2.54753,1.25959,-0.415328,1.28214,-0.341833,-1.74349,-1.02624,2.49484,1.21854,-0.397492,-0.526643,0.537829,-1.02776,-0.929321,0.96351,0.983039,0.117174,-0.526643,0.537829,-1.02776,-0.929321,0.96351,0.983039,0.117174,0.263185,-0.300615,1.05748,0.537157,-0.0352704,0.129138,0.832792,-0.00404006,-0.0818887,-0.224889,0.623815,-0.385756,1.33899,-3.04459,0.133505,-2.0939,-3.09081,0.134785,-2.04231,-0.591053,-0.223997,-0.670811,-0.627177,0.546873,0.340132,-0.283733,1
1.22356,-0.370523,-1.8197,-1.09455,2.55276,1.26856,-0.427065,1.23047,-0.353815,-1.81073,-1.08813,2.5501,1.2583,-0.422874,1.27864,-0.337126,-1.75414,-1.03565,2.50517,1.2285,-0.399313,-0.327888,0.441275,-0.998563,-0.882677,0.968193,0.933863,-0.170755,-0.327888,0.441275,-0.998563,-0.882677,0.968193,0.933863,-0.170755,0.263231,-0.302087,1.0544,0.539183,-0.0346579,0.128995,0.831529,0.0110884,-0.156826,-0.329124,0.592977,-0.384623,1.31708,-3.08385,0.113261,-2.19052,-3.09385,0.133406,-2.13478,-0.550784,-0.333966,-0.655578,-0.588974,0.475928,0.400643,-0.277516,1
1.21285,-0.369433,-1.83483,-1.10362,2.55161,1.2761,-0.413783,1.22075,-0.368678,-1.8212,-1.09542,2.55167,1.26645,-0.423444,1.27414,-0.334486,-1.76358,-1.04419,2.51392,1.23579,-0.40186,-0.610684,0.138589,-1.00701,-0.928268,0.895187,0.633686,-0.358647,-0.610684,0.138589,-1.00701,-0.928268,0.895187,0.633686,-0.358647,0.263317,-0.303472,1.05168,0.541215,-0.0342271,0.12852,0.830299,0.000846313,-0.125704,-0.256992,0.561872,-0.383247,1.29406,-3.1104,0.137606,-2.30253,-3.10214,0.135082,-2.23488,-0.612953,-0.349468,-0.712457,-0.594318,0.376969,0.403123,-0.11923,1
1.19979,-0.389167,-1.84695,-1.11793,2.52001,1.28876,-0.428048,1.21226,-0.374639,-1.83408,-1.10493,2.544,1.27738,-0.42067,1.26663,-0.336218,-1.77305,-1.05297,2.52165,1.2409,-0.405726,-0.962915,-0.468607,-1.0035,-0.936377,0.757443,0.463176,-0.456642,-0.962915,-0.468607,-1.0035,-0.936377,0.757443,0.463176,-0.456642,0.26247,-0.307823,1.04821,0.545464,-0.03173,0.12673,0.82789,-0.0989167,-0.38403,-0.331249,0.530704,-0.382429,1.27034,-3.11686,0.08187,-2.3715,-3.09934,0.127369,-2.33826,-0.668444,-0.529491,-0.739048,-0.649596,-0.0163984,0.478602,-0.223226,1
1.19949,-0.385371,-1.85172,-1.12855,2.52257,1.29969,-0.431177,1.20298,-0.383284,-1.84511,-1.11701,2.52855,1.28833,-0.425264,1.26238,-0.338286,-1.77747,-1.0571,2.525,1.24295,-0.407741,-0.84981,-0.413564,-0.885626,-0.826389,0.668473,0.408771,-0.403004,-0.84981,-0.413564,-0.885626,-0.826389,0.668473,0.408771,-0.403004,0.259611,-0.316931,1.04341,0.551917,-0.0274188,0.122637,0.824376,-0.29553,-0.802033,-0.463095,0.500411,-0.381275,1.24547,-3.02933,0.115332,-2.48709,-3.08778,0.121416,-2.43834,-0.6289,-0.47085,-0.742419,-0.714545,-0.024293,0.567443,-0.234363,1
1.18373,-0.415487,-1.86666,-1.14428,2.52575,1.29657,-0.461669,1.19563,-0.393849,-1.85426,-1.12983,2.52272,1.29618,-0.438018,1.24837,-0.34849,-1.79266,-1.0702,2.53243,1.25158,-0.412325,-0.96147,-0.696323,-1.1029,-0.924829,0.307962,0.687115,-0.222202,-0.96147,-0.696323,-1.1029,-0.924829,0.307962,0.687115,-0.222202,0.255898,-0.327374,1.03805,0.558391,-0.0231862,0.118024,0.820812,-0.372749,-0.921814,-0.518368,0.469382,-0.381174,1.21946,-3.10283,0.0101209,-2.60141,-3.08471,0.103239,-2.53993,-0.64636,-0.669967,-0.739974,-0.740835,-0.0668693,0.449882,-0.493436,1
1.17134,-0.425764,-1.8764,-1.15372,2.51135,1.29567,-0.466913,1.18457,-0.410527,-1.86536,-1.14271,2.52135,1.29712,-0.455357,1.23929,-0.35529,-1.80312,-1.0793,2.53318,1.25857,-0.414711,-0.966924,-0.745463,-1.11823,-1.00407,-0.123196,0.792364,-0.28102,-0.966924,-0.745463,-1.11823,-1.00407,-0.123196,0.792364,-0.28102,0.252249,-0.337327,1.03234,0.564697,-0.0190802,0.114974,0.817028,-0.372183,-0.886417,-0.546531,0.439557,-0.380085,1.1926,-2.98253,0.108856,-2.68576,-3.07652,0.0924353,-2.63929,-0.679508,-0.704735,-0.73281,-0.744147,-0.21823,0.370953,-0.522021,1
1.15883,-0.431823,-1.8865,-1.16287,2.50662,1.28098,-0.463248,1.17131,-0.424709,-1.87649,-1.15365,2.51377,1.29222,-0.464686,1.23039,-0.362724,-1.81348,-1.08915,2.53147,1.26608,-0.418544,-0.925825,-0.828831,-1.08586,-1.0833,-0.232901,0.801531,-0.518571,-0.925825,-0.828831,-1.08586,-1.0833,-0.232901,0.801531,-0.518571,0.248832,-0.347027,1.026,0.571527,-0.0147611,0.113618,0.812545,-0.359596,-0.871751,-0.602287,0.408986,-0.378597,1.16524,-3.05707,0.148845,-2.73595,-3.06401,0.0916324,-2.73331,-0.715641,-0.690997,-0.730151,-0.737175,-0.248522,0.149069,-0.447041,1
1.15376,-0.434941,-1.8919,-1.16682,2.51465,1.27952,-0.460536,1.16069,-0.431088,-1.88532,-1.16157,2.50981,1.28429,-0.463486,1.22631,-0.366381,-1.81827,-1.09393,2.53044,1.26961,-0.420832,-0.817077,-0.731475,-0.958317,-0.956052,-0.205544,0.707383,-0.457659,-0.817077,-0.731475,-0.958317,-0.956052,-0.205544,0.707383,-0.457659,0.245536,-0.35686,1.01911,0.578899,-0.010161,0.11229,0.807566,-0.350027,-0.881593,-0.653868,0.378809,-0.377567,1.13739,-3.01774,0.102976,-2.78516,-3.04814,0.0924749,-2.81815,-0.725518,-0.685598,-0.736254,-0.728898,-0.157883,0.099055,-0.397039,1
1.14077,-0.454179,-1.90806,-1.18317,2.52816,1.29962,-0.474259,1.15178,-0.438971,-1.89459,-1.16992,2.51602,1.28491,-0.464645,1.2117,-0.381852,-1.83431,-1.11047,2.52671,1.27764,-0.432725,-1.07558,-1.1413,-1.12336,-1.14983,-0.344598,0.388311,-0.851137,-1.07558,-1.1413,-1.12336,-1.14983,-0.344598,0.388311,-0.851137,0.241693,-0.368235,1.0114,0.58754,-0.0043895,0.109748,0.801706,-0.405125,-1.00934,-0.735282,0.3491,-0.376085,1.10848,-2.97088,0.148228,-2.89048,-3.03004,0.103656,-2.89985,-0.709274,-0.72327,-0.737542,-0.726981,0.0145128,0.219836,-0.415348,1
1.1336,-0.462736,-1.91831,-1.19755,2.53642,1.31281,-0.485177,1.14222,-0.451509,-1.90658,-1.18267,2.52685,1.2979,-0.473558,1.20152,-0.392082,-1.84467,-1.12095,2.52338,1.27993,-0.439653,-1.08727,-1.03874,-1.0825,-1.08165,-0.361385,0.115981,-0.634676,-1.08727,-1.03874,-1.0825,-1.08165,-0.361385,0.115981,-0.634676,0.237455,-0.380498,1.00322,0.596841,0.00290493,0.107024,0.795184,-0.452234,-1.08146,-0.779825,0.31893,-0.374331,1.07827,-3.01697,0.175366,-3.0212,-3.02055,0.119743,-2.98127,-0.679225,-0.706541,-0.736334,-0.76597,0.130367,0.3288,-0.455231,1
1.1309,-0.46453,-1.92263,-1.20336,2.54627,1.31584,-0.48846,1.13472,-0.461045,-1.91683,-1.1954,2.53682,1.31027,-0.483268,1.19672,-0.396665,-1.84945,-1.12572,2.52179,1.28045,-0.442454,-0.959465,-0.916644,-0.955257,-0.954505,-0.318906,0.102348,-0.560073,-0.959465,-0.916644,-0.955257,-0.954505,-0.318906,0.102348,-0.560073,0.233293,-0.392171,0.995416,0.605303,0.0110946,0.104485,0.78903,-0.449365,-1.02347,-0.741614,0.291693,-0.372589,1.05797,-2.72376,0.174212,-2.03034,-2.97931,0.142053,-2.94957,-0.658237,-0.678653,-0.731809,-0.776334,0.244825,0.353938,-0.460062,1
1.11368,-0.483998,-1.93826,-1.21717,2.52578,1.31754,-0.498672,1.12727,-0.468949,-1.92546,-1.20536,2.53868,1.31551,-0.490192,1.18154,-0.411368,-1.86498,-1.14104,2.52126,1.28337,-0.450441,-1.0471,-1.06897,-1.10799,-1.1087,0.148913,0.386876,-0.615622,-1.0471,-1.06897,-1.10799,-1.1087,0.148913,0.386876,-0.615622,0.228748,-0.403506,0.987824,0.61289,0.0189231,0.101051,0.783452,-0.475913,-0.987566,-0.722035,0.269928,-0.367323,1.06371,-2.17648,0.52667,0.573897,-2.86912,0.191216,-2.55835,-0.678651,-0.726299,-0.732819,-0.761276,0.045225,0.341718,-0.482311,1
1.09797,-0.487935,-1.9494,-1.22353,2.48176,1.32478,-0.504773,1.11406,-0.480115,-1.93714,-1.21531,2.5199,1.31892,-0.497644,1.17196,-0.421368,-1.87538,-1.15175,2.52366,1.28804,-0.456695,-0.991961,-1.05663,-1.10368,-1.16261,0.350246,0.592183,-0.707651,-0.991961,-1.05663,-1.10368,-1.16261,0.350246,0.592183,-0.707651,0.223336,-0.415161,0.979664,0.620361,0.0256706,0.0962512,0.777965,-0.542399,-1.01209,-0.777187,0.248166,-0.361627,1.0691,-2.17615,0.569591,0.539339,-2.70582,0.267488,-1.93677,-0.739986,-0.66567,-0.740164,-0.71783,-0.419054,0.367402,-0.480784,1
1.0887,-0.451119,-1.95551,-1.21564,2.48203,1.32954,-0.484558,1.09958,-0.477746,-1.94814,-1.21997,2.49283,1.32416,-0.498194,1.16759,-0.42603,-1.88025,-1.15688,2.52521,1.29065,-0.459817,-0.875361,-0.932431,-0.973947,-1.02595,0.309076,0.522575,-0.62447,-0.875361,-0.932431,-0.973947,-1.02595,0.309076,0.522575,-0.62447,0.217636,-0.426374,0.971273,0.62753,0.0314326,0.0907599,0.772645,-0.557513,-0.970891,-0.798999,0.226193,-0.355783,1.0743,-2.19734,0.584376,0.52042,-2.53113,0.361711,-1.20922,-0.788829,-0.250888,-0.75256,-0.587666,-0.43182,0.388938,-0.247401,1
1.07127,-0.427122,-1.9695,-1.19085,2.5101,1.27274,-0.479164,1.08666,-0.454324,-1.95748,-1.21142,2.48898,1.31415,-0.488263,1.15343,-0.440763,-1.89576,-1.17321,2.52722,1.29882,-0.470192,-1.04847,-1.04796,-1.10185,-1.12114,-0.194915,0.535265,-0.731072,-1.04847,-1.04796,-1.10185,-1.12114,-0.194915,0.535265,-0.731072,0.212042,-0.436878,0.963007,0.634408,0.0369805,0.0855516,0.767359,-0.545231,-0.90764,-0.785357,0.204502,-0.350076,1.07791,-2.16916,0.570679,0.36068,-2.36713,0.450308,-0.516132,-0.821555,0.13641,-0.737349,-0.176468,-0.171115,-0.260814,-0.089726,1
1.05898,-0.411851,-1.97625,-1.14316,2.53241,1.24701,-0.459607,1.07256,-0.429304,-1.96769,-1.18513,2.50866,1.28051,-0.475623,1.14302,-0.449189,-1.90621,-1.18307,2.52242,1.30389,-0.476329,-1.15676,-0.760483,-1.11674,-0.982706,-0.787866,0.53989,-0.582281,-1.15676,-0.760483,-1.11674,-0.982706,-0.787866,0.53989,-0.582281,0.206276,-0.447276,0.954347,0.642099,0.0433111,0.0823315,0.760957,-0.576198,-0.903922,-0.818117,0.183382,-0.344432,1.08026,-2.112,0.564417,0.235116,-2.2313,0.522373,0.0016357,-0.840324,0.373381,-0.700466,0.399094,0.099988,-0.568774,0.167219,1
1.05441,-0.434115,-1.9792,-1.13532,2.55776,1.25076,-0.447884,1.06091,-0.421235,-1.9753,-1.15312,2.53317,1.25438,-0.461565,1.13791,-0.452545,-1.91113,-1.1874,2.51894,1.30627,-0.478898,-1.02079,-0.671092,-0.985472,-0.867194,-0.695256,0.476429,-0.513837,-1.02079,-0.671092,-0.985472,-0.867194,-0.695256,0.476429,-0.513837,0.200849,-0.455607,0.94674,0.650145,0.0493844,0.0829864,0.753649,-0.561455,-0.736787,-0.711642,0.16203,-0.338321,1.08261,-2.13515,0.611132,0.23526,-2.16338,0.57192,0.213798,-0.835032,0.184301,-0.680693,0.52083,0.388199,-0.555105,0.31014,1
1.03702,-0.379542,-1.98684,-1.14011,2.55355,1.25592,-0.442514,1.05121,-0.414906,-1.98037,-1.13848,2.55037,1.25111,-0.449472,1.12023,-0.450161,-1.92683,-1.19182,2.51188,1.30478,-0.480341,-1.26949,0.555446,-1.08818,0.178326,-0.0857795,-0.646339,0.125646,-1.26949,0.555446,-1.08818,0.178326,-0.0857795,-0.646339,0.125646,0.195951,-0.460459,0.942786,0.657686,0.0544998,0.0860855,0.74637,-0.515589,-0.434776,-0.363164,0.140384,-0.333526,1.08348,-2.1646,0.479412,0.0865698,-2.15613,0.569111,0.129672,-0.832058,0.706188,-0.600151,0.517147,0.416645,-0.488605,0.37827,1
1.02447,-0.385994,-1.99983,-1.14168,2.56346,1.23883,-0.435242,1.03823,-0.394798,-1.98818,-1.1393,2.55708,1.25036,-0.442039,1.10832,-0.444599,-1.93676,-1.18658,2.51405,1.29634,-0.477646,-1.26237,0.622205,-1.02639,0.891035,0.509229,-1.11746,0.428228,-1.26237,0.622205,-1.02639,0.891035,0.509229,-1.11746,0.428228,0.190185,-0.463567,0.943378,0.665442,0.0591854,0.0882659,0.738846,-0.586953,-0.265651,0.0640646,0.126422,-0.336286,1.05536,-1.39617,-0.275937,-2.81227,-2.06901,0.472466,-0.264895,-0.838485,0.586055,-0.630727,0.448974,0.494071,-0.575122,0.424042,1
1.01409,-0.366491,-2.00394,-1.12754,2.56163,1.2332,-0.434835,1.02501,-0.379505,-1.99761,-1.13775,2.56052,1.24169,-0.436958,1.09669,-0.438688,-1.94588,-1.17746,2.5203,1.28667,-0.472668,-1.21123,0.633314,-0.918593,1.03813,0.800747,-0.947093,0.617707,-1.21123,0.633314,-0.918593,1.03813,0.800747,-0.947093,0.617707,0.182476,-0.466742,0.946932,0.673,0.062341,0.0876522,0.73178,-0.743917,-0.257734,0.337445,0.0966062,-0.322158,1.084,-2.98162,1.41281,2.86398,-2.0997,0.497719,-0.245743,-0.825996,0.721963,-0.580545,0.499136,0.413293,-0.534719,0.378332,1
1.00313,-0.358154,-2.00515,-1.13521,2.56731,1.22125,-0.426666,1.01394,-0.369283,-2.00321,-1.133,2.56351,1.23162,-0.432894,1.0851,-0.431064,-1.95443,-1.16893,2.52774,1.27872,-0.466664,-1.2482,0.965728,-0.898768,0.788978,0.781229,-0.755289,0.655741,-1.2482,0.965728,-0.898768,0.788978,0.781229,-0.755289,0.655741,0.174251,-0.469164,0.951351,0.679409,0.0635103,0.085962,0.725934,-0.772765,-0.19162,0.414836,0.0546818,-0.310543,1.07852,-2.21241,0.594413,-0.209546,-2.14402,0.559649,-0.231074,-0.819718,0.729105,-0.507205,0.337241,0.395695,-0.574651,0.39998,1
0.991914,-0.346119,-2.00836,-1.12338,2.57121,1.21361,-0.422246,1.00307,-0.35723,-2.00565,-1.13034,2.56687,1.22233,-0.427603,1.07318,-0.421245,-1.963,-1.1622,2.53464,1.27143,-0.46062,-1.28274,1.1115,-0.921585,0.650875,0.689389,-0.791757,0.630083,-1.28274,1.1115,-0.921585,0.650875,0.689389,-0.791757,0.630083,0.167251,-0.469572,0.956026,0.68523,0.064331,0.0859422,0.720372,-0.661704,-0.0165453,0.440724,0.0337282,-0.304822,1.07475,-2.09536,0.572142,-0.376689,-2.16402,0.593793,-0.229428,-0.812679,0.751263,-0.453615,0.388157,0.365737,-0.578178,0.383732,1
0.979618,-0.336997,-2.01791,-1.11706,2.57664,1.20512,-0.417987,0.991645,-0.346847,-2.00995,-1.12476,2.57159,1.2134,-0.422286,1.06123,-0.410811,-1.97132,-1.15623,2.54071,1.26367,-0.454908,-1.25908,1.10587,-0.849392,0.618746,0.607016,-0.853331,0.586212,-1.25908,1.10587,-0.849392,0.618746,0.607016,-0.853331,0.586212,0.157876,-0.468924,0.963068,0.694104,0.0667145,0.0874215,0.711425,-0.635319,0.0808408,0.490136,0.0120376,-0.299158,1.06974,-2.16905,0.566411,-0.501311,-2.18697,0.634463,-0.228211,-0.81608,0.73814,-0.465927,0.391696,0.35925,-0.58542,0.369215,1
0.967781,-0.327265,-2.0258,-1.11514,2.58042,1.19657,-0.414194,0.979733,-0.336845,-2.0175,-1.11816,2.57623,1.20511,-0.418103,1.04949,-0.400209,-1.97866,-1.15078,2.54615,1.25549,-0.449417,-1.23619,1.1445,-0.718757,0.54438,0.55165,-0.882935,0.580884,-1.23619,1.1445,-0.718757,0.54438,0.55165,-0.882935,0.580884,0.155162,-0.468602,0.965216,0.696754,0.0675168,0.0879274,0.708692,-0.558818,0.078899,0.433422,-0.0087791,-0.293408,1.06306,-2.08167,0.574911,-0.668049,-2.2065,0.66535,-0.240233,-0.817081,0.729441,-0.471449,0.356356,0.342693,-0.589198,0.352231,1
0.96206,-0.329109,-2.03718,-1.11755,2.58353,1.19273,-0.416281,0.96931,-0.330159,-2.02667,-1.11623,2.58025,1.19775,-0.415664,1.04403,-0.395159,-1.98183,-1.14838,2.54858,1.25159,-0.446854,-1.09099,1.01007,-0.634331,0.480436,0.486852,-0.779224,0.512653,-1.09099,1.01007,-0.634331,0.480436,0.486852,-0.779224,0.512653,0.150162,-0.467332,0.969818,0.701857,0.0693638,0.0892816,0.703288,-0.485084,0.135364,0.435795,-0.0305549,-0.288324,1.05693,-2.17758,0.508487,-0.612545,-2.12606,0.56802,-0.646708,-0.819744,0.660496,-0.553535,0.308218,0.349429,-0.588568,0.305728,1
0.943587,-0.317574,-2.05369,-1.10356,2.58984,1.18498,-0.415726,0.958872,-0.325764,-2.03846,-1.11345,2.58433,1.19175,-0.415621,1.02625,-0.378876,-1.99151,-1.14022,2.55632,1.23867,-0.43868,-1.23876,1.11925,-0.692012,0.587277,0.529993,-0.893855,0.547929,-1.23876,1.11925,-0.692012,0.587277,0.529993,-0.893855,0.547929,0.145335,-0.465823,0.974505,0.706772,0.0710895,0.0905777,0.698008,-0.467302,0.157231,0.443312,-0.0510422,-0.283788,1.04963,-2.04873,0.453514,-0.73092,-2.13045,0.549817,-0.727989,-0.826653,0.613021,-0.621806,0.366541,0.335137,-0.536953,0.229533,1
0.937734,-0.319813,-2.05941,-1.10217,2.58689,1.17651,-0.410014,0.946742,-0.321018,-2.05099,-1.10671,2.58752,1.1848,-0.414437,1.02079,-0.373937,-1.99456,-1.13762,2.55866,1.23473,-0.436262,-1.09325,0.987784,-0.610728,0.518295,0.46774,-0.788862,0.483569,-1.09325,0.987784,-0.610728,0.518295,0.46774,-0.788862,0.483569,0.140358,-0.464291,0.979216,0.711906,0.0727151,0.0918484,0.692435,-0.551618,0.126387,0.435572,-0.0727444,-0.27835,1.04182,-2.17022,0.543842,-0.780916,-2.1229,0.533856,-0.818484,-0.830521,0.541236,-0.648483,0.354564,0.282288,-0.582195,0.262481,1
0.920066,-0.312804,-2.07297,-1.09524,2.59493,1.16474,-0.401605,0.93478,-0.317501,-2.06137,-1.10079,2.58964,1.17568,-0.40934,1.00346,-0.359731,-2.00599,-1.13061,2.56589,1.22246,-0.429816,-1.1874,0.9045,-0.864781,0.456779,0.490915,-0.817705,0.378001,-1.1874,0.9045,-0.864781,0.456779,0.490915,-0.817705,0.378001,0.135351,-0.463258,0.983274,0.717152,0.0747664,0.0927788,0.686655,-0.484587,0.117353,0.384777,-0.0947538,-0.271969,1.03157,-2.20094,0.638086,-1.02432,-2.13312,0.534974,-0.910089,-0.833967,0.469267,-0.669773,0.353629,0.290379,-0.577236,0.282107,1
0.908517,-0.314977,-2.0826,-1.08743,2.60403,1.15852,-0.399911,0.921596,-0.3151,-2.07199,-1.09502,2.5952,1.16613,-0.403284,0.992174,-0.35166,-2.01464,-1.12602,2.57034,1.21485,-0.426537,-1.20981,0.815972,-0.967911,0.51418,0.457426,-0.800231,0.322203,-1.20981,0.815972,-0.967911,0.51418,0.457426,-0.800231,0.322203,0.12992,-0.46294,0.986673,0.722847,0.0770697,0.0932739,0.680332,-0.524376,0.0552708,0.323245,-0.115386,-0.266994,1.02062,-2.06322,0.497514,-1.09566,-2.13003,0.533367,-1.00523,-0.836564,0.366829,-0.679585,0.385933,0.336892,-0.563315,0.266254,1
0.89701,-0.317714,-2.0925,-1.08269,2.60533,1.15219,-0.408196,0.908528,-0.315118,-2.08267,-1.0882,2.60208,1.15849,-0.402406,0.980719,-0.344468,-2.0239,-1.12105,2.57439,1.20713,-0.423261,-1.2233,0.718114,-0.997657,0.539708,0.405924,-0.837457,0.370716,-1.2233,0.718114,-0.997657,0.539708,0.405924,-0.837457,0.370716,0.123774,-0.463068,0.989906,0.72912,0.0793413,0.0935605,0.673302,-0.590265,0.0166739,0.307671,-0.137569,-0.261012,1.00995,-2.21832,0.598201,-1.06695,-2.14194,0.54167,-1.09296,-0.837088,0.267548,-0.68601,0.383632,0.309352,-0.549439,0.150647,1
0.891978,-0.330965,-2.09747,-1.08338,2.60607,1.1466,-0.407986,0.898629,-0.320342,-2.09127,-1.08405,2.60519,1.15237,-0.406073,0.975321,-0.3413,-2.02831,-1.11867,2.57618,1.20344,-0.421625,-1.07961,0.633763,-0.880471,0.476314,0.358244,-0.739088,0.327171,-1.07961,0.633763,-0.880471,0.476314,0.358244,-0.739088,0.327171,0.117198,-0.463609,0.992909,0.735371,0.0818804,0.0935039,0.66617,-0.630331,-0.0179512,0.286154,-0.158874,-0.255029,0.997235,-2.1305,0.598282,-1.27118,-2.14519,0.559971,-1.19877,-0.833428,0.103351,-0.691597,0.352908,0.29885,-0.568363,0.136391,1
0.872927,-0.364852,-2.11317,-1.06888,2.62207,1.13889,-0.402208,0.888473,-0.336124,-2.10015,-1.07958,2.60988,1.14607,-0.406594,0.956985,-0.333109,-2.04322,-1.11047,2.58294,1.19087,-0.415787,-1.29037,0.479083,-1.05048,0.593212,0.509765,-0.862284,0.356315,-1.29037,0.479083,-1.05048,0.593212,0.509765,-0.862284,0.356315,0.109936,-0.464661,0.995669,0.741567,0.0846022,0.092666,0.659041,-0.691116,-0.0594118,0.262627,-0.179943,-0.249476,0.983426,-2.10688,0.555316,-1.38084,-2.1492,0.573343,-1.30495,-0.840577,-0.31743,-0.699471,0.415982,0.39133,-0.519782,0.135783,1
0.861643,-0.369803,-2.12442,-1.07237,2.62391,1.13345,-0.411638,0.874869,-0.357618,-2.11206,-1.07338,2.61853,1.13946,-0.40601,0.945103,-0.329743,-2.05296,-1.10506,2.58754,1.18299,-0.413258,-1.23756,0.250338,-1.02022,0.559523,0.470056,-0.815292,0.191332,-1.23756,0.250338,-1.02022,0.559523,0.470056,-0.815292,0.191332,0.101804,-0.466234,0.998181,0.748069,0.0871014,0.0909864,0.651558,-0.766506,-0.103537,0.237767,-0.200658,-0.243835,0.96855,-2.07149,0.564055,-1.4876,-2.13431,0.573196,-1.4124,-0.834598,-0.400594,-0.714646,0.326872,0.363671,-0.495411,0.0162005,1
0.851381,-0.357773,-2.13342,-1.10259,2.63085,1.1211,-0.391867,0.861899,-0.365557,-2.12386,-1.07905,2.62518,1.13172,-0.404338,0.93363,-0.329518,-2.06248,-1.09989,2.59199,1.17548,-0.41173,-1.20253,-0.175912,-1.00331,0.540713,0.476423,-0.783116,0.136755,-1.20253,-0.175912,-1.00331,0.540713,0.476423,-0.783116,0.136755,0.0932095,-0.468618,0.999928,0.754695,0.0896317,0.0885392,0.643865,-0.805762,-0.175247,0.164646,-0.221584,-0.238831,0.953467,-2.09262,0.500469,-1.5083,-2.11931,0.561672,-1.50346,-0.822489,-0.282545,-0.709455,-0.0270471,0.388578,-0.54377,0.198628,1
0.84013,-0.369986,-2.14093,-1.12606,2.63369,1.10774,-0.36917,0.851134,-0.363833,-2.13305,-1.1009,2.62982,1.12085,-0.391135,0.922043,-0.333505,-2.07221,-1.09467,2.59697,1.1682,-0.410525,-1.25625,-0.642135,-1.06115,0.566954,0.574202,-0.765266,0.120234,-1.25625,-0.642135,-1.06115,0.566954,0.574202,-0.765266,0.120234,0.083182,-0.472852,1.00033,0.761161,0.092412,0.0841806,0.636402,-0.930952,-0.336595,0.0354399,-0.241914,-0.233968,0.937823,-2.03298,0.486282,-1.56449,-2.10499,0.552266,-1.59294,-0.819121,-0.364814,-0.687172,-0.313951,0.367217,-0.604601,0.413554,1
0.829521,-0.369912,-2.15076,-1.13477,2.6344,1.09935,-0.371493,0.840291,-0.366914,-2.14151,-1.12237,2.63316,1.10898,-0.375425,0.910084,-0.339772,-2.08241,-1.09062,2.60252,1.16093,-0.40933,-1.28319,-0.686687,-1.1038,0.30814,0.603572,-0.777794,0.132945,-1.28319,-0.686687,-1.1038,0.30814,0.603572,-0.777794,0.132945,0.070699,-0.47926,0.99932,0.767794,0.0953742,0.0773297,0.628821,-1.14794,-0.523198,-0.102935,-0.263403,-0.228421,0.921252,-2.14896,0.554664,-1.65702,-2.09008,0.537642,-1.68167,-0.805628,-0.301403,-0.683498,-0.441476,0.318848,-0.615786,0.378368,1
0.820577,-0.37707,-2.16169,-1.14554,2.62921,1.09646,-0.387326,0.829937,-0.37172,-2.15103,-1.13529,2.63293,1.10072,-0.37487,0.89816,-0.345273,-2.09266,-1.09063,2.60808,1.15319,-0.406674,-1.25233,-0.494278,-1.0756,-0.27355,0.579133,-0.861361,0.413809,-1.25233,-0.494278,-1.0756,-0.27355,0.579133,-0.861361,0.413809,0.0581151,-0.486219,0.997098,0.774066,0.099455,0.0697638,0.62134,-1.15808,-0.564777,-0.214805,-0.284121,-0.222919,0.902161,-2.07173,0.550219,-1.90919,-2.08542,0.529668,-1.7725,-0.775836,-0.317976,-0.690294,-0.549088,0.211338,-0.567371,0.193482,1
0.811534,-0.392614,-2.1747,-1.16277,2.5949,1.1125,-0.415789,0.820552,-0.379167,-2.16221,-1.14716,2.62193,1.10119,-0.390484,0.886484,-0.34974,-2.10259,-1.09543,2.61328,1.14464,-0.401391,-1.23015,-0.457345,-1.03651,-0.717549,0.529378,-0.949688,0.69149,-1.23015,-0.457345,-1.03651,-0.717549,0.529378,-0.949688,0.69149,0.0474784,-0.493175,0.993295,0.77848,0.106047,0.0620589,0.615525,-0.987073,-0.553121,-0.357242,-0.30551,-0.217924,0.883308,-2.13895,0.499552,-1.88528,-2.09088,0.524641,-1.86197,-0.749499,-0.428735,-0.721107,-0.673486,-0.183822,-0.321392,-0.143984,1
0.809626,-0.403771,-2.18417,-1.17613,2.60871,1.1828,-0.417554,0.813318,-0.391517,-2.17381,-1.1618,2.60693,1.12606,-0.409115,0.87505,-0.354104,-2.11231,-1.1029,2.61765,1.13578,-0.395582,-1.20135,-0.469123,-1.03108,-0.862343,0.406839,-0.933679,0.55156,-1.20135,-0.469123,-1.03108,-0.862343,0.406839,-0.933679,0.55156,0.0330352,-0.504664,0.984648,0.782744,0.119681,0.049302,0.608734,-0.971145,-0.677681,-0.638841,-0.326199,-0.212164,0.863572,-2.0689,0.57594,-1.97362,-2.0953,0.528132,-1.95328,-0.654231,-0.496673,-0.718601,-0.732221,-0.0893945,0.470107,-0.219715,1
0.818967,-0.412219,-2.19406,-1.18622,2.63708,1.19351,-0.418312,0.812439,-0.403094,-2.18428,-1.17531,2.61235,1.1679,-0.417302,0.863968,-0.358876,-2.12219,-1.11146,2.61974,1.12808,-0.392835,-1.15618,-0.540357,-1.06562,-0.95057,0.0584305,-0.716159,0.0626263,-1.15618,-0.540357,-1.06562,-0.95057,0.0584305,-0.716159,0.0626263,0.0239106,-0.512117,0.978098,0.786239,0.128969,0.0418715,0.602861,-0.955346,-0.672423,-0.718377,-0.34815,-0.206135,0.842565,-2.1951,0.602873,-2.10066,-2.10849,0.54354,-2.05412,-0.450009,-0.533435,-0.71871,-0.747631,0.173466,0.654274,-0.254768,1
0.792011,-0.422226,-2.20586,-1.19851,2.62697,1.17344,-0.420681,0.809893,-0.412609,-2.19454,-1.18677,2.62746,1.18581,-0.418715,0.853514,-0.364815,-2.13241,-1.12108,2.61846,1.12506,-0.394504,-1.07045,-0.711087,-1.10267,-1.08454,-0.30706,0.0268004,-0.389077,-1.07045,-0.711087,-1.10267,-1.08454,-0.30706,0.0268004,-0.389077,0.0149303,-0.519308,0.970561,0.790857,0.137426,0.0364376,0.595257,-0.952205,-0.652968,-0.842054,-0.369203,-0.200208,0.819533,-2.10528,0.592722,-2.30322,-2.11943,0.559306,-2.16726,-0.615032,-0.574107,-0.734479,-0.774281,0.0851338,0.483818,-0.261769,1
0.77262,-0.441445,-2.21464,-1.20592,2.57851,1.10587,-0.447112,0.793902,-0.424529,-2.2051,-1.19729,2.61739,1.16157,-0.426697,0.844428,-0.373282,-2.14388,-1.13307,2.61711,1.13454,-0.399547,-0.851902,-0.793889,-1.07577,-1.12481,-0.126705,0.88856,-0.472822,-0.851902,-0.793889,-1.07577,-1.12481,-0.126705,0.88856,-0.472822,0.00532259,-0.526017,0.961234,0.795895,0.141975,0.0327767,0.587639,-0.896737,-0.559323,-0.871456,-0.388985,-0.195213,0.796692,-1.97816,0.499561,-2.28403,-2.10553,0.560128,-2.27028,-0.718086,-0.681622,-0.707595,-0.728425,-0.385941,-0.286623,-0.47565,1
0.777033,-0.439646,-2.21813,-1.20967,2.58603,1.11958,-0.438683,0.778571,-0.43619,-2.21332,-1.205,2.59251,1.12619,-0.438397,0.84067,-0.376785,-2.14863,-1.13804,2.61655,1.13846,-0.401633,-0.751765,-0.700571,-0.949317,-0.99259,-0.111811,0.784114,-0.417244,-0.751765,-0.700571,-0.949317,-0.99259,-0.111811,0.784114,-0.417244,0.00131301,-0.528703,0.95734,0.79794,0.143857,0.031246,0.584483,-0.794845,-0.482955,-0.772868,-0.408915,-0.190227,0.772785,-1.993,0.498569,-2.39077,-2.08691,0.555194,-2.36213,-0.636368,-0.628605,-0.695013,-0.71629,-0.305194,-0.188727,-0.370494,1
0.763572,-0.459098,-2.23373,-1.22741,2.62726,1.14671,-0.430273,0.772564,-0.444959,-2.22116,-1.21317,2.59446,1.12294,-0.438688,0.827508,-0.390624,-2.16532,-1.1556,2.61773,1.1479,-0.408741,-0.894937,-0.902888,-1.05941,-1.11008,-0.00924058,0.363889,-0.478177,-0.894937,-0.902888,-1.05941,-1.11008,-0.00924058,0.363889,-0.478177,-0.00893798,-0.535701,0.947514,0.802354,0.148682,0.0255499,0.577468,-1.11067,-0.706152,-1.05935,-0.429162,-0.184862,0.749015,-2.02471,0.536528,-2.37694,-2.0615,0.54994,-2.45116,-0.639366,-0.684737,-0.684128,-0.718052,0.0952391,-0.0119362,-0.215325,1
0.774027,-0.445964,-2.24527,-1.24039,2.63924,1.19283,-0.424968,0.769551,-0.450952,-2.23272,-1.22622,2.61995,1.15146,-0.431049,0.818273,-0.399494,-2.17509,-1.16573,2.61473,1.14677,-0.414087,-1.05729,-0.977225,-1.01808,-1.04581,-0.591866,-0.547933,-0.647379,-1.05729,-0.977225,-1.01808,-1.04581,-0.591866,-0.547933,-0.647379,-0.0183886,-0.542189,0.938525,0.806441,0.154533,0.0199812,0.570415,-0.872622,-0.524083,-0.835389,-0.451578,-0.179398,0.724048,-2.24167,0.5464,-2.4967,-2.06383,0.538673,-2.53006,-0.442458,-0.464697,-0.701803,-0.746638,0.245086,0.460582,-0.108805,1
0.760745,-0.45668,-2.25392,-1.24948,2.65051,1.19817,-0.406005,0.768093,-0.451926,-2.24455,-1.23942,2.63906,1.18263,-0.421553,0.808785,-0.408642,-2.18446,-1.17538,2.61005,1.14183,-0.419499,-0.964532,-0.967085,-0.977128,-1.00627,-0.415103,-0.503214,-0.510984,-0.964532,-0.967085,-0.977128,-1.00627,-0.415103,-0.503214,-0.510984,-0.028156,-0.549828,0.928892,0.811262,0.164984,0.0142221,0.560743,-0.919392,-0.598149,-0.884538,-0.471585,-0.173825,0.695749,-2.0007,0.557274,-2.82993,-2.05441,0.531799,-2.62533,-0.480403,-0.48038,-0.694551,-0.741066,0.404593,0.563369,0.13494,1
0.742589,-0.484107,-2.26489,-1.26053,2.63409,1.16726,-0.46863,0.759526,-0.460858,-2.2545,-1.24997,2.64358,1.18911,-0.426402,0.800419,-0.417379,-2.19394,-1.18527,2.60959,1.14101,-0.422846,-0.821994,-0.894001,-1.0326,-1.09047,0.275702,0.278307,-0.218449,-0.821994,-0.894001,-1.0326,-1.09047,0.275702,0.278307,-0.218449,-0.037724,-0.556985,0.919407,0.815136,0.174608,0.00789538,0.552271,-0.89148,-0.558298,-0.870179,-0.493538,-0.169964,0.668238,-2.19529,0.386089,-2.75109,-2.07454,0.51549,-2.7161,-0.578303,-0.667278,-0.709464,-0.752585,0.244942,0.26252,-0.457846,1
