Afshin1997/kuka_rl_ros2/src/catch_and_throw/output_files/tm/nn_ema7.00_jvws1_realball_D25H14M07S15/recorded_data.csv
pure_target_joint_0,pure_target_joint_1,pure_target_joint_2,pure_target_joint_3,pure_target_joint_4,pure_target_joint_5,pure_target_joint_6,target_joint_0,target_joint_1,target_joint_2,target_joint_3,target_joint_4,target_joint_5,target_joint_6,pos_joint_0,pos_joint_1,pos_joint_2,pos_joint_3,pos_joint_4,pos_joint_5,pos_joint_6,vel_joint_0,vel_joint_1,vel_joint_2,vel_joint_3,vel_joint_4,vel_joint_5,vel_joint_6,vel_smooth_joint_0,vel_smooth_joint_1,vel_smooth_joint_2,vel_smooth_joint_3,vel_smooth_joint_4,vel_smooth_joint_5,vel_smooth_joint_6,ee_pos_x,ee_pos_y,ee_pos_z,ee_or_w,ee_or_x,ee_or_y,ee_or_z,ee_vel_x,ee_vel_y,ee_vel_z,ball_pos_x,ball_pos_y,ball_pos_z,ball_raw_vx,ball_raw_vy,ball_raw_vz,ball_ema_vx,ball_ema_vy,ball_ema_vz,action_0,action_1,action_2,action_3,action_4,action_5,action_6,command_published
1.78695,-1.02886,-1.87895,-1.14723,1.8936,1.1877,-0.956654,1.78695,-1.02886,-1.87895,-1.14723,1.8936,1.1877,-0.956654,1.78103,-1.07397,-1.81931,-1.12161,1.93729,1.11697,-0.916242,0,0,-2.39771e-05,2.39552e-05,0,0,0,0,0,-2.39771e-05,2.39552e-05,0,0,0,0.534478,-0.456233,0.688859,0.572071,0.180601,0.151526,0.785594,-2.6228e-06,-1.30867e-05,-2.87183e-06,2.97529,-0.538445,0.102892,-3.87943,0.232238,5.57557,-3.87943,0.0272725,5.57557,0.0591645,0.451061,-0.596353,-0.256209,-0.436893,0.707323,-0.404122,1
1.71574,-1.0027,-1.87627,-1.13608,1.96329,1.16091,-0.940284,1.71574,-1.0027,-1.87627,-1.13608,1.96329,1.16091,-0.940284,1.78103,-1.07397,-1.81931,-1.12161,1.93729,1.11697,-0.916242,0,0,1.19776e-05,-1.19994e-05,-1.91991e-05,0,2.39771e-05,0,0,1.19776e-05,-1.19994e-05,-1.91991e-05,0,2.39771e-05,0.534478,-0.456233,0.688859,0.57207,0.180601,0.151526,0.785595,1.94923e-06,8.59033e-06,1.0286e-06,2.93666,-0.53506,0.159636,-3.86307,0.338548,5.67436,-3.86307,0.0993141,5.67436,-0.652882,0.712714,-0.569523,-0.14471,0.260037,0.439446,-0.240415,1
1.70607,-0.996101,-1.85984,-1.16401,1.99631,1.09719,-0.9304,1.70607,-0.996101,-1.85984,-1.16401,1.99631,1.09719,-0.9304,1.78104,-1.07399,-1.81938,-1.12168,1.93729,1.11696,-0.916242,0.00278042,-0.00423054,-0.0137702,-0.0136024,-7.66917e-05,-0.000419457,-2.39771e-05,0.00278042,-0.00423054,-0.0137702,-0.0136024,-7.66917e-05,-0.000419457,-2.39771e-05,0.534504,-0.456221,0.688805,0.572046,0.180642,0.151551,0.785598,0.00434553,0.00242212,-0.0105238,2.8977,-0.532168,0.215022,-3.89597,0.289214,5.53864,-3.89597,0.171674,5.53864,-0.749748,0.778868,-0.404604,-0.423314,0.590213,-0.197704,-0.141583,1
1.70583,-0.996787,-1.85282,-1.16307,1.97916,1.13594,-0.937831,1.70583,-0.996787,-1.85282,-1.16307,1.97916,1.13594,-0.937831,1.78112,-1.07417,-1.81981,-1.12198,1.93738,1.11707,-0.916364,0.00570462,-0.0232979,-0.0511979,-0.0359775,0.017833,0.0220156,-0.0243525,0.00570462,-0.0232979,-0.0511979,-0.0359775,0.017833,0.0220156,-0.0243525,0.534622,-0.456214,0.688481,0.571983,0.180844,0.151621,0.785584,0.0091397,-0.00177223,-0.0382379,2.85843,-0.529436,0.269099,-3.92628,0.273156,5.4077,-3.92628,0.234893,5.4077,-0.752949,0.773778,-0.330101,-0.410874,0.417779,0.188636,-0.214666,1
1.70819,-1.0001,-1.85466,-1.10164,1.9802,1.18291,-0.946855,1.70819,-1.0001,-1.85466,-1.10164,1.9802,1.18291,-0.946855,1.78097,-1.07458,-1.82229,-1.12349,1.93984,1.11998,-0.918498,-0.0244844,-0.0361932,-0.324793,-0.174135,0.344253,0.412891,-0.271162,-0.0244844,-0.0361932,-0.324793,-0.174135,0.344253,0.412891,-0.271162,0.534514,-0.456544,0.687221,0.572507,0.18094,0.151061,0.785288,-0.0223459,-0.041161,-0.148636,2.85843,-0.529436,0.269099,-3.92628,0.273156,5.4077,-3.92628,0.234893,5.4077,-0.727803,0.744827,-0.323678,0.218497,0.403541,0.629304,-0.28357,1
1.70603,-0.999453,-1.87026,-1.08524,2.00347,1.18653,-0.933545,1.70603,-0.999453,-1.87026,-1.08524,2.00347,1.18653,-0.933545,1.78038,-1.07405,-1.82735,-1.12536,1.94494,1.12552,-0.921865,-0.0668856,0.083664,-0.567323,-0.208363,0.561336,0.529536,-0.351398,-0.0668856,0.083664,-0.567323,-0.208363,0.561336,0.529536,-0.351398,0.533905,-0.457373,0.685696,0.573904,0.180713,0.150076,0.784509,-0.0539846,-0.0793864,-0.166376,2.78162,-0.523316,0.37422,-3.83842,0.317639,5.22394,-3.83842,0.292438,5.22394,-0.743422,0.745984,-0.429093,0.401253,0.585376,0.610123,-0.116798,1
1.70527,-0.998192,-1.88214,-1.08948,2.00406,1.18845,-0.936659,1.70527,-0.998192,-1.88214,-1.08948,2.00406,1.18845,-0.936659,1.77965,-1.07222,-1.83413,-1.12959,1.95267,1.12909,-0.925594,-0.083612,0.220433,-0.688754,-0.476362,0.843689,0.322153,-0.378813,-0.083612,0.220433,-0.688754,-0.476362,0.843689,0.322153,-0.378813,0.533838,-0.457814,0.683588,0.574753,0.182316,0.149435,0.783638,-0.0132459,-0.0159703,-0.203929,2.74312,-0.519885,0.425861,-3.84972,0.343144,5.16415,-3.84972,0.30301,5.16415,-0.743801,0.740297,-0.480051,0.401112,0.51386,0.593596,-0.110645,1
1.70264,-0.994274,-1.88811,-1.09323,2.01283,1.18962,-0.941933,1.70264,-0.994274,-1.88811,-1.09323,2.01283,1.18962,-0.941933,1.7776,-1.06932,-1.84058,-1.13543,1.96191,1.13272,-0.929248,-0.250656,0.2955,-0.635221,-0.617521,0.9289,0.359854,-0.353491,-0.250656,0.2955,-0.635221,-0.617521,0.9289,0.359854,-0.353491,0.533241,-0.458194,0.681832,0.575478,0.184054,0.148465,0.782884,-0.0840973,-0.029351,-0.175052,2.70461,-0.51696,0.475898,-3.85039,0.292498,5.00361,-3.85039,0.303517,5.00361,-0.749533,0.750425,-0.475294,0.422001,0.509209,0.569006,-0.126847,1
1.69559,-0.990713,-1.89722,-1.09568,2.02517,1.18163,-0.945104,1.69559,-0.990713,-1.89722,-1.09568,2.02517,1.18163,-0.945104,1.77379,-1.06706,-1.84753,-1.1414,1.97129,1.13736,-0.932011,-0.418384,0.200539,-0.721853,-0.563401,0.94957,0.527581,-0.252742,-0.418384,0.200539,-0.721853,-0.563401,0.94957,0.527581,-0.252742,0.531769,-0.459766,0.679557,0.576542,0.18599,0.146963,0.781926,-0.181932,-0.176297,-0.237381,2.66665,-0.5141,0.524764,-3.7967,0.286037,4.88662,-3.7967,0.306301,4.88662,-0.781995,0.763472,-0.49696,0.457201,0.538793,0.442755,-0.130923,1
1.6905,-0.988658,-1.90723,-1.09897,2.02971,1.17756,-0.957118,1.6905,-0.988658,-1.90723,-1.09897,2.02971,1.17756,-0.957118,1.76966,-1.06522,-1.85503,-1.14469,1.98086,1.14521,-0.934108,-0.39559,0.190101,-0.754641,-0.225993,0.953807,0.881288,-0.198382,-0.39559,0.190101,-0.754641,-0.225993,0.953807,0.881288,-0.198382,0.52924,-0.462599,0.677756,0.578664,0.186381,0.144388,0.780745,-0.262501,-0.279255,-0.153263,2.62823,-0.511186,0.572974,-3.84197,0.291353,4.82104,-3.84197,0.30676,4.82104,-0.79156,0.765631,-0.521954,0.4572,0.488441,0.323493,-0.230105,1
1.68777,-0.985866,-1.9176,-1.09717,2.0328,1.18501,-0.964954,1.68777,-0.985866,-1.9176,-1.09717,2.0328,1.18501,-0.964954,1.76648,-1.06284,-1.86301,-1.14355,1.98987,1.15527,-0.936149,-0.29121,0.252574,-0.821212,0.225334,0.883744,1.02295,-0.204734,-0.29121,0.252574,-0.821212,0.225334,0.883744,1.02295,-0.204734,0.526037,-0.466226,0.677373,0.582349,0.184675,0.141452,0.778945,-0.302419,-0.363849,-0.0233176,2.58991,-0.508466,0.620178,-3.83165,0.272059,4.72039,-3.83165,0.300457,4.72039,-0.787029,0.769776,-0.545857,0.463826,0.429275,0.297469,-0.288045,1
1.68573,-0.982717,-1.92684,-1.09289,2.03852,1.1936,-0.969344,1.68573,-0.982717,-1.92684,-1.09289,2.03852,1.1936,-0.969344,1.76413,-1.05989,-1.87203,-1.13877,1.9984,1.16461,-0.938326,-0.215855,0.308862,-0.919708,0.548086,0.845319,0.876914,-0.223309,-0.215855,0.308862,-0.919708,0.548086,0.845319,0.876914,-0.223309,0.522673,-0.470668,0.677823,0.587377,0.182517,0.138858,0.776141,-0.307891,-0.439039,0.0483822,2.58991,-0.508466,0.620178,-3.83165,0.272059,4.72039,-3.83165,0.300457,4.72039,-0.783931,0.771767,-0.548104,0.458825,0.401229,0.289976,-0.310182,1
1.68502,-0.978501,-1.93502,-1.08683,2.04643,1.20625,-0.974667,1.68502,-0.978501,-1.93502,-1.08683,2.04643,1.20625,-0.974667,1.76217,-1.05613,-1.88124,-1.13276,2.00694,1.17114,-0.941277,-0.201234,0.403464,-0.923387,0.593182,0.853123,0.584997,-0.325951,-0.201234,0.403464,-0.923387,0.593182,0.853123,0.584997,-0.325951,0.519564,-0.475235,0.678817,0.593045,0.181037,0.136909,0.772515,-0.289932,-0.43032,0.101002,2.55156,-0.505596,0.665774,-3.83551,0.286925,4.55963,-3.83551,0.292048,4.55963,-0.771543,0.776303,-0.537822,0.459316,0.394937,0.351116,-0.333895,1
1.68144,-0.973215,-1.94424,-1.07933,2.06048,1.21004,-0.978592,1.68144,-0.973215,-1.94424,-1.07933,2.06048,1.21004,-0.978592,1.75887,-1.05106,-1.89078,-1.12706,2.01525,1.17569,-0.94555,-0.387357,0.542681,-0.963042,0.566949,0.817363,0.423285,-0.459896,-0.387357,0.542681,-0.963042,0.566949,0.817363,0.423285,-0.459896,0.516018,-0.48007,0.68026,0.599749,0.18006,0.135901,0.767731,-0.37111,-0.480466,0.15566,2.47578,-0.499404,0.75394,-3.7771,0.294644,4.38265,-3.7771,0.291995,4.38265,-0.774273,0.778472,-0.534554,0.477327,0.452338,0.343472,-0.330419,1
1.67613,-0.967238,-1.95438,-1.07621,2.07064,1.21232,-0.981434,1.67613,-0.967238,-1.95438,-1.07621,2.07064,1.21232,-0.981434,1.75376,-1.04497,-1.90024,-1.12184,2.02272,1.17918,-0.950704,-0.546312,0.625466,-0.938008,0.511283,0.719804,0.327222,-0.527462,-0.546312,0.625466,-0.938008,0.511283,0.719804,0.327222,-0.527462,0.511739,-0.485198,0.682148,0.607374,0.179147,0.135727,0.761958,-0.438205,-0.49988,0.19602,2.47578,-0.499404,0.75394,-3.7771,0.294644,4.38265,-3.7771,0.291995,4.38265,-0.776356,0.777347,-0.541385,0.456307,0.479208,0.331448,-0.307292,1
1.66887,-0.960439,-1.96393,-1.07044,2.07878,1.20978,-0.985778,1.66887,-0.960439,-1.96393,-1.07044,2.07878,1.20978,-0.985778,1.74718,-1.0383,-1.90969,-1.11707,2.0291,1.18208,-0.956089,-0.688406,0.678759,-0.947715,0.476038,0.609302,0.284583,-0.537336,-0.688406,0.678759,-0.947715,0.476038,0.609302,0.284583,-0.537336,0.506837,-0.49055,0.684245,0.615534,0.178239,0.136269,0.7555,-0.504509,-0.527855,0.215421,2.43768,-0.496354,0.797316,-3.81007,0.304905,4.33764,-3.81007,0.296129,4.33764,-0.783103,0.778588,-0.542395,0.466252,0.496769,0.276949,-0.296881,1
1.66171,-0.953341,-1.97304,-1.06521,2.08089,1.2116,-0.994351,1.66171,-0.953341,-1.97304,-1.06521,2.08089,1.2116,-0.994351,1.73991,-1.03129,-1.91874,-1.1122,2.03478,1.18538,-0.961426,-0.731944,0.703326,-0.893751,0.49707,0.567924,0.350291,-0.534952,-0.731944,0.703326,-0.893751,0.49707,0.567924,0.350291,-0.534952,0.501424,-0.495884,0.686773,0.62394,0.176759,0.137004,0.748789,-0.545731,-0.521758,0.261443,2.39931,-0.49362,0.839388,-3.83692,0.27343,4.2072,-3.83692,0.296831,4.2072,-0.782019,0.779499,-0.542953,0.469875,0.461151,0.262111,-0.329253,1
1.65335,-0.946676,-1.98167,-1.05862,2.08873,1.20787,-0.999882,1.65335,-0.946676,-1.98167,-1.05862,2.08873,1.20787,-0.999882,1.7323,-1.02453,-1.92796,-1.10704,2.0411,1.18949,-0.966752,-0.775913,0.662329,-0.941543,0.526886,0.66069,0.430332,-0.529427,-0.775913,0.662329,-0.941543,0.526886,0.66069,0.430332,-0.529427,0.495555,-0.501542,0.689307,0.632507,0.175039,0.137229,0.741932,-0.593429,-0.570753,0.241874,2.32304,-0.487176,0.919926,-3.81424,0.336015,3.98734,-3.81424,0.302408,3.98734,-0.789451,0.778583,-0.537128,0.484228,0.476317,0.183772,-0.331303,1
1.64578,-0.939944,-1.99064,-1.05295,2.09277,1.21095,-1.00854,1.64578,-0.939944,-1.99064,-1.05295,2.09277,1.21095,-1.00854,1.72452,-1.01782,-1.93735,-1.10135,2.04866,1.19406,-0.971843,-0.764983,0.68728,-0.924022,0.582408,0.787815,0.461035,-0.501756,-0.764983,0.68728,-0.924022,0.582408,0.787815,0.461035,-0.501756,0.489241,-0.507542,0.692041,0.641171,0.173171,0.136743,0.734992,-0.619627,-0.572632,0.28738,2.28464,-0.484264,0.959254,-3.83956,0.291201,3.93282,-3.83956,0.301908,3.93282,-0.787399,0.77874,-0.532994,0.483956,0.44102,0.16888,-0.367,1
1.63872,-0.93271,-1.99963,-1.04635,2.09923,1.21679,-1.01479,1.63872,-0.93271,-1.99963,-1.04635,2.09923,1.21679,-1.01479,1.71723,-1.01061,-1.94652,-1.09571,2.05719,1.19824,-0.9768,-0.728659,0.722175,-0.931245,0.557652,0.866586,0.409235,-0.498592,-0.728659,0.722175,-0.931245,0.557652,0.866586,0.409235,-0.498592,0.483033,-0.513121,0.695177,0.64949,0.171283,0.135992,0.728238,-0.607312,-0.539385,0.303728,2.24644,-0.481585,0.997011,-3.81968,0.267893,3.77567,-3.81968,0.300298,3.77567,-0.785101,0.779022,-0.531099,0.493657,0.420473,0.185509,-0.379865,1
1.63084,-0.925847,-2.00982,-1.04057,2.10782,1.21916,-1.0196,1.63084,-0.925847,-2.00982,-1.04057,2.10782,1.21916,-1.0196,1.7096,-1.00356,-1.95619,-1.09012,2.06581,1.2017,-0.982038,-0.766842,0.702449,-0.962081,0.561283,0.856347,0.326315,-0.533479,-0.766842,0.702449,-0.962081,0.561283,0.856347,0.326315,-0.533479,0.476654,-0.518965,0.698068,0.657992,0.169879,0.135362,0.721017,-0.629428,-0.563459,0.28586,2.24644,-0.481585,0.997011,-3.81968,0.267893,3.77567,-3.81968,0.300298,3.77567,-0.787595,0.77716,-0.536344,0.495472,0.420054,0.174593,-0.375655,1
1.62464,-0.918143,-2.01775,-1.03432,2.11088,1.22867,-1.02769,1.62464,-0.918143,-2.01775,-1.03432,2.11088,1.22867,-1.02769,1.70223,-0.995986,-1.96507,-1.08471,2.07389,1.20417,-0.987454,-0.729186,0.777652,-0.867452,0.539711,0.790557,0.225069,-0.538788,-0.729186,0.777652,-0.867452,0.539711,0.790557,0.225069,-0.538788,0.470469,-0.524167,0.701462,0.666257,0.168375,0.135116,0.713789,-0.603638,-0.485149,0.353475,2.17037,-0.476596,1.06838,-3.80075,0.26589,3.52565,-3.80075,0.282944,3.52565,-0.775911,0.778435,-0.526776,0.503962,0.369875,0.245004,-0.402345,1
1.61557,-0.910658,-2.02785,-1.02823,2.12023,1.22806,-1.03088,1.61557,-0.910658,-2.02785,-1.02823,2.12023,1.22806,-1.03088,1.69421,-0.988266,-1.97393,-1.07905,2.08118,1.20623,-0.993015,-0.835453,0.764948,-0.902111,0.581309,0.712398,0.206649,-0.569828,-0.835453,0.764948,-0.902111,0.581309,0.712398,0.206649,-0.569828,0.463891,-0.529489,0.705035,0.67484,0.166797,0.135248,0.70603,-0.672156,-0.536912,0.350844,2.17037,-0.476596,1.06838,-3.80075,0.26589,3.52565,-3.80075,0.282944,3.52565,-0.786417,0.776077,-0.53925,0.508276,0.390483,0.218292,-0.378678,1
1.60719,-0.903308,-2.03667,-1.0198,2.12144,1.2313,-1.03856,1.60719,-0.903308,-2.03667,-1.0198,2.12144,1.2313,-1.03856,1.68583,-0.980692,-1.98256,-1.07307,2.0878,1.20849,-0.999111,-0.817656,0.760394,-0.835621,0.592982,0.643521,0.228125,-0.616676,-0.817656,0.760394,-0.835621,0.592982,0.643521,0.228125,-0.616676,0.456967,-0.53483,0.708754,0.683743,0.164858,0.135534,0.697817,-0.671604,-0.498187,0.378112,2.09399,-0.47054,1.13705,-3.85671,0.327593,3.37018,-3.85671,0.270683,3.37018,-0.786411,0.773835,-0.541109,0.53268,0.336396,0.228056,-0.394485,1
1.59879,-0.895766,-2.04594,-1.013,2.12645,1.23211,-1.04494,1.59879,-0.895766,-2.04594,-1.013,2.12645,1.23211,-1.04494,1.67791,-0.973096,-1.99115,-1.06658,2.09397,1.21125,-1.00568,-0.800902,0.749141,-0.884661,0.667694,0.619188,0.299937,-0.673183,-0.800902,0.749141,-0.884661,0.667694,0.619188,0.299937,-0.673183,0.450033,-0.539829,0.712735,0.692744,0.162335,0.135975,0.689394,-0.694727,-0.503902,0.387349,2.05597,-0.467966,1.16921,-3.80182,0.25734,3.21629,-3.80182,0.272929,3.21629,-0.791169,0.773293,-0.547971,0.535855,0.324779,0.208588,-0.392646,1
1.59045,-0.888861,-2.05633,-1.00533,2.12927,1.23432,-1.05252,1.59045,-0.888861,-2.05633,-1.00533,2.12927,1.23432,-1.05252,1.66993,-0.9659,-2.00066,-1.05922,2.1005,1.2146,-1.01271,-0.778706,0.713618,-0.953872,0.740823,0.662965,0.337772,-0.707087,-0.778706,0.713618,-0.953872,0.740823,0.662965,0.337772,-0.707087,0.442668,-0.545271,0.716568,0.702207,0.15966,0.136235,0.680334,-0.716642,-0.526404,0.377067,2.05597,-0.467966,1.16921,-3.80182,0.25734,3.21629,-3.80182,0.272929,3.21629,-0.794849,0.770385,-0.556684,0.538869,0.287719,0.197213,-0.398142,1
1.58371,-0.882115,-2.06543,-0.997729,2.12869,1.23841,-1.06105,1.58371,-0.882115,-2.06543,-0.997729,2.12869,1.23841,-1.06105,1.663,-0.958899,-2.01006,-1.05209,2.10714,1.21786,-1.01956,-0.67987,0.699333,-0.948383,0.712,0.658458,0.319567,-0.677893,-0.67987,0.699333,-0.948383,0.712,0.658458,0.319567,-0.677893,0.435831,-0.55011,0.720321,0.711033,0.156999,0.136461,0.671686,-0.663286,-0.467922,0.36803,2.01812,-0.465489,1.20049,-3.7848,0.247741,3.12791,-3.7848,0.274716,3.12791,-0.792903,0.767841,-0.553642,0.543608,0.215439,0.205463,-0.414827,1
1.57624,-0.875425,-2.0752,-0.989683,2.13163,1.23539,-1.06826,1.57624,-0.875425,-2.0752,-0.989683,2.13163,1.23539,-1.06826,1.65586,-0.951919,-2.01986,-1.04454,2.11333,1.22094,-1.02618,-0.725914,0.69859,-0.987525,0.767165,0.602371,0.300512,-0.658538,-0.725914,0.69859,-0.987525,0.767165,0.602371,0.300512,-0.658538,0.428737,-0.55504,0.724116,0.719931,0.154319,0.136939,0.662671,-0.707114,-0.490188,0.377809,1.94235,-0.460496,1.26056,-3.76794,0.243065,2.92788,-3.76794,0.268314,2.92788,-0.796231,0.764937,-0.553377,0.54857,0.183061,0.144428,-0.420802,1
1.56902,-0.868775,-2.08509,-0.983257,2.12852,1.23583,-1.07544,1.56902,-0.868775,-2.08509,-0.983257,2.12852,1.23583,-1.07544,1.64856,-0.945048,-2.02967,-1.03695,2.11886,1.22382,-1.03298,-0.726454,0.675579,-0.974126,0.746648,0.537693,0.286226,-0.689517,-0.726454,0.675579,-0.974126,0.746648,0.537693,0.286226,-0.689517,0.421532,-0.559866,0.727898,0.728837,0.151611,0.137718,0.653334,-0.705425,-0.470317,0.367183,1.94235,-0.460496,1.26056,-3.76794,0.243065,2.92788,-3.76794,0.268314,2.92788,-0.79545,0.762724,-0.554175,0.536941,0.0966293,0.120126,-0.424553,1
1.56182,-0.862093,-2.09438,-0.975554,2.12235,1.23683,-1.08311,1.56182,-0.862093,-2.09438,-0.975554,2.12235,1.23683,-1.08311,1.64129,-0.938217,-2.0394,-1.02943,2.12352,1.22671,-1.04021,-0.731044,0.694623,-0.974006,0.760849,0.437061,0.290445,-0.732961,-0.731044,0.694623,-0.974006,0.760849,0.437061,0.290445,-0.732961,0.414346,-0.564387,0.731705,0.737727,0.148693,0.138923,0.6437,-0.714229,-0.443764,0.387517,1.86664,-0.455532,1.31573,-3.76965,0.258198,2.7128,-3.76965,0.249005,2.7128,-0.794652,0.761245,-0.549859,0.538758,-0.011771,0.101165,-0.429042,1
1.5543,-0.855178,-2.10382,-0.968302,2.1167,1.23246,-1.09028,1.5543,-0.855178,-2.10382,-0.968302,2.1167,1.23246,-1.09028,1.63369,-0.931065,-2.04927,-1.02168,2.12696,1.2294,-1.04739,-0.770257,0.714949,-0.987417,0.776118,0.313112,0.25871,-0.704642,-0.770257,0.714949,-0.987417,0.776118,0.313112,0.25871,-0.704642,0.406956,-0.568701,0.735747,0.746702,0.145539,0.140817,0.633582,-0.738202,-0.433179,0.402976,1.82883,-0.452791,1.34244,-3.78102,0.274065,2.67122,-3.78102,0.250903,2.67122,-0.793889,0.758869,-0.545499,0.533758,-0.102578,0.0306004,-0.428866,1
1.54724,-0.848245,-2.11212,-0.963944,2.10825,1.23249,-1.09643,1.54724,-0.848245,-2.11212,-0.963944,2.10825,1.23249,-1.09643,1.62602,-0.924107,-2.05852,-1.01442,2.12933,1.23136,-1.0541,-0.758045,0.691078,-0.89773,0.708323,0.215328,0.175062,-0.663743,-0.758045,0.691078,-0.89773,0.708323,0.215328,0.175062,-0.663743,0.399794,-0.572658,0.739688,0.755152,0.14264,0.143079,0.623641,-0.702338,-0.386147,0.393148,1.79144,-0.450278,1.36823,-3.7384,0.251338,2.57866,-3.7384,0.253104,2.57866,-0.787845,0.758617,-0.536041,0.504789,-0.210801,0.0112727,-0.423221,1
1.5394,-0.841407,-2.12016,-0.957924,2.1043,1.23235,-1.10225,1.5394,-0.841407,-2.12016,-0.957924,2.1043,1.23235,-1.10225,1.61821,-0.917161,-2.06735,-1.00729,2.13036,1.23256,-1.0607,-0.803368,0.695884,-0.894626,0.72751,0.0528828,0.100066,-0.665792,-0.803368,0.695884,-0.894626,0.72751,0.0528828,0.100066,-0.665792,0.392751,-0.576328,0.743669,0.763375,0.139858,0.145928,0.613518,-0.721131,-0.381728,0.401001,1.75368,-0.447805,1.39278,-3.77618,0.247294,2.4556,-3.77618,0.25402,2.4556,-0.788109,0.757542,-0.528156,0.493616,-0.260581,-0.00215673,-0.415521,1
1.53095,-0.834461,-2.1289,-0.952143,2.10192,1.23469,-1.10787,1.53095,-0.834461,-2.1289,-0.952143,2.10192,1.23469,-1.10787,1.60974,-0.910247,-2.07654,-0.999451,2.12937,1.23288,-1.06787,-0.844809,0.69459,-0.911955,0.785308,-0.146664,0.01347,-0.734388,-0.844809,0.69459,-0.911955,0.785308,-0.146664,0.01347,-0.734388,0.385367,-0.580189,0.747682,0.77206,0.137169,0.14981,0.602216,-0.744993,-0.386614,0.410344,1.75368,-0.447805,1.39278,-3.77618,0.247294,2.4556,-3.77618,0.25402,2.4556,-0.787872,0.757852,-0.523591,0.473079,-0.274503,0.0180925,-0.399991,1
1.52332,-0.827402,-2.13649,-0.94343,2.10046,1.2362,-1.11468,1.52332,-0.827402,-2.13649,-0.94343,2.10046,1.2362,-1.11468,1.602,-0.903374,-2.08544,-0.991921,2.12658,1.23273,-1.07533,-0.762035,0.681563,-0.900174,0.741531,-0.325388,-0.0227575,-0.746732,-0.762035,0.681563,-0.900174,0.741531,-0.325388,-0.0227575,-0.746732,0.378689,-0.583355,0.751608,0.780309,0.134442,0.154593,0.590885,-0.674069,-0.324383,0.390014,1.67798,-0.442416,1.43886,-3.77073,0.281015,2.27121,-3.77073,0.259609,2.27121,-0.786773,0.759719,-0.5105,0.48491,-0.261147,0.0347026,-0.393569,1
1.5145,-0.820727,-2.14662,-0.934702,2.10041,1.22819,-1.12127,1.5145,-0.820727,-2.14662,-0.934702,2.10041,1.22819,-1.12127,1.59382,-0.896515,-2.09513,-0.984001,2.12239,1.23242,-1.08267,-0.834419,0.693703,-0.978621,0.806915,-0.444691,-0.0299719,-0.731057,-0.834419,0.693703,-0.978621,0.806915,-0.444691,-0.0299719,-0.731057,0.371732,-0.586662,0.755408,0.788672,0.13178,0.160171,0.578771,-0.734367,-0.350427,0.398379,1.67798,-0.442416,1.43886,-3.77073,0.281015,2.27121,-3.77073,0.259609,2.27121,-0.793191,0.757877,-0.514885,0.492988,-0.219773,-0.0422716,-0.385974,1
1.50659,-0.813558,-2.15595,-0.927182,2.09577,1.2251,-1.12821,1.50659,-0.813558,-2.15595,-0.927182,2.09577,1.2251,-1.12821,1.58584,-0.889402,-2.10446,-0.976479,2.11727,1.23227,-1.08997,-0.778933,0.708216,-0.920367,0.722992,-0.533871,-0.00540477,-0.728888,-0.778933,0.708216,-0.920367,0.722992,-0.533871,-0.00540477,-0.728888,0.365052,-0.589385,0.759332,0.796632,0.128836,0.1662,0.566706,-0.675701,-0.275627,0.39738,1.64025,-0.439918,1.4605,-3.77337,0.249806,2.16464,-3.77337,0.25944,2.16464,-0.792517,0.758434,-0.514908,0.492969,-0.215043,-0.0717147,-0.38239,1
1.49808,-0.807086,-2.16484,-0.917853,2.09194,1.22456,-1.13525,1.49808,-0.807086,-2.16484,-0.917853,2.09194,1.22456,-1.13525,1.57779,-0.882589,-2.11378,-0.969596,2.11194,1.2323,-1.09689,-0.829194,0.681012,-0.942046,0.692792,-0.522769,0.00297203,-0.672923,-0.829194,0.681012,-0.942046,0.692792,-0.522769,0.00297203,-0.672923,0.35848,-0.591986,0.762899,0.804115,0.126111,0.172264,0.554816,-0.704799,-0.290298,0.370186,1.60229,-0.437873,1.48102,-3.79593,0.204507,2.05131,-3.79593,0.253082,2.05131,-0.797069,0.755035,-0.510652,0.517435,-0.199999,-0.0774305,-0.383566,1
1.48962,-0.799699,-2.1733,-0.910523,2.08976,1.22665,-1.14212,1.48962,-0.799699,-2.1733,-0.910523,2.08976,1.22665,-1.14212,1.56925,-0.875354,-2.1228,-0.962634,2.10726,1.23212,-1.10321,-0.848116,0.734568,-0.877249,0.692049,-0.447529,-0.0283061,-0.625382,-0.848116,0.734568,-0.877249,0.692049,-0.447529,-0.0283061,-0.625382,0.35153,-0.594506,0.766876,0.811386,0.123361,0.177972,0.542918,-0.718009,-0.257359,0.423813,1.5642,-0.435706,1.50026,-3.80895,0.216708,1.92481,-3.80895,0.246028,1.92481,-0.796286,0.756546,-0.504949,0.521107,-0.175041,-0.0546917,-0.389054,1
1.48113,-0.792827,-2.18157,-0.903142,2.0908,1.225,-1.14785,1.48113,-0.792827,-2.18157,-0.903142,2.0908,1.225,-1.14785,1.56103,-0.868312,-2.13112,-0.956261,2.10343,1.23161,-1.10937,-0.820913,0.68819,-0.827815,0.629133,-0.360343,-0.0590689,-0.609048,-0.820913,0.68819,-0.827815,0.629133,-0.360343,-0.0590689,-0.609048,0.344886,-0.596761,0.770783,0.818113,0.120886,0.183118,0.53155,-0.689489,-0.243286,0.393539,1.48914,-0.430013,1.53617,-3.76066,0.296864,1.77048,-3.76066,0.245438,1.77048,-0.799,0.75485,-0.504489,0.53119,-0.126271,-0.0661087,-0.384733,1
1.4725,-0.785803,-2.19,-0.896683,2.09227,1.2184,-1.15216,1.4725,-0.785803,-2.19,-0.896683,2.09227,1.2184,-1.15216,1.55238,-0.861629,-2.13965,-0.949511,2.10017,1.23065,-1.11544,-0.876398,0.673019,-0.857212,0.69592,-0.319808,-0.109809,-0.612068,-0.876398,0.673019,-0.857212,0.69592,-0.319808,-0.109809,-0.612068,0.337811,-0.599412,0.774592,0.824855,0.118801,0.18788,0.519809,-0.74624,-0.276812,0.403122,1.45164,-0.427435,1.55245,-3.74998,0.257742,1.62843,-3.74998,0.248733,1.62843,-0.79877,0.758255,-0.503451,0.528274,-0.0789327,-0.122473,-0.367134,1
1.46418,-0.779011,-2.19956,-0.88964,2.08683,1.21851,-1.15931,1.46418,-0.779011,-2.19956,-0.88964,2.08683,1.21851,-1.15931,1.54395,-0.854713,-2.14809,-0.942132,2.0969,1.22946,-1.12207,-0.827863,0.692576,-0.843035,0.741914,-0.327689,-0.11628,-0.67967,-0.827863,0.692576,-0.843035,0.741914,-0.327689,-0.11628,-0.67967,0.330686,-0.60184,0.778805,0.831664,0.116427,0.192648,0.507609,-0.730043,-0.242184,0.437179,1.45164,-0.427435,1.55245,-3.74998,0.257742,1.62843,-3.74998,0.248733,1.62843,-0.797639,0.757022,-0.514637,0.524914,-0.100714,-0.1095,-0.372427,1
1.45595,-0.772332,-2.20839,-0.880647,2.08296,1.21873,-1.1669,1.45595,-0.772332,-2.20839,-0.880647,2.08296,1.21873,-1.1669,1.53572,-0.848028,-2.157,-0.934567,2.09379,1.22821,-1.129,-0.826102,0.661922,-0.910457,0.765127,-0.296569,-0.130673,-0.693727,-0.826102,0.661922,-0.910457,0.765127,-0.296569,-0.130673,-0.693727,0.323553,-0.604312,0.782866,0.838387,0.114184,0.197394,0.49508,-0.747333,-0.25967,0.415504,1.41354,-0.425587,1.56733,-3.80976,0.18484,1.48749,-3.80976,0.248438,1.48749,-0.797716,0.756956,-0.513864,0.539201,-0.108273,-0.0948129,-0.378926,1
1.44812,-0.765561,-2.21741,-0.873366,2.08364,1.2173,-1.17375,1.44812,-0.765561,-2.21741,-0.873366,2.08364,1.2173,-1.17375,1.52774,-0.841306,-2.16602,-0.926883,2.09136,1.22682,-1.13576,-0.779939,0.681875,-0.889161,0.768447,-0.223592,-0.142717,-0.664846,-0.779939,0.681875,-0.889161,0.768447,-0.223592,-0.142717,-0.664846,0.316431,-0.606665,0.787039,0.844869,0.112007,0.201829,0.482614,-0.726826,-0.224759,0.440948,1.37595,-0.423479,1.58147,-3.75917,0.210819,1.4142,-3.75917,0.246312,1.4142,-0.796156,0.757448,-0.513915,0.535162,-0.0772234,-0.0952177,-0.379869,1
1.44032,-0.758559,-2.22646,-0.864043,2.08488,1.21762,-1.18066,1.44032,-0.758559,-2.22646,-0.864043,2.08488,1.21762,-1.18066,1.51998,-0.834368,-2.17483,-0.919105,2.08939,1.22519,-1.1423,-0.786305,0.689278,-0.889719,0.776741,-0.194341,-0.171283,-0.65499,-0.786305,0.689278,-0.889719,0.776741,-0.194341,-0.171283,-0.65499,0.309372,-0.608744,0.791485,0.851085,0.109781,0.20602,0.470274,-0.736591,-0.214093,0.452979,1.30048,-0.418832,1.60717,-3.84469,0.250322,1.23972,-3.84469,0.227708,1.23972,-0.796629,0.758085,-0.516271,0.550611,-0.0450509,-0.0757253,-0.383523,1
1.43216,-0.751709,-2.23537,-0.855943,2.08733,1.21581,-1.18715,1.43216,-0.751709,-2.23537,-0.855943,2.08733,1.21581,-1.18715,1.51197,-0.827606,-2.18375,-0.911605,2.08769,1.22326,-1.14864,-0.798637,0.670989,-0.880479,0.741087,-0.162242,-0.197061,-0.620906,-0.798637,0.670989,-0.880479,0.741087,-0.162242,-0.197061,-0.620906,0.30219,-0.610899,0.795748,0.857075,0.107924,0.210058,0.457875,-0.738391,-0.209137,0.437109,1.30048,-0.418832,1.60717,-3.84469,0.250322,1.23972,-3.84469,0.227708,1.23972,-0.798113,0.758978,-0.51621,0.556622,-0.00352822,-0.0744724,-0.385057,1
1.42411,-0.744652,-2.24449,-0.849493,2.08983,1.21209,-1.19219,1.42411,-0.744652,-2.24449,-0.849493,2.08983,1.21209,-1.19219,1.50386,-0.820776,-2.19244,-0.903778,2.08619,1.22125,-1.15493,-0.82058,0.689937,-0.87203,0.803526,-0.145962,-0.199051,-0.637469,-0.82058,0.689937,-0.87203,0.803526,-0.145962,-0.199051,-0.637469,0.294824,-0.612906,0.800277,0.862961,0.105918,0.213881,0.445347,-0.771074,-0.196075,0.47717,1.26285,-0.416727,1.61835,-3.76328,0.210524,1.11845,-3.76328,0.218981,1.11845,-0.797548,0.761245,-0.520493,0.54285,0.0363497,-0.0915433,-0.372665,1
1.41581,-0.737366,-2.25287,-0.84301,2.0964,1.20479,-1.19664,1.41581,-0.737366,-2.25287,-0.84301,2.0964,1.20479,-1.19664,1.49551,-0.813888,-2.20142,-0.895905,2.08492,1.2193,-1.16147,-0.837694,0.683298,-0.907863,0.775842,-0.116451,-0.192831,-0.658154,-0.837694,0.683298,-0.907863,0.775842,-0.116451,-0.192831,-0.658154,0.287216,-0.614872,0.804848,0.868812,0.103897,0.217656,0.432431,-0.784053,-0.192621,0.461505,1.18956,-0.411767,1.63814,-3.65911,0.260699,0.939274,-3.65911,0.22956,0.939274,-0.796972,0.765222,-0.514531,0.528951,0.114779,-0.145093,-0.351725,1
1.40773,-0.730603,-2.2625,-0.835378,2.09853,1.20362,-1.20402,1.40773,-0.730603,-2.2625,-0.835378,2.09853,1.20362,-1.20402,1.48725,-0.807221,-2.21053,-0.888,2.08433,1.21741,-1.16832,-0.818663,0.663823,-0.908654,0.800458,-0.0375451,-0.185892,-0.694791,-0.818663,0.663823,-0.908654,0.800458,-0.0375451,-0.185892,-0.694791,0.279523,-0.616824,0.809359,0.874551,0.101933,0.221074,0.419401,-0.789676,-0.184138,0.467143,1.18956,-0.411767,1.63814,-3.65911,0.260699,0.939274,-3.65911,0.22956,0.939274,-0.795195,0.766184,-0.519676,0.526225,0.141911,-0.137893,-0.357005,1
1.39956,-0.723679,-2.27184,-0.825146,2.09951,1.20634,-1.21244,1.39956,-0.723679,-2.27184,-0.825146,2.09951,1.20634,-1.21244,1.47909,-0.80039,-2.21989,-0.879586,2.08454,1.21546,-1.17543,-0.821779,0.690584,-0.953692,0.84425,0.0323295,-0.202467,-0.712756,-0.821779,0.690584,-0.953692,0.84425,0.0323295,-0.202467,-0.712756,0.271611,-0.618645,0.814192,0.880288,0.0997955,0.224161,0.406061,-0.81551,-0.172255,0.496605,1.15186,-0.40955,1.6468,-3.76991,0.221696,0.865948,-3.76991,0.233501,0.865948,-0.795239,0.767113,-0.519454,0.544404,0.149757,-0.0911695,-0.370097,1
1.39146,-0.716657,-2.28078,-0.818127,2.11127,1.2006,-1.21838,1.39146,-0.716657,-2.28078,-0.818127,2.11127,1.2006,-1.21838,1.47093,-0.793515,-2.2295,-0.87158,2.08539,1.21332,-1.18221,-0.806678,0.686054,-0.947496,0.789936,0.109702,-0.219377,-0.662768,-0.806678,0.686054,-0.947496,0.789936,0.109702,-0.219377,-0.662768,0.263703,-0.620371,0.818935,0.885721,0.0979487,0.227019,0.392895,-0.79945,-0.153592,0.484528,1.07735,-0.40485,1.66064,-3.66503,0.248653,0.627697,-3.66503,0.234108,0.627697,-0.794653,0.768577,-0.512813,0.534532,0.258763,-0.12723,-0.36167,1
1.38392,-0.709527,-2.28967,-0.80823,2.12253,1.19882,-1.22508,1.38392,-0.709527,-2.28967,-0.80823,2.12253,1.19882,-1.22508,1.46314,-0.786544,-2.23846,-0.863674,2.08733,1.21072,-1.1884,-0.781295,0.696744,-0.890414,0.791266,0.217965,-0.267291,-0.607268,-0.781295,0.696744,-0.890414,0.791266,0.217965,-0.267291,-0.607268,0.255992,-0.621774,0.823953,0.890783,0.0961962,0.229197,0.380421,-0.78577,-0.123997,0.512651,1.03997,-0.402404,1.6662,-3.73733,0.244576,0.556159,-3.73733,0.237306,0.556159,-0.792141,0.77017,-0.512035,0.554439,0.352066,-0.118952,-0.366823,1
1.37513,-0.70262,-2.29946,-0.799342,2.13068,1.19825,-1.23116,1.37513,-0.70262,-2.29946,-0.799342,2.13068,1.19825,-1.23116,1.45466,-0.779666,-2.2477,-0.855934,2.08986,1.20791,-1.19436,-0.866193,0.689026,-0.926332,0.766578,0.26364,-0.275141,-0.597177,-0.866193,0.689026,-0.926332,0.766578,0.26364,-0.275141,-0.597177,0.247788,-0.623336,0.828878,0.895769,0.0947883,0.231091,0.367709,-0.842492,-0.136911,0.498604,1.03997,-0.402404,1.6662,-3.73733,0.244576,0.556159,-3.73733,0.237306,0.556159,-0.795349,0.770461,-0.517618,0.565919,0.408173,-0.0966531,-0.367943,1
1.36669,-0.69573,-2.30982,-0.790848,2.1383,1.19925,-1.23751,1.36669,-0.69573,-2.30982,-0.790848,2.1383,1.19925,-1.23751,1.44619,-0.772625,-2.25645,-0.848149,2.09328,1.20534,-1.20067,-0.833991,0.708093,-0.862322,0.783656,0.378097,-0.2572,-0.643113,-0.833991,0.708093,-0.862322,0.783656,0.378097,-0.2572,-0.643113,0.239489,-0.624534,0.834141,0.900681,0.0930107,0.232464,0.355082,-0.829951,-0.0921327,0.540118,1.00244,-0.400757,1.67084,-3.75302,0.164783,0.463164,-3.75302,0.229563,0.463164,-0.795035,0.768956,-0.533707,0.573009,0.45013,-0.0608994,-0.368393,1
1.35829,-0.688632,-2.31958,-0.781105,2.14584,1.20051,-1.24272,1.35829,-0.688632,-2.31958,-0.781105,2.14584,1.20051,-1.24272,1.4375,-0.765871,-2.26575,-0.839916,2.09835,1.20267,-1.2074,-0.891433,0.660863,-0.964059,0.832145,0.551576,-0.274709,-0.68138,-0.891433,0.660863,-0.964059,0.832145,0.551576,-0.274709,-0.68138,0.230626,-0.625944,0.839445,0.905712,0.0913776,0.23307,0.342073,-0.912079,-0.133643,0.522606,0.926835,-0.396583,1.67676,-3.77437,0.229979,0.23917,-3.77437,0.213931,0.23917,-0.79211,0.772395,-0.538229,0.588105,0.474825,-0.0215745,-0.353242,1
1.34989,-0.682113,-2.33162,-0.773174,2.15321,1.2028,-1.24945,1.34989,-0.682113,-2.33162,-0.773174,2.15321,1.2028,-1.24945,1.42887,-0.759078,-2.27537,-0.831674,2.10512,1.20016,-1.21439,-0.832193,0.694407,-0.940138,0.822582,0.7105,-0.237509,-0.70167,-0.832193,0.694407,-0.940138,0.822582,0.7105,-0.237509,-0.70167,0.221522,-0.627224,0.844886,0.910702,0.0896809,0.232967,0.329097,-0.884519,-0.080505,0.557934,0.890121,-0.394046,1.67826,-3.67137,0.253752,0.149965,-3.67137,0.214026,0.149965,-0.789761,0.769646,-0.562426,0.584999,0.480968,0.0264801,-0.350634,1
1.34187,-0.675068,-2.34269,-0.763278,2.1585,1.20637,-1.25729,1.34187,-0.675068,-2.34269,-0.763278,2.1585,1.20637,-1.25729,1.42084,-0.752061,-2.28489,-0.82316,2.11306,1.19811,-1.22139,-0.818504,0.693667,-0.976764,0.861706,0.820392,-0.193972,-0.696399,-0.818504,0.693667,-0.976764,0.861706,0.820392,-0.193972,-0.696399,0.212556,-0.627975,0.850731,0.91553,0.0874345,0.232313,0.316529,-0.903523,-0.0602144,0.576048,0.85255,-0.3917,1.67872,-3.75713,0.234565,0.0453949,-3.75713,0.2155,0.0453949,-0.789713,0.769936,-0.578017,0.598822,0.454384,0.0825815,-0.359023,1
1.33313,-0.668617,-2.35358,-0.754573,2.16711,1.20609,-1.26279,1.33313,-0.668617,-2.35358,-0.754573,2.16711,1.20609,-1.26279,1.41243,-0.745372,-2.29477,-0.814816,2.12136,1.1965,-1.22791,-0.828127,0.675439,-0.964636,0.81262,0.820776,-0.151034,-0.630368,-0.828127,0.675439,-0.964636,0.81262,0.820776,-0.151034,-0.630368,0.203267,-0.628749,0.856329,0.920162,0.085284,0.231487,0.304043,-0.897084,-0.0398723,0.55512,0.814997,-0.389601,1.67813,-3.75535,0.209904,-0.0584006,-3.75535,0.219142,-0.0584006,-0.792918,0.767544,-0.588129,0.602422,0.45748,0.0959482,-0.348818,1
1.32517,-0.661613,-2.36349,-0.746189,2.1741,1.20799,-1.26814,1.32517,-0.661613,-2.36349,-0.746189,2.1741,1.20799,-1.26814,1.40451,-0.738245,-2.30365,-0.806567,2.12916,1.19573,-1.23374,-0.800576,0.715394,-0.884775,0.839955,0.772898,-0.0586494,-0.574786,-0.800576,0.715394,-0.884775,0.839955,0.772898,-0.0586494,-0.574786,0.194512,-0.62859,0.862378,0.924383,0.0822561,0.230732,0.292424,-0.868317,0.0350565,0.606386,0.814997,-0.389601,1.67813,-3.75535,0.209904,-0.0584006,-3.75535,0.219142,-0.0584006,-0.793373,0.766325,-0.598378,0.603787,0.449397,0.122582,-0.34402,1
1.31594,-0.655585,-2.37416,-0.738718,2.1854,1.20621,-1.27027,1.31594,-0.655585,-2.37416,-0.738718,2.1854,1.20621,-1.27027,1.39575,-0.731475,-2.31298,-0.798183,2.13698,1.19562,-1.23948,-0.888814,0.667422,-0.939602,0.83503,0.779417,0.00788544,-0.576644,-0.888814,0.667422,-0.939602,0.83503,0.779417,0.00788544,-0.576644,0.185096,-0.628504,0.868232,0.928577,0.0791435,0.229962,0.280355,-0.934042,0.0196032,0.571165,0.741084,-0.38522,1.67326,-3.60424,0.267079,-0.288832,-3.60424,0.224359,-0.288832,-0.79805,0.758893,-0.611758,0.594647,0.484193,0.105912,-0.307952,1
1.30744,-0.648867,-2.38392,-0.729499,2.19027,1.20987,-1.27675,1.30744,-0.648867,-2.38392,-0.729499,2.19027,1.20987,-1.27675,1.38728,-0.724768,-2.32211,-0.789788,2.14458,1.19611,-1.24538,-0.834862,0.676075,-0.914687,0.847601,0.754241,0.0576788,-0.595387,-0.834862,0.676075,-0.914687,0.847601,0.754241,0.0576788,-0.595387,0.175927,-0.627989,0.874121,0.932561,0.0755739,0.229258,0.26844,-0.894144,0.0683108,0.587804,0.704099,-0.383163,1.66989,-3.6985,0.205687,-0.337172,-3.6985,0.220441,-0.337172,-0.798468,0.759005,-0.618171,0.602885,0.456866,0.137658,-0.313716,1
1.29844,-0.642411,-2.3948,-0.719438,2.19525,1.21466,-1.28426,1.29844,-0.642411,-2.3948,-0.719438,2.19525,1.21466,-1.28426,1.37849,-0.71803,-2.33214,-0.780667,2.15234,1.19692,-1.25163,-0.89459,0.672719,-1.03499,0.912626,0.788793,0.0881659,-0.633963,-0.89459,0.672719,-1.03499,0.912626,0.788793,0.0881659,-0.633963,0.16625,-0.62733,0.880175,0.936586,0.071698,0.228662,0.255693,-0.96616,0.0695873,0.594218,0.666666,-0.381118,1.66544,-3.74333,0.204459,-0.445521,-3.74333,0.215138,-0.445521,-0.800459,0.756189,-0.626513,0.612285,0.429078,0.177491,-0.326287,1
1.29036,-0.635828,-2.40575,-0.711109,2.20426,1.21534,-1.29086,1.29036,-0.635828,-2.40575,-0.711109,2.20426,1.21534,-1.29086,1.37004,-0.711263,-2.34273,-0.771813,2.16049,1.19792,-1.25793,-0.817953,0.681132,-1.05901,0.881575,0.821696,0.10033,-0.621823,-0.817953,0.681132,-1.05901,0.881575,0.821696,0.10033,-0.621823,0.156796,-0.626427,0.886108,0.940376,0.0678074,0.228094,0.243039,-0.911604,0.105292,0.589043,0.629942,-0.379106,1.65986,-3.67232,0.201255,-0.557172,-3.67232,0.212417,-0.557172,-0.796843,0.754343,-0.630201,0.60704,0.43767,0.174242,-0.329332,1
1.28217,-0.629531,-2.418,-0.701479,2.21059,1.2197,-1.29737,1.28217,-0.629531,-2.418,-0.701479,2.21059,1.2197,-1.29737,1.36191,-0.704416,-2.35374,-0.76252,2.16909,1.19928,-1.26389,-0.825682,0.68825,-1.12199,0.941004,0.867638,0.148313,-0.590126,-0.825682,0.68825,-1.12199,0.941004,0.867638,0.148313,-0.590126,0.147361,-0.625145,0.892247,0.943988,0.0635499,0.227421,0.230493,-0.939797,0.133734,0.610964,0.593117,-0.377339,1.65341,-3.6825,0.17665,-0.645292,-3.6825,0.208774,-0.645292,-0.797456,0.748853,-0.642625,0.610403,0.414999,0.204202,-0.334786,1
1.27348,-0.622998,-2.42994,-0.692317,2.21779,1.22173,-1.30259,1.27348,-0.622998,-2.42994,-0.692317,2.21779,1.22173,-1.30259,1.35365,-0.697385,-2.36505,-0.753563,2.17737,1.20091,-1.26949,-0.816574,0.705399,-1.1181,0.880497,0.815292,0.178824,-0.551765,-0.816574,0.705399,-1.1181,0.880497,0.815292,0.178824,-0.551765,0.138025,-0.623538,0.898324,0.947321,0.0592332,0.227059,0.217988,-0.904916,0.170373,0.600245,0.556081,-0.374952,1.64635,-3.70361,0.238729,-0.706351,-3.70361,0.209407,-0.706351,-0.801708,0.743873,-0.648955,0.612457,0.404181,0.208279,-0.331038,1
1.26525,-0.616685,-2.44222,-0.684168,2.22309,1.22498,-1.30667,1.26525,-0.616685,-2.44222,-0.684168,2.22309,1.22498,-1.30667,1.3456,-0.69032,-2.37588,-0.744357,2.18521,1.2031,-1.27516,-0.809624,0.702475,-1.07971,0.932303,0.778017,0.227216,-0.576092,-0.809624,0.702475,-1.07971,0.932303,0.778017,0.227216,-0.576092,0.128949,-0.621382,0.904597,0.950437,0.0542979,0.226812,0.205614,-0.896467,0.21383,0.624481,0.519204,-0.372954,1.6379,-3.68769,0.199828,-0.845218,-3.68769,0.203568,-0.845218,-0.803487,0.736349,-0.663384,0.601895,0.378835,0.218808,-0.315077,1
1.25588,-0.61114,-2.4546,-0.675307,2.22957,1.22533,-1.30863,1.25588,-0.61114,-2.4546,-0.675307,2.22957,1.22533,-1.30863,1.33702,-0.683631,-2.38697,-0.735347,2.19255,1.2052,-1.28081,-0.869412,0.660208,-1.1056,0.890863,0.71618,0.202493,-0.553778,-0.869412,0.660208,-1.1056,0.890863,0.71618,0.202493,-0.553778,0.119683,-0.6193,0.91052,0.953351,0.0496724,0.226808,0.192904,-0.917304,0.20145,0.579736,0.482269,-0.370908,1.62847,-3.69355,0.20459,-0.942814,-3.69355,0.204458,-0.942814,-0.81146,0.724907,-0.676329,0.600397,0.37023,0.201346,-0.278221,1
1.24736,-0.605567,-2.46553,-0.667167,2.23598,1.22975,-1.31281,1.24736,-0.605567,-2.46553,-0.667167,2.23598,1.22975,-1.31281,1.32865,-0.676845,-2.39702,-0.726483,2.19907,1.20755,-1.28609,-0.825191,0.685314,-0.975446,0.885398,0.630643,0.248259,-0.522788,-0.825191,0.685314,-0.975446,0.885398,0.630643,0.248259,-0.522788,0.110935,-0.616659,0.91657,0.955937,0.0446529,0.226984,0.180747,-0.847589,0.269116,0.608861,0.44495,-0.369037,1.61812,-3.73191,0.187087,-1.03508,-3.73191,0.203663,-1.03508,-0.812844,0.712785,-0.685033,0.593163,0.369147,0.222013,-0.267208,1
1.23786,-0.600548,-2.47669,-0.657956,2.24107,1.233,-1.31406,1.23786,-0.600548,-2.47669,-0.657956,2.24107,1.233,-1.31406,1.31986,-0.670368,-2.40709,-0.718025,2.20503,1.2101,-1.29132,-0.906154,0.62845,-1.0262,0.839152,0.59519,0.266068,-0.525856,-0.906154,0.62845,-1.0262,0.839152,0.59519,0.266068,-0.525856,0.102168,-0.614007,0.922259,0.958284,0.0398164,0.227422,0.168483,-0.88876,0.245233,0.551179,0.44495,-0.369037,1.61812,-3.73191,0.187087,-1.03508,-3.73191,0.203663,-1.03508,-0.819979,0.698198,-0.69601,0.600692,0.36047,0.228946,-0.227367,1
1.22901,-0.595549,-2.48777,-0.650579,2.24813,1.24029,-1.31772,1.22901,-0.595549,-2.48777,-0.650579,2.24813,1.24029,-1.31772,1.31089,-0.66384,-2.41716,-0.709566,2.21098,1.21304,-1.29655,-0.876332,0.6722,-0.991527,0.850506,0.589945,0.301063,-0.516125,-0.876332,0.6722,-0.991527,0.850506,0.589945,0.301063,-0.516125,0.0934074,-0.611037,0.92798,0.960446,0.034728,0.227925,0.156164,-0.850756,0.305186,0.585854,0.370316,-0.365609,1.59481,-3.76543,0.164077,-1.21924,-3.76543,0.194687,-1.21924,-0.818795,0.682908,-0.706025,0.589875,0.37146,0.272423,-0.211696,1
1.22033,-0.589305,-2.49845,-0.641353,2.25423,1.2453,-1.32134,1.22033,-0.589305,-2.49845,-0.641353,2.25423,1.2453,-1.32134,1.30218,-0.657064,-2.42743,-0.701077,2.21683,1.21606,-1.30137,-0.885033,0.662121,-1.05681,0.843363,0.58845,0.301075,-0.472286,-0.885033,0.662121,-1.05681,0.843363,0.58845,0.301075,-0.472286,0.0849425,-0.607671,0.933817,0.962351,0.0294778,0.228611,0.144044,-0.854577,0.312296,0.568878,0.370316,-0.365609,1.59481,-3.76543,0.164077,-1.21924,-3.76543,0.194687,-1.21924,-0.818472,0.677583,-0.71022,0.597248,0.37402,0.292394,-0.199691,1
1.21156,-0.584436,-2.51044,-0.634931,2.26243,1.24792,-1.32171,1.21156,-0.584436,-2.51044,-0.634931,2.26243,1.24792,-1.32171,1.29335,-0.650581,-2.43835,-0.692861,2.22282,1.21918,-1.3058,-0.865414,0.653156,-1.08692,0.820245,0.596887,0.316403,-0.430784,-0.865414,0.653156,-1.08692,0.820245,0.596887,0.316403,-0.430784,0.0764412,-0.604383,0.939301,0.964032,0.024542,0.229404,0.13196,-0.833068,0.32582,0.552566,0.3337,-0.363476,1.58144,-3.66153,0.213325,-1.33784,-3.66153,0.188488,-1.33784,-0.817895,0.661452,-0.720907,0.5793,0.396127,0.287338,-0.159082,1
1.20314,-0.579008,-2.52218,-0.627773,2.26929,1.25309,-1.32382,1.20314,-0.579008,-2.52218,-0.627773,2.26929,1.25309,-1.32382,1.28491,-0.643874,-2.44926,-0.684257,2.22876,1.22243,-1.30967,-0.851536,0.672116,-1.10313,0.868051,0.598478,0.338898,-0.374708,-0.851536,0.672116,-1.10313,0.868051,0.598478,0.338898,-0.374708,0.0682634,-0.600602,0.945051,0.96548,0.0192492,0.230274,0.120215,-0.822035,0.368273,0.578724,0.297379,-0.361087,1.56709,-3.63214,0.238872,-1.43423,-3.63214,0.192473,-1.43423,-0.817773,0.648665,-0.729184,0.564834,0.4053,0.306602,-0.14152,1
1.19426,-0.574391,-2.53464,-0.621202,2.27227,1.25986,-1.33036,1.19426,-0.574391,-2.53464,-0.621202,2.27227,1.25986,-1.33036,1.27614,-0.637352,-2.46076,-0.67583,2.23483,1.22624,-1.31309,-0.877782,0.645954,-1.15584,0.831187,0.605285,0.387016,-0.329934,-0.877782,0.645954,-1.15584,0.831187,0.605285,0.387016,-0.329934,0.0599378,-0.596746,0.950553,0.966717,0.0139902,0.231292,0.108474,-0.830025,0.368739,0.544593,0.222656,-0.357322,1.53568,-3.73837,0.203168,-1.60851,-3.73837,0.198077,-1.60851,-0.818781,0.629603,-0.738786,0.546277,0.374387,0.336249,-0.172699,1
1.18625,-0.569724,-2.5464,-0.616527,2.27868,1.26623,-1.33545,1.18625,-0.569724,-2.5464,-0.616527,2.27868,1.26623,-1.33545,1.26771,-0.630939,-2.47202,-0.66716,2.24097,1.23047,-1.31613,-0.832421,0.637792,-1.11787,0.879892,0.620338,0.434283,-0.296485,-0.832421,0.637792,-1.11787,0.879892,0.620338,0.434283,-0.296485,0.0519193,-0.592539,0.956109,0.967748,0.00837145,0.232268,0.0971885,-0.795626,0.408278,0.562474,0.185518,-0.35548,1.51801,-3.71383,0.184202,-1.76656,-3.71383,0.200029,-1.76656,-0.814681,0.612145,-0.743765,0.506335,0.37712,0.357591,-0.193208,1
1.17764,-0.56638,-2.55879,-0.611915,2.28697,1.27253,-1.33784,1.17764,-0.56638,-2.55879,-0.611915,2.28697,1.27253,-1.33784,1.2591,-0.624766,-2.48391,-0.658523,2.24767,1.23509,-1.3189,-0.87529,0.61024,-1.214,0.855419,0.694028,0.474731,-0.26952,-0.87529,0.61024,-1.214,0.855419,0.694028,0.474731,-0.26952,0.043745,-0.588277,0.961466,0.968624,0.00278678,0.233195,0.0859106,-0.828989,0.403806,0.530376,0.149026,-0.353738,1.49904,-3.64919,0.174135,-1.89743,-3.64919,0.197752,-1.89743,-0.814588,0.58386,-0.748869,0.466071,0.392988,0.374384,-0.189361,1
1.17011,-0.558924,-2.57047,-0.605249,2.29676,1.28113,-1.34191,1.17011,-0.558924,-2.57047,-0.605249,2.29676,1.28113,-1.34191,1.25073,-0.618535,-2.49586,-0.649842,2.25475,1.2401,-1.32144,-0.814312,0.630985,-1.18255,0.874307,0.701756,0.509654,-0.254743,-0.814312,0.630985,-1.18255,0.874307,0.701756,0.509654,-0.254743,0.0358224,-0.583667,0.966873,0.969321,-0.00308909,0.234072,0.0749548,-0.773261,0.450987,0.551792,0.149026,-0.353738,1.49904,-3.64919,0.174135,-1.89743,-3.64919,0.197752,-1.89743,-0.806135,0.59611,-0.746129,0.445932,0.420016,0.410341,-0.204712,1
1.16202,-0.55837,-2.58357,-0.602543,2.30444,1.28676,-1.34253,1.16202,-0.55837,-2.58357,-0.602543,2.30444,1.28676,-1.34253,1.24249,-0.61257,-2.50807,-0.641464,2.26148,1.24534,-1.32425,-0.839755,0.572908,-1.2401,0.820137,0.665361,0.525138,-0.29277,-0.839755,0.572908,-1.2401,0.820137,0.665361,0.525138,-0.29277,0.0281671,-0.579061,0.971952,0.969792,-0.00887699,0.235241,0.0639307,-0.778865,0.422906,0.491731,0.076245,-0.349659,1.45923,-3.64193,0.191391,-2.03652,-3.64193,0.19082,-2.03652,-0.804614,0.542009,-0.754943,0.38921,0.429538,0.414108,-0.182769,1
1.15418,-0.552367,-2.5959,-0.597898,2.31182,1.29403,-1.3451,1.15418,-0.552367,-2.5959,-0.597898,2.31182,1.29403,-1.3451,1.23402,-0.606679,-2.52037,-0.633694,2.26787,1.25096,-1.3275,-0.841301,0.609041,-1.21925,0.771731,0.631939,0.571782,-0.3348,-0.841301,0.609041,-1.21925,0.771731,0.631939,0.571782,-0.3348,0.0206879,-0.574402,0.97672,0.970038,-0.0146028,0.236714,0.0527252,-0.741896,0.460284,0.493927,0.0395575,-0.347823,1.43825,-3.66875,0.183526,-2.09833,-3.66875,0.192221,-2.09833,-0.798395,0.543126,-0.755243,0.357962,0.439509,0.430724,-0.175957,1
1.14607,-0.549019,-2.60856,-0.59271,2.32089,1.3016,-1.3494,1.14607,-0.549019,-2.60856,-0.59271,2.32089,1.3016,-1.3494,1.22547,-0.600263,-2.53255,-0.625951,2.27466,1.25729,-1.3311,-0.865067,0.642574,-1.22563,0.76224,0.699033,0.655841,-0.365504,-0.865067,0.642574,-1.22563,0.76224,0.699033,0.655841,-0.365504,0.0134214,-0.569086,0.98177,0.970101,-0.0210163,0.238205,0.0414893,-0.737702,0.507962,0.509078,0.0395575,-0.347823,1.43825,-3.66875,0.183526,-2.09833,-3.66875,0.192221,-2.09833,-0.79406,0.512442,-0.760132,0.332411,0.462348,0.443125,-0.182922,1
1.13771,-0.550598,-2.6219,-0.597009,2.32729,1.31029,-1.35355,1.13771,-0.550598,-2.6219,-0.597009,2.32729,1.31029,-1.35355,1.21644,-0.594271,-2.54538,-0.618861,2.28221,1.26432,-1.33471,-0.910656,0.584917,-1.29314,0.699776,0.772398,0.709184,-0.355077,-0.910656,0.584917,-1.29314,0.699776,0.772398,0.709184,-0.355077,0.00589703,-0.563952,0.986307,0.970012,-0.0272019,0.23963,0.0302425,-0.766332,0.481976,0.451292,-0.0334842,-0.344212,1.39292,-3.75818,0.142485,-2.31055,-3.75818,0.191978,-2.31055,-0.78731,0.436733,-0.765185,0.218522,0.450872,0.459698,-0.18837,1
1.12986,-0.550214,-2.63463,-0.601253,2.33978,1.32021,-1.35604,1.12986,-0.550214,-2.63463,-0.601253,2.33978,1.32021,-1.35604,1.20772,-0.588397,-2.55815,-0.612179,2.29024,1.2718,-1.3381,-0.862054,0.593673,-1.27975,0.662784,0.809291,0.747619,-0.333825,-0.862054,0.593673,-1.27975,0.662784,0.809291,0.747619,-0.333825,-0.0012893,-0.558705,0.99065,0.969763,-0.0334777,0.240949,0.0195581,-0.71654,0.502719,0.444697,-0.069513,-0.341636,1.36918,-3.60288,0.257647,-2.37368,-3.60288,0.196609,-2.37368,-0.778529,0.381832,-0.764729,0.109262,0.495423,0.484069,-0.179398,1
1.12261,-0.547719,-2.64752,-0.604594,2.34662,1.33166,-1.36011,1.12261,-0.547719,-2.64752,-0.604594,2.34662,1.33166,-1.36011,1.19877,-0.582475,-2.57119,-0.606091,2.29841,1.27924,-1.34123,-0.904561,0.590785,-1.30343,0.586602,0.813854,0.74388,-0.309138,-0.904561,0.590785,-1.30343,0.586602,0.813854,0.74388,-0.309138,-0.00838311,-0.553447,0.994775,0.969334,-0.0394461,0.242392,0.00899222,-0.718506,0.498388,0.414096,-0.106386,-0.340855,1.34485,-3.68727,0.0780761,-2.43313,-3.68727,0.185038,-2.43313,-0.761528,0.347561,-0.76329,0.0149777,0.482162,0.524151,-0.1888,1
1.1164,-0.557561,-2.66054,-0.621842,2.36128,1.33871,-1.36171,1.1164,-0.557561,-2.66054,-0.621842,2.36128,1.33871,-1.36171,1.18989,-0.576476,-2.58398,-0.6012,2.30655,1.28696,-1.34448,-0.882774,0.596106,-1.27371,0.459956,0.817842,0.778873,-0.330469,-0.882774,0.596106,-1.27371,0.459956,0.817842,0.778873,-0.330469,-0.0150446,-0.548238,0.99853,0.968735,-0.0451829,0.243947,-0.00114917,-0.669074,0.491701,0.375181,-0.142773,-0.338463,1.31839,-3.6387,0.239158,-2.64606,-3.6387,0.184017,-2.64606,-0.734826,0.189154,-0.765625,-0.20642,0.547261,0.51753,-0.172291,1
1.10942,-0.573587,-2.67285,-0.619269,2.37751,1.34778,-1.35881,1.10942,-0.573587,-2.67285,-0.619269,2.37751,1.34778,-1.35881,1.18096,-0.570897,-2.59667,-0.597513,2.31473,1.29486,-1.34773,-0.902164,0.546061,-1.27296,0.325364,0.814889,0.794656,-0.322153,-0.902164,0.546061,-1.27296,0.325364,0.814889,0.794656,-0.322153,-0.0215205,-0.543442,1.00165,0.968022,-0.050353,0.245518,-0.0108709,-0.661446,0.444802,0.302465,-0.177886,-0.33658,1.29084,-3.51132,0.188282,-2.75551,-3.51132,0.183691,-2.75551,-0.715391,-0.0269026,-0.761855,-0.217564,0.627815,0.529167,-0.110821,1
1.10555,-0.54737,-2.68408,-0.617294,2.38277,1.36155,-1.36781,1.10555,-0.54737,-2.68408,-0.617294,2.38277,1.36155,-1.36781,1.17181,-0.565286,-2.60915,-0.595437,2.32303,1.30293,-1.35084,-0.908347,0.577998,-1.22616,0.175409,0.835157,0.825323,-0.310852,-0.908347,0.577998,-1.22616,0.175409,0.835157,0.825323,-0.310852,-0.0277742,-0.53891,1.00427,0.967215,-0.0549588,0.247126,-0.0200959,-0.623727,0.444867,0.272929,-0.21518,-0.335064,1.26327,-3.72937,0.151625,-2.75649,-3.72937,0.179121,-2.75649,-0.662533,0.179165,-0.7493,-0.218564,0.597493,0.586132,-0.169726,1
1.09525,-0.560596,-2.69743,-0.618555,2.39322,1.36791,-1.36968,1.09525,-0.560596,-2.69743,-0.618555,2.39322,1.36791,-1.36968,1.16275,-0.559415,-2.62122,-0.595067,2.33147,1.31161,-1.35393,-0.9196,0.567692,-1.21937,-0.0257655,0.852318,0.871641,-0.306525,-0.9196,0.567692,-1.21937,-0.0257655,0.852318,0.871641,-0.306525,-0.0335688,-0.534465,1.00647,0.96632,-0.0593506,0.248766,-0.0286102,-0.602106,0.403135,0.200269,-0.21518,-0.335064,1.26327,-3.72937,0.151625,-2.75649,-3.72937,0.179121,-2.75649,-0.675017,-0.0118034,-0.762142,-0.23488,0.617475,0.562962,-0.157521,1
1.08298,-0.582554,-2.70877,-0.630246,2.40269,1.3786,-1.36933,1.08298,-0.582554,-2.70877,-0.630246,2.40269,1.3786,-1.36933,1.15338,-0.554322,-2.63331,-0.596615,2.34065,1.32074,-1.35665,-0.930494,0.500618,-1.19644,-0.192354,0.940021,0.928528,-0.253772,-0.930494,0.500618,-1.19644,-0.192354,0.940021,0.928528,-0.253772,-0.039563,-0.530858,1.00767,0.9655,-0.0627598,0.250096,-0.0363807,-0.60734,0.342016,0.115352,-0.288908,-0.331547,1.20512,-3.66099,0.191158,-3.03282,-3.66099,0.17307,-3.03282,-0.703912,-0.282318,-0.754577,-0.336308,0.620387,0.578591,-0.126773,1
1.07271,-0.585136,-2.72047,-0.635595,2.41044,1.39139,-1.3743,1.07271,-0.585136,-2.72047,-0.635595,2.41044,1.39139,-1.3743,1.14413,-0.549535,-2.64529,-0.599407,2.35091,1.33026,-1.35881,-0.931608,0.467086,-1.20525,-0.28976,1.05614,0.964768,-0.21667,-0.931608,0.467086,-1.20525,-0.28976,1.05614,0.964768,-0.21667,-0.0455387,-0.527595,1.00839,0.964793,-0.0657458,0.250965,-0.0432271,-0.617179,0.314037,0.0704973,-0.324663,-0.329783,1.17408,-3.57548,0.176334,-3.10414,-3.57548,0.179181,-3.10414,-0.71415,-0.356009,-0.751737,-0.36188,0.595292,0.611268,-0.154899,1
1.06479,-0.582758,-2.73264,-0.640564,2.41837,1.40363,-1.38193,1.06479,-0.582758,-2.73264,-0.640564,2.41837,1.40363,-1.38193,1.13474,-0.545195,-2.65761,-0.602345,2.3622,1.34047,-1.36132,-0.931596,0.422974,-1.23664,-0.299083,1.14693,1.0508,-0.260064,-0.931596,0.422974,-1.23664,-0.299083,1.14693,1.0508,-0.260064,-0.0518323,-0.524412,1.00885,0.964111,-0.0688569,0.251467,-0.05013,-0.6375,0.307978,0.0448552,-0.360892,-0.328379,1.14277,-3.62295,0.140452,-3.13106,-3.62295,0.169164,-3.13106,-0.69946,-0.375633,-0.75034,-0.382195,0.561638,0.631643,-0.206061,1
1.05631,-0.585959,-2.74405,-0.647231,2.42596,1.41503,-1.38848,1.05631,-0.585959,-2.74405,-0.647231,2.42596,1.41503,-1.38848,1.12604,-0.541686,-2.66983,-0.605353,2.37375,1.3511,-1.36391,-0.848655,0.319888,-1.21971,-0.310888,1.1495,1.0622,-0.255953,-0.848655,0.319888,-1.21971,-0.310888,1.1495,1.0622,-0.255953,-0.0579839,-0.521598,1.00889,0.963466,-0.071918,0.251718,-0.056558,-0.61648,0.252293,-0.00999922,-0.398534,-0.326502,1.11005,-3.76415,0.187689,-3.2722,-3.76415,0.168864,-3.2722,-0.697337,-0.442727,-0.742149,-0.418777,0.522195,0.639299,-0.245749,1
1.04516,-0.598306,-2.75666,-0.659534,2.43976,1.42175,-1.39355,1.04516,-0.598306,-2.75666,-0.659534,2.43976,1.42175,-1.39355,1.1178,-0.539568,-2.68209,-0.608824,2.38475,1.36153,-1.36625,-0.815676,0.178225,-1.21628,-0.359219,1.07846,1.03291,-0.224771,-0.815676,0.178225,-1.21628,-0.359219,1.07846,1.03291,-0.224771,-0.0641954,-0.51976,1.00806,0.962876,-0.074055,0.251936,-0.0625622,-0.628305,0.15963,-0.0999545,-0.434441,-0.323832,1.07531,-3.59067,0.266975,-3.47325,-3.59067,0.181347,-3.47325,-0.726429,-0.587386,-0.745622,-0.507097,0.5501,0.602161,-0.272999,1
1.03466,-0.603089,-2.76832,-0.665659,2.44457,1.43233,-1.39563,1.03466,-0.603089,-2.76832,-0.665659,2.44457,1.43233,-1.39563,1.11013,-0.53858,-2.6936,-0.612845,2.39467,1.3719,-1.36868,-0.760202,0.0760861,-1.14487,-0.418827,0.95979,1.03481,-0.257355,-0.760202,0.0760861,-1.14487,-0.418827,0.95979,1.03481,-0.257355,-0.0701754,-0.518717,1.00648,0.962318,-0.075552,0.252198,-0.0680587,-0.602424,0.0897701,-0.171968,-0.469785,-0.322253,1.04041,-3.53444,0.157937,-3.49034,-3.53444,0.186882,-3.49034,-0.754687,-0.645087,-0.747236,-0.528142,0.498924,0.604339,-0.269502,1
