Afshin1997/kuka_rl_ros2/src/catch_and_throw/output_files/ft/idealpd_4_2/ft_received_joint_vel_np.csv
joint_0,joint_1,joint_2,joint_3,joint_4,joint_5,joint_6
0.000000000000000000e+00,-5.988660989070943019e-05,0.000000000000000000e+00,-5.994115137575306562e-05,0.000000000000000000e+00,0.000000000000000000e+00,-1.198277612690645810e-04
-5.988660989331151541e-05,5.988660989070943019e-05,-2.999784654011961038e-05,0.000000000000000000e+00,-4.799655428655569267e-05,5.994115143126421685e-05,0.000000000000000000e+00
-2.999784648460845915e-05,2.999784648460845915e-05,0.000000000000000000e+00,0.000000000000000000e+00,4.799655428655569267e-05,-5.994115143126421685e-05,0.000000000000000000e+00
0.000000000000000000e+00,8.988445637531788934e-05,0.000000000000000000e+00,-2.994330494665575770e-05,9.581857585150288514e-05,5.994115143126421685e-05,5.994115137575306562e-05
1.198823028625284337e-04,0.000000000000000000e+00,6.891323460767040388e-04,-7.190756510233597965e-04,-6.710790966257818013e-04,1.228384542750760033e-03,-9.287878687258555033e-04
1.258327847697415791e-03,9.886744785853399109e-04,6.741116061914631530e-03,-7.639906084211389725e-03,-1.581966432184778171e-03,9.467538516660933823e-03,-1.138500086317328908e-03
3.475441410605295545e-03,3.415500259172296604e-03,1.764675133908433224e-02,-1.953432492285411826e-02,6.711227298561439625e-03,1.204413536348702962e-02,1.039632638533127817e-02
4.973424780951862800e-03,6.321691626578161693e-03,2.762365328901061901e-02,-3.097921239680889727e-02,3.000849299283903093e-02,1.707750129587015664e-03,3.547327159081348213e-02
3.984750302332695782e-03,7.460191712968348987e-03,3.166829020118111515e-02,-3.169823350612777091e-02,7.837680249800360599e-02,-2.450774970391700336e-02,9.284780727536467992e-02
-7.490189559145044029e-04,6.231752628664023741e-03,2.519682750845575470e-02,-2.082259607560921211e-02,1.745382482541968372e-01,-7.283411676556328374e-02,2.075368284097933724e-01
-7.490135017940158235e-03,2.996075823781182979e-03,7.400305103044679811e-03,4.194244354049914136e-04,3.224235735317382279e-01,-1.656219828895522106e-01,3.899666592260819797e-01
-1.441101999261062971e-02,-1.348212304085744107e-03,-1.989386274836579815e-02,3.100921024323799458e-02,5.083708645601259235e-01,-3.178516181114310335e-01,6.184459114727536289e-01
-2.019340488096377229e-02,-4.224460366546688161e-03,-5.105278951644809382e-02,7.103648217954283695e-02,7.289763802365012424e-01,-5.185573914613939017e-01,8.733803736170608900e-01
-2.199103946692870792e-02,-2.636537998281646145e-03,-7.373290678780453078e-02,1.179247524809579062e-01,9.551906859905923142e-01,-7.387974897342108882e-01,1.142965456735201002e+00
-1.905495933607337378e-02,4.673882648422410246e-03,-8.203205645462841034e-02,1.677492119960266592e-01,1.192094784334907231e+00,-9.975968744196372917e-01,1.408985323069433804e+00
-1.483044442807113228e-02,1.551957677407758002e-02,-8.152269302130754625e-02,2.074468894118774998e-01,1.422000199653439267e+00,-1.253849496480052839e+00,1.658706595827119656e+00
-1.072586636430283846e-02,3.032007789715695373e-02,-7.424227022112539487e-02,2.410028077385328871e-01,1.629279341107792156e+00,-1.472951149208034938e+00,1.887815039268381234e+00
-1.171459538445995818e-02,5.111273066779695867e-02,-6.288721266212160543e-02,2.765959070907264561e-01,1.817479677665212456e+00,-1.692082690699481251e+00,2.087082715857890847e+00
-1.944444046658722058e-02,7.681886706796016429e-02,-4.658867362716812011e-02,3.121291198330267136e-01,1.999591869466188498e+00,-1.886616598030577130e+00,2.254352562267136761e+00
-3.358575254852613767e-02,1.068094049861021827e-01,-2.297971394549236379e-02,3.440970612498261971e-01,2.161139195780314992e+00,-2.034412060668344679e+00,2.366045507577796414e+00
-5.422863425286195138e-02,1.376387917750229728e-01,1.174453868935110279e-02,3.750762736466350944e-01,2.307682362864493797e+00,-2.109792830975787403e+00,2.412784006812662696e+00
-7.678892376300483491e-02,1.670900774964536317e-01,5.476788644964702968e-02,4.073438117374594825e-01,2.441042796324177644e+00,-2.149610390694556283e+00,2.402926987165709960e+00
-1.032440791191580054e-01,1.940845395908118720e-01,1.072588272680308208e-01,4.358662550487668597e-01,2.533369317385680830e+00,-2.121147888534791193e+00,2.333807967333401123e+00
-1.291899801250107060e-01,2.147273122121099442e-01,1.646033105643374128e-01,4.677742553140795678e-01,2.604651443748995376e+00,-2.063803350696780115e+00,2.218459757157731360e+00
-1.585512723069615326e-01,2.297076367894761717e-01,2.277601765957593116e-01,4.846720422387873484e-01,2.636864985716247389e+00,-1.986505118041992368e+00,2.079862234209084448e+00
-1.859652133782696559e-01,2.339320971560237272e-01,2.910069816248750385e-01,4.821253341553699556e-01,2.615389320160255160e+00,-1.879096519707745827e+00,1.931407637071780314e+00
-2.138285221899294264e-01,2.362689839386952484e-01,3.588076779166282648e-01,4.763729471134459104e-01,2.570760029507179745e+00,-1.744663461432649498e+00,1.787896575952130362e+00
-2.386059252628691674e-01,2.345012926576795775e-01,4.239718907514955504e-01,4.798483885241067171e-01,2.487829226663684778e+00,-1.617690594870546672e+00,1.659126020262524648e+00
-2.661096962490727691e-01,2.257228864871096696e-01,4.880575991930147239e-01,4.813164285895066286e-01,2.367699348850171859e+00,-1.538894324303874406e+00,1.529996035830483159e+00
-2.982274632736814368e-01,2.116114631685469261e-01,5.427954877961216340e-01,4.892559858893363867e-01,2.252698731903035601e+00,-1.466659400886416442e+00,1.404191667201182270e+00
-3.294463311930284632e-01,1.918974238744059480e-01,5.945374096585354096e-01,5.054046993164806878e-01,2.136499684626369522e+00,-1.328990611264901922e+00,1.283540437724051131e+00
-3.647099451077884247e-01,1.693670231276956373e-01,6.347743938126537699e-01,5.095692185315137124e-01,1.999400145048069177e+00,-1.225866359907124004e+00,1.163728166200916903e+00
-4.023103912635939139e-01,1.529187130264609285e-01,6.693489299228749800e-01,4.995924256647743533e-01,1.876106421636603017e+00,-1.150935011881459857e+00,1.058027263454719424e+00
-4.352071205491192529e-01,1.413838865547498713e-01,6.952348352358139749e-01,4.924617193892144584e-01,1.767289680755235182e+00,-1.033160030466884205e+00,9.629624516995782813e-01
-4.676844253992951117e-01,1.262837887576013784e-01,7.137504878336198288e-01,4.818557353276631261e-01,1.649508667046384325e+00,-9.407017043219778607e-01,8.739196258138459683e-01
-4.995024866668029695e-01,1.181045213936330746e-01,7.237573330884927714e-01,4.705905622252037901e-01,1.533453522166383642e+00,-8.954014109305297175e-01,7.929362395306949196e-01
-5.287440056290226842e-01,1.224188662165546504e-01,7.411344310583878325e-01,4.757437559188559817e-01,1.434367864518337754e+00,-8.195112226481726658e-01,7.113836032045517399e-01
-5.545100831805815922e-01,1.317066358204296017e-01,7.498529506191342620e-01,4.838630821314415797e-01,1.332885520744064856e+00,-7.227087174584978513e-01,6.356432950714863139e-01
-5.810850662980038273e-01,1.464472503336171905e-01,7.554255687481914450e-01,4.886267946946354357e-01,1.240750811367097306e+00,-6.825315653727348497e-01,5.731755068446586776e-01
-6.079597551726378946e-01,1.653223862154375445e-01,7.591407747645773085e-01,4.852712355869481797e-01,1.153984909296079664e+00,-6.455302580234967280e-01,5.119361031606928236e-01
-6.337557760291434583e-01,1.891110602683203357e-01,7.597399135711446760e-01,4.785900061348158374e-01,1.076662809263662091e+00,-5.595135058080180634e-01,4.603740047526283519e-01
-6.587428913198412062e-01,2.148471945149688089e-01,7.549462577028931420e-01,4.726578501802469745e-01,1.006818659669561633e+00,-5.307214091276879486e-01,4.112386775835252806e-01
-6.825015675262502413e-01,2.429501588492343489e-01,7.470965848594968151e-01,4.614825615341100473e-01,9.451239759423746278e-01,-5.146625256153836148e-01,3.648897140204887535e-01
-6.988301589492262877e-01,2.718621378324140858e-01,7.375691051915156393e-01,4.504570439540778182e-01,8.830455815797000341e-01,-4.594452168839024964e-01,3.221958516977929676e-01
-7.140500299661622918e-01,3.091330985507733664e-01,7.408348343843629280e-01,4.545916198642752093e-01,8.412446842427367955e-01,-4.338888515499905729e-01,2.872020002352426715e-01
-7.258545643485381227e-01,3.502689272686406730e-01,7.474261248384683753e-01,4.532433530185508985e-01,7.973344692406847400e-01,-4.293049078994970458e-01,2.572114077756815220e-01
-7.382881808424279768e-01,3.919740605712421777e-01,7.594103735921731158e-01,4.611529670135450232e-01,7.493016120173612293e-01,-3.912250416153173482e-01,2.371678285023604005e-01
-7.536279887038199732e-01,4.354767739182656694e-01,7.660616051976543162e-01,4.777811005689525103e-01,7.223132367587536962e-01,-3.638709871539025364e-01,2.232061762501569291e-01
-7.787349317557867856e-01,4.745453146810468814e-01,7.628858150027229001e-01,4.852412922820015240e-01,7.076445298106470716e-01,-3.426889077943195971e-01,2.100834274102458821e-01
-8.133992977808479630e-01,5.039966004024767354e-01,7.412243155148212637e-01,4.691524109231570705e-01,6.797451799500642267e-01,-3.140166934169075219e-01,1.946238463290672627e-01
-8.534266242588017803e-01,5.276653921524997459e-01,7.154881812682090114e-01,4.582168323411517363e-01,6.682883151541973987e-01,-2.770752726775627117e-01,1.890511191168231520e-01
-8.900683937825282221e-01,5.459413892277189539e-01,6.890330259120558409e-01,4.479104449537363308e-01,6.678569570300885161e-01,-2.808802540671395676e-01,1.879126735720992869e-01
-9.223358773319256798e-01,5.582851212652655271e-01,6.742924113988246759e-01,4.427571421768972115e-01,6.531402535276953358e-01,-2.733302324393616090e-01,1.908787515493282072e-01
-9.490007994472637876e-01,5.722167756710785369e-01,6.673415285777251071e-01,4.454836191731814665e-01,6.424502864043057926e-01,-2.719520222888016647e-01,1.906390414850855919e-01
-9.676063365014475615e-01,5.893841614233122916e-01,6.786366995267245628e-01,4.590257924484975049e-01,6.466208379136695328e-01,-2.570915800143014351e-01,1.941444262006930543e-01
-9.781524339531055823e-01,6.057426416097109190e-01,6.940663918444389680e-01,4.649280050981197121e-01,6.411081282110542290e-01,-2.655404462058585935e-01,1.947137307855006938e-01
-9.888783003174084207e-01,6.212922162302730866e-01,7.060505860564392222e-01,4.713994677910671172e-01,6.429296410829232755e-01,-2.724014445706357535e-01,1.986384853948086615e-01
-1.000413126789112539e+00,6.375907007237033852e-01,7.106645820950108217e-01,4.841626788054664843e-01,6.464291134955502116e-01,-2.684166397267651050e-01,2.034022524995959813e-01
-1.016022588019582784e+00,6.518519496500705390e-01,7.123423343781132289e-01,4.964465242330851069e-01,6.480109926612076521e-01,-2.651809629218293551e-01,2.098138285826500748e-01
-1.040560281028390932e+00,6.660832552714919252e-01,7.002682011681971019e-01,5.080412373147380478e-01,6.491136044149969919e-01,-2.775845815693456231e-01,2.120009442989623238e-01
-1.066955549774650791e+00,6.804942207225862516e-01,6.823218531549768429e-01,5.226320807616424702e-01,6.640219450690931779e-01,-2.671583664205501307e-01,2.167347135573205463e-01
-1.097305625518241179e+00,6.967928142990933438e-01,6.638062005571709889e-01,5.358446595165045068e-01,6.736572097266746439e-01,-2.575410022961355239e-01,2.249439242262285532e-01
-1.125138936483416341e+00,7.160873746163056719e-01,6.526908530624098148e-01,5.520533140950245610e-01,6.779715763661764427e-01,-2.626642526849520820e-01,2.355199649827222075e-01
-1.144942860233921778e+00,7.391270842547811304e-01,6.558366999525055974e-01,5.593636802002643904e-01,6.881821015445321876e-01,-2.653007361416159782e-01,2.449575601944919967e-01
-1.153032243141505209e+00,7.662114308055155698e-01,6.703376044013831248e-01,5.524128519205362409e-01,6.992076082161791106e-01,-2.610164437067963306e-01,2.564324455146538284e-01
-1.154620165509823160e+00,7.944642207475850482e-01,6.955943730613256548e-01,5.381216596892501869e-01,7.061584692207301117e-01,-2.770153315261314475e-01,2.665291752259602021e-01
-1.150665358512326097e+00,8.205898361246799499e-01,7.263938710867501314e-01,5.318299113676872025e-01,7.176154212829022327e-01,-2.955609819704774210e-01,2.787830228071497274e-01
-1.151234608555595784e+00,8.413225477438903699e-01,7.462276836007752934e-01,5.338073694078904197e-01,7.297913617297924205e-01,-3.024818124036654510e-01,2.859436178460628142e-01
-1.166065052983555894e+00,8.564825866924693498e-01,7.368800273869213768e-01,5.393500442320009469e-01,7.394746229416604422e-01,-3.058673693577818042e-01,2.949916773856697816e-01
-1.192819859555271922e+00,8.647217406663292305e-01,7.073988529020525107e-01,5.344964472123736599e-01,7.527051785878313694e-01,-3.029012913806639062e-01,3.044592159023862266e-01
-1.220143916170257636e+00,8.622350282758515227e-01,6.737531046606681784e-01,5.305715835198787644e-01,7.714964404907931339e-01,-3.097922330502766997e-01,3.181811580904581049e-01
-1.240157552138410058e+00,8.514492207600844464e-01,6.501142562155282079e-01,5.277552766088655645e-01,7.841518228826060977e-01,-3.086237351175302734e-01,3.278584633663594872e-01
-1.248516533873589296e+00,8.393152009402368163e-01,6.491255271954265993e-01,5.173290614601810944e-01,7.992039786668403423e-01,-3.254615808906402563e-01,3.390936386223897259e-01
-1.243183571267125753e+00,8.343716649226867732e-01,6.680906020750665419e-01,5.017794868396041608e-01,8.133454216485702659e-01,-3.491004838772626684e-01,3.465538303354387395e-01
-1.226675320014525283e+00,8.403039299603592971e-01,7.010471634291137732e-01,4.821253341552589333e-01,8.225971502033857519e-01,-3.524860408316010663e-01,3.543136187224016354e-01
-1.210586493197218783e+00,8.543553575859514915e-01,7.286708712596068338e-01,4.676844253993506229e-01,8.309861625100944948e-01,-3.686347542586343451e-01,3.616539281325881205e-01
-1.205073707136461447e+00,8.721819323792984191e-01,7.331948737585580744e-01,4.657369106639830392e-01,8.362592385064981926e-01,-3.818173897085497259e-01,3.751362147980108475e-01
-1.216638531454650174e+00,8.855742800468573428e-01,7.124921054444399715e-01,4.747550814402368147e-01,8.471408427815907416e-01,-3.733385802121569341e-01,3.887982158347069728e-01
-1.234584879467759411e+00,8.888999503911982902e-01,6.812132963736061697e-01,4.879676601950988513e-01,8.648775767516880819e-01,-3.673164852594501539e-01,3.978163320694783067e-01
-1.252890765306435839e+00,8.836867610045213706e-01,6.499045439978257122e-01,4.912633326930038180e-01,8.717325319140822870e-01,-3.633616782622306474e-01,4.010820612623255954e-01
-1.263616686212276630e+00,8.816494708959211613e-01,6.340254293982772182e-01,4.777211594175767573e-01,8.768617055139316108e-01,-3.723499057334267448e-01,4.111487931270918494e-01
-1.261669226018558021e+00,8.837767000024406849e-01,6.348043916590828672e-01,4.560597144711575623e-01,8.907156055016907104e-01,-3.835251398381922527e-01,4.181296192533601186e-01
-1.251332840784602496e+00,8.838665299172703271e-01,6.545184309533214062e-01,4.321811014204035573e-01,8.989606281450956971e-01,-3.817275052521162948e-01,4.227435062087447903e-01
-1.235274011813836115e+00,8.837467021559560765e-01,6.774083149839738027e-01,4.069842739120588249e-01,8.981457339183318567e-01,-3.996739078069300177e-01,4.276870422262879501e-01
-1.223559416429431668e+00,8.843159521991460492e-01,6.824416809163569297e-01,3.984155254176391381e-01,9.056718554436571367e-01,-4.237621785337930547e-01,4.380234274601324529e-01
-1.223199824062326524e+00,8.850649711550951926e-01,6.675512953369100444e-01,4.076134651066487535e-01,9.127665315784572186e-01,-4.142946945586700735e-01,4.454536213266413469e-01
-1.225117395492691941e+00,8.835369899382571335e-01,6.517021240423082062e-01,4.284660044870935991e-01,9.135814258053320813e-01,-4.218147183400189348e-01,4.505768717154579051e-01
-1.230690013621804635e+00,8.802712607453543336e-01,6.353137550924037313e-01,4.376638896347317953e-01,9.131499804146958610e-01,-4.435361589794073467e-01,4.565090822115092095e-01
-1.227454282275386444e+00,8.763165082894680546e-01,6.327670470089863386e-01,4.417385243933313888e-01,9.208678263581404622e-01,-4.496780816931611469e-01,4.647182928804172164e-01
-1.213402745566694030e+00,8.673282808181261849e-01,6.461295059132510232e-01,4.338888515500460841e-01,9.225936079205743212e-01,-4.415587554806865711e-01,4.703508521610721971e-01
-1.192789916250325266e+00,8.603475092335138852e-01,6.688096231846074602e-01,4.141448689509719117e-01,9.275310571024153461e-01,-4.766126571776885257e-01,4.746352536789677501e-01
-1.175502648195270172e+00,8.579206834529312653e-01,6.865762568264432986e-01,3.917942916584760127e-01,9.336190273258049288e-01,-5.029179869260325120e-01,4.736465246587551192e-01
-1.166724187483147990e+00,8.572316056484132751e-01,6.889430869141399683e-01,3.757354081461716788e-01,9.303114538641299447e-01,-4.785001216783824063e-01,4.787398317426250216e-01
-1.171577839044313230e+00,8.540558154534194646e-01,6.668622175324268042e-01,3.666573507599135695e-01,9.342421971344494480e-01,-4.767924260904443656e-01,4.815860819586958996e-01
-1.186647993536515955e+00,8.498014117819321367e-01,6.342051983110330582e-01,3.579088878943315066e-01,9.427271152833149870e-01,-5.017794868396041608e-01,4.844922187844380446e-01
-1.197763341031332640e+00,8.472547036984801050e-01,6.049037381973265681e-01,3.557816587879125692e-01,9.450759793880880721e-01,-4.857805444786755800e-01,4.856008301075132039e-01
-1.197343916595927649e+00,8.479438360445429312e-01,6.001999667856194876e-01,3.703725022347059692e-01,9.456991491967325913e-01,-4.695419465952088700e-01,4.840128531976573001e-01
-1.183502146646475683e+00,8.499811806946810933e-01,6.171276424735694377e-01,3.726494478660802301e-01,9.458908736148519125e-01,-5.086404306627878569e-01,4.839230232828173328e-01
-1.157795955704754576e+00,8.517787607391010818e-01,6.505936218024199746e-01,3.581186001120340023e-01,9.506845949328601719e-01,-5.265568899126549240e-01,4.888964480638247068e-01
-1.127026455525759197e+00,8.543254142810082774e-01,6.866361434364476324e-01,3.429885044684555240e-01,9.477604703074238301e-01,-5.126851766581452807e-01,4.954577952129834983e-01
-1.103387607080619226e+00,8.631937594494876187e-01,7.040732370993119105e-01,3.298658101699158962e-01,9.491985343429432120e-01,-5.388107374938444494e-01,4.998320811874235048e-01
-1.094699030824930475e+00,8.696352788373912235e-01,6.985305077336079194e-01,3.188103492851590559e-01,9.459388701692494905e-01,-5.392002186241917627e-01,5.053148694015296982e-01
-1.095358165324522570e+00,8.643023162309415586e-01,6.803743929612027230e-01,3.193795993282622092e-01,9.422476733383922110e-01,-5.131345443984969279e-01,4.998619699507766967e-01
-1.100691127930930602e+00,8.510297417831519384e-01,6.624280449482045086e-01,3.226153306746804006e-01,9.492944401852110303e-01,-5.147224667668703901e-01,4.921022361052962424e-01
-1.100421474561852353e+00,8.304768536182352001e-01,6.497247205434764084e-01,3.273191020866095258e-01,9.439254583464284920e-01,-5.316801403013604599e-01,4.939298685376902753e-01
-1.094818858586255050e+00,8.107927576290404614e-01,6.521216030191956392e-01,3.351388861665416385e-01,9.418642245021535686e-01,-5.309311213453904443e-01,4.996522577330742010e-01
-1.080467779745020174e+00,8.021041268317652406e-01,6.652742951641643643e-01,3.423293699688079172e-01,9.426312094410471687e-01,-5.344365060608868845e-01,5.052849260966940648e-01
-1.062191782669863471e+00,7.986287399627047812e-01,6.902314126083775037e-01,3.411309832725972768e-01,9.387961974800518306e-01,-5.337174849515680108e-01,5.084307184451963835e-01
-1.041159528918089716e+00,7.988385067219383462e-01,7.131812377904056532e-01,3.370562939722931972e-01,9.290650269803135686e-01,-5.506451606395179610e-01,5.140932755721694392e-01
-1.030463551317140070e+00,7.948537018780260643e-01,7.219297006560987384e-01,3.408613299034080057e-01,9.243193022164808426e-01,-5.358446595165045068e-01,5.171792358523719102e-01
-1.025460183231241551e+00,7.868842012732981672e-01,7.107544120098507889e-01,3.557217721779082353e-01,9.272435141084445220e-01,-5.339271426275660204e-01,5.201752571345474863e-01
-1.033219917076777516e+00,7.727428346497935419e-01,6.881042380433299854e-01,3.627624849140698160e-01,9.276748722325534047e-01,-5.265269466077082683e-01,5.227818518279692128e-01
-1.042687510134920892e+00,7.552159110720546575e-01,6.645552195131410045e-01,3.545532742450507868e-01,9.326603179687920075e-01,-5.203850238938434458e-01,5.197858305456826145e-01
-1.046103010394094923e+00,7.383480674523490439e-01,6.520916597142489834e-01,3.456849836180886371e-01,9.382689335136751296e-01,-5.234409863275057972e-01,5.180480825696109903e-01
-1.041189417681498419e+00,7.227386607634375126e-01,6.556569310396387351e-01,3.441270045548838752e-01,9.396111789733430086e-01,-5.272459677170271419e-01,5.197558326991424948e-01
-1.026119317730833647e+00,7.139302022048445995e-01,6.764795271152479472e-01,3.524260996801142909e-01,9.365431519511302483e-01,-5.216433517415408616e-01,5.204149671987901016e-01
-1.002180818070130819e+00,7.143496811817736658e-01,7.089268341189391975e-01,3.688744097812834966e-01,9.362556089573814688e-01,-5.373126995819044183e-01,5.223324295460241018e-01
-9.786018562349396710e-01,7.182446015693011443e-01,7.432616601650288146e-01,3.739378281018002070e-01,9.328999516747815690e-01,-5.336575438000812355e-01,5.196060070914443330e-01
-9.584383401173846018e-01,7.180647781150212294e-01,7.662713174153568119e-01,3.800496984275314460e-01,9.289692084043510434e-01,-5.234709296324524530e-01,5.161605635272126236e-01
-9.503490662929325872e-01,7.201021227651523970e-01,7.649231051113369872e-01,3.873601190742537170e-01,9.334273029076856076e-01,-5.309311213453904443e-01,5.133742544627395432e-01
-9.550228943997485231e-01,7.186639714631543052e-01,7.412542588197679194e-01,3.921837727889343483e-01,9.309346236727744639e-01,-5.199356016118983348e-01,5.121758132249354389e-01
-9.667374352426705286e-01,7.102751009645732472e-01,7.132411789418924286e-01,3.968576008958057955e-01,9.232166904628025250e-01,-4.929411395175886668e-01,5.100785819648345765e-01
-9.741676836507173753e-01,6.981709699081239950e-01,6.949352385616780481e-01,4.012617756335989938e-01,9.322768691325533652e-01,-5.111870842048338304e-01,5.103781786389705033e-01
-9.733887213898007040e-01,6.869057968055397589e-01,6.902314126082664814e-01,4.006925801318672598e-01,9.352489030458599473e-01,-5.113669076590721119e-01,5.102583508775904164e-01
-9.647900295904898726e-01,6.778277394193579219e-01,7.030545647742636461e-01,3.974867920905067464e-01,9.309346236728854862e-01,-5.067829094670406320e-01,5.179581981132885815e-01
-9.507984340332287232e-01,6.778876805707891862e-01,7.224390095478261387e-01,3.971871408747773557e-01,9.325644121264131670e-01,-5.160407357659435590e-01,5.172990636136409748e-01
-9.330018570863352068e-01,6.804043908077497260e-01,7.488343328355684392e-01,4.041380236960989691e-01,9.338108390103405654e-01,-5.259875853278472846e-01,5.126551788117161834e-01
-9.150555090732259700e-01,6.801946240485231554e-01,7.715443934119825542e-01,4.065049083251670581e-01,9.224976148118901875e-01,-5.325490415600819816e-01,5.085805440530055677e-01
-9.009740290596424117e-01,6.702777177915453244e-01,7.859554134046486951e-01,4.098305786695011221e-01,9.243672987708784206e-01,-5.284144111085131712e-01,5.081610650760071124e-01
-8.946223395865371408e-01,6.573047945593879504e-01,7.829593921223620967e-01,4.138751610403001990e-01,9.304551817278516879e-01,-5.300622746281513642e-01,5.085805440530055677e-01
-8.965698543218492134e-01,6.406766610038555632e-01,7.666009119359218360e-01,4.224139662296622078e-01,9.232646870172001030e-01,-5.302719868458538599e-01,5.119061598557461679e-01
-9.025619514279048516e-01,6.218614117319276602e-01,7.432016644720595977e-01,4.307730025064904211e-01,9.183272378354701004e-01,-5.071723905973879454e-01,5.096891008344872631e-01
-9.064568172738596274e-01,6.055928160019069528e-01,7.269631211299643070e-01,4.406299676119607156e-01,9.282500454869113682e-01,-5.145426978541145502e-01,5.123555821376912789e-01
-9.085839918388516345e-01,5.942977541359140137e-01,7.174955280717654205e-01,4.375440618733517084e-01,9.257574535185275622e-01,-5.286241778676981085e-01,5.130147166372278633e-01
-9.029514325583631873e-01,5.878561802064863340e-01,7.262140476325118499e-01,4.285258910969869106e-01,9.151633049711005441e-01,-5.064833127929047052e-01,5.183476792436358949e-01
-8.886602403269661110e-01,5.860884889254541763e-01,7.425725278189521106e-01,4.268181955090488700e-01,9.192380379045017591e-01,-5.102882941825370722e-01,5.186472759177718217e-01
-8.720920479229343769e-01,5.812948330572581535e-01,7.655223530009802602e-01,4.237921763803331743e-01,9.256615476762597439e-01,-5.294929700434547470e-01,5.179282548082309034e-01
-8.558833388028208589e-01,5.705989099978742152e-01,7.820006064072071439e-01,4.169611213203916478e-01,9.119036407972958003e-01,-5.175687169828302459e-01,5.165500446577819815e-01
-8.463859115227512220e-01,5.624196971754369390e-01,7.900001048583016328e-01,4.204365627309414322e-01,9.104175802073788404e-01,-5.156512546354852233e-01,5.125952376602294080e-01
-8.430003545685238464e-01,5.593936780467073655e-01,7.823002576228255123e-01,4.263687732272147812e-01,9.222100718179193635e-01,-5.300922179330980200e-01,5.087004263558680961e-01
-8.474644159161548451e-01,5.558282976381861973e-01,7.703160088692317942e-01,4.335892548759101572e-01,9.147319468468806392e-01,-5.143629289412476879e-01,5.126251809652870861e-01
-8.545052377353368200e-01,5.514241774419864628e-01,7.524295474659048466e-01,4.355366605282018355e-01,9.106572139133684018e-01,-5.083408885303564162e-01,5.094793886166737451e-01
-8.588194734751031234e-01,5.461810447503628874e-01,7.465872759677694148e-01,4.386526186547223816e-01,9.270037931359276229e-01,-5.120859287685020078e-01,5.115766198767746076e-01
-8.589693536245057714e-01,5.372827562769300069e-01,7.507517406413199978e-01,4.347576982672851642e-01,9.246069324769790043e-01,-5.057342938370457119e-01,5.107376619228887193e-01
-8.521382985646197561e-01,5.250588520007010152e-01,7.588111802440122844e-01,4.286158300950138056e-01,9.146839502924830612e-01,-5.117563342479369837e-01,5.108875420722913674e-01
-8.398245098319989665e-01,5.107377164644405498e-01,7.709452000638217228e-01,4.264586576835371901e-01,9.281542269111708876e-01,-5.228717362842916216e-01,5.104081219439171591e-01
-8.258928554261690813e-01,4.976449109294206474e-01,7.852363922951077768e-01,4.252302185991929662e-01,9.356803484364961676e-01,-5.300622746281513642e-01,5.082210062274938878e-01
-8.145677957137054115e-01,4.850914666741645842e-01,7.982991454421606292e-01,4.197774827729983116e-01,9.212992717487766825e-01,-5.310509491067705312e-01,5.064833127929047052e-01
-8.033625092210283647e-01,4.793690229372704614e-01,8.093546608686219557e-01,4.158525645389099523e-01,9.286815781439639039e-01,-5.305116969099854529e-01,5.074719872715238722e-01
-7.944042795961503423e-01,4.710099866605532704e-01,8.141183188903333701e-01,4.191182937318682633e-01,9.403781639122366087e-01,-5.347960438865095867e-01,5.073222162053081519e-01
-7.915880272266750950e-01,4.585164290152043964e-01,8.139985456704357247e-01,4.175304259050882649e-01,9.327562238110598258e-01,-5.261074676307098130e-01,5.106777753129954078e-01
-7.945241618990128707e-01,4.448844258250067574e-01,8.035722214387863716e-01,4.216350039688565587e-01,9.296402875009768252e-01,-5.275156210862164130e-01,5.074719872715238722e-01
-8.025835469601116934e-01,4.369148706787201464e-01,7.885919514027950328e-01,4.385027930470242197e-01,9.434940129557922717e-01,-5.366236217773101558e-01,5.097190441394339189e-01
-8.107328164775884360e-01,4.284660044871768658e-01,7.707354878461192271e-01,4.471014303047970984e-01,9.412410546935090494e-01,-5.056444093807233031e-01,5.113968509640187676e-01
-8.136389533034971144e-01,4.208260438614552790e-01,7.640842016990445629e-01,4.483598126940879780e-01,9.302155480217511041e-01,-5.004912156868490669e-01,5.135839666803310166e-01
-8.101036798245364601e-01,4.146541778426715563e-01,7.696868722161243070e-01,4.462925792805272351e-01,9.375019485747815295e-01,-5.208643349391417487e-01,5.148422945281394547e-01
-7.994676433750180777e-01,4.093511585411824250e-01,7.876631635341801996e-01,4.418284088497648199e-01,9.441171827645478132e-01,-5.175687169828302459e-01,5.135240255290662859e-01
-7.854161066663256641e-01,4.024003302614959088e-01,8.089351818916235004e-01,4.298441600961711018e-01,9.313660690634106842e-01,-5.117263909429903279e-01,5.128349477244720234e-01
-7.717241623247383941e-01,3.994641410476201804e-01,8.305367402281493838e-01,4.278368132926146927e-01,9.332355784894552642e-01,-5.382415419921127153e-01,5.129248321807944322e-01
-7.630056427640474759e-01,3.928429072885125661e-01,8.433298945476064290e-01,4.213354072947206319e-01,9.351050879157218887e-01,-5.329085248441112199e-01,5.128948888759587987e-01
-7.574030267884501733e-01,3.809185996863501122e-01,8.507301451090576450e-01,4.147740056039683765e-01,9.268598907393732489e-01,-5.167897001803201107e-01,5.142131033334385037e-01
-7.574030267884501733e-01,3.670468318904274163e-01,8.492621050436577335e-01,4.113285620399587117e-01,9.263327140393018411e-01,-5.196659482428200860e-01,5.102882941826480945e-01
-7.592006068328771562e-01,3.507782907019446617e-01,8.446182202417329421e-01,4.215151762074764719e-01,9.384127486438131882e-01,-5.319797369754963867e-01,5.093295630088645609e-01
-7.639943717842045956e-01,3.291766778239363367e-01,8.365288918756874637e-01,4.355666583746309328e-01,9.285376757472985076e-01,-5.223024862410774460e-01,5.063334871852065433e-01
-7.689377987186163388e-01,3.085338506610968423e-01,8.319148958371158642e-01,4.423976588929789955e-01,9.216348985635614000e-01,-5.201153705246541747e-01,5.019293124474133450e-01
-7.752595448867194428e-01,2.919057716471024078e-01,8.225072984719972169e-01,4.457532180006662514e-01,9.344339215526797915e-01,-5.445032924672466024e-01,5.021689679699514741e-01
-7.803228541241047367e-01,2.732403479829836890e-01,8.151969869083508513e-01,4.457532725423707376e-01,9.363994240874085051e-01,-5.378220084736318185e-01,5.019892535989001203e-01
-7.838881254494944884e-01,2.552640021233759660e-01,8.125304510635533717e-01,4.454536213266413469e-01,9.247027510528305072e-01,-5.084007751402497277e-01,5.053747560114230097e-01
-7.804726251903759682e-01,2.406731586764576658e-01,8.195112226482281770e-01,4.485395816067327956e-01,9.339546541404786240e-01,-5.369831596029328580e-01,5.071723905974989677e-01
-7.746004103871828583e-01,2.259325987048060869e-01,8.330534504650266570e-01,4.474310248253621225e-01,9.429667489894155707e-01,-5.318899070605453971e-01,5.088801407270304722e-01
-7.637246638734773718e-01,2.110721564302919795e-01,8.542655276710942047e-01,4.460228713698555225e-01,9.313660690634106842e-01,-5.047455648168330811e-01,5.077116973357664875e-01
-7.551260266157044931e-01,2.062485572571493009e-01,8.749981847487875442e-01,4.479403882586829866e-01,9.291129362681838089e-01,-5.350656972555878355e-01,5.054047538579631293e-01
-7.476058937512797264e-01,2.053796014568065598e-01,8.916263183044170759e-01,4.526441596705010895e-01,9.359200694089020445e-01,-5.329085248441112199e-01,5.086703739678455349e-01
-7.442802779484836151e-01,1.981292310446053362e-01,9.038202792754912451e-01,4.590257924484975049e-01,9.282501327534387059e-01,-4.952780263003386807e-01,5.065133106394448248e-01
-7.439207946645098879e-01,1.871636000745496853e-01,9.083743341627981138e-01,4.764328337234502442e-01,9.304551817278516879e-01,-5.107077731594245051e-01,5.075918150327929368e-01
-7.497930094677029977e-01,1.720935001238987905e-01,9.102318008169518748e-01,4.891062148230096440e-01,9.408096093027618068e-01,-5.165200468112418619e-01,5.057342938370457119e-01
-7.545867198774369733e-01,1.551657698942998653e-01,9.062471050561571317e-01,4.926115449970236426e-01,9.314139783513919468e-01,-4.949185430163094424e-01,5.051051026423447610e-01
-7.617772582212412047e-01,1.430616388378436188e-01,9.008841446033200029e-01,4.913232738443795711e-01,9.310783515364962071e-01,-5.014499468606326005e-01,5.046557349021041361e-01
-7.645036806759319958e-01,1.308377891031664575e-01,8.935737784980801734e-01,4.855708322609730843e-01,9.377416695471874064e-01,-5.115166787252878322e-01,5.053148694016407205e-01
-7.675596431095943473e-01,1.150186156550214722e-01,8.918060872170618936e-01,4.750247348094260857e-01,9.355844425942283493e-01,-5.064533149464756079e-01,5.031576424485706411e-01
-7.654624118496045071e-01,9.889979099125811857e-02,8.988168566480547739e-01,4.777810460274700688e-01,9.304551817278516879e-01,-5.042063126201590251e-01,4.996223689697210091e-01
-7.629756449175628674e-01,8.463859660642891747e-02,9.087637607516629856e-01,4.849416956078655971e-01,9.335711180378236662e-01,-5.077416406407131433e-01,4.998020833408833852e-01
-7.596500836562491976e-01,7.028746322368384369e-02,9.213172595483598570e-01,4.965363541480360965e-01,9.351530844701194667e-01,-5.169695236345583922e-01,4.999519089485815471e-01
-7.563843544634019089e-01,5.255082742824934705e-02,9.324026637382853977e-01,4.977647932322692981e-01,9.295923782131065849e-01,-5.013900057091458251e-01,4.974651420167619520e-01
-7.553656821383536446e-01,3.559315389373152172e-02,9.410312988424873737e-01,4.988433521672108739e-01,9.310783515364962071e-01,-5.072323317489857430e-01,4.956675619721684356e-01
-7.547065476387060379e-01,1.779657694685188307e-02,9.430386456461548050e-01,4.929411395175886668e-01,9.355844425942283493e-01,-5.221227173283216061e-01,4.921022361052962424e-01
-7.583917012670693403e-01,-2.936134672351653485e-03,9.450460469914157002e-01,4.892260425842787086e-01,9.364473333753897677e-01,-5.002215623177708181e-01,4.932706794965602271e-01
-7.576726801575839332e-01,-2.169144279284829224e-02,9.447763390806329653e-01,4.885968513897998022e-01,9.371184997385428872e-01,-4.982141609726209452e-01,4.891361581279562998e-01
-7.565641233761577489e-01,-3.739078847968257957e-02,9.564310478553661454e-01,4.963566397767626981e-01,9.398988092337301481e-01,-5.217032928930276370e-01,4.881474291078546912e-01
-7.503622595108616622e-01,-5.252082958177861638e-02,9.674864541986405442e-01,4.941694695187459629e-01,9.357282577243664079e-01,-5.137337377466577593e-01,4.862599100655673467e-01
-7.457783158603681350e-01,-6.756109531055876083e-02,9.808489131027942065e-01,4.896454670197947223e-01,9.399946278095816510e-01,-5.098089285957563277e-01,4.861101389992406041e-01
-7.437110279053249506e-01,-8.041413623988136194e-02,9.802796085179865671e-01,4.844922733260315084e-01,9.473769342047688724e-01,-5.300622746281513642e-01,4.873684668469380199e-01
-7.494035828787548592e-01,-9.728192531804902288e-02,9.790212806704001736e-01,4.940496962989593399e-01,9.479521947255431513e-01,-5.164002190498617750e-01,4.951282552340119381e-01
-7.557551632687564691e-01,-1.156478068496391565e-01,9.705125278688386814e-01,5.119960443121795990e-01,9.410972395632599685e-01,-5.125952922018228719e-01,4.982441588190500426e-01
-7.659118341314663514e-01,-1.347326549491628667e-01,9.640110673295732013e-01,5.242199485884224686e-01,9.512598554537454731e-01,-5.206246794164925973e-01,5.004012766890442165e-01
-7.722334712164657944e-01,-1.601691379801983839e-01,9.555322032915869457e-01,5.239802385241798532e-01,9.538963498185726309e-01,-5.107676597694288390e-01,4.977348499273226423e-01
-7.768474127134716856e-01,-1.870138290082923316e-01,9.559516277268809148e-01,5.133443111577928875e-01,9.511639496113666326e-01,-4.989931777750200581e-01,4.986036966445617225e-01
-7.738513914312405984e-01,-2.137086944285770951e-01,9.607153948316682346e-01,5.028880436209748339e-01,9.544237010516987141e-01,-5.097489874442695523e-01,4.960569885611443297e-01
-7.650728761775804632e-01,-2.379168474583859272e-01,9.778528372790251666e-01,5.026483335569542632e-01,9.574436442529865587e-01,-5.075918695743864006e-01,5.032176381416508804e-01
-7.510214485519917105e-01,-2.607167924911502066e-01,1.000053588963711881e+00,4.960270452561976740e-01,9.550468708603432333e-01,-5.066330838592314478e-01,5.018693712959265696e-01
-7.347827961269315367e-01,-2.805507140881402517e-01,1.022913529689306600e+00,4.842825611083290127e-01,9.521706555226661095e-01,-5.118162753994237590e-01,5.044759114477548323e-01
-7.215102216791280387e-01,-2.983472910350198903e-01,1.039661491006205196e+00,4.790993150265432377e-01,9.550468708603432333e-01,-5.204449650452191989e-01,4.989332911651267466e-01
-7.140800823541848530e-01,-3.143162355494083515e-01,1.050267475067645506e+00,4.898552337789796596e-01,9.516912135778543558e-01,-5.172690657672118775e-01,5.033374113614375034e-01
-7.176452991380921631e-01,-3.299856379313098609e-01,1.046462548219606603e+00,5.007608145145558964e-01,9.493903460275898709e-01,-5.041763693152123693e-01,5.018094846860332581e-01
-7.296894890430893899e-01,-3.471530236835440597e-01,1.026089319884349038e+00,5.083108906838162966e-01,9.536087195582965137e-01,-5.184975048515561014e-01,5.021390246651158407e-01
-7.470965848595245706e-01,-3.680355609105567805e-01,9.990948577899283478e-01,5.067829094670406320e-01,9.538963498187946755e-01,-4.993227177539916184e-01,4.979145642984850184e-01
-7.633352372845847444e-01,-3.895172914857025770e-01,9.765345682799519977e-01,5.053448127065873763e-01,9.568684709986285952e-01,-4.742457180070269729e-01,4.961169297126311051e-01
-7.725330678905739656e-01,-4.074036983474083051e-01,9.634717605913056815e-01,5.058841194447438738e-01,9.588338862669409934e-01,-4.862599100654563244e-01,4.919824083439161555e-01
-7.703759500206353028e-01,-4.223840229247710631e-01,9.696736244565462570e-01,4.994724888203183610e-01,9.557179499568579928e-01,-4.905143682785162440e-01,4.902147170628978756e-01
-7.586314113312009333e-01,-4.351471793977157443e-01,9.946307419007593964e-01,4.929711373641287864e-01,9.478083795955161150e-01,-4.685232742701606057e-01,4.855408889560264285e-01
-7.377189307992693124e-01,-4.419782344575878819e-01,1.031572108098677276e+00,4.955776229743635852e-01,9.470893039442707106e-01,-4.876980068259095802e-01,4.839829098928216666e-01
-7.183943180940344231e-01,-4.488092349759359445e-01,1.063420167212614231e+00,5.022888502728140026e-01,9.468016736839945935e-01,-5.013600624041991694e-01,4.814662541972047904e-01
-7.047024282939573503e-01,-4.591156223633513500e-01,1.088377339198309812e+00,5.097489874443805746e-01,9.392756394248635843e-01,-4.844323321746557554e-01,4.816160252636425554e-01
-7.005378545372753507e-01,-4.705006777687842368e-01,1.094249663084578827e+00,5.131645422450370475e-01,9.381730276714073113e-01,-4.771219660694159259e-01,4.796686196113508771e-01
-7.090766051852104290e-01,-4.891960447378634891e-01,1.088227513590500628e+00,5.176585468975591908e-01,9.462744097175068703e-01,-4.945290073442576428e-01,4.862898533704029802e-01
-7.245662386543283429e-01,-5.092097352476093741e-01,1.067225203143840062e+00,5.159508513096211502e-01,9.420559489203839121e-01,-4.688528687906146075e-01,4.900649459966821553e-01
-7.452390636636663235e-01,-5.308112935840797464e-01,1.042447800070678277e+00,5.113069665075853365e-01,9.407617000147805442e-01,-4.539624286696852806e-01,4.943192951266661694e-01
-7.634550105043713675e-01,-5.497463160758081502e-01,1.013026512195813744e+00,5.088501974221948387e-01,9.458908736148519125e-01,-4.575576978416151519e-01,4.921921205616186512e-01
-7.772968349953612854e-01,-5.666741008469172725e-01,9.976867043345327701e-01,5.115766198767746076e-01,9.462265004296366300e-01,-4.545916198641641870e-01,4.940196984525302426e-01
-7.828395098194995683e-01,-5.760217570607018001e-01,9.965782020945335162e-01,5.129247776393119906e-01,9.440213641886963103e-01,-4.400907154152866596e-01,4.882673114107172196e-01
-7.796637196245126411e-01,-5.806057552527471577e-01,1.010330087587552050e+00,5.089700797249463449e-01,9.456991491967325913e-01,-4.492286594113270581e-01,4.895255847168211716e-01
-7.735217969106755742e-01,-5.857290056414943269e-01,1.030044126881790589e+00,5.060038926645304969e-01,9.431105641195536293e-01,-4.537826597569294407e-01,4.854510044997040197e-01
-7.665709686310029358e-01,-5.938782206174469946e-01,1.047511163849601523e+00,5.066031405542847921e-01,9.377895788351686690e-01,-4.458731003035287799e-01,4.893758136506054512e-01
-7.629457016126162117e-01,-5.996906578937949428e-01,1.060663801452976784e+00,5.123555821376912789e-01,9.424873070444927947e-01,-4.433863333715981625e-01,4.864996201296989398e-01
-7.663911997182748514e-01,-6.059523538274047549e-01,1.062940801625833487e+00,5.049852748810756964e-01,9.445008061337301086e-01,-4.438357556534322512e-01,4.882373135641771000e-01
-7.743007591715644899e-01,-6.182361992550650109e-01,1.058596568039416042e+00,4.948885997113627866e-01,9.424873070442707501e-01,-4.363756184820877237e-01,4.851514078256791151e-01
-7.826297976017970726e-01,-6.321079125094497542e-01,1.048979203915001435e+00,4.918026394311603156e-01,9.432064699619324699e-01,-4.323309270282127414e-01,4.906641393447319643e-01
-7.880826425111231437e-01,-6.484364493908878480e-01,1.047630991610981610e+00,4.957274485821727694e-01,9.476645644650449896e-01,-4.234625818596571278e-01,4.920722382587561228e-01
-7.901199326197372308e-01,-6.626377571658376153e-01,1.049848050632240515e+00,4.941994673652860826e-01,9.469454888142436744e-01,-4.355966016795775886e-01,4.943792362781529448e-01
-7.930560672920472509e-01,-6.763896972004357355e-01,1.052214935261419626e+00,4.884770236284197154e-01,9.415765942417664291e-01,-4.383829652857551551e-01,4.884770236283086930e-01
-7.985987966577789976e-01,-6.865462589800419568e-01,1.047121682719254210e+00,4.913232193027861072e-01,9.400905336518494693e-01,-4.293348512044437015e-01,4.913532171493262268e-01
-8.095643730862689402e-01,-6.974818921036129993e-01,1.037773917422213366e+00,5.041463714687832720e-01,9.423435791806600292e-01,-4.200470816004830965e-01,4.891960447378496113e-01
-8.255333176006851570e-01,-7.073089684457301018e-01,1.019707741647946087e+00,5.089400818784062253e-01,9.410493302752787059e-01,-4.215151216659940303e-01,4.916528683649445952e-01
-8.441987412648177536e-01,-7.188737382223947536e-01,9.993645111591176189e-01,5.037868881848650560e-01,9.372622276022646304e-01,-4.204365627310524545e-01,4.897053536296880338e-01
-8.604373936898779274e-01,-7.274723754802092657e-01,9.830959154291107893e-01,5.050751593373981052e-01,9.426312094411581910e-01,-4.159425035368258250e-01,4.914431016056486357e-01
-8.702944133369694413e-01,-7.347528528219710031e-01,9.796504718648790799e-01,5.072322772073922792e-01,9.457470584846028316e-01,-4.114483898012277763e-01,4.897054081711704754e-01
-8.709835456830183897e-01,-7.397262776029228659e-01,9.891779515330823003e-01,5.058241782933681208e-01,9.455553340664835105e-01,-4.370047551350841886e-01,4.954577952129834983e-01
-8.619953182116557588e-01,-7.433215467748457428e-01,1.011947953260872168e+00,5.069926216847431277e-01,9.431585606740622296e-01,-4.340087338529086125e-01,4.923718894743744912e-01
-8.493519895000634090e-01,-7.442802779484836151e-01,1.041938436637357412e+00,5.016297157732774181e-01,9.424873070442707501e-01,-4.254699286633245592e-01,4.932706794966712494e-01
-8.375475096592255309e-01,-7.395465086901670260e-01,1.065876990839709215e+00,4.895256392584146354e-01,9.405219790425967119e-01,-4.331098892891294128e-01,4.874883491498005483e-01
-8.334129337490281397e-01,-7.360711218211135609e-01,1.080797319723991734e+00,4.765826593311484061e-01,9.379813032530659456e-01,-4.405700810020674041e-01,4.895255847168211716e-01
-8.415023166566393265e-01,-7.369699118433200580e-01,1.072498224598872341e+00,4.743656003098895013e-01,9.375019485746705072e-01,-4.233726974033347190e-01,4.871886979342932023e-01
-8.625646227964078872e-01,-7.437709145151766288e-01,1.043017050113892452e+00,4.811066618302106690e-01,9.398029906579896675e-01,-4.056959482178212895e-01,4.931209084302334844e-01
-8.927947616956533050e-01,-7.535381042474142976e-01,1.003049664787369899e+00,4.864397335198056282e-01,9.391317370284202326e-01,-4.005428090656515394e-01,4.905443115835739221e-01
-9.222160495706011041e-01,-7.649830462627543737e-01,9.680557587834481836e-01,4.850015822178699310e-01,9.430147455438131487e-01,-3.911351026174569867e-01,4.918924693460002828e-01
-9.415106644293513849e-01,-7.730124880189134240e-01,9.460346669283303811e-01,4.831440064803071976e-01,9.452197072516987930e-01,-3.756755215362783673e-01,4.856607167174065154e-01
-9.452557592090626848e-01,-7.798434339957166506e-01,9.514576230743587715e-01,4.808071196977792283e-01,9.477604703074238301e-01,-3.786715428184539434e-01,4.874883491498005483e-01
-9.362975295842124179e-01,-7.814014676005772708e-01,9.783022050193768138e-01,4.758935269851827243e-01,9.438775490584472294e-01,-3.800496984275314460e-01,4.858404856300513330e-01
-9.180215870505381570e-01,-7.766975871056763792e-01,1.017550569236358449e+00,4.739461758743734876e-01,9.499176099940775941e-01,-3.872103480080379967e-01,4.928811983662129137e-01
-8.943227974540224334e-01,-7.710350845201996428e-01,1.053952683237491250e+00,4.698415432692337745e-01,9.465620399777829874e-01,-3.921837182473408845e-01,4.912633326928927957e-01
-8.810502230062466911e-01,-7.674997019581699664e-01,1.083373916570984363e+00,4.672050052709764145e-01,9.376936729930118730e-01,-3.942510607440885551e-01,4.927313727584037295e-01
-8.774250650709081167e-01,-7.628858150027229001e-01,1.087538435786017388e+00,4.725379678773844461e-01,9.400905336518494693e-01,-3.898468314647018929e-01,4.889863870616295571e-01
-8.935737239565422207e-01,-7.630655293739269096e-01,1.064708492906740744e+00,4.711598122683069434e-01,9.446925305516273852e-01,-3.663876973908353207e-01,4.938099862349387692e-01
-9.217067406788181927e-01,-7.709452000638286062e-01,1.016292241388772055e+00,4.634599104912373591e-01,9.448362584156821953e-01,-3.665375229986445049e-01,4.925516038455368673e-01
-9.555322578330693872e-01,-7.830792198836796780e-01,9.708720111528679197e-01,4.642089839886898162e-01,9.489109040825560726e-01,-3.619535793482064889e-01,4.961169842541135466e-01
-9.794407051057496538e-01,-7.947938152681396362e-01,9.351290861928651665e-01,4.688228709441855102e-01,9.514036705837725094e-01,-3.307346023456725348e-01,4.937201017785053381e-01
-9.900767415552125250e-01,-8.040216437205857103e-01,9.289572201740536883e-01,4.750846214193193973e-01,9.586900711369139572e-01,-3.287572533885452231e-01,4.962068141689535139e-01
-9.857025101224214936e-01,-8.089351818916512560e-01,9.484315494040496120e-01,4.743656003097784790e-01,9.592173351031796358e-01,-3.403520210116806055e-01,4.928213117563196022e-01
-9.674565108936938884e-01,-8.062687005884194846e-01,9.862417623192065719e-01,4.631003726657256792e-01,9.556700406689877525e-01,-3.434678700552362685e-01,4.998619699506656744e-01
-9.443569146453112406e-01,-7.976999520940066812e-01,1.028276490142254751e+00,4.495283106269454265e-01,9.490068099249349132e-01,-3.440371200984504441e-01,4.981842722092677533e-01
-9.260510288067180795e-01,-7.866445457506560102e-01,1.059435416910226024e+00,4.351771772441725972e-01,9.458429643267596276e-01,-3.432581578375337727e-01,4.977647386906758342e-01
-9.180815282019416657e-01,-7.780457994097585983e-01,1.071839090099224734e+00,4.283161788793954372e-01,9.413847825572307926e-01,-3.542537321126193461e-01,4.918026394312713379e-01
-9.268599343725258954e-01,-7.783754484718546918e-01,1.057937433539879457e+00,4.384428518955374443e-01,9.423435791806600292e-01,-3.537743119841341155e-01,4.972254864940017782e-01
-9.509182617945532989e-01,-7.855958755791022652e-01,1.018269644887381808e+00,4.583666579489609205e-01,9.402823453363851058e-01,-3.318431591271542302e-01,4.982741566655901622e-01
-9.812084509282781308e-01,-7.931459517484459321e-01,9.723999923697546066e-01,4.753842180933443018e-01,9.453635223819478739e-01,-3.320229825815035340e-01,4.974950853215975854e-01
-1.007184186156057093e+00,-8.003664879387695219e-01,9.358481073022950625e-01,4.699014844206095276e-01,9.515474857142436349e-01,-3.326221213879598793e-01,4.933006773431003467e-01
-1.017280915867280200e+00,-8.080662806328464676e-01,9.214670851561690412e-01,4.487492938245463137e-01,9.530335463039385502e-01,-3.318132703638010383e-01,4.936002740171252512e-01
-1.014824201323288877e+00,-8.105231042599136959e-01,9.363574161941334850e-01,4.259492942502163260e-01,9.522664740986286347e-01,-3.348991215608165817e-01,4.962667553204402893e-01
-9.958591264435656676e-01,-8.121709132380694474e-01,9.713813745861887838e-01,4.166615791878491848e-01,9.570601954167479164e-01,-3.512576562887392839e-01,5.019293124473023227e-01
-9.724898768260770154e-01,-8.124106233022495571e-01,1.014015241215915353e+00,4.078531206292979050e-01,9.561973046354754757e-01,-3.516171395727685223e-01,5.032475269050040723e-01
-9.511579718587126475e-01,-8.086954718274710352e-01,1.046342665916744075e+00,4.062352549560888093e-01,9.541839800790707926e-01,-3.593170413498381066e-01,5.015398313169550093e-01
-9.444168557967425048e-01,-8.019544103070388452e-01,1.058266973518851017e+00,4.110888519757160964e-01,9.513557612959022691e-01,-3.566205622002049935e-01,5.017195456881173854e-01
-9.524762408578690831e-01,-7.916778571415011845e-01,1.039841205377367572e+00,4.272076766393961833e-01,9.557658592449502777e-01,-3.467335992481945794e-01,5.005211589919067450e-01
-9.798601840826648424e-01,-7.850866212288711843e-01,9.953797608567294120e-01,4.417385243934424111e-01,9.542798859214496332e-01,-3.315435624530183034e-01,5.002815034692575935e-01
-1.009730839697936533e+00,-7.872436845572580166e-01,9.484016060991029562e-01,4.433264467617048510e-01,9.596487804937048338e-01,-3.281281167354377359e-01,5.023487368828183364e-01
-1.030044126881790589e+00,-8.006361413078962874e-01,9.162838936160877523e-01,4.435062156744606909e-01,9.657367507172054388e-01,-3.171624857654098406e-01,5.053148148600472567e-01
-1.038283280855617496e+00,-8.119911443253204908e-01,9.096326074687910435e-01,4.514457184325859629e-01,9.665517322106076392e-01,-3.207577549373397119e-01,5.065133106394448248e-01
-1.031452280337269434e+00,-8.178334703650806947e-01,9.299758924992129749e-01,4.535130609293336335e-01,9.655930228533726734e-01,-3.337606760159816943e-01,5.051051026423447610e-01
-1.010779509869497161e+00,-8.169646236478138590e-01,9.665576663299146887e-01,4.432964489151647314e-01,9.612785689474545592e-01,-3.473327925962443885e-01,5.072023339024456234e-01
-9.878296846874135007e-01,-8.104332198035392176e-01,1.004967127134714922e+00,4.250205609230839343e-01,9.579710827523069128e-01,-3.424791955767281237e-01,5.015997724683307624e-01
-9.707521833915433440e-01,-8.031227991568342661e-01,1.032261240444642958e+00,4.085421984337811452e-01,9.499655192819478344e-01,-3.327420036908224077e-01,4.991728921462934565e-01
-9.649098573517589372e-01,-7.978198343968692097e-01,1.038163453094265165e+00,4.056360616079279779e-01,9.462264131629982700e-01,-3.250720997602929430e-01,4.963266964718160423e-01
-9.762649149107627267e-01,-7.973704121149900459e-01,1.016921378041879542e+00,4.195377727088667186e-01,9.469934853685302301e-01,-3.324723503217441589e-01,4.992028899927225538e-01
-1.001252030201432719e+00,-8.029130869391422065e-01,9.699132799791954085e-01,4.316118513771893817e-01,9.402822580699687904e-01,-3.296860412572710786e-01,4.967161230606809141e-01
-1.033309856074665634e+00,-8.064784128061149859e-01,9.231448374392714484e-01,4.403603142428824668e-01,9.473290249168986321e-01,-3.172524247633257133e-01,4.985737533397260890e-01
-1.054102454303790237e+00,-8.074670872847063974e-01,8.874019124792686952e-01,4.402105431765557242e-01,9.572519198348672376e-01,-3.093727540733892667e-01,4.992028899927225538e-01
-1.059735013584278684e+00,-8.059091627629216825e-01,8.834471054819381663e-01,4.451240813476697866e-01,9.572999163891537933e-01,-3.128781387889967291e-01,4.991429488412357784e-01
-1.049039145066460454e+00,-8.088153541303266802e-01,9.078649161878837859e-01,4.452439091089388512e-01,9.507805007751279902e-01,-3.211772339142271449e-01,4.992028899927225538e-01
-1.023452836427601875e+00,-8.106129887162881742e-01,9.501393540751745803e-01,4.324208114845351503e-01,9.562932104778543163e-01,-3.304050623667009745e-01,5.001915644713417208e-01
-9.930727628374713678e-01,-8.089950685015411258e-01,9.952898764002959808e-01,4.144444656249968162e-01,9.605595805628475148e-01,-3.335509637982791986e-01,4.991729466877758981e-01
-9.711117212170550239e-01,-8.030929103934291158e-01,1.026209147645729125e+00,4.024302735664564423e-01,9.576833652253924356e-01,-3.345396382768983656e-01,4.941695240604504491e-01
-9.634717605913056815e-01,-7.940747396171405903e-01,1.030433608012137903e+00,4.002131600036040737e-01,9.559576709294859143e-01,-3.342999282126557503e-01,4.931508517351801402e-01
-9.769839905617305753e-01,-7.880526446646315408e-01,1.001851278091159259e+00,4.015614268492173622e-01,9.559096743749773140e-01,-3.265701376721219518e-01,4.944990640394220094e-01
-1.004008395961070166e+00,-7.896405670329009752e-01,9.489708561423171318e-01,4.040181959347188823e-01,9.590735199731525995e-01,-3.087735607252284353e-01,5.004312745354733138e-01
-1.034897723901390121e+00,-8.003664879387729636e-01,8.988467999531124519e-01,4.058158305206838179e-01,9.627647168037878345e-01,-3.044892137489263462e-01,5.042063126201590251e-01
-1.055300895541594342e+00,-8.101335685879278437e-01,8.631638161444854518e-01,4.071939861296502983e-01,9.674625322795282756e-01,-2.996355621875945729e-01,5.068128527719872878e-01
-1.060933454822110544e+00,-8.133693544758908711e-01,8.588494713216432430e-01,4.164518124286642475e-01,9.692361358635270818e-01,-2.918458304956850213e-01,5.038767726411874648e-01
-1.047001800416308415e+00,-8.084258729998838877e-01,8.856042233518213180e-01,4.209459261642622963e-01,9.679897962460159988e-01,-2.965496564490965881e-01,5.003113922326107854e-01
-1.020666472821507575e+00,-7.997672400490932754e-01,9.324326615847144950e-01,4.170210624718784231e-01,9.639631471332066326e-01,-3.004445222950513639e-01,5.020191969037357538e-01
-9.896273192733784363e-01,-7.920673928134852604e-01,9.781524339530500711e-01,4.106094863888243296e-01,9.541360707914225969e-01,-2.998153311003504129e-01,5.004013312306376804e-01
-9.668573175455330571e-01,-7.864947201428502677e-01,1.012097724327087889e+00,4.083924273675654248e-01,9.501093344119748707e-01,-2.942426584298107883e-01,5.027681613181123055e-01
-9.597566636580789901e-01,-7.847270288618372058e-01,1.014165066823724537e+00,4.062951961074645624e-01,9.474248434926391127e-01,-3.036203670315762437e-01,5.020191969037357538e-01
-9.726097045874015912e-01,-7.867044323605458800e-01,9.824067830830340853e-01,4.022804479586472581e-01,9.472811156290283918e-01,-2.849249455209035276e-01,5.031276991437350077e-01
-1.000473067940543803e+00,-7.922771050311808727e-01,9.284479112824373104e-01,3.980260988287742663e-01,9.494382553154601112e-01,-2.648214250964286975e-01,5.015398313169550093e-01
-1.031661992554971929e+00,-7.997972378955778838e-01,8.743390502491399374e-01,3.930825628111200842e-01,9.526020136467749921e-01,-2.685365220296276334e-01,5.025285057954631540e-01
-1.054042567693896926e+00,-8.082460495455936478e-01,8.353005073329367036e-01,3.882289657914927972e-01,9.628606226461666751e-01,-2.694652553567600251e-01,5.035771214255690964e-01
-1.058266973518878773e+00,-8.160358357791174244e-01,8.257130865134687525e-01,3.971272542649950665e-01,9.626208144071224382e-01,-2.645817695737795461e-01,5.036370625769448495e-01
-1.042238087853059048e+00,-8.180132392778277639e-01,8.522281830209976761e-01,4.021606201972671712e-01,9.584024408764157954e-01,-2.634731582507043868e-01,5.068727939234740631e-01
-1.014524550107670509e+00,-8.142981423445855294e-01,8.989366844094348608e-01,4.002731011549798268e-01,9.570122861288776761e-01,-2.744986758307366159e-01,5.040564870123498409e-01
-9.816578186686297780e-01,-8.047706626765315230e-01,9.439974313613097578e-01,3.881091380302237326e-01,9.472331190745197915e-01,-2.777344071770437850e-01,5.010304678836341452e-01
-9.563111655524203503e-01,-7.916179705316095383e-01,9.750365303680119666e-01,3.845138688582938613e-01,9.464182248477559511e-01,-2.727309845497183360e-01,5.000717912515550978e-01
-9.476226438382417960e-01,-7.834687010141250241e-01,9.781224906481034154e-01,3.843640432504846771e-01,9.396590882611022266e-01,-2.830374264786161831e-01,5.048354492732665122e-01
-9.573597811824430259e-01,-7.837383543832501243e-01,9.511579718587404031e-01,3.797501017535065415e-01,9.380292998077965905e-01,-2.820487519999970161e-01,5.081311217710604566e-01
-9.790512785168015153e-01,-7.889814325333279754e-01,9.062171072097280344e-01,3.793306773179905278e-01,9.465140434234964317e-01,-2.614059248372546662e-01,5.081611196176005762e-01
-1.004068337112501430e+00,-7.953330674648516618e-01,8.605871647561214033e-01,3.794805029259107343e-01,9.535608102704262734e-01,-2.498411005189549172e-01,5.131644877035546060e-01
-1.025609954297512783e+00,-7.992279878523829151e-01,8.245746409686338652e-01,3.719304267565393118e-01,9.547592405998450715e-01,-2.618253492726596576e-01,5.116665043330970164e-01
-1.032650667033563341e+00,-7.991380488544688188e-01,8.172941636268582499e-01,3.606352558075398562e-01,9.550468708603432333e-01,-2.617654626626553238e-01,5.123855254426379346e-01
-1.020996067342072600e+00,-7.991980445474377026e-01,8.348210872045624953e-01,3.460744647485469727e-01,9.620935504408567596e-01,-2.560729076892531708e-01,5.113668531174786480e-01
-9.963384920303741676e-01,-7.986586832676482173e-01,8.740395081165974744e-01,3.412208677289196856e-01,9.613265655017411149e-01,-2.647315406399952664e-01,5.099587542035655119e-01
-9.698533388277918998e-01,-7.963517397899222416e-01,9.120594332494569301e-01,3.381049096022881173e-01,9.560055802173561545e-01,-2.771951004388872875e-01,5.099287563570253923e-01
-9.472331627077834604e-01,-7.923969327924997863e-01,9.380052797138827003e-01,3.410111555113282122e-01,9.536567161128051140e-01,-2.712928877891540580e-01,5.099886975085121676e-01
-9.373461452142350936e-01,-7.869141991197811103e-01,9.359080484536708155e-01,3.465837736402743730e-01,9.559576709294859143e-01,-2.622448282495470906e-01,5.138236222030911904e-01
-9.452857025140093405e-01,-7.795738351681329448e-01,9.108010508602770727e-01,3.469433114658970752e-01,9.557658592447282331e-01,-2.660497550975859937e-01,5.118762165507995121e-01
-9.643106640036258614e-01,-7.762182215188513368e-01,8.685567199023802587e-01,3.419398888383495816e-01,9.528417346194029136e-01,-2.584997334698080351e-01,5.062736005753132318e-01
-9.839048209949463608e-01,-7.782555661689921633e-01,8.315554125531976482e-01,3.415204644030556125e-01,9.598885014663327553e-01,-2.306364246581482647e-01,5.081610650760071124e-01
-9.961587776591562804e-01,-7.843675455778755801e-01,8.060289905242878916e-01,3.466436602502787068e-01,9.589777013971900743e-01,-2.179031569486955533e-01,5.064833127930157275e-01
-9.987652632694465904e-01,-7.897004536427890686e-01,7.999769522667454780e-01,3.576392345251422356e-01,9.568204744443420395e-01,-2.245544430957702176e-01,5.101984097262146634e-01
-9.893876637507015293e-01,-7.925767562467888050e-01,8.147475646265167626e-01,3.575793479153599463e-01,9.540881615031082674e-01,-2.228466384246452492e-01,5.138536200495202877e-01
-9.707222400865966883e-01,-7.934156051175710322e-01,8.396447409192431266e-01,3.357380249732200284e-01,9.562932104778543163e-01,-2.222474450764844178e-01,5.154414878763002861e-01
-9.499894739258551990e-01,-7.904195292937881145e-01,8.626544527111645877e-01,3.127283677226699865e-01,9.546154254698180353e-01,-2.341118660688090714e-01,5.151419457436468008e-01
-9.353387984105537845e-01,-7.859554134046018437e-01,8.812001031556215835e-01,3.131178488531283222e-01,9.507804135087116748e-01,-2.409727553505103259e-01,5.181079691795043018e-01
-9.282381445231135952e-01,-7.845473144906245366e-01,8.782039727902590798e-01,3.169827168526540007e-01,9.478083795952940704e-01,-2.383962130452221828e-01,5.208044483292484372e-01
-9.324925481945939287e-01,-7.839480666009465137e-01,8.591191246907214918e-01,3.180313870242423846e-01,9.468017609504109089e-01,-2.380966163710862560e-01,5.182877926338536057e-01
-9.441771457325692785e-01,-7.839480666009448484e-01,8.287391056421844482e-01,3.181512147855114492e-01,9.503969646724730325e-01,-2.372876562638515097e-01,5.122357543763111920e-01
-9.572399534211184502e-01,-7.817908941894837760e-01,8.024936625037337734e-01,3.253716964343178475e-01,9.531293648799010754e-01,-2.257827730969275137e-01,5.125952376602294080e-01
-9.670370864582888970e-01,-7.788548140586718516e-01,7.823901420791479211e-01,3.299556946263493273e-01,9.506845949327491496e-01,-2.183525792305296420e-01,5.078914662485223275e-01
-9.673366831323693127e-01,-7.792741839525250125e-01,7.816410685816954640e-01,3.271992743252294389e-01,9.485753645344097151e-01,-2.203898693391437291e-01,5.096890462928937993e-01
-9.573597811824430259e-01,-7.844873733391932724e-01,7.933856618126400306e-01,3.013133690122904440e-01,9.463702282932473508e-01,-2.289886156799925132e-01,5.087303696608147519e-01
-9.432184145589245228e-01,-7.892211425975098615e-01,8.132195288681476342e-01,2.659299818777993707e-01,9.499176099940775941e-01,-2.347410027219165585e-01,5.067829094669296097e-01
-9.270996444367129996e-01,-7.882024702724372833e-01,8.295480657495302168e-01,2.474742158898868283e-01,9.506366856448789093e-01,-2.400440220232669120e-01,5.038467747947583675e-01
-9.153251624423597299e-01,-7.848468566231565635e-01,8.390754908760289510e-01,2.473543881285067414e-01,9.460346887451009934e-01,-2.462458313471360682e-01,5.023786801876539698e-01
-9.077450884265314546e-01,-7.780758517977811595e-01,8.379669886361407194e-01,2.586795023825638751e-01,9.477124737529152299e-01,-2.399841354134846227e-01,4.996822555796143206e-01
-9.102617986634919944e-01,-7.720237589987876126e-01,8.218481639723496102e-01,2.785134239795539202e-01,9.499176099940775941e-01,-2.288687333771299848e-01,5.003114467742042493e-01
-9.163737780723685278e-01,-7.695370466083116812e-01,7.971007587459499888e-01,2.945422551038356929e-01,9.518351159745197521e-01,-2.154164445581363552e-01,4.997721400359367294e-01
-9.243732219820638418e-01,-7.692973365441349021e-01,7.744505847793181630e-01,2.893591181051258232e-01,9.496778890214496727e-01,-2.205696382518995691e-01,5.043561382279682093e-01
-9.289272223276107132e-01,-7.694771054568838586e-01,7.604290459172213801e-01,2.738095980262533757e-01,9.502052402543537113e-01,-2.245244452493411202e-01,5.032475269048930500e-01
-9.248226442639256861e-01,-7.712447967378986968e-01,7.607286425912462846e-01,2.726111567883382492e-01,9.532731800101501562e-01,-2.215883105769478334e-01,5.080712351612781674e-01
-9.159243557905066835e-01,-7.728926057160544483e-01,7.721435867601433856e-01,2.729107534624741760e-01,9.499655192817257898e-01,-2.208692894674069152e-01,5.072922183587680323e-01
-9.022323569073259497e-01,-7.719339290839510870e-01,7.875732790777467685e-01,2.659898684876926822e-01,9.478083795955161150e-01,-2.343215782865115671e-01,5.114867354204521988e-01
-8.913866627816707799e-01,-7.714844522605408539e-01,8.016547590914413490e-01,2.629638493589769865e-01,9.470893039442707106e-01,-2.317748702029831520e-01,5.118162753993127367e-01
-8.829676853535223247e-01,-7.719338745424131343e-01,8.016248157864946933e-01,2.718920811373148894e-01,9.498697007059853092e-01,-2.166748269474272348e-01,5.128050044195253676e-01
-8.833572210255186130e-01,-7.734918536057358018e-01,7.957226031368724861e-01,2.703341566155925690e-01,9.452677038062073933e-01,-2.190716003399595380e-01,5.146025844640078617e-01
-8.878213369146875644e-01,-7.728327191061611368e-01,7.731023179337048745e-01,2.511294262131924526e-01,9.469934853685302301e-01,-2.363888662415547515e-01,5.161006769174303344e-01
-8.983674889078280268e-01,-7.732521435415556921e-01,7.453588914250186548e-01,2.376471940892521673e-01,9.466578585537455126e-01,-2.231462350987811760e-01,5.185873347662850463e-01
-9.031312014710773939e-01,-7.732222002366090363e-01,7.233078562650652188e-01,2.471446759109152680e-01,9.471373004987793109e-01,-2.156860979272146039e-01,5.197858305456826145e-01
-9.078949140343267610e-01,-7.736416246720001499e-01,7.110840065304158131e-01,2.691057720727307867e-01,9.486712703765665111e-01,-2.146973689072240177e-01,5.224522573074041887e-01
-9.002250101036723962e-01,-7.771470093875486596e-01,7.116232587270898691e-01,2.821086386100013499e-01,9.453156130938555890e-01,-2.188319448173103865e-01,5.247592553265789661e-01
-8.893792614364792737e-01,-7.804726797318791709e-01,7.245362953494094427e-01,2.725212723319048180e-01,9.434461036679220314e-01,-2.109223853640207480e-01,5.255681608924422932e-01
-8.735002013784409769e-01,-7.803227995825390284e-01,7.419433366242511596e-01,2.504703462552493320e-01,9.399947150761089887e-01,-2.266516198142776162e-01,5.243098875863383412e-01
-8.581004523656732275e-01,-7.783754484718546918e-01,7.620469115904304758e-01,2.324040613975730807e-01,9.393235487129558692e-01,-2.376471940892521673e-01,5.255981041973889489e-01
-8.448878736108667020e-01,-7.736416246720001499e-01,7.745105259308049384e-01,2.306663679632059427e-01,9.313659817968833465e-01,-2.373475974152272627e-01,5.252985620648464860e-01
-8.384163563764923666e-01,-7.693272798490746744e-01,7.751096647373723059e-01,2.315651579852806563e-01,9.280104117810328290e-01,-2.325238891589531676e-01,5.243397763498025554e-01
-8.380868163974652951e-01,-7.682487754556571735e-01,7.695071033033684671e-01,2.245843864007168733e-01,9.321330540021932620e-01,-2.411825221096952632e-01,5.245495431088764704e-01
-8.438692012857906821e-01,-7.695969332182084344e-01,7.511712196183184531e-01,2.116414064734506439e-01,9.320371481600364660e-01,-2.374374818716606939e-01,5.251187931520906460e-01
-8.560931055620335517e-01,-7.673499308919057293e-01,7.266934132192925944e-01,2.110422131254008349e-01,9.330437668049196276e-01,-2.343814648962938563e-01,5.251486819155548602e-01
-8.663396063395417679e-01,-7.649830462627473793e-01,7.001184301018703593e-01,2.213486550542986819e-01,9.350571786279626707e-01,-2.327935970696248802e-01,5.244896019575007173e-01
-8.724216424434716455e-01,-7.631554138303048296e-01,6.822319686986544340e-01,2.283294266388624649e-01,9.413368732691385077e-01,-2.318947525059567027e-01,5.244596586525540616e-01
-8.684967787510045056e-01,-7.654025252396834400e-01,6.778577372659189137e-01,2.283294266389734872e-01,9.455074247786132702e-01,-2.297375800943690649e-01,5.205947361115459415e-01
-8.588794146265621432e-01,-7.681588364577413008e-01,6.903212970646999125e-01,2.356697905905313917e-01,9.493903460275898709e-01,-2.350405993959414630e-01,5.191266415045525662e-01
-8.421315078512708885e-01,-7.726529501934087385e-01,7.091066030316950375e-01,2.443583668463311653e-01,9.450279828335794718e-01,-2.424708478039327986e-01,5.193963494152242788e-01
-8.240952208402180235e-01,-7.743307024765180291e-01,7.289105267821449630e-01,2.354300805262887764e-01,9.441651793189453912e-01,-2.534663675374249081e-01,5.203849693523610043e-01
-8.083659318484648360e-01,-7.760085638426963417e-01,7.407448953864470553e-01,2.081660196044943234e-01,9.454595154907430299e-01,-2.567320421887897552e-01,5.226020829151023506e-01
-7.992878744622622378e-01,-7.766077026492984592e-01,7.458083137068527435e-01,1.725128700177380736e-01,9.456511526422239911e-01,-2.563126177533847638e-01,5.249090809344991726e-01
-7.959023175080487400e-01,-7.762182760603919540e-01,7.376889329527847039e-01,1.455184624649108471e-01,9.410972395633709908e-01,-2.601175991430171308e-01,5.213736983723515905e-01
-7.982991999836847041e-01,-7.741509335637621891e-01,7.256747954358377939e-01,1.455184624649108471e-01,9.394673638432049501e-01,-2.548445231465024108e-01,5.276653921525431556e-01
-8.046208370687257805e-01,-7.752595448867471983e-01,7.028148547100210308e-01,1.659815207150083793e-01,9.394673638429829055e-01,-2.525975208200748057e-01,5.288039467804539484e-01
-8.147475100849232987e-01,-7.752594903452161290e-01,6.789362962008604896e-01,1.887515224427982474e-01,9.444528095794435529e-01,-2.554137731896055641e-01,5.301222157795271173e-01
-8.224474118620761498e-01,-7.722634690629642806e-01,6.518519496500063681e-01,2.022338091083319966e-01,9.401863522275899498e-01,-2.486127705177976210e-01,5.285941800211579888e-01
-8.293982401417349104e-01,-7.667806263071743622e-01,6.350740450282721383e-01,2.117912320812598281e-01,9.427271152833149870e-01,-2.301270612249384229e-01,5.318299113676872025e-01
-8.275107210993920548e-01,-7.620469115903957258e-01,6.253967942939642199e-01,2.196109070782270578e-01,9.419121337901348312e-01,-2.149071356664089549e-01,5.273957933248363261e-01
-8.205898361246799499e-01,-7.602193336994980122e-01,6.315686603127756982e-01,2.166448291009981375e-01,9.363994240874085051e-01,-2.080161394550916754e-01,5.228717362844026439e-01
-8.051302005020327668e-01,-7.630355860689802538e-01,6.486162183036991991e-01,2.026232902386793100e-01,9.328520423870223510e-01,-2.195809637732804021e-01,5.179881414181242150e-01
-7.873635668601275395e-01,-7.669903930664079272e-01,6.737830479655038118e-01,1.865344634215393427e-01,9.321809632900635023e-01,-2.356997338954780474e-01,5.164302168964018946e-01
-7.677394120223501872e-01,-7.699265277387595807e-01,6.921489294972049677e-01,1.757486559056387065e-01,9.321329667359989912e-01,-2.438790012594393986e-01,5.173590047651277501e-01
-7.556353355074457712e-01,-7.707054899996484965e-01,7.078182773374575021e-01,1.729922901461122819e-01,9.330438540713359430e-01,-2.526274641251324837e-01,5.198756604605225817e-01
-7.467969881854441550e-01,-7.692673932391882463e-01,7.069793739251650777e-01,1.788945027957344891e-01,9.333793936197043450e-01,-2.531967141682356370e-01,5.167598114169669188e-01
-7.485346816199778264e-01,-7.655822396108874495e-01,6.989799300155530304e-01,1.955825229611463101e-01,9.366869670814903515e-01,-2.448377324331119098e-01,5.186472759176607994e-01
-7.537478164651029156e-01,-7.637247184150360857e-01,6.796853151567194828e-01,2.130495599290682662e-01,9.353927181761090281e-01,-2.481333503894234127e-01,5.195461204815510214e-01
-7.638744894813004338e-01,-7.632752961331673580e-01,6.594919102758112217e-01,2.259026553997900422e-01,9.401864394942283099e-01,-2.558033088616573636e-01,5.207745050243017815e-01
-7.753494293431251183e-01,-7.648032228084605810e-01,6.341152593131171855e-01,2.306963112681525985e-01,9.439254583463174697e-01,-2.573611788418972424e-01,5.214935261336206551e-01
-7.844274321877758860e-01,-7.692075066292949348e-01,6.167082180381644463e-01,2.245843864007168733e-01,9.434941002222085871e-01,-2.506201173213540301e-01,5.219728917206234442e-01
-7.884121824901224596e-01,-7.777162594307454047e-01,6.031660447628484079e-01,2.098437718874857083e-01,9.413368732693605523e-01,-2.476839826490717655e-01,5.175088303728259120e-01
-7.888016636205807952e-01,-7.890713169897006773e-01,6.013084690255077192e-01,1.989680799153736857e-01,9.428229338592775122e-01,-2.528971174943217548e-01,5.180180847231818930e-01
-7.822103731664198367e-01,-7.895806804230076636e-01,6.065216584121291277e-01,1.947736173953940053e-01,9.426791187288063867e-01,-2.556834265586838129e-01,5.185873893078785102e-01
-7.708253723025110249e-01,-7.838581821445685938e-01,6.218014705805519071e-01,2.003762879123627272e-01,9.318454237419171449e-01,-2.466053691726477481e-01,5.172391224621541994e-01
-7.539874719877381892e-01,-7.743906436279492933e-01,6.391486797869827541e-01,2.148471945150332019e-01,9.295923782131065849e-01,-2.546648087752290124e-01,5.159808491561612698e-01
-7.366703151692605145e-01,-7.647733340450518780e-01,6.613194881667228131e-01,2.248539852283126805e-01,9.331396726472984682e-01,-2.657501584234500669e-01,5.166698724189400238e-01
-7.219896418074883693e-01,-7.600994513966354837e-01,6.737231613556105003e-01,2.238054241398002020e-01,9.269078872937708269e-01,-2.617654626627663461e-01,5.174488892215611813e-01
-7.119228554011841625e-01,-7.575827957012060132e-01,6.786966406782113381e-01,2.182326969276671136e-01,9.245110266344891414e-01,-2.579004855800537399e-01,5.175087758313434705e-01
-7.063801805770458797e-01,-7.587212412460686561e-01,6.767192371794905625e-01,2.137686355799806037e-01,9.274831478145451058e-01,-2.687762320938702487e-01,5.164302168964018946e-01
-7.080879307066190176e-01,-7.651028740240650716e-01,6.637762572522243332e-01,2.056193115209659084e-01,9.319412423178796701e-01,-2.653007906832094420e-01,5.214935261337316774e-01
-7.164469124418121337e-01,-7.727428346497866585e-01,6.388790264177934830e-01,1.954926930463063428e-01,9.311263480908937851e-01,-2.596082357096962667e-01,5.191865826559283192e-01
-7.266035833044803827e-01,-7.776263749743744791e-01,6.137720833658821817e-01,1.921071360921899895e-01,9.373581334444214264e-01,-2.644918305757526511e-01,5.176885447440993104e-01
-7.349325671931750126e-01,-7.781956795590988518e-01,5.886650857723774166e-01,1.830590220108785360e-01,9.380772090954447862e-01,-2.641323472919454574e-01,5.175387736778835901e-01
-7.411644289049279521e-01,-7.792742384940681832e-01,5.728459668656871173e-01,1.584913856970127100e-01,9.305510875701195062e-01,-2.601475424478527643e-01,5.155913134841094703e-01
-7.428721244929631373e-01,-7.810119319285879769e-01,5.656254306753982775e-01,1.358411571891204872e-01,9.370705031841453092e-01,-2.594884624900206660e-01,5.125952376602294080e-01
-7.367601996256245567e-01,-7.798734318422012590e-01,5.688312732583522546e-01,1.286506733867431862e-01,9.376457637049195881e-01,-2.631136204251927069e-01,5.149621768311130054e-01
-7.273226044139519120e-01,-7.808920496257393262e-01,5.784785261462310757e-01,1.329050770582096419e-01,9.273872419721662652e-01,-2.500808105831975325e-01,5.148123512230817767e-01
-7.126119332057020417e-01,-7.803827952755082453e-01,5.931292562030288096e-01,1.491436749417873742e-01,9.255656418341029479e-01,-2.508897706905433012e-01,5.180780258746686684e-01
-6.977216021677862257e-01,-7.804426818854015568e-01,6.090383141076349816e-01,1.690075398437240750e-01,9.253739174157615821e-01,-2.566122144275206907e-01,5.227519085229115348e-01
-6.839696621331881055e-01,-7.771770072340228319e-01,6.172175269298918465e-01,1.880923879432616630e-01,9.201008414192468621e-01,-2.519083884741091239e-01,5.271260854142756358e-01
-6.759102770720754050e-01,-7.738812801946493014e-01,6.170377580172470289e-01,1.920172516357565584e-01,9.107532070222745801e-01,-2.503804617987048786e-01,5.309611191919305639e-01
-6.719555246161995621e-01,-7.697168155210570850e-01,6.137421400609355260e-01,1.798232906644603446e-01,9.183750598569240253e-01,-2.540955041905323952e-01,5.364737961695009716e-01
-6.725546634227946852e-01,-7.693572776955592829e-01,6.054430449357051103e-01,1.596298857834410612e-01,9.229291474688317010e-01,-2.469948503029950615e-01,5.347361572765052529e-01
-6.751912559626177535e-01,-7.700164121951375007e-01,5.943576407457795696e-01,1.422227899671169027e-01,9.166973621153040597e-01,-2.447179046718428452e-01,5.312906046293086604e-01
-6.803444496563184618e-01,-7.710350845201996428e-01,5.791077173408210044e-01,1.430916366843559828e-01,9.177998866025660618e-01,-2.475940981927493567e-01,5.302121002359605484e-01
-6.845988533278126731e-01,-7.713945678041733700e-01,5.635881405667841904e-01,1.643935983467459394e-01,9.230249660447942261e-01,-2.468750225416149746e-01,5.285642367163223554e-01
-6.879843557405020960e-01,-7.725930090419774743e-01,5.533116419428329991e-01,1.829391942494984491e-01,9.202925658373661832e-01,-2.357896183519114786e-01,5.219728917205124219e-01
-6.880143535869867044e-01,-7.685783154346703672e-01,5.489374105098754342e-01,1.860850411395942317e-01,9.227374230507123798e-01,-2.428603289343911342e-01,5.217032928930276370e-01
-6.865163156750883067e-01,-7.628558716977762444e-01,5.527124485946721677e-01,1.704456366041773308e-01,9.274351512600365055e-01,-2.460660624343802283e-01,5.185274481565027571e-01
-6.818724308731566319e-01,-7.612379514830291960e-01,5.581053523525669746e-01,1.428519811617068314e-01,9.245111139011275014e-01,-2.499310395168707899e-01,5.145127545489458498e-01
-6.773484283740804912e-01,-7.644437395244868538e-01,5.658052541296365590e-01,1.155578678517787949e-01,9.185188749871731062e-01,-2.543951008645572998e-01,5.167597568753734549e-01
-6.702477199450675993e-01,-7.701062966515154207e-01,5.714977000200738289e-01,1.138501722636187097e-01,9.283939478836877868e-01,-2.508298295391675481e-01,5.163403324401905081e-01
-6.639859694699268289e-01,-7.754692025629117413e-01,5.739245258006286932e-01,1.289502155192856492e-01,9.277228687869509827e-01,-2.389355197834897027e-01,5.145426978538925056e-01
-6.566157167548630769e-01,-7.761283916040140340e-01,5.682919665201957571e-01,1.507615406149964699e-01,9.178477958904363021e-01,-2.408229842841835833e-01,5.157111412454895571e-01
-6.537394686924116183e-01,-7.748400659098181320e-01,5.613110858524450464e-01,1.721534412753022991e-01,9.201008414192468621e-01,-2.456766358455153565e-01,5.162803912885927105e-01
-6.466088169584521816e-01,-7.710050866737150344e-01,5.584050035680743207e-01,1.913580625946265101e-01,9.245589359225814263e-01,-2.466952536289701570e-01,5.222425996311841345e-01
-6.393883898512044972e-01,-7.672600464355278094e-01,5.570567367225720545e-01,1.972303864808955254e-01,9.175602528965765003e-01,-2.404335031537252476e-01,5.276055055427608664e-01
-6.336658915727655383e-01,-7.603091636143310961e-01,5.524427952254828966e-01,1.890212303534699601e-01,9.131499804146958610e-01,-2.455567535426528281e-01,5.298225645637977266e-01
-6.312990069436071883e-01,-7.585415268748507689e-01,5.428853722524440428e-01,1.822201185985861116e-01,9.224017962359276623e-01,-2.390852908497054230e-01,5.290136589981564441e-01
-6.342351416159588418e-01,-7.656721240672653694e-01,5.202951394375210370e-01,1.769170992970137135e-01,9.235044079898280245e-01,-2.361491561773121362e-01,5.288937766951828934e-01
-6.391786230919710432e-01,-7.771770072340367097e-01,4.998919677972057940e-01,1.744903280579412908e-01,9.155947503616257421e-01,-2.391452320011921984e-01,5.264370621513858595e-01
-6.398377575915353832e-01,-7.810718730800192411e-01,4.834736010009832441e-01,1.881223857898017826e-01,9.182792412809615001e-01,-2.439688311742793658e-01,5.270961421093289800e-01
-6.379202952442597496e-01,-7.777462027356851770e-01,4.805674096335366130e-01,2.050201181728050770e-01,9.163618225669356576e-01,-2.348608304831856231e-01,5.259876398693297261e-01
-6.325873326378030903e-01,-7.711249689765775628e-01,4.795187940035416929e-01,2.141880600153855951e-01,9.086917986451670259e-01,-2.364188095465014072e-01,5.283844678034554931e-01
-6.289920089243491441e-01,-7.698965844338129250e-01,4.801479851981316216e-01,2.197307348396071447e-01,9.076852672664781352e-01,-2.486127705177976210e-01,5.242798897397982216e-01
-6.251870820762617242e-01,-7.708852589124043364e-01,4.729574468543829013e-01,2.223073862278601709e-01,9.146360410046128209e-01,-2.621848870980603152e-01,5.227219106764824375e-01
-6.230298551232679172e-01,-7.750797214324534057e-01,4.642688705985831277e-01,2.236256552271553844e-01,9.110886593037825776e-01,-2.599677735352079466e-01,5.179282548084529481e-01
-6.188653904496826952e-01,-7.794540074068240232e-01,4.596549291016049921e-01,2.285691367031050802e-01,9.045693309566171791e-01,-2.481034070844767569e-01,5.180480825694999680e-01
-6.139817955835707997e-01,-7.828095665145529125e-01,4.572581011674792251e-01,2.392350619159211433e-01,9.133417048328151822e-01,-2.456766358455153565e-01,5.168196980269712526e-01
-6.108958898449547981e-01,-7.830192787322415304e-01,4.553106409737051052e-01,2.518185585592691567e-01,9.177519773144737769e-01,-2.333627925712455919e-01,5.188270448304166393e-01
-6.084091229129409140e-01,-7.826297976018109503e-01,4.451240813476697866e-01,2.529270607991573883e-01,9.067264706430488985e-01,-2.210490583802737774e-01,5.194262927201709346e-01
-6.106262364758280325e-01,-7.827496799046596010e-01,4.259792920966454233e-01,2.524476952123766438e-01,9.110407500161343819e-01,-2.350106560908837849e-01,5.226020829152133729e-01
-6.129331799535550074e-01,-7.829893354273087525e-01,4.010520634158964981e-01,2.455268102375951500e-01,9.157385654918748230e-01,-2.501406971930908441e-01,5.217032928930276370e-01
-6.123339320638701011e-01,-7.821504320149885725e-01,3.814279631196848541e-01,2.288986766820766405e-01,9.061992066765611753e-01,-2.543052709497173325e-01,5.227818518278581905e-01
-6.088585451948166360e-01,-7.807123352545214390e-01,3.684249874994494078e-01,2.155362723195164421e-01,8.952216092927844926e-01,-2.694353120519243916e-01,5.202351982860342616e-01
-6.019976013715219176e-01,-7.780757972562363234e-01,3.714211178648119116e-01,2.252135775953068020e-01,9.074933683155261832e-01,-2.808203674572462560e-01,5.224522573072931664e-01
-5.922004683343445874e-01,-7.735517402156222300e-01,3.755855825383624946e-01,2.540056197342099864e-01,9.061992066765611753e-01,-2.726111567883382492e-01,5.260775243258741796e-01
-5.882157180319771417e-01,-7.695071033033684671e-01,3.625827160012029537e-01,2.796219262194421518e-01,8.959885942316780927e-01,-2.559231366229264282e-01,5.256281020438180462e-01
-5.910619682479508752e-01,-7.625861637871184096e-01,3.333112537341476056e-01,2.845055210854985361e-01,9.045213344021085788e-01,-2.522079851481340285e-01,5.223923706973998549e-01
-5.986719855687258063e-01,-7.599796236353040246e-01,2.841459832599868562e-01,2.692555431391685516e-01,9.114721954066595799e-01,-2.466953081705636208e-01,5.209542193955751799e-01
-6.025967401781240351e-01,-7.635149516558026317e-01,2.263520776817351532e-01,2.457365224552976457e-01,9.045213344021085788e-01,-2.445081379125468857e-01,5.187072170691475748e-01
-6.001100823291929398e-01,-7.695969877597463871e-01,1.841675787923602314e-01,2.249139809212818975e-01,9.039940704356208556e-01,-2.613759269907145466e-01,5.187671582205233278e-01
-5.865978523587611626e-01,-7.704957777819598785e-01,1.608282724797627239e-01,2.199404470571986181e-01,9.108011163101448204e-01,-2.676077341609017779e-01,5.234110430225591415e-01
-5.635281994153459317e-01,-7.672001052840965452e-01,1.565139821984029567e-01,2.348908283297257427e-01,9.044255158261460537e-01,-2.541255020369614925e-01,5.229016795893492997e-01
-5.379718886229823971e-01,-7.577925079189085089e-01,1.581617911765587081e-01,2.668287718999851066e-01,8.911469636259106153e-01,-2.438190601080636455e-01,5.184076203950116479e-01
-5.187072170691822137e-01,-7.465273348163242728e-01,1.486044227450022959e-01,3.000550411645930282e-01,8.983374583364511778e-01,-2.489423104967691813e-01,5.145127000076854529e-01
-5.111870842047783192e-01,-7.397562209078556439e-01,1.128614432436281234e-01,3.122489475942957782e-01,8.995358886658699760e-01,-2.392950030675189410e-01,5.078315250970355521e-01
-5.141532167236180229e-01,-7.418834500143856037e-01,5.132244288541532029e-02,3.039199637057121706e-01,8.885583785487316533e-01,-2.303368279840123378e-01,5.034572936641890095e-01
-5.242498918933274910e-01,-7.477257760541422549e-01,-1.797634585953833408e-02,2.863930401278969029e-01,8.899485332962697726e-01,-2.448976190430052213e-01,5.033374659029199449e-01
-5.321295625832291876e-01,-7.544069509646811333e-01,-8.299078762830092160e-02,2.672182530304434422e-01,8.943588057781504119e-01,-2.618552925776063134e-01,5.035171802740823210e-01
-5.335077181922581735e-01,-7.588411235489173068e-01,-1.424923887947127099e-01,2.558032543200638997e-01,8.866887818559376910e-01,-2.388456353270562715e-01,5.076218128794440787e-01
-5.309910624968355863e-01,-7.577925079189085089e-01,-2.097239441262166437e-01,2.658400974214769619e-01,8.771494230408460879e-01,-2.219777917074061691e-01,5.097490419858630162e-01
-5.252386209134534134e-01,-7.466471625776488485e-01,-2.872918301500826388e-01,2.899583114533976769e-01,8.843399177513866505e-01,-1.960618885479270546e-01,5.155613156375693507e-01
-5.139135066594343604e-01,-7.341835482372327526e-01,-3.717806556903235915e-01,3.088035040301750911e-01,8.832373932641246483e-01,-1.486044227451133182e-01,5.160407357658325367e-01
-4.957275031236725304e-01,-7.250156609362179427e-01,-4.600444102319523054e-01,3.180912736341356961e-01,8.671784443021746114e-01,-1.217297338704792509e-01,5.118462732460749010e-01
-4.752343924855628732e-01,-7.137504878336337066e-01,-5.455219102508124251e-01,3.212970616754962094e-01,8.620492707021032430e-01,-1.447994413554809512e-01,5.134041432259817128e-01
-4.493185438677049781e-01,-7.003580856245333885e-01,-6.252170253812083800e-01,3.164434646559799447e-01,8.552902213820878785e-01,-1.896203691600373276e-01,5.060638883576107361e-01
-4.218147728815777042e-01,-6.829809876545966940e-01,-6.970624131267255663e-01,3.081144262256918509e-01,8.356839779857239137e-01,-2.155962134710032174e-01,5.036370625770558718e-01
-3.967677164394451950e-01,-6.633567782752952668e-01,-7.662414286520036200e-01,3.001149823159687813e-01,8.257609958013389928e-01,-2.655404462057475712e-01,4.969558331249235295e-01
-3.725596179511708739e-01,-6.416653900239849273e-01,-8.314654735552817755e-01,2.847151787617185903e-01,8.220698862368980286e-01,-3.379251952311257412e-01,4.950683140825251627e-01
-3.583283123297503758e-01,-6.227003151442478401e-01,-8.956410664531233579e-01,2.632635005745953549e-01,8.073053607131619458e-01,-3.652192539995713361e-01,4.937800429298810911e-01
-3.516471374192114974e-01,-6.019376602200976478e-01,-9.677261642627721372e-01,2.390253496983296699e-01,7.954169632602425821e-01,-3.850531210549679173e-01,4.960869864076844493e-01
-3.568602177228055727e-01,-5.791676039507420715e-01,-1.049158972827757275e+00,2.127199654085032421e-01,7.918695815596343834e-01,-4.030295214560997152e-01,4.952480829951699803e-01
-3.670768297369120248e-01,-5.577758123734982698e-01,-1.136194397368339715e+00,1.984887688700753827e-01,7.902877896603932584e-01,-3.974268509390199711e-01,4.898851770840373376e-01
-3.730389835379932517e-01,-5.385710819711259090e-01,-1.204264801570653631e+00,1.982190609594036701e-01,7.781596712348459732e-01,-3.987451199382041622e-01,4.850914666740813175e-01
-3.718105444536871640e-01,-5.172391224622374661e-01,-1.243393283484883760e+00,2.035820214124628436e-01,7.660316400761590927e-01,-4.168113502540649051e-01,4.910536204751903000e-01
-3.612345036971553736e-01,-4.909637360188678912e-01,-1.248037168286697529e+00,1.913880604410556074e-01,7.484388085026161264e-01,-4.183093336245224947e-01,4.941694695188569852e-01
-3.419398888384085344e-01,-4.652575450771745391e-01,-1.218076628215158941e+00,1.409644621194194869e-01,7.307500710869163640e-01,-4.168712914055516805e-01,4.896155237148480666e-01
-3.237538307611018129e-01,-4.398210620461390219e-01,-1.167892685416060949e+00,6.762098192036880562e-02,7.141639454246728747e-01,-4.358662550487668597e-01,4.880575446515322824e-01
-3.135073299835831606e-01,-4.181895604047081161e-01,-1.121723436224186798e+00,-1.150488316670195132e-02,7.099934811816144276e-01,-4.673248330322454791e-01,4.976150221658315331e-01
-3.189901181978455069e-01,-4.019509079796340645e-01,-1.082954492135579372e+00,-8.724513675828493575e-02,7.056790272759183580e-01,-4.289753679204144632e-01,5.140932755722804615e-01
-3.350190038636860490e-01,-3.873900623791864950e-01,-1.063899587340877417e+00,-1.465670780949057672e-01,7.025632654986679881e-01,-3.796602172971841327e-01,5.339870837790527958e-01
-3.657585607377729087e-01,-3.751661581029713810e-01,-1.050507185131888122e+00,-1.844971187713317917e-01,7.178071457010215539e-01,-3.547330431578066268e-01,5.564575433743002009e-01
-3.911651004638687090e-01,-3.653990229122716649e-01,-1.028126664534445567e+00,-2.183226359255829863e-01,7.359751505289224838e-01,-3.229449251952454247e-01,5.752127969533837870e-01
-4.092912173897407246e-01,-3.593169868083279095e-01,-9.808488585613117650e-01,-2.591888112742912753e-01,7.469048386248289262e-01,-2.699446754851342334e-01,5.904927182047714496e-01
-4.141448689509164005e-01,-3.598263502416487736e-01,-9.085839918387961234e-01,-2.998453289468905325e-01,7.696748403527298166e-01,-2.483131193021792527e-01,5.987918133301128876e-01
-4.099204085843653478e-01,-3.673165398010991289e-01,-8.095344297813777956e-01,-3.370562939722931972e-01,8.006421299688870619e-01,-2.236256552270443621e-01,6.052333327177805700e-01
-4.007824645882971937e-01,-3.937116994642275714e-01,-7.049420292750685491e-01,-3.738179457989376786e-01,8.181869649879214279e-01,-1.910285226156549498e-01,6.060721815888125974e-01
-3.935319850930235619e-01,-4.277169855312346058e-01,-5.973836598744952653e-01,-4.083324862160786495e-01,8.426828355447835150e-01,-1.783851939040070889e-01,6.065815450220224392e-01
-3.930825628111495607e-01,-4.559098888634038893e-01,-4.964465242330851069e-01,-4.298142167912244460e-01,8.767178903836825299e-01,-1.931856950270205431e-01,6.117946798671614062e-01
-4.021006790458983571e-01,-4.813464264359912370e-01,-4.055761204565522249e-01,-4.414689255658466038e-01,8.945025336419831774e-01,-1.930059806558581670e-01,6.169778714073537174e-01
-4.186389281450458855e-01,-5.113069119661028950e-01,-3.200087905228521379e-01,-4.337390259422368999e-01,9.045214216685248942e-01,-1.807220806866460805e-01,6.201237182974494999e-01
-4.396412931333831819e-01,-5.497164273123855693e-01,-2.387856941756805185e-01,-4.148040034503974738e-01,9.247986568949873032e-01,-1.661912329327108750e-01,6.188653904497520841e-01
-4.557601177971413176e-01,-5.998404289600522965e-01,-1.586411567633394526e-01,-3.884686758557354125e-01,9.417204093720155100e-01,-1.561245010679446210e-01,6.185957370805628130e-01
-4.662462195557572908e-01,-6.582934690379793619e-01,-7.256446339654054611e-02,-3.582384278734140892e-01,9.456991491967325913e-01,-1.420729643591966962e-01,6.132926632373969511e-01
-4.684633876601874691e-01,-7.170161624849846760e-01,1.629853903495348533e-02,-3.197390826121804253e-01,9.515473984476052749e-01,-1.453986347036417826e-01,6.130530622563412635e-01
-4.622914670998745090e-01,-7.629457016126162117e-01,1.016561567509510766e-01,-2.762663671117548958e-01,9.613745620562497152e-01,-1.480651160068457983e-01,6.100569318912008043e-01
-4.507266973232202378e-01,-8.036921037415656333e-01,1.916277705051872005e-01,-2.381565029809795675e-01,9.582107164580744296e-01,-1.499525805076507012e-01,6.104764654095706788e-01
-4.341285616141793979e-01,-8.428505289607424178e-01,2.861832733687119656e-01,-2.044508681297019237e-01,9.539442591066649157e-01,-1.556750787859995100e-01,6.109257786084398845e-01
-4.151934300393906874e-01,-8.814996452881085354e-01,3.815777341859005745e-01,-1.715242500807123704e-01,9.584983467187946360e-01,-1.632850961068577078e-01,6.095476775407338010e-01
-4.000633889372964269e-01,-9.180815282019694212e-01,4.726877934851936303e-01,-1.331746758858054491e-01,9.577791838011329162e-01,-1.528887151799329658e-01,6.062519505014574150e-01
-3.899667137675852380e-01,-9.489408582958325233e-01,5.493568894868738894e-01,-9.737180977442694285e-02,9.500614251243266750e-01,-1.256545975629741463e-01,6.025967947196342323e-01
-3.841842743377201774e-01,-9.771338161695397595e-01,6.182960858650554670e-01,-6.582340187599733383e-02,9.474728400469256684e-01,-1.082774995930790851e-01,5.983124477433321431e-01
-3.827162342723115507e-01,-9.994843389204144390e-01,6.762099282876521400e-01,-4.634896356303652709e-02,9.503969646724730325e-01,-9.108011599434640004e-02,5.931591995078644430e-01
-3.819672153163675699e-01,-1.015183684607262604e+00,7.229783162860936585e-01,-3.703125065412926631e-02,9.414806883996096332e-01,-8.460859875991655343e-02,5.872569868583532582e-01
-3.771435616016799997e-01,-1.026418914404914062e+00,7.571932600292097248e-01,-1.722732690367934083e-02,9.348175449217510646e-01,-1.030343669015110208e-01,5.845005665572333697e-01
-3.668970062826251710e-01,-1.042507741222165052e+00,7.803528519705338340e-01,9.108000691093742773e-03,9.363993368209921897e-01,-1.328451359067228665e-01,5.794971984713903623e-01
-3.472729059863979284e-01,-1.069442262165098967e+00,7.946739329652841022e-01,2.381867189937825202e-02,9.285856723015850633e-01,-1.490537904854649653e-01,5.683219098251424128e-01
-3.152150801131719526e-01,-1.103657205908242789e+00,8.045609504588879801e-01,2.309959624835489223e-02,9.190942227743637005e-01,-1.731121724489748104e-01,5.589442557647483767e-01
-2.740492535488201487e-01,-1.134426706087293679e+00,8.181929536490439858e-01,1.788640686173348371e-02,9.190462262200771448e-01,-2.018742712828203167e-01,5.541805432016655431e-01
-2.244645040978595352e-01,-1.149676684033762442e+00,8.305067969230917058e-01,2.336941324232455486e-03,9.196214867406293791e-01,-2.129596754726348351e-01,5.485179860744704428e-01
-1.735315968843511858e-01,-1.154290570989230380e+00,8.309562192051478391e-01,-1.710749914241027625e-02,9.093629650080981008e-01,-2.304566012037989609e-01,5.464806414243739141e-01
-1.293996378011648407e-01,-1.152912415380208389e+00,8.159159534761872834e-01,-2.178132724917070107e-02,8.989607154115120125e-01,-2.500209239733042210e-01,5.374625251897136025e-01
-9.087040377663262170e-02,-1.141587301126179010e+00,7.816111798183422721e-01,-1.069592305946720501e-02,8.991523525634370628e-01,-2.626642526849520820e-01,5.335676593436478043e-01
-6.219813485763229371e-02,-1.128224896763563301e+00,7.238471630033327386e-01,8.538805189473031021e-03,8.886542843908884493e-01,-2.560429643843065151e-01,5.251487364570373018e-01
-3.616240393691447230e-02,-1.115970994640835823e+00,6.493652372595581923e-01,3.070955902761962619e-02,8.817992419620779287e-01,-2.514290228872173572e-01,5.235608140889969064e-01
-1.288303877579680123e-02,-1.109889013078457776e+00,5.737447568878728532e-01,5.318001862286703130e-02,8.810323442898226887e-01,-2.746185035920056805e-01,5.206546227212172084e-01
1.084574866719572456e-02,-1.107402300687981844e+00,5.053448127065873763e-01,6.944855981139141932e-02,8.838604758063528521e-01,-2.931042128849759010e-01,5.209842172420042772e-01
3.790009737144467428e-02,-1.092661740716316388e+00,4.561196010811618962e-01,5.518736542653446264e-02,8.694315770974014868e-01,-3.069758715977810581e-01,5.205048516552235327e-01
7.538077030749996965e-02,-1.059075879084742100e+00,4.193879471009465121e-01,5.572672670650646864e-03,8.564406551572201209e-01,-3.336109049496549517e-01,5.101684664212680076e-01
1.191831348701334198e-01,-1.013056510042270597e+00,3.922137160938810041e-01,-5.332984423067621549e-02,8.573993645142330422e-01,-3.365769283855124527e-01,5.003713333839865385e-01
1.636745226957416477e-01,-9.590675858535679943e-01,3.605753691975355224e-01,-8.448877099864748885e-02,8.504485907760983565e-01,-3.449959058136053969e-01,4.907839671062230735e-01
2.009754812605860086e-01,-9.052283781895709147e-01,3.237538307611087518e-01,-8.481836551921251299e-02,8.331433021966372365e-01,-3.620733525678820897e-01,4.823051576094972148e-01
2.327935425280938664e-01,-8.658003541428260785e-01,2.737796001797132561e-01,-7.600990696055021090e-02,8.262403504797344311e-01,-3.847235810759963570e-01,4.805674096335366130e-01
2.621249459466637455e-01,-8.387758942019762909e-01,2.148771923614622992e-01,-7.592007704571024362e-02,8.265280680068709529e-01,-3.831656565541630144e-01,4.790993695682477238e-01
2.926547906030550483e-01,-8.161257202355109985e-01,1.497728115948948613e-01,-9.021126927710731991e-02,8.221177955247682689e-01,-3.824165830567105573e-01,4.735865835074903885e-01
3.248623875425470930e-01,-7.961719708771686221e-01,8.520784664967084865e-02,-1.066895226832231813e-01,8.128659797035364676e-01,-3.987151766332575065e-01,4.684333898135051300e-01
3.547030998528825085e-01,-7.794240095603255369e-01,1.785651809826926950e-02,-1.184041726092210922e-01,8.079285305218064650e-01,-4.256496975760803991e-01,4.684333898137271746e-01
3.828060641871480763e-01,-7.655223530010080157e-01,-4.191484552029667299e-02,-1.278117699744507618e-01,8.061548396716133880e-01,-4.382331396779459709e-01,4.682836187475114542e-01
4.174105981438209212e-01,-7.547365454852184019e-01,-9.272792497250215149e-02,-1.315867535175430092e-01,7.967592087199104611e-01,-4.474909659767378756e-01,4.650777761643354324e-01
4.519850251709298106e-01,-7.465272802747724423e-01,-1.358112138841738314e-01,-1.279615955822599460e-01,7.898083477153594600e-01,-4.663960997051130875e-01,4.573479856240236785e-01
4.862299667605616826e-01,-7.388574308856699080e-01,-1.752094037089646505e-01,-1.160971745900463148e-01,7.860213323087616999e-01,-4.767324303974751487e-01,4.536628319955493538e-01
5.195760637864456077e-01,-7.272926611089913784e-01,-2.062784460205024928e-01,-9.503486845019448737e-02,7.765298827813182925e-01,-4.674147720301613518e-01,4.317616769848875435e-01
5.484281016181965507e-01,-7.074587395120013333e-01,-2.342016959836490386e-01,-7.759788387040611468e-02,7.466172083643307644e-01,-4.658267951204164703e-01,4.051566960212582558e-01
5.714677567151323911e-01,-6.824117376114102740e-01,-2.587394435339396281e-01,-7.562048037168533909e-02,7.278259464613690000e-01,-4.767923715488509018e-01,3.922736027037743156e-01
5.910320249430077721e-01,-6.606304103621840618e-01,-2.734200623542015762e-01,-9.347694392836114474e-02,7.203478214903302757e-01,-4.754142159398844214e-01,3.994042544377407467e-01
6.105662953243985447e-01,-6.463991047407635637e-01,-2.644618872709170176e-01,-1.193928470878402592e-01,7.257167160628075209e-01,-4.751146192657484946e-01,4.136954466689157783e-01
6.312390657921794768e-01,-6.407066588503262938e-01,-2.348308871782389673e-01,-1.448592734237807989e-01,7.370297657280922010e-01,-4.730472767691118463e-01,4.290652523768478943e-01
6.457999113926166102e-01,-6.432532578507232923e-01,-1.998070378692595739e-01,-1.661014030178709078e-01,7.516985599429482079e-01,-4.598347525559542959e-01,4.394615242206967309e-01
6.569752000388281443e-01,-6.490056994341020236e-01,-1.753291769287512736e-01,-1.839278687282286384e-01,7.685244065773755295e-01,-4.696317765099378150e-01,4.487792371294929694e-01
6.618587949049452579e-01,-6.567654878211204306e-01,-1.651725606076626107e-01,-1.869239445518866560e-01,7.820425052176283032e-01,-4.770920227644692702e-01,4.509364095408585627e-01
6.662330263377570505e-01,-6.677310642496381288e-01,-1.684382898005098994e-01,-1.696367310383140037e-01,7.959922237810168610e-01,-4.665458707714398301e-01,4.532733508650910181e-01
6.733636235301750927e-01,-6.804043362662326455e-01,-1.811116163585868577e-01,-1.373391951009494960e-01,8.031828057579737390e-01,-4.726278523337068549e-01,4.552507543638117937e-01
6.876248724565388049e-01,-6.954446019949989122e-01,-2.007957123478787409e-01,-1.035137324882917653e-01,8.107088400171047482e-01,-4.825148698273107328e-01,4.497380228447589445e-01
7.071291995329846980e-01,-7.229783162860659029e-01,-2.276103509879501274e-01,-7.843673274110507521e-02,8.115237342438685886e-01,-4.605237758188440722e-01,4.417085265469022914e-01
7.316668925418101654e-01,-7.588710668538778403e-01,-2.654206184444785066e-01,-6.073009479223845375e-02,8.189540371934533880e-01,-4.342783872219868613e-01,4.382031963729993151e-01
7.586912979411185587e-01,-7.980894877659960862e-01,-3.106910230725734579e-01,-6.123940368407687629e-02,8.293083775019471915e-01,-4.042877947623146895e-01,4.405401376970097260e-01
7.918576805957879827e-01,-8.302371435540412126e-01,-3.541039065046991396e-01,-7.624961702468180391e-02,8.344855476563051155e-01,-3.573995790026041064e-01,4.376039484832450199e-01
8.320347781400165843e-01,-8.455469535689208449e-01,-3.788812550362674614e-01,-8.931242471332812016e-02,8.376973025421285968e-01,-3.067362160751319067e-01,4.300838701603026948e-01
8.792525884202817554e-01,-8.451575269799727064e-01,-3.896071759420527414e-01,-7.675898045811369030e-02,8.447439821224200784e-01,-3.067662139216720263e-01,4.327204081586710771e-01
9.252421232408581941e-01,-8.360494717473410109e-01,-3.924533716165301556e-01,-5.875263675192421431e-02,8.374576688361390353e-01,-3.444565445337444132e-01,4.328701792251088420e-01
9.696735699150395016e-01,-8.270612988175163327e-01,-4.012618301750814354e-01,-5.216134629781876697e-02,8.318969625791261535e-01,-3.584781379376567045e-01,4.351472339392259414e-01
1.006734818415701893e+00,-8.171743358655059186e-01,-4.116281587139836162e-01,-6.138917475029259663e-02,8.291166530838278703e-01,-3.854426567269086945e-01,4.304733512907610304e-01
1.036815186248679632e+00,-8.098340264554027002e-01,-4.331398325940760685e-01,-6.534398174762312550e-02,8.232682293001225560e-01,-4.306531202036278927e-01,4.356565428309533416e-01
1.058117202452624861e+00,-8.011454501996584376e-01,-4.607035992730823537e-01,-5.431851870929538251e-02,8.145917612658593043e-01,-4.375140640268115888e-01,4.399109465025308197e-01
1.077351876159947430e+00,-7.889214913819053709e-01,-4.993227177541026407e-01,-3.604257617562112159e-02,8.098939457903409078e-01,-4.131861377772994004e-01,4.426073711107925135e-01
1.091912667218843058e+00,-7.700763533465548871e-01,-5.392601597756785381e-01,-1.785646355678682795e-02,8.176117044671471490e-01,-3.860418500750695259e-01,4.420980622188430686e-01
1.109919010924938831e+00,-7.512611040746408619e-01,-5.806956397090834443e-01,-2.546653541823928890e-03,8.181870522545597879e-01,-3.878694279660921396e-01,4.403903120893115641e-01
1.133108437088137244e+00,-7.423628156011941037e-01,-6.006792778308067682e-01,1.099551973338108724e-02,8.127221645732873867e-01,-3.754358114720357520e-01,4.384128540491083470e-01
1.167742859808224010e+00,-7.372994518223541238e-01,-6.063718328043199435e-01,1.557951792552358938e-02,8.162216369860253451e-01,-3.526657552027634424e-01,4.373942908071359881e-01
