Afshin1997/kuka_rl_ros2/src/catch_and_throw/output_files/ft/idealpd_8/ft_received_joint_vel_np.csv
joint_0,joint_1,joint_2,joint_3,joint_4,joint_5,joint_6
0,1.19776e-05,1.19776e-05,2.39552e-05,-1.91991e-05,2.39771e-05,2.39771e-05
3.5953e-05,-1.1977e-05,-2.39759e-05,-2.39541e-05,-3.83266e-05,0,-2.39759e-05
-3.59547e-05,1.19776e-05,4.79323e-05,-2.39771e-05,-1.91991e-05,-2.39771e-05,2.39771e-05
-0.000671107,-0.000623156,0.000443413,-0.00164179,-3.83266e-05,-0.000491321,0
-0.00394291,-0.00220515,0.00793377,-0.0132549,0.00325976,0.011589,-0.010091
-0.00870033,-0.00287615,0.0608545,-0.0736414,0.0285889,0.0902032,-0.0655162
-0.02168,-0.00835322,0.154912,-0.14735,0.0952242,0.250297,-0.141921
-0.0444964,-0.0250824,0.255582,-0.210786,0.157613,0.402241,-0.208041
-0.0662984,-0.0597069,0.364653,-0.305821,0.213018,0.516509,-0.288587
-0.0804123,-0.11634,0.480544,-0.410654,0.274768,0.611098,-0.363665
-0.0842033,-0.186204,0.591244,-0.504944,0.329967,0.684077,-0.41802
-0.0848464,-0.256001,0.685578,-0.581066,0.379306,0.74962,-0.451459
-0.0748314,-0.319519,0.767369,-0.649417,0.423619,0.795269,-0.470956
-0.0599917,-0.366134,0.828283,-0.688262,0.454738,0.824604,-0.476182
-0.0308482,-0.400127,0.883942,-0.719167,0.476524,0.835908,-0.474911
0.0157709,-0.423117,0.943556,-0.750914,0.49627,0.8241,-0.46753
0.0601144,-0.44441,0.982839,-0.792632,0.508853,0.807889,-0.454621
0.0976572,-0.46753,0.996034,-0.842759,0.520199,0.79033,-0.43636
0.13932,-0.499707,1.00286,-0.866301,0.53288,0.76665,-0.417217
0.201606,-0.521637,1.03211,-0.871053,0.535846,0.737241,-0.393876
0.266152,-0.547369,1.05477,-0.87511,0.537405,0.693604,-0.373462
0.315442,-0.582851,1.04482,-0.906142,0.539374,0.667518,-0.351465
0.36871,-0.633723,1.0358,-0.926108,0.541368,0.635149,-0.331836
0.442253,-0.677485,1.05523,-0.918182,0.538076,0.599322,-0.309201
0.507796,-0.709474,1.06179,-0.905843,0.530669,0.565846,-0.287759
0.55317,-0.745006,1.04102,-0.922569,0.527894,0.536152,-0.262185
0.597867,-0.77958,1.03184,-0.957314,0.528176,0.500246,-0.239176
0.644779,-0.801453,1.03698,-0.974485,0.527089,0.469158,-0.213408
0.679981,-0.824304,1.03419,-0.976536,0.522424,0.442663,-0.189382
0.702305,-0.85917,1.02223,-0.983977,0.518882,0.419015,-0.163373
0.733622,-0.879143,1.03439,-1.02718,0.519356,0.38103,-0.142693
0.766973,-0.890977,1.05161,-1.03005,0.515143,0.349001,-0.121895
0.761077,-0.907353,1.01675,-1.0269,0.515137,0.344215,-0.108203
0.740464,-0.938148,0.969476,-1.03064,0.510349,0.328124,-0.101473
0.763557,-0.955504,1.0008,-1.04656,0.51044,0.299958,-0.0881899
0.800494,-0.943314,1.05107,-1.0225,0.503177,0.272001,-0.0753347
0.797724,-0.960586,1.0366,-0.996669,0.499261,0.256193,-0.0682246
0.749931,-0.987357,0.962633,-0.997759,0.500493,0.261047,-0.0646205
0.730074,-0.992571,0.950962,-1.00406,0.500316,0.260363,-0.0587214
0.754318,-0.975995,1.00831,-0.972987,0.495335,0.232919,-0.0536068
0.760286,-0.968483,1.02903,-0.950759,0.490748,0.217245,-0.049997
0.728575,-0.987261,0.991755,-0.952518,0.489908,0.220995,-0.0444266
0.691941,-0.99426,0.959183,-0.971539,0.49533,0.225622,-0.0418959
0.673398,-0.97282,0.962285,-0.960416,0.487876,0.219724,-0.0447023
0.66783,-0.973145,0.98429,-0.941747,0.486759,0.208125,-0.0472647
0.645091,-0.984528,0.978009,-0.946933,0.487166,0.203317,-0.0483456
0.617317,-0.986016,0.970053,-0.976153,0.48513,0.196764,-0.046318
0.595782,-0.982636,0.974463,-0.962611,0.482311,0.190233,-0.0356283
0.557808,-0.984732,0.951655,-0.961566,0.482391,0.194892,-0.025527
0.506705,-0.989023,0.918905,-0.962191,0.479032,0.198922,-0.0207562
0.47853,-0.99088,0.931845,-0.984768,0.481663,0.186263,-0.0192591
0.456289,-0.969801,0.952592,-0.972653,0.476731,0.18532,-0.0217509
0.425175,-0.960727,0.953105,-0.965449,0.477866,0.185688,-0.024808
0.379915,-0.968854,0.927714,-0.95264,0.477498,0.187129,-0.0312062
0.34724,-0.95259,0.912418,-0.982443,0.477904,0.199722,-0.0414185
0.342825,-0.931237,0.933682,-0.955193,0.478687,0.195662,-0.0555696
0.333182,-0.925097,0.929831,-0.942127,0.477981,0.200273,-0.0725783
0.299263,-0.928852,0.887471,-0.929715,0.474948,0.21075,-0.0861766
0.283314,-0.932671,0.875026,-0.947353,0.481759,0.221702,-0.0951931
0.279442,-0.935803,0.881719,-0.924394,0.478725,0.22078,-0.107292
0.264882,-0.943326,0.866565,-0.912993,0.479553,0.233914,-0.125166
0.236743,-0.945905,0.841825,-0.886345,0.474756,0.243586,-0.139637
0.215386,-0.935991,0.83749,-0.910464,0.478537,0.258494,-0.144198
0.198442,-0.930542,0.845719,-0.905088,0.481045,0.257331,-0.15391
0.174231,-0.930083,0.836124,-0.884853,0.478441,0.25883,-0.16287
0.146863,-0.915682,0.820134,-0.856948,0.474162,0.273234,-0.170124
0.130104,-0.902375,0.820508,-0.877267,0.476754,0.278616,-0.177575
0.110756,-0.899887,0.818336,-0.890911,0.475236,0.270478,-0.177327
0.0866721,-0.898528,0.799871,-0.874882,0.478825,0.279179,-0.182668
0.0695069,-0.883565,0.787046,-0.852382,0.475466,0.287387,-0.182168
0.0598147,-0.859314,0.790823,-0.857517,0.468892,0.28033,-0.182093
0.0491701,-0.853054,0.789395,-0.878244,0.473011,0.277321,-0.181761
0.026137,-0.852047,0.761388,-0.875284,0.473663,0.288957,-0.184361
0.0171978,-0.850062,0.741842,-0.861927,0.472631,0.293357,-0.185197
0.0251064,-0.837043,0.746109,-0.839811,0.465342,0.288586,-0.190653
0.0351626,-0.824751,0.749464,-0.859662,0.465306,0.298822,-0.193886
0.0199293,-0.82579,0.720104,-0.867686,0.468045,0.305363,-0.198191
0.00860488,-0.825182,0.686833,-0.863545,0.468163,0.318165,-0.202598
0.0223021,-0.813566,0.68565,-0.840782,0.467086,0.320726,-0.208808
0.0481059,-0.796012,0.69811,-0.82831,0.464942,0.318644,-0.208603
0.0575949,-0.782169,0.691798,-0.847996,0.464038,0.318929,-0.211217
0.0424971,-0.778862,0.657363,-0.855959,0.468048,0.328963,-0.21058
0.0364312,-0.774966,0.632848,-0.840231,0.470289,0.332123,-0.214932
0.0529956,-0.764696,0.643185,-0.809806,0.465786,0.322767,-0.212773
0.067913,-0.748002,0.654348,-0.809612,0.467758,0.323818,-0.215663
0.061157,-0.733405,0.64587,-0.823552,0.466035,0.324373,-0.215374
0.0408413,-0.7228,0.626605,-0.822435,0.467988,0.32969,-0.218168
0.028655,-0.703671,0.617598,-0.795449,0.469563,0.334895,-0.219245
0.0325124,-0.697334,0.624903,-0.765954,0.466952,0.333741,-0.223884
0.0349469,-0.685191,0.629175,-0.761688,0.46732,0.336777,-0.225429
0.0282701,-0.674097,0.629373,-0.77342,0.46933,0.331967,-0.227983
0.0177371,-0.656009,0.626167,-0.758069,0.470675,0.333613,-0.230283
0.00847264,-0.635725,0.623801,-0.726347,0.473146,0.334089,-0.233663
0.00269654,-0.628073,0.62896,-0.688715,0.472497,0.328232,-0.238264
-0.00692673,-0.634466,0.6302,-0.675895,0.472091,0.323303,-0.240602
-0.0181086,-0.629918,0.632255,-0.674609,0.477348,0.320562,-0.244185
-0.0233208,-0.614849,0.643754,-0.655738,0.479128,0.315849,-0.246558
-0.030607,-0.588855,0.651484,-0.606292,0.477709,0.314806,-0.245635
-0.0405556,-0.573375,0.659041,-0.564567,0.481203,0.316703,-0.245934
-0.0590929,-0.5646,0.663503,-0.526946,0.480163,0.318246,-0.247528
-0.0750111,-0.571194,0.667118,-0.474455,0.483273,0.320981,-0.243082
-0.0868597,-0.578154,0.671269,-0.388807,0.485686,0.321709,-0.23775
-0.104265,-0.570044,0.67854,-0.287688,0.488988,0.331384,-0.213408
-0.127665,-0.556726,0.69133,-0.153814,0.492128,0.333429,-0.165391
-0.164847,-0.536487,0.702832,-0.0211407,0.492554,0.342805,-0.129037
-0.211744,-0.534892,0.712422,0.0995387,0.497554,0.342633,-0.127114
-0.27417,-0.54037,0.718939,0.219197,0.498441,0.333733,-0.126017
-0.336905,-0.555312,0.738942,0.319504,0.498513,0.314039,-0.123722
-0.407318,-0.565514,0.75904,0.395717,0.501049,0.30521,-0.128007
-0.4839,-0.554234,0.777063,0.438313,0.496672,0.295021,-0.12824
-0.554967,-0.535696,0.802795,0.460529,0.49568,0.280857,-0.127288
-0.618456,-0.508323,0.816155,0.479442,0.494448,0.278303,-0.125604
-0.665668,-0.498089,0.823253,0.51875,0.49125,0.277753,-0.121643
-0.696723,-0.492301,0.82434,0.547738,0.491534,0.285254,-0.116987
-0.710922,-0.496627,0.825422,0.564303,0.48753,0.289294,-0.115842
-0.70957,-0.510888,0.817102,0.596369,0.490978,0.300534,-0.112314
-0.705601,-0.508359,0.781043,0.645367,0.490253,0.322156,-0.105404
-0.687591,-0.50166,0.757134,0.702403,0.48814,0.340404,-0.100605
-0.665489,-0.482653,0.74177,0.756475,0.489985,0.358409,-0.0973263
-0.645324,-0.459465,0.734089,0.830608,0.485053,0.365762,-0.0917252
-0.630026,-0.447214,0.734052,0.882001,0.483273,0.366571,-0.087523
-0.62712,-0.444653,0.727977,0.909031,0.480739,0.371455,-0.0883936
-0.629181,-0.460124,0.724094,0.908527,0.480834,0.372953,-0.0892565
-0.645426,-0.483168,0.708201,0.940389,0.480474,0.383708,-0.0849942
-0.662856,-0.50178,0.688346,0.96925,0.478994,0.389095,-0.0786387
-0.672979,-0.501804,0.699081,0.992666,0.472497,0.386021,-0.0732734
-0.679778,-0.488969,0.71513,0.962839,0.476865,0.389383,-0.0705375
-0.696313,-0.472442,0.719383,0.988016,0.470023,0.380628,-0.0725064
-0.70915,-0.461873,0.720152,1.01765,0.468544,0.378118,-0.0689796
-0.720929,-0.451996,0.723218,1.02029,0.463983,0.370909,-0.0630026
-0.733118,-0.454899,0.731584,0.979844,0.46398,0.363533,-0.0576188
-0.751837,-0.463453,0.731835,0.970423,0.46615,0.357079,-0.0567467
-0.762838,-0.461418,0.727869,0.990881,0.463501,0.360142,-0.0556654
-0.751549,-0.445896,0.745114,1.00575,0.457579,0.346185,-0.0584965
-0.745857,-0.422326,0.752173,0.971347,0.459398,0.346408,-0.0610343
-0.754366,-0.414209,0.737779,0.966384,0.456773,0.353987,-0.0568546
-0.755109,-0.403823,0.729391,0.981629,0.453319,0.354533,-0.0469411
-0.734268,-0.396772,0.739673,0.993972,0.451423,0.35497,-0.0383265
-0.70619,-0.404303,0.751226,0.976165,0.450079,0.347343,-0.0318773
-0.697475,-0.418368,0.731619,0.980274,0.448566,0.355605,-0.0310279
-0.696483,-0.439511,0.696411,0.99317,0.44912,0.35971,-0.0300078
-0.680649,-0.445812,0.689817,0.993481,0.445076,0.360159,-0.027828
-0.65587,-0.433759,0.699359,0.966949,0.447797,0.363617,-0.0241477
-0.632351,-0.424288,0.704762,0.987716,0.444961,0.367242,-0.0181446
-0.613434,-0.418947,0.701732,1.01645,0.441585,0.364971,-0.011241
-0.601048,-0.414017,0.700268,1.01714,0.441989,0.368932,-0.00402679
-0.599713,-0.411673,0.698053,0.97197,0.443617,0.374391,0.000719037
-0.604183,-0.414345,0.698233,0.968375,0.439744,0.378405,0.00143807
-0.602989,-0.425534,0.700843,0.986746,0.442123,0.375391,0.00309201
-0.594584,-0.440266,0.715861,0.988664,0.438152,0.365103,0.00487745
-0.594924,-0.443895,0.728467,0.947257,0.437656,0.364162,0.00348752
-0.601894,-0.43872,0.733586,0.936162,0.438862,0.358128,0.0020133
-0.605878,-0.424731,0.738546,0.940282,0.432766,0.349924,0.00250476
-0.609408,-0.411289,0.739949,0.93476,0.430502,0.348146,0.00589609
-0.612721,-0.402201,0.745941,0.905467,0.433705,0.349061,0.0175454
-0.610606,-0.401091,0.762515,0.886693,0.429198,0.342465,0.0419079
-0.599226,-0.406503,0.773349,0.889731,0.427915,0.349912,0.0769766
-0.589503,-0.410438,0.76792,0.88722,0.42868,0.354653,0.119085
-0.590861,-0.417852,0.747714,0.863904,0.428854,0.365552,0.158603
-0.603775,-0.419786,0.713369,0.832621,0.43171,0.367524,0.200755
-0.595846,-0.408193,0.706404,0.838197,0.430254,0.367613,0.240206
-0.570136,-0.387261,0.714519,0.83962,0.428872,0.366062,0.266751
-0.552019,-0.363934,0.71399,0.83972,0.424789,0.352177,0.282247
-0.553491,-0.348098,0.693631,0.797832,0.42636,0.345653,0.296243
-0.572417,-0.333086,0.660407,0.773457,0.42337,0.347443,0.306145
-0.57958,-0.325808,0.636024,0.765667,0.423925,0.34044,0.312374
-0.585935,-0.311969,0.618737,0.743927,0.420244,0.3342,0.3194
-0.592295,-0.305075,0.606328,0.686201,0.41545,0.326155,0.322752
-0.604787,-0.288623,0.596266,0.602953,0.409142,0.315445,0.318776
-0.612044,-0.264462,0.588304,0.542501,0.402642,0.299131,0.303637
-0.610755,-0.23377,0.57165,0.513669,0.391424,0.291775,0.278125
-0.615424,-0.207742,0.545629,0.458578,0.385672,0.289257,0.253748
-0.61981,-0.195015,0.522177,0.39988,0.380725,0.289161,0.224495
-0.623531,-0.180846,0.50015,0.360339,0.372172,0.286526,0.188936
-0.61824,-0.17179,0.492792,0.327485,0.365923,0.27895,0.163329
-0.61308,-0.157345,0.496003,0.293141,0.362335,0.273882,0.140543
-0.616598,-0.143879,0.496303,0.247828,0.350526,0.269124,0.129966
-0.62745,-0.135569,0.493211,0.225297,0.338385,0.274074,0.124088
-0.634526,-0.125364,0.482917,0.222039,0.329568,0.278124,0.125328
-0.646122,-0.124639,0.471339,0.213492,0.32525,0.278772,0.147002
-0.654156,-0.130385,0.47031,0.200348,0.32071,0.277428,0.176284
-0.659544,-0.134658,0.471028,0.2072,0.324157,0.278604,0.208159
-0.661574,-0.140248,0.467997,0.235772,0.330738,0.275811,0.237426
-0.673123,-0.138325,0.459367,0.256684,0.336257,0.269328,0.263624
-0.70027,-0.129942,0.444233,0.266931,0.338446,0.272012,0.287315
-0.738774,-0.120588,0.437579,0.256409,0.341779,0.2729,0.303736
-0.767896,-0.118893,0.453185,0.248823,0.34763,0.268788,0.312661
-0.782697,-0.123105,0.484175,0.246905,0.34782,0.261526,0.317746
-0.799389,-0.134807,0.514255,0.204566,0.34834,0.258242,0.320115
-0.828035,-0.158807,0.516449,0.145948,0.350638,0.254515,0.320406
-0.859968,-0.184697,0.495021,0.0730182,0.355223,0.259453,0.295608
-0.861783,-0.20424,0.513872,-0.0117448,0.358174,0.256852,0.189415
-0.83473,-0.216418,0.543952,-0.0974535,0.36807,0.242088,0.0155072
-0.801429,-0.220395,0.551983,-0.195036,0.381741,0.218574,-0.156218
-0.770328,-0.235197,0.545821,-0.300462,0.390773,0.198826,-0.323603
-0.746096,-0.250656,0.524371,-0.397431,0.401184,0.197876,-0.501504
-0.688514,-0.261106,0.547738,-0.493379,0.408931,0.179208,-0.6569
-0.606424,-0.262233,0.594835,-0.577039,0.410541,0.150399,-0.777183
-0.531394,-0.271881,0.61187,-0.646565,0.411251,0.128414,-0.855239
-0.472635,-0.295356,0.606412,-0.708251,0.415814,0.117131,-0.898197
-0.424947,-0.318836,0.601623,-0.769742,0.418806,0.0955406,-0.915318
-0.382,-0.341183,0.603536,-0.808305,0.417425,0.069459,-0.911367
-0.3345,-0.361034,0.630649,-0.823001,0.416371,0.039525,-0.887789
-0.286968,-0.393817,0.668105,-0.838146,0.4166,0.00278027,-0.849806
-0.256888,-0.437315,0.691016,-0.857996,0.413015,-0.0244724,-0.802867
-0.236048,-0.481359,0.708887,-0.890264,0.41405,-0.0474445,-0.749177
-0.218574,-0.525497,0.73078,-0.887586,0.41198,-0.072746,-0.690896
-0.195434,-0.568614,0.749884,-0.871197,0.409027,-0.107664,-0.625358
-0.169701,-0.596182,0.779593,-0.858547,0.406151,-0.166585,-0.564016
-0.134244,-0.615663,0.825035,-0.85835,0.40477,-0.263419,-0.506741
-0.103426,-0.634509,0.859877,-0.85035,0.400456,-0.397491,-0.455604
-0.0831566,-0.663024,0.879574,-0.808569,0.395087,-0.557254,-0.409084
-0.0536787,-0.695797,0.888173,-0.75765,0.39616,-0.741842,-0.355281
-0.0151237,-0.732651,0.905411,-0.705531,0.389143,-0.944647,-0.30166
0.0320107,-0.755924,0.926511,-0.668173,0.386189,-1.14725,-0.247996
0.0775002,-0.769609,0.942214,-0.612092,0.384771,-1.31948,-0.197627
0.120852,-0.802448,0.938496,-0.547825,0.382182,-1.45258,-0.149087
0.166841,-0.8305,0.926275,-0.460831,0.382509,-1.55227,-0.112302
0.229276,-0.855755,0.939335,-0.387591,0.384943,-1.59153,-0.0822857
0.291354,-0.868165,0.956128,-0.337432,0.380188,-1.57658,-0.060447
0.342829,-0.882384,0.953656,-0.300368,0.377886,-1.53873,-0.0471231
0.396825,-0.933418,0.955337,-0.259225,0.384177,-1.47194,-0.0370184
0.454168,-0.959399,0.953934,-0.219091,0.384599,-1.4021,-0.0339146
0.516713,-0.961326,0.95199,-0.185389,0.383601,-1.31329,-0.0339641
0.57801,-0.950231,0.952353,-0.15838,0.382029,-1.21045,-0.0317455
0.630697,-0.974485,0.946585,-0.125706,0.38734,-1.13196,-0.0306085
0.686261,-1.00877,0.949764,-0.102403,0.389143,-1.04953,-0.0263287
0.747762,-0.997316,0.957911,-0.0713558,0.385633,-0.951451,-0.0257068
0.815268,-0.961257,0.966961,-0.0391636,0.3892,-0.848188,-0.0262568
0.874343,-0.983881,0.970171,-0.00696301,0.3864,-0.765991,-0.0241009
0.914675,-1.02937,0.954258,0.00065913,0.388702,-0.677932,-0.0232369
0.956341,-1.03144,0.937861,0.0144773,0.392575,-0.594696,-0.0236574
1.02924,-0.993613,0.956427,0.0421955,0.389641,-0.516736,-0.0260172
1.10783,-1.00742,0.975636,0.0732734,0.387493,-0.468044,-0.0292542
1.14381,-1.05363,0.94201,0.0793817,0.388874,-0.413554,-0.0339985
1.17804,-1.05443,0.902267,0.0667538,0.393131,-0.357223,-0.0360015
1.26244,-1.01044,0.929643,0.0998023,0.388069,-0.323483,-0.0382408
1.32808,-1.02383,0.933942,0.139656,0.388318,-0.305641,-0.0423054
1.33882,-1.06808,0.87695,0.129451,0.393534,-0.269651,-0.0481635
1.38788,-1.05495,0.867739,0.132045,0.394914,-0.248427,-0.048765
1.4497,-1.00678,0.879586,0.180179,0.388836,-0.23008,-0.0518306
1.46476,-1.03564,0.838078,0.194665,0.396563,-0.21493,-0.0583047
1.49109,-1.06081,0.823573,0.202589,0.397426,-0.212559,-0.0659956
1.51549,-1.01982,0.805024,0.226208,0.391271,-0.185053,-0.0748433
1.53946,-0.993889,0.79124,0.247037,0.397656,-0.179232,-0.0781593
1.56234,-1.01038,0.80065,0.268333,0.392843,-0.18449,-0.0829209
1.54615,-1.02103,0.746768,0.260651,0.391693,-0.158943,-0.0856134
1.56409,-0.992966,0.725221,0.273162,0.399018,-0.142837,-0.0938343
1.58341,-0.951331,0.72921,0.328903,0.389238,-0.121032,-0.100586
1.59349,-0.975314,0.713069,0.31374,0.39361,-0.120882,-0.100701
1.60077,-0.986242,0.693053,0.316296,0.394876,-0.106435,-0.102528
1.57567,-0.936702,0.629517,0.32377,0.392728,-0.0472048,-0.107161
1.60571,-0.920711,0.631057,0.337987,0.397618,-0.0299973,-0.113745
1.6084,-0.919061,0.630847,0.382288,0.390466,-0.0100066,-0.112829
1.59482,-0.931281,0.586331,0.347431,0.402277,0.0138062,-0.115123
1.59683,-0.902068,0.575218,0.372629,0.399305,0.03582,-0.121589
1.57203,-0.848924,0.552151,0.376026,0.394109,0.0741602,-0.122686
1.58712,-0.873762,0.563533,0.367692,0.407684,0.0631434,-0.117778
1.55126,-0.870711,0.540466,0.417589,0.396716,0.0648482,-0.122853
1.5293,-0.858698,0.499922,0.383091,0.406496,0.0725269,-0.127138
1.54122,-0.81025,0.519697,0.414197,0.403811,0.0880982,-0.12664
1.51843,-0.789766,0.509713,0.411816,0.397292,0.11531,-0.131536
1.51975,-0.820424,0.501384,0.395573,0.407493,0.1116,-0.135665
1.48868,-0.788244,0.481587,0.427563,0.40059,0.126766,-0.13609
1.47788,-0.759459,0.454753,0.377381,0.40757,0.145852,-0.140063
1.48812,-0.728816,0.478507,0.408785,0.401836,0.145066,-0.145785
1.4551,-0.722139,0.457461,0.400858,0.400398,0.145624,-0.14542
1.44138,-0.737672,0.430344,0.368842,0.410426,0.141327,-0.147846
1.43638,-0.698865,0.438574,0.418691,0.400705,0.141465,-0.150022
1.42481,-0.684128,0.418216,0.389215,0.40801,0.141842,-0.151249
1.41971,-0.675484,0.424252,0.382858,0.406879,0.134922,-0.154325
1.40131,-0.647553,0.428115,0.382216,0.400686,0.129175,-0.156007
1.37287,-0.640782,0.394416,0.358955,0.408873,0.127078,-0.160873
1.37002,-0.613092,0.410614,0.37786,0.406266,0.115171,-0.161827
1.36332,-0.594212,0.416406,0.36907,0.401702,0.104943,-0.163725
1.3323,-0.603097,0.382079,0.338119,0.406438,0.0979135,-0.166968
1.32916,-0.58109,0.392007,0.332219,0.40291,0.0887292,-0.166924
1.32098,-0.55595,0.38988,0.327333,0.400302,0.0811472,-0.170708
1.29424,-0.538918,0.368506,0.319408,0.400954,0.0683565,-0.169705
1.29936,-0.508731,0.386441,0.326674,0.399458,0.0501552,-0.172254
1.28835,-0.491725,0.382,0.32238,0.39386,0.0463419,-0.172233
1.25896,-0.498029,0.363826,0.292171,0.394933,0.041778,-0.174842
1.25957,-0.489209,0.385644,0.274229,0.395509,0.0269639,-0.178453
1.24531,-0.474527,0.375319,0.273115,0.38966,0.0233938,-0.175573
1.21246,-0.45732,0.35095,0.254683,0.390619,0.0165618,-0.179148
1.21986,-0.418715,0.382031,0.248032,0.390887,-0.00272047,-0.179121
1.21785,-0.390713,0.384924,0.25654,0.387992,-0.00781355,-0.182815
1.18097,-0.387831,0.35117,0.231361,0.389641,-0.00656751,-0.181146
1.18466,-0.372293,0.36907,0.205657,0.390792,-0.0133501,-0.184397
1.19875,-0.362783,0.386489,0.218442,0.386285,-0.0173176,-0.184693
1.16095,-0.366134,0.346851,0.194571,0.385864,-0.0183235,-0.182983
1.14644,-0.350955,0.350403,0.154205,0.385691,-0.0388898,-0.183088
1.16927,-0.32135,0.387789,0.159518,0.381991,-0.0611541,-0.180682
1.14479,-0.300212,0.363215,0.166669,0.377388,-0.0648722,-0.180223
1.11048,-0.281839,0.341603,0.123662,0.377025,-0.0760741,-0.182144
1.13206,-0.25418,0.385171,0.109934,0.376659,-0.102767,-0.18256
1.12866,-0.234921,0.380538,0.134676,0.368837,-0.114698,-0.179196
1.08213,-0.214645,0.327833,0.101528,0.369048,-0.106346,-0.178801
1.08707,-0.193946,0.344399,0.061217,0.36989,-0.100538,-0.176268
1.11148,-0.182108,0.37197,0.0678651,0.364408,-0.0984601,-0.177962
1.07444,-0.173296,0.320466,0.0561954,0.362661,-0.0911543,-0.176208
1.04159,-0.161196,0.294338,0.00613578,0.363756,-0.120642,-0.180598
1.07081,-0.145348,0.345562,0.0042665,0.361281,-0.180846,-0.181002
1.0716,-0.123686,0.344982,0.0241596,0.354629,-0.234502,-0.185548
1.02217,-0.101389,0.286214,0.0050215,0.351482,-0.26982,-0.18751
1.01938,-0.0837318,0.291438,-0.0254779,0.353133,-0.328396,-0.185883
1.04832,-0.0702293,0.334356,-0.00118648,0.345365,-0.371448,-0.187989
1.02136,-0.0614058,0.295944,0.00333154,0.343144,-0.385871,-0.188903
0.97083,-0.0512578,0.242699,-0.0381228,0.339996,-0.383864,-0.190602
0.98441,-0.0404938,0.276194,-0.060507,0.33927,-0.404183,-0.188975
1.00928,-0.0264618,0.301734,-0.0291943,0.33106,-0.417013,-0.191776
0.977399,-0.0122236,0.2508,-0.0254899,0.328629,-0.415723,-0.189814
0.941696,-0.00201342,0.220323,-0.0646805,0.325921,-0.420633,-0.192711
0.959879,0.00243276,0.265049,-0.0553778,0.323682,-0.451292,-0.192642
0.96956,0.010055,0.286442,-0.00951573,0.317446,-0.482185,-0.195108
0.926635,0.01341,0.248667,-0.00965906,0.318965,-0.494781,-0.19577
0.886603,0.00738247,0.231924,-0.0235256,0.31875,-0.509762,-0.19826
0.895633,0.00420637,0.277608,-0.0103062,0.318236,-0.536845,-0.194679
0.901104,0.0111576,0.298175,0.0198344,0.31643,-0.544744,-0.193862
0.872324,0.0172449,0.255426,0.0273234,0.315552,-0.529822,-0.190545
0.841134,0.0148488,0.232464,-0.00202537,0.318136,-0.513968,-0.190877
0.841741,0.0158907,0.255821,-0.00714244,0.317105,-0.507233,-0.184038
0.85394,0.0279945,0.259369,0.0132183,0.316894,-0.496843,-0.183774
0.840678,0.0387699,0.223427,0.0154121,0.314455,-0.477116,-0.180739
0.809037,0.0397388,0.184517,-0.0135419,0.314171,-0.448787,-0.181832
0.787395,0.044151,0.160904,-0.0298535,0.309335,-0.430987,-0.175981
0.789431,0.0696028,0.165798,-0.0284499,0.306137,-0.424639,-0.173048
0.785597,0.0946657,0.152839,-0.0225429,0.299556,-0.403759,-0.169845
0.758728,0.102103,0.114483,-0.0332315,0.295246,-0.382695,-0.16442
0.724548,0.103331,0.0872353,-0.0569744,0.291425,-0.359476,-0.160269
0.697346,0.1048,0.0794057,-0.0703098,0.283684,-0.342933,-0.149787
0.684772,0.110318,0.0869837,-0.0623435,0.281723,-0.339533,-0.145121
0.666991,0.115058,0.0885494,-0.0400624,0.277893,-0.330541,-0.139577
0.63772,0.111432,0.078978,-0.041011,0.279498,-0.328016,-0.128798
0.608641,0.11181,0.0704896,-0.0372701,0.274979,-0.324789,-0.123423
0.584533,0.122134,0.0658669,-0.0181805,0.274666,-0.321029,-0.115735
0.560358,0.123159,0.0657799,0.0011864,0.274653,-0.320679,-0.107784
0.540322,0.116693,0.075143,0.0143575,0.275644,-0.32043,-0.104325
0.521494,0.1164,0.0751993,0.0307388,0.277529,-0.323531,-0.100533
0.504956,0.119186,0.0639374,0.0454333,0.275817,-0.315349,-0.0940905
0.485014,0.117826,0.0505124,0.0606508,0.276494,-0.316316,-0.0916653
0.461404,0.115878,0.0406755,0.0716195,0.277446,-0.30829,-0.092916
0.434874,0.120571,0.0338427,0.0864163,0.281134,-0.303889,-0.0929475
0.403938,0.125262,0.0308601,0.103666,0.277983,-0.297684,-0.0894285
0.371479,0.123207,0.030643,0.11199,0.279811,-0.301468,-0.0879023
0.33927,0.123824,0.031747,0.122302,0.278079,-0.297276,-0.0911063
0.306537,0.130146,0.027599,0.139026,0.280597,-0.294098,-0.093343
0.273689,0.133741,0.0174247,0.149236,0.282035,-0.289772,-0.0936306
0.241428,0.140087,0.00794574,0.151448,0.279422,-0.290613,-0.092928
0.208125,0.148613,-0.00200132,0.165546,0.279811,-0.287735,-0.0967464
0.17199,0.155643,-0.00735849,0.171007,0.276833,-0.281996,-0.100682
0.136413,0.159363,-0.0188028,0.173767,0.27889,-0.282821,-0.0970221
0.101101,0.163013,-0.0331372,0.177407,0.273554,-0.277286,-0.0928561
0.067182,0.172461,-0.0503206,0.167775,0.27007,-0.279154,-0.0894242
0.0364929,0.18443,-0.0736689,0.17072,0.264139,-0.276339,-0.0921849
0.00698665,0.194571,-0.0980407,0.154138,0.259659,-0.280089,-0.0890048
-0.018552,0.210017,-0.128186,0.163613,0.253976,-0.278844,-0.0816985
-0.0406855,0.222458,-0.153946,0.142861,0.23826,-0.281347,-0.0788784
-0.0686833,0.228341,-0.183843,0.141681,0.220515,-0.289007,-0.0789301
-0.099311,0.239188,-0.212463,0.140919,0.199854,-0.290371,-0.0794895
-0.133831,0.241464,-0.238037,0.142999,0.174495,-0.301818,-0.073549
-0.177267,0.245419,-0.263839,0.150602,0.148007,-0.304896,-0.0618611
-0.220527,0.245299,-0.288731,0.155343,0.123278,-0.310579,-0.0525761
-0.263263,0.245851,-0.306346,0.163185,0.0920559,-0.318402,-0.0496375
-0.306744,0.251148,-0.332714,0.178809,0.0596158,-0.313767,-0.0458168
-0.346384,0.254323,-0.361148,0.188615,0.0264414,-0.31362,-0.0392594
-0.38106,0.263144,-0.384787,0.210484,-0.00816866,-0.304563,-0.0345034
-0.414381,0.275391,-0.411996,0.225826,-0.0289532,-0.303613,-0.0252742
-0.443272,0.293093,-0.435913,0.246318,-0.0459439,-0.28975,-0.0161551
-0.476901,0.308203,-0.461814,0.259692,-0.0604183,-0.285398,-0.00876026
-0.51416,0.311705,-0.483204,0.274781,-0.0681488,-0.277166,-0.00559678
-0.548098,0.309234,-0.494482,0.288226,-0.0685099,-0.281155,-0.003727
-0.585272,0.300114,-0.504416,0.303913,-0.0660939,-0.279466,-0.00304394
-0.617862,0.285531,-0.511284,0.319951,-0.0692034,-0.281277,-0.00242088
-0.645492,0.272695,-0.517024,0.336078,-0.0766589,-0.275655,-0.00135419
-0.673614,0.262173,-0.530603,0.348869,-0.0839108,-0.274973,-0.000131819
-0.701756,0.254275,-0.544742,0.355564,-0.0890264,-0.275403,9.58818e-05
-0.733117,0.247121,-0.555495,0.365636,-0.0932492,-0.273187,0.000107842
-0.750339,0.245983,-0.544407,0.367344,-0.0981917,-0.275116,0.000263648
-0.762791,0.239379,-0.52304,0.388251,-0.101725,-0.279958,0.000179773
-0.780239,0.227216,-0.518845,0.409563,-0.104653,-0.277692,0.000203719
-0.805504,0.222744,-0.531921,0.414401,-0.107132,-0.280078,0.000143819
-0.838493,0.215831,-0.548805,0.416107,-0.108565,-0.269711,-2.39541e-05
-0.853514,0.208866,-0.543498,0.420405,-0.106231,-0.269903,-0.000287637
-0.84832,0.203631,-0.511954,0.442759,-0.105248,-0.273258,-0.000395461
-0.85047,0.195324,-0.492228,0.447238,-0.103661,-0.276543,-0.000395501
-0.881468,0.17735,-0.503793,0.438397,-0.102506,-0.276913,-0.000287602
-0.920759,0.158699,-0.516785,0.419111,-0.106499,-0.272145,-0.000287637
-0.923028,0.144311,-0.487927,0.413255,-0.109409,-0.279478,0
-0.912322,0.136408,-0.455184,0.447226,-0.113038,-0.283865,5.99317e-05
-0.922956,0.121805,-0.466535,0.452646,-0.114854,-0.27949,0.000179743
-0.956712,0.100442,-0.499826,0.428507,-0.116106,-0.278808,0.000251683
-0.962982,0.0879502,-0.495788,0.411793,-0.118823,-0.279957,0.000443413
-0.933654,0.08672,-0.453051,0.441726,-0.125233,-0.287916,0.000826914
-0.92769,0.0824975,-0.441573,0.458638,-0.12981,-0.287735,0.000922778
-0.970579,0.0627869,-0.479848,0.424767,-0.129605,-0.285052,0.000755026
-0.994236,0.0429385,-0.485074,0.390257,-0.126646,-0.286081,0.000167766
-0.970376,0.0363713,-0.44041,0.400863,-0.130961,-0.294757,9.58818e-05
-0.957491,0.0319747,-0.430364,0.430268,-0.138426,-0.294628,0.000431434
-0.991936,0.0159387,-0.478112,0.411133,-0.141085,-0.285494,0.000395483
-1.01264,0.00165387,-0.497406,0.368896,-0.140995,-0.289031,0.000407457
-0.982408,0.00195337,-0.455234,0.37783,-0.141506,-0.298113,0.000551271
-0.958834,0.00554884,-0.435589,0.407174,-0.148857,-0.300931,0.000407479
-0.994656,-0.00331956,-0.481707,0.389934,-0.151995,-0.293415,0.000862827
-1.02145,-0.0177251,-0.501828,0.33945,-0.150008,-0.297216,0.00228906
-0.996406,-0.0227096,-0.458841,0.338571,-0.153874,-0.310336,0.00756188
-0.977494,-0.0191872,-0.448029,0.367925,-0.162625,-0.305234,0.0174734
-1.01177,-0.0294206,-0.501468,0.340632,-0.170441,-0.301085,0.029864
-1.03211,-0.0507185,-0.522357,0.296929,-0.174207,-0.299014,0.0442708
-0.999605,-0.0572833,-0.483888,0.306286,-0.179146,-0.31392,0.0607946
-0.974809,-0.0505867,-0.470129,0.327273,-0.187764,-0.30998,0.0791338
-1.01142,-0.0548745,-0.520271,0.2984,-0.193105,-0.302882,0.0967584
-1.03152,-0.0714997,-0.536223,0.254875,-0.19484,-0.304874,0.110677
-0.997916,-0.0733538,-0.490551,0.258374,-0.20599,-0.320714,0.118473
-0.978968,-0.0634221,-0.49061,0.277717,-0.218713,-0.312604,0.13648
-1.01337,-0.0660915,-0.553515,0.24778,-0.225317,-0.299095,0.156211
-1.02288,-0.0730457,-0.567323,0.199374,-0.231445,-0.309524,0.169425
-0.982588,-0.0660555,-0.527917,0.200899,-0.238605,-0.319624,0.189179
-0.966612,-0.0537266,-0.53391,0.212641,-0.245596,-0.317326,0.202658
-1.00692,-0.0577507,-0.596178,0.170508,-0.256246,-0.300977,0.21631
-1.01951,-0.0701933,-0.603061,0.120744,-0.264043,-0.31415,0.226843
-0.988412,-0.066475,-0.565187,0.127509,-0.275957,-0.318102,0.236647
-0.983427,-0.0504405,-0.581473,0.124645,-0.284873,-0.315933,0.240206
-1.01872,-0.0481059,-0.636977,0.0722307,-0.292767,-0.301602,0.24162
-1.01749,-0.0554258,-0.633627,0.0234406,-0.300596,-0.310468,0.240806
-0.976763,-0.0458288,-0.592599,0.0266056,-0.308491,-0.319783,0.234202
-0.973061,-0.0268081,-0.616466,0.0280305,-0.313347,-0.318102,0.22513
-1.01043,-0.02633,-0.674453,-0.0165506,-0.310677,-0.309033,0.212881
-1.00995,-0.0312062,-0.676063,-0.0466895,-0.315609,-0.311463,0.20139
-0.96787,-0.0229264,-0.640633,-0.0389137,-0.318865,-0.32043,0.187042
-0.958596,-0.0121877,-0.65563,-0.0348493,-0.321036,-0.316556,0.173408
-0.991551,-0.0166225,-0.702413,-0.0779114,-0.316065,-0.311813,0.160137
-0.992559,-0.0277189,-0.692373,-0.108143,-0.319578,-0.317994,0.148984
-0.964143,-0.0190194,-0.655637,-0.089033,-0.320917,-0.321964,0.127875
-0.969106,-0.00500929,-0.678256,-0.0810954,-0.319751,-0.312997,0.111858
-1.00573,-0.00973143,-0.721528,-0.1302,-0.314512,-0.30787,0.100502
-0.99776,-0.0173648,-0.70009,-0.163988,-0.314516,-0.31833,0.086608
-0.959505,-0.0033317,-0.661318,-0.149099,-0.316947,-0.323187,0.0725663
-0.962551,0.00661515,-0.690335,-0.145689,-0.315168,-0.316029,0.0632753
-0.999305,-0.000503344,-0.746228,-0.186887,-0.308721,-0.306145,0.0628588
-0.995926,-0.00156991,-0.741962,-0.217856,-0.309416,-0.312517,0.0590809
-0.954471,0.0101749,-0.702988,-0.207081,-0.312192,-0.322635,0.0563273
-0.943017,0.0239679,-0.717431,-0.203655,-0.312599,-0.31664,0.05376
-0.977098,0.018588,-0.769502,-0.244796,-0.30874,-0.309297,0.0500713
-0.981881,0.00727426,-0.77082,-0.271856,-0.31003,-0.311319,0.050045
-0.953525,0.0235017,-0.745377,-0.253137,-0.313132,-0.319711,0.0547573
-0.945414,0.0404698,-0.755828,-0.250045,-0.315456,-0.310348,0.0636587
-0.972222,0.0414046,-0.790401,-0.292672,-0.313999,-0.312446,0.0728384
-0.974282,0.034827,-0.786952,-0.321964,-0.316487,-0.314366,0.0745677
-0.947595,0.0449638,-0.77082,-0.298796,-0.319252,-0.324094,0.0778238
-0.942559,0.0571542,-0.792429,-0.280258,-0.321588,-0.313911,0.0768927
-0.971958,0.0508,-0.834538,-0.311846,-0.318102,-0.315609,0.0795135
-0.972556,0.0394171,-0.821335,-0.346449,-0.320514,-0.325068,0.0823936
-0.940752,0.0490383,-0.781114,-0.325508,-0.323471,-0.331596,0.0805561
-0.931413,0.0591915,-0.790271,-0.296845,-0.325653,-0.328388,0.0738606
-0.966637,0.0439571,-0.839835,-0.315729,-0.323106,-0.318809,0.0695668
-0.979998,0.025575,-0.835141,-0.34368,-0.323659,-0.329622,0.0649561
-0.94418,0.0307868,-0.775577,-0.329319,-0.326251,-0.339817,0.0641141
-0.921957,0.0490646,-0.760753,-0.295754,-0.330274,-0.338419,0.0620199
-0.953215,0.0377974,-0.807586,-0.309174,-0.327076,-0.327581,0.0578226
-0.976918,0.0110497,-0.829497,-0.328556,-0.324924,-0.326914,0.0498916
-0.946061,0.0109294,-0.781509,-0.320271,-0.326961,-0.339553,0.044053
-0.906473,0.0254671,-0.745258,-0.287808,-0.326324,-0.341847,0.0442948
-0.923028,0.0178801,-0.777303,-0.289688,-0.326021,-0.335766,0.0413326
-0.953321,-0.00882061,-0.805324,-0.316272,-0.322163,-0.334009,0.0401601
-0.941351,-0.0130985,-0.778406,-0.308023,-0.322512,-0.341926,0.040338
-0.90905,-0.00206133,-0.739002,-0.274254,-0.324042,-0.348798,0.0393332
-0.909091,-0.0071664,-0.742813,-0.277596,-0.32675,-0.34346,0.0371622
-0.939766,-0.0333769,-0.767597,-0.301171,-0.325634,-0.344028,0.037955
-0.936318,-0.0500929,-0.750842,-0.295009,-0.325043,-0.350483,0.0377255
-0.908487,-0.0468595,-0.719742,-0.250429,-0.326362,-0.34718,0.0365049
-0.90202,-0.0540596,-0.718977,-0.237702,-0.330335,-0.351417,0.034382
-0.922141,-0.0795135,-0.730158,-0.259405,-0.33022,-0.343041,0.0386842
-0.922736,-0.0993637,-0.709855,-0.269196,-0.331003,-0.357019,0.044882
-0.895932,-0.095548,-0.672971,-0.228666,-0.33254,-0.357973,0.0508958
-0.884218,-0.0994476,-0.667658,-0.201484,-0.336775,-0.354274,0.0548771
-0.908204,-0.124142,-0.693727,-0.210091,-0.339769,-0.349188,0.0557493
-0.914695,-0.149459,-0.683322,-0.227958,-0.338462,-0.355281,0.0575976
-0.8813,-0.152004,-0.636971,-0.208149,-0.340689,-0.361867,0.0613099
-0.854293,-0.150046,-0.618042,-0.175022,-0.349181,-0.364162,0.0643209
-0.867902,-0.171718,-0.637139,-0.179615,-0.352654,-0.351405,0.0714363
-0.892835,-0.199794,-0.653971,-0.201508,-0.349718,-0.352764,0.0829089
-0.881983,-0.208233,-0.629864,-0.20423,-0.354226,-0.359459,0.0864522
-0.84516,-0.199662,-0.590417,-0.185089,-0.36176,-0.358313,0.0869957
-0.829529,-0.201546,-0.58659,-0.182827,-0.368147,-0.361604,0.0898077
-0.851584,-0.218178,-0.617562,-0.211862,-0.367647,-0.355029,0.0942463
-0.858099,-0.22972,-0.625095,-0.237246,-0.371196,-0.362107,0.102571
-0.830863,-0.217927,-0.600796,-0.224494,-0.378999,-0.363131,0.102755
-0.801559,-0.208509,-0.595854,-0.218503,-0.382528,-0.361088,0.10341
-0.798181,-0.218526,-0.621122,-0.240134,-0.388183,-0.357031,0.109922
-0.809228,-0.236359,-0.651627,-0.278687,-0.387877,-0.362538,0.114327
-0.799667,-0.238923,-0.650184,-0.294699,-0.390293,-0.36065,0.108376
-0.772318,-0.226581,-0.636504,-0.288334,-0.397062,-0.36756,0.108802
-0.754294,-0.222888,-0.640213,-0.296485,-0.401875,-0.361921,0.115591
-0.76454,-0.238265,-0.67822,-0.317826,-0.402661,-0.357529,0.120379
-0.775494,-0.245527,-0.710886,-0.356072,-0.402699,-0.364365,0.119438
-0.759171,-0.236959,-0.699767,-0.377722,-0.407052,-0.363977,0.12824
-0.730326,-0.220924,-0.683157,-0.380922,-0.412382,-0.371179,0.13307
-0.716567,-0.216357,-0.696025,-0.387783,-0.413591,-0.373378,0.132321
-0.721889,-0.216969,-0.729535,-0.413722,-0.415795,-0.371239,0.138894
-0.728803,-0.216009,-0.764121,-0.437315,-0.418883,-0.367817,0.145145
-0.714543,-0.201007,-0.76285,-0.448344,-0.42264,-0.377722,0.147247
-0.685107,-0.184478,-0.742489,-0.459558,-0.428988,-0.373821,0.15351
-0.668561,-0.174163,-0.74817,-0.461742,-0.433186,-0.383139,0.156427
-0.671421,-0.176892,-0.779977,-0.473029,-0.43453,-0.386177,0.158795
-0.677513,-0.177051,-0.813423,-0.494002,-0.438037,-0.368459,0.164815
-0.672547,-0.168514,-0.818783,-0.525941,-0.440129,-0.380041,0.166549
-0.656589,-0.160429,-0.80205,-0.539961,-0.442256,-0.389586,0.169525
-0.645151,-0.152323,-0.799979,-0.540837,-0.446821,-0.387076,0.167915
-0.637678,-0.154689,-0.816383,-0.536162,-0.447548,-0.389011,0.169153
-0.633765,-0.158795,-0.841337,-0.547513,-0.448854,-0.388334,0.164404
-0.627456,-0.155432,-0.847445,-0.565187,-0.449197,-0.385464,0.162251
-0.614506,-0.153054,-0.845304,-0.585024,-0.447492,-0.386417,0.161288
-0.605142,-0.143975,-0.842795,-0.593829,-0.450558,-0.397388,0.155012
-0.598591,-0.143706,-0.846287,-0.597656,-0.449602,-0.382138,0.154588
-0.591756,-0.151933,-0.851855,-0.601295,-0.448008,-0.38665,0.150219
-0.57884,-0.151365,-0.844849,-0.610132,-0.451289,-0.402716,0.149399
-0.561053,-0.142405,-0.844185,-0.617114,-0.447835,-0.389706,0.150998
-0.560576,-0.138265,-0.860644,-0.612541,-0.44941,-0.386741,0.143634
-0.558512,-0.143771,-0.873043,-0.628079,-0.446743,-0.392331,0.143843
-0.555686,-0.14711,-0.859482,-0.643892,-0.44569,-0.394495,0.145552
-0.542142,-0.14811,-0.841717,-0.662521,-0.443253,-0.396285,0.143112
-0.532147,-0.14346,-0.837966,-0.642472,-0.44935,-0.400324,0.147319
-0.52159,-0.144066,-0.847042,-0.644911,-0.44291,-0.396784,0.146199
-0.517407,-0.15349,-0.861035,-0.63799,-0.443579,-0.384912,0.144478
-0.513261,-0.156614,-0.859937,-0.658454,-0.443619,-0.39302,0.150178
-0.502799,-0.148241,-0.841345,-0.678735,-0.437654,-0.398922,0.151118
-0.499563,-0.143778,-0.832361,-0.676802,-0.440263,-0.391115,0.153725
-0.498377,-0.153155,-0.839236,-0.662005,-0.440875,-0.393757,0.157889
-0.494853,-0.161995,-0.837706,-0.655481,-0.43756,-0.399828,0.158867
-0.483816,-0.161532,-0.822842,-0.666883,-0.438018,-0.401426,0.165055
-0.472058,-0.155092,-0.816386,-0.669216,-0.442219,-0.39954,0.167663
-0.463491,-0.154401,-0.819247,-0.678723,-0.439169,-0.400719,0.172689
-0.467253,-0.166992,-0.834458,-0.677161,-0.438787,-0.396017,0.17477
-0.465996,-0.180059,-0.832094,-0.671509,-0.440511,-0.393505,0.176799
-0.460397,-0.183615,-0.810729,-0.676323,-0.440398,-0.408301,0.177371
-0.461754,-0.178825,-0.800276,-0.670454,-0.441355,-0.405034,0.177482
-0.456706,-0.185712,-0.803035,-0.678935,-0.440398,-0.398809,0.180715
-0.454252,-0.19595,-0.811985,-0.686201,-0.441393,-0.40652,0.17783
-0.44483,-0.201819,-0.808656,-0.696696,-0.439535,-0.404154,0.18081
-0.425922,-0.206615,-0.799785,-0.678411,-0.439034,-0.406232,0.180131
-0.415551,-0.205247,-0.799128,-0.674117,-0.440954,-0.405784,0.184418
-0.419942,-0.217281,-0.804339,-0.670646,-0.440818,-0.402289,0.180203
-0.426146,-0.227095,-0.807158,-0.688403,-0.435796,-0.405245,0.181745
-0.428834,-0.232884,-0.788999,-0.710157,-0.439015,-0.407107,0.181653
-0.42442,-0.232164,-0.777448,-0.710179,-0.440513,-0.411117,0.183112
-0.41546,-0.234598,-0.773408,-0.684068,-0.439399,-0.415076,0.184433
-0.407358,-0.239547,-0.776344,-0.680353,-0.442352,-0.410043,0.181976
-0.407282,-0.241608,-0.785597,-0.680649,-0.446476,-0.411069,0.184849
-0.397064,-0.240985,-0.77239,-0.708647,-0.440472,-0.412044,0.1852
-0.386992,-0.236634,-0.761209,-0.711988,-0.44475,-0.417601,0.186599
-0.383798,-0.244425,-0.764804,-0.697562,-0.447701,-0.418264,0.185931
-0.386093,-0.260699,-0.767537,-0.688247,-0.444118,-0.409643,0.190949
-0.394308,-0.27158,-0.774978,-0.695225,-0.446647,-0.419834,0.19118
-0.396017,-0.275392,-0.766362,-0.719035,-0.444156,-0.422215,0.193646
-0.390653,-0.273618,-0.755732,-0.73494,-0.442697,-0.417401,0.192175
-0.382031,-0.273055,-0.754078,-0.728192,-0.445613,-0.420741,0.193514
-0.370412,-0.286249,-0.759099,-0.712829,-0.444902,-0.424555,0.190041
-0.367398,-0.296821,-0.771983,-0.71375,-0.444559,-0.417001,0.192603
-0.358716,-0.307964,-0.771802,-0.73174,-0.448334,-0.419414,0.189203
-0.346233,-0.308494,-0.76224,-0.745054,-0.445498,-0.42116,0.191045
-0.34485,-0.302595,-0.760789,-0.744994,-0.447068,-0.420601,0.189982
-0.346461,-0.307607,-0.761592,-0.731116,-0.449659,-0.421484,0.193191
-0.351561,-0.308455,-0.766529,-0.722956,-0.451517,-0.411852,0.190041
-0.354274,-0.308494,-0.759579,-0.728539,-0.451711,-0.423317,0.190901
-0.356151,-0.30196,-0.749608,-0.749201,-0.453262,-0.427336,0.189958
-0.361477,-0.299421,-0.743711,-0.766302,-0.451232,-0.423078,0.193562
-0.359075,-0.312098,-0.746121,-0.767536,-0.455275,-0.426485,0.191731
-0.350859,-0.326986,-0.760034,-0.754605,-0.454491,-0.421544,0.193526
-0.336905,-0.34062,-0.766805,-0.757194,-0.451594,-0.426533,0.194512
-0.320167,-0.348126,-0.762371,-0.776789,-0.453264,-0.425966,0.197577
-0.310109,-0.348913,-0.759339,-0.790665,-0.453722,-0.414225,0.197903
-0.30643,-0.35264,-0.764109,-0.792175,-0.453032,-0.418587,0.201139
-0.302945,-0.360087,-0.769023,-0.778898,-0.45616,-0.419626,0.203449
-0.304428,-0.363305,-0.765667,-0.780311,-0.455793,-0.411433,0.206783
-0.305066,-0.355065,-0.752892,-0.807865,-0.459074,-0.417888,0.206781
-0.313896,-0.342046,-0.741531,-0.82875,-0.458036,-0.425622,0.208605
-0.32079,-0.340552,-0.737,-0.82976,-0.456946,-0.422239,0.206913
-0.317467,-0.355468,-0.740944,-0.815807,-0.463022,-0.42525,0.208832
-0.310555,-0.370537,-0.749356,-0.810226,-0.462104,-0.417565,0.205067
-0.297454,-0.37898,-0.744635,-0.835257,-0.45539,-0.420912,0.207574
-0.286909,-0.384152,-0.739805,-0.852615,-0.458652,-0.426781,0.205127
-0.278639,-0.393577,-0.743412,-0.83805,-0.458266,-0.406819,0.206208
-0.263683,-0.407833,-0.748901,-0.82873,-0.455373,-0.409763,0.201592
-0.258506,-0.408473,-0.752388,-0.830763,-0.458094,-0.414489,0.202013
-0.256361,-0.403866,-0.739601,-0.865918,-0.452957,-0.408193,0.200034
-0.266607,-0.390473,-0.728397,-0.88257,-0.45725,-0.410702,0.19994
-0.273163,-0.384919,-0.726753,-0.868758,-0.458077,-0.411848,0.196738
-0.271017,-0.39408,-0.723303,-0.849482,-0.453089,-0.423081,0.19734
-0.275524,-0.404681,-0.729941,-0.850601,-0.459266,-0.414664,0.196139
-0.281299,-0.410127,-0.728732,-0.885123,-0.456138,-0.408928,0.196129
-0.283913,-0.415551,-0.723038,-0.885021,-0.451097,-0.41959,0.1953
-0.269423,-0.427563,-0.725017,-0.864259,-0.453338,-0.413614,0.197915
-0.251975,-0.440275,-0.726022,-0.842057,-0.454472,-0.405448,0.198596
-0.245551,-0.437977,-0.725389,-0.858962,-0.449887,-0.404099,0.197507
-0.251088,-0.429034,-0.719539,-0.877746,-0.451117,-0.408876,0.198104
-0.250596,-0.42555,-0.710097,-0.874541,-0.450386,-0.406567,0.195422
-0.24373,-0.432453,-0.708755,-0.851208,-0.449408,-0.404446,0.193828
-0.242327,-0.442936,-0.710179,-0.841457,-0.447742,-0.410242,0.194065
-0.248535,-0.444053,-0.705495,-0.863995,-0.443329,-0.41806,0.192534
-0.259621,-0.445992,-0.705745,-0.868638,-0.446419,-0.401434,0.191656
-0.254839,-0.458937,-0.708084,-0.865409,-0.445458,-0.404303,0.190904
-0.244664,-0.467085,-0.705589,-0.843806,-0.440014,-0.415479,0.191273
-0.236084,-0.461071,-0.699527,-0.857703,-0.441968,-0.40187,0.186362
-0.239954,-0.446423,-0.684844,-0.876416,-0.445882,-0.404274,0.186935
-0.245875,-0.442939,-0.676961,-0.870898,-0.440453,-0.40616,0.183546
-0.245862,-0.460337,-0.685287,-0.859734,-0.441241,-0.408193,0.18588
-0.244952,-0.479478,-0.68976,-0.854815,-0.441604,-0.412583,0.180227
-0.243478,-0.484067,-0.680757,-0.870735,-0.434664,-0.402644,0.18147
-0.244281,-0.48559,-0.6749,-0.87049,-0.436408,-0.417665,0.180263
-0.238312,-0.491365,-0.676203,-0.857541,-0.434262,-0.415755,0.181158
-0.227467,-0.497933,-0.680017,-0.831986,-0.434145,-0.399677,0.178333
-0.219676,-0.488933,-0.676946,-0.852807,-0.433955,-0.409463,0.177383
-0.220577,-0.469435,-0.657991,-0.871964,-0.431269,-0.418084,0.177962
-0.222936,-0.465119,-0.650316,-0.860297,-0.434108,-0.406383,0.176939
-0.215196,-0.486273,-0.651016,-0.846534,-0.434528,-0.41359,0.175781
-0.214511,-0.5048,-0.653911,-0.833799,-0.431462,-0.420249,0.172997
-0.218827,-0.516472,-0.653653,-0.859117,-0.428891,-0.414357,0.172689
-0.229635,-0.524335,-0.650831,-0.871886,-0.431711,-0.411189,0.167472
-0.225574,-0.524597,-0.646666,-0.86191,-0.429064,-0.41244,0.169789
-0.21396,-0.516844,-0.637648,-0.838773,-0.430196,-0.418559,0.165806
-0.209779,-0.504105,-0.625886,-0.846259,-0.433915,-0.414681,0.164983
-0.219965,-0.496867,-0.611841,-0.865852,-0.429869,-0.417964,0.164731
-0.232344,-0.500857,-0.612349,-0.863233,-0.429621,-0.420381,0.162774
-0.22724,-0.518102,-0.613626,-0.85086,-0.429236,-0.421272,0.166745
-0.212809,-0.540382,-0.608358,-0.83942,-0.426841,-0.423545,0.160353
-0.207346,-0.551957,-0.607203,-0.847613,-0.424673,-0.416394,0.162514
-0.211443,-0.549514,-0.602618,-0.864683,-0.425211,-0.421196,0.163205
-0.207958,-0.533166,-0.589143,-0.856014,-0.424845,-0.424879,0.161556
-0.19174,-0.526864,-0.572429,-0.838209,-0.427109,-0.410805,0.163757
-0.189119,-0.535755,-0.572246,-0.833124,-0.432055,-0.420313,0.160237
-0.196175,-0.541569,-0.56519,-0.85796,-0.420302,-0.426997,0.162678
-0.204614,-0.549548,-0.557038,-0.861562,-0.426667,-0.418671,0.162946
-0.193322,-0.565142,-0.555734,-0.845568,-0.426342,-0.417517,0.164368
-0.17886,-0.575421,-0.548122,-0.822842,-0.419822,-0.42247,0.167871
-0.173572,-0.56694,-0.538129,-0.838413,-0.425345,-0.422658,0.165782
-0.184337,-0.548625,-0.518749,-0.856852,-0.425593,-0.425982,0.169621
-0.196031,-0.543965,-0.509174,-0.852255,-0.421146,-0.41651,0.171367
-0.189898,-0.559015,-0.50444,-0.841393,-0.424347,-0.425922,0.173743
-0.184454,-0.575389,-0.493127,-0.825074,-0.421414,-0.431179,0.17193
-0.185092,-0.587717,-0.489928,-0.849231,-0.414549,-0.414429,0.173456
-0.19192,-0.590861,-0.488645,-0.863844,-0.420743,-0.415803,0.170432
-0.182695,-0.586027,-0.474109,-0.841813,-0.415412,-0.418468,0.168866
-0.168454,-0.58198,-0.459762,-0.823409,-0.417368,-0.418643,0.169833
-0.169022,-0.583043,-0.452059,-0.82416,-0.421778,-0.425958,0.164719
-0.177167,-0.582759,-0.440755,-0.8393,-0.415163,-0.420117,0.165506
-0.184816,-0.587106,-0.433076,-0.848056,-0.416984,-0.421092,0.160885
-0.173108,-0.59758,-0.425286,-0.830416,-0.416716,-0.426233,0.160693
-0.156134,-0.608226,-0.419842,-0.808188,-0.416831,-0.41023,0.158328
-0.149763,-0.604878,-0.408018,-0.82271,-0.418537,-0.411816,0.150075
-0.15635,-0.595103,-0.38855,-0.832565,-0.412613,-0.422418,0.151089
-0.165942,-0.596465,-0.38091,-0.823058,-0.414971,-0.415316,0.146624
-0.158543,-0.605554,-0.368081,-0.805839,-0.412632,-0.413826,0.142089
-0.148841,-0.617437,-0.350902,-0.788999,-0.411519,-0.420229,0.142118
-0.147985,-0.622548,-0.34102,-0.80717,-0.411481,-0.414329,0.13612
-0.149847,-0.616418,-0.323183,-0.822135,-0.407531,-0.415376,0.13404
-0.144809,-0.610647,-0.304191,-0.800614,-0.409219,-0.405125,0.133747
-0.137072,-0.625251,-0.287675,-0.782456,-0.40987,-0.414513,0.131045
-0.140435,-0.630745,-0.272516,-0.76937,-0.405786,-0.421244,0.131087
-0.148062,-0.634011,-0.254527,-0.793326,-0.405326,-0.407155,0.131488
-0.156865,-0.633406,-0.242723,-0.803418,-0.40872,-0.409427,0.126341
-0.147463,-0.629325,-0.224076,-0.784853,-0.401721,-0.409024,0.12419
-0.128438,-0.630194,-0.209993,-0.767189,-0.409104,-0.40999,0.12374
-0.128108,-0.638337,-0.194727,-0.752376,-0.406994,-0.414213,0.118893
-0.137175,-0.644588,-0.179348,-0.772103,-0.398634,-0.410662,0.115854
-0.144922,-0.643478,-0.165067,-0.782696,-0.401529,-0.419402,0.113033
-0.140818,-0.646996,-0.146487,-0.759291,-0.397963,-0.411537,0.105703
-0.123782,-0.653413,-0.125424,-0.741447,-0.39827,-0.397915,0.0977411
-0.113661,-0.648231,-0.102647,-0.73265,-0.39873,-0.411117,0.0962357
-0.117802,-0.646259,-0.0812752,-0.742022,-0.392211,-0.412619,0.0906346
-0.13292,-0.651287,-0.0637936,-0.748074,-0.392517,-0.403926,0.081327
-0.138534,-0.655079,-0.0383127,-0.727642,-0.386305,-0.405705,0.0745761
-0.127905,-0.666691,-0.0194859,-0.70619,-0.386439,-0.410295,0.0710409
-0.121187,-0.667622,-0.000982732,-0.694779,-0.386841,-0.403914,0.0745797
-0.116268,-0.660196,0.0117802,-0.695752,-0.381665,-0.394068,0.0712566
-0.117005,-0.662864,0.0130631,-0.695162,-0.382239,-0.401182,0.065783
-0.124082,-0.662281,0.00943137,-0.681024,-0.378271,-0.404003,0.0601714
-0.127767,-0.66574,0.00787383,-0.653276,-0.375681,-0.392205,0.0585324
-0.121278,-0.666284,0.00292408,-0.645384,-0.378041,-0.392283,0.0562886
-0.114991,-0.657735,0.00059923,-0.640405,-0.376161,-0.393464,0.0598147
-0.106921,-0.653545,0.0011984,-0.649782,-0.375433,-0.384445,0.0622566
-0.107297,-0.657015,0.00315192,-0.63935,-0.373764,-0.387879,0.0575137
-0.11036,-0.657631,0.00113847,-0.630811,-0.371138,-0.388412,0.0532087
-0.11136,-0.656704,5.99317e-05,-0.614878,-0.372517,-0.399468,0.0506586
-0.106561,-0.654803,0.000838873,-0.614621,-0.366019,-0.381054,0.0509318
-0.10387,-0.651598,-0.00334368,-0.617742,-0.370063,-0.381515,0.0524802
-0.092576,-0.650513,-0.00139014,-0.62265,-0.367303,-0.383403,0.0542873
-0.0887334,-0.659161,0.000790981,-0.615681,-0.361051,-0.370214,0.0572261
-0.0919888,-0.659681,-0.0023249,-0.616718,-0.361455,-0.373983,0.0560609
-0.0957923,-0.657267,0.0041107,-0.605782,-0.358155,-0.378627,0.0504548
-0.089616,-0.655989,-0.00170172,-0.601666,-0.359058,-0.364444,0.0446882
-0.0800206,-0.652066,-0.000779003,-0.605554,-0.355681,-0.36252,0.0385902
-0.0733058,-0.64941,-0.000874826,-0.604518,-0.357045,-0.360046,0.0389958
-0.0705649,-0.655841,-0.0020134,-0.609641,-0.354262,-0.358169,0.0414545
-0.0772366,-0.655882,-0.0029001,-0.604974,-0.347765,-0.357865,0.0453113
-0.0792896,-0.651898,-0.00140219,-0.603624,-0.346918,-0.352513,0.0459127
-0.0722632,-0.648967,-0.00456589,-0.588112,-0.348762,-0.342405,0.0465696
-0.0604231,-0.643334,-0.00503326,-0.598311,-0.342741,-0.336941,0.0466295
-0.0545655,-0.639302,-0.00832924,-0.591436,-0.341856,-0.325847,0.0416342
-0.0497693,-0.645551,-0.00998262,-0.594056,-0.337602,-0.323219,0.0368866
-0.05417,-0.64581,-0.0130272,-0.592131,-0.334857,-0.319831,0.0326818
-0.0564085,-0.642424,-0.0138535,-0.600839,-0.328897,-0.311966,0.0301876
-0.0561595,-0.642826,-0.0141897,-0.584509,-0.326439,-0.303868,0.0300332
-0.0424831,-0.637858,-0.0192582,-0.583163,-0.327191,-0.291941,0.0302595
-0.0274685,-0.630841,-0.0183363,-0.58053,-0.324541,-0.291967,0.0347072
-0.0248907,-0.629577,-0.0219906,-0.57173,-0.319061,-0.280604,0.0372102
-0.0265457,-0.631836,-0.0220395,-0.583335,-0.314071,-0.277502,0.0360494
-0.0329319,-0.625275,-0.0236803,-0.582096,-0.310797,-0.266835,0.0314938
-0.0310759,-0.627977,-0.0308122,-0.584533,-0.307571,-0.257044,0.0268573
-0.0283181,-0.625502,-0.0360118,-0.565559,-0.30374,-0.240794,0.0247468
-0.0141417,-0.615633,-0.0342158,-0.572105,-0.299134,-0.228641,0.0202778
-0.00940739,-0.608988,-0.0300677,-0.559195,-0.300404,-0.223105,0.0150518
-0.0091442,-0.611426,-0.0277082,-0.556094,-0.292288,-0.201268,0.00838918
-0.0122236,-0.608281,-0.026161,-0.563366,-0.287327,-0.186926,0.00624362
-0.0159754,-0.607244,-0.0345394,-0.557891,-0.278194,-0.156098,0.0050335
-0.0189706,-0.610019,-0.0532687,-0.552304,-0.276781,-0.107939,0.0038109
-0.0210688,-0.602066,-0.0748433,-0.534402,-0.271215,-0.0640932,0.000551276
-0.0192822,-0.586423,-0.104967,-0.51996,-0.264241,-0.0207922,-0.00305589
-0.027097,-0.576779,-0.135893,-0.496866,-0.254129,0.00389497,-0.00553685
-0.0394512,-0.567764,-0.162466,-0.478939,-0.244818,0.0153275,-0.00357123
-0.0483575,-0.565598,-0.180727,-0.462111,-0.239,0.0134347,0.00233699
-0.0533406,-0.566817,-0.194703,-0.440854,-0.231837,0.0124633,-0.000239672
-0.0572953,-0.569429,-0.20024,-0.419366,-0.22712,0.014213,-0.000611178
-0.0590238,-0.559821,-0.193622,-0.405173,-0.219595,0.0213804,2.39552e-05
-0.0629397,-0.541327,-0.1942,-0.384265,-0.217072,0.0271916,5.99289e-05
-0.0634581,-0.5391,-0.194509,-0.377369,-0.213535,0.0324181,0
-0.0665708,-0.537133,-0.201786,-0.368578,-0.212451,0.0356043,-0.000107859
-0.0652318,-0.538656,-0.200992,-0.368728,-0.206364,0.0365168,-0.000275638
-0.0584937,-0.547235,-0.209791,-0.360417,-0.203823,0.0398586,-3.5953e-05
-0.0556202,-0.550149,-0.215386,-0.364282,-0.196585,0.0376314,-2.39771e-05
-0.0520104,-0.538343,-0.216945,-0.369933,-0.19251,0.0257895,-0.000491343
-0.0489088,-0.510457,-0.216345,-0.369603,-0.195856,0.013974,-0.000814936
-0.0499731,-0.499215,-0.219079,-0.381245,-0.1932,0.00632752,-0.000383506
-0.0610132,-0.503949,-0.222708,-0.383085,-0.18809,-0.000119842,-0.00154599
-0.0691234,-0.510085,-0.226065,-0.38653,-0.186048,-0.00364314,-0.00607588
-0.0633861,-0.513776,-0.225117,-0.37514,-0.185463,-0.00408672,-0.0168982
-0.0426748,-0.516293,-0.213183,-0.369237,-0.181868,-0.00183354,-0.0267362
-0.0226627,-0.507748,-0.193202,-0.366894,-0.182874,-0.000886846,-0.0320586
-0.0207802,-0.485362,-0.183139,-0.36853,-0.187122,-0.00366709,-0.0339266
-0.0328975,-0.462662,-0.163301,-0.370897,-0.187706,-0.00838918,-0.0398725
-0.0392235,-0.454479,-0.132039,-0.364144,-0.185953,-0.00526096,-0.0427348
-0.0350068,-0.45655,-0.101665,-0.360087,-0.184447,0.01087,-0.048777
-0.0273474,-0.458889,-0.101816,-0.348637,-0.185147,0.00297203,-0.0449758
-0.0121643,-0.460206,-0.112966,-0.342781,-0.176201,-0.00713078,-0.0452056
-0.0133861,-0.439727,-0.100737,-0.332303,-0.177017,-0.00804125,-0.0417521
-0.0254911,-0.41029,-0.0652797,-0.339018,-0.178157,-0.00420657,-0.0539543
-0.0204207,-0.383942,-0.0180598,-0.320918,-0.156539,0.0265564,-0.0840075
0.00911979,-0.360921,0.00230092,-0.292097,-0.121393,0.0843311,-0.141638
0.0415264,-0.346652,-0.0319028,-0.230978,-0.0725399,0.176712,-0.208015
0.044796,-0.331788,-0.124981,-0.163138,-0.018043,0.294062,-0.23117
-0.00155798,-0.299829,-0.244796,-0.136336,-0.00159157,0.383421,-0.261418
-0.0710049,-0.257943,-0.375349,-0.140632,-0.00184072,0.459441,-0.307017
-0.12561,-0.216309,-0.485265,-0.195827,0.023413,0.500234,-0.341631
-0.126455,-0.178513,-0.549728,-0.227767,0.083485,0.529798,-0.368087
-0.0643929,-0.160341,-0.556202,-0.248092,0.155415,0.561283,-0.382258
0.01939,-0.146935,-0.55669,-0.222878,0.181274,0.577674,-0.37777
0.0818902,-0.145456,-0.552534,-0.159454,0.141973,0.586966,-0.359679
0.0818624,-0.145162,-0.564192,-0.0768051,0.0587885,0.591851,-0.330505
0.010858,-0.124867,-0.604943,-0.00705888,-0.0241224,0.592742,-0.302381
-0.0803164,-0.0932471,-0.64844,0.0300797,-0.0944527,0.58961,-0.285685
-0.14995,-0.0540502,-0.698062,0.0392493,-0.164504,0.568833,-0.277789
-0.175745,-0.0163701,-0.744227,0.0146683,-0.212931,0.536821,-0.262844
-0.153701,0.00348749,-0.788546,0.0175933,-0.247744,0.495584,-0.226675
-0.103146,0.0208641,-0.81993,0.0218228,-0.274557,0.45968,-0.202625
-0.0632064,0.0308002,-0.839324,0.0684436,-0.300879,0.415036,-0.170863
-0.0524538,0.0300438,-0.837546,0.165606,-0.33509,0.372473,-0.136413
-0.089021,0.0436836,-0.820748,0.252909,-0.360629,0.315385,-0.112643
-0.150494,0.0758225,-0.801403,0.337492,-0.381684,0.248439,-0.0968303
-0.199914,0.0987045,-0.760897,0.424228,-0.387052,0.137822,-0.0623914
-0.230559,0.1251,-0.715753,0.515046,-0.39269,0.00100664,0.00569237
-0.239259,0.145396,-0.681716,0.600496,-0.393092,-0.0832805,0.0744838
-0.245791,0.156391,-0.661011,0.682558,-0.398826,-0.0875907,0.135203
-0.258134,0.173576,-0.666451,0.74086,-0.42149,-0.0669304,0.190353
-0.264067,0.194317,-0.665608,0.76502,-0.432306,-0.0805719,0.228365
-0.268021,0.214189,-0.676242,0.791121,-0.449619,-0.124393,0.252586
-0.265589,0.231553,-0.680337,0.820628,-0.459017,-0.169665,0.26668
-0.246054,0.245995,-0.683493,0.840962,-0.468793,-0.223309,0.273306
-0.218106,0.271629,-0.678588,0.861316,-0.471941,-0.28323,0.274865
-0.189466,0.30142,-0.674756,0.845216,-0.471918,-0.33337,0.276973
-0.166729,0.331012,-0.671708,0.830012,-0.469793,-0.402452,0.281972
-0.139158,0.357901,-0.665001,0.836648,-0.462734,-0.459776,0.288082
-0.100215,0.379909,-0.657363,0.843315,-0.461107,-0.523999,0.295227
-0.0508719,0.418276,-0.634982,0.844293,-0.448085,-0.594835,0.305902
-0.0119965,0.467912,-0.61133,0.810717,-0.440187,-0.65318,0.319951
0.00560849,0.513333,-0.582096,0.792774,-0.434624,-0.697166,0.330206
0.0329455,0.537314,-0.527475,0.774116,-0.424252,-0.742968,0.33589
0.0710049,0.557649,-0.446055,0.788041,-0.425229,-0.766134,0.339733
0.115711,0.576899,-0.361573,0.774835,-0.424041,-0.772355,0.339677
0.147498,0.593853,-0.266487,0.749596,-0.420474,-0.777435,0.341974
0.174435,0.624741,-0.165758,0.725603,-0.427857,-0.774044,0.344231
0.208101,0.657799,-0.0461502,0.723255,-0.433953,-0.768003,0.351741
0.252981,0.694443,0.0774679,0.728168,-0.442162,-0.757458,0.361957
0.295944,0.716892,0.200599,0.724729,-0.457691,-0.765942,0.375433
0.327237,0.731619,0.329443,0.696996,-0.461414,-0.765847,0.386513
0.3434,0.747942,0.440722,0.674589,-0.474028,-0.769214,0.396908
0.371436,0.774404,0.550221,0.673195,-0.481088,-0.764061,0.40093
0.408761,0.816467,0.640494,0.681791,-0.492684,-0.750459,0.398394
0.441836,0.836108,0.720247,0.680904,-0.499261,-0.734868,0.390988
0.460925,0.837982,0.773205,0.672859,-0.500896,-0.715152,0.380341
0.474013,0.85303,0.813902,0.651196,-0.500526,-0.70166,0.36768
0.501109,0.909182,0.847617,0.653108,-0.503177,-0.66568,0.351374
0.547499,0.974451,0.871449,0.67031,-0.507027,-0.6395,0.336437
0.59007,0.984121,0.889683,0.674381,-0.507223,-0.603708,0.320214
0.603368,0.962383,0.878436,0.681863,-0.508695,-0.574031,0.305471
0.612757,0.983534,0.874774,0.672344,-0.499572,-0.540682,0.291224
0.629625,1.06256,0.880593,0.657104,-0.504016,-0.509905,0.27943
0.650556,1.08918,0.890498,0.653864,-0.497252,-0.481131,0.266524
0.661538,1.06015,0.877621,0.670178,-0.492588,-0.457152,0.253257
0.678971,1.07905,0.852243,0.677689,-0.492554,-0.41349,0.240937
0.724262,1.14122,0.855606,0.683517,-0.491419,-0.385404,0.229073
0.759387,1.15021,0.865115,0.6812,-0.487147,-0.368524,0.219305
0.741986,1.13451,0.844257,0.674421,-0.479799,-0.338067,0.209348
0.725327,1.17554,0.821551,0.650963,-0.47894,-0.300272,0.200369
0.758824,1.19874,0.842208,0.664894,-0.473721,-0.300198,0.198239
0.808416,1.18882,0.840103,0.697979,-0.469832,-0.283314,0.188684
0.825982,1.21616,0.800935,0.71815,-0.478323,-0.251088,0.186674
0.828993,1.24331,0.804233,0.66876,-0.471289,-0.233986,0.182488
0.823369,1.22966,0.821596,0.663144,-0.465035,-0.237534,0.179603
0.834015,1.2538,0.806283,0.690105,-0.462392,-0.210964,0.177706
0.867278,1.2934,0.794033,0.701876,-0.468505,-0.195542,0.173863
0.88592,1.25609,0.804988,0.700244,-0.459995,-0.194449,0.175334
0.867362,1.2496,0.779364,0.701516,-0.461679,-0.183223,0.17312
0.876986,1.31047,0.775697,0.665445,-0.45817,-0.152759,0.17499
0.919728,1.30105,0.812599,0.686617,-0.45405,-0.164104,0.173104
0.931644,1.29614,0.790222,0.730745,-0.455639,-0.1585,0.175253
0.915174,1.32533,0.761377,0.6934,-0.458998,-0.13195,0.175561
0.920787,1.29517,0.788724,0.678052,-0.450558,-0.148241,0.176991
0.944884,1.29631,0.785681,0.722535,-0.45359,-0.144234,0.177838
0.971191,1.35923,0.773516,0.703494,-0.459167,-0.11809,0.177782
0.976679,1.33496,0.790547,0.68621,-0.453092,-0.131446,0.176856
0.958596,1.30609,0.774415,0.712614,-0.452015,-0.128384,0.176164
0.969728,1.34916,0.76997,0.697811,-0.457559,-0.108352,0.179936
1.00895,1.33469,0.794152,0.713596,-0.453971,-0.124082,0.177578
1.00952,1.32242,0.775938,0.729965,-0.455067,-0.12048,0.181733
0.996358,1.36008,0.771383,0.685087,-0.454853,-0.0944215,0.180946
1.02265,1.32965,0.799835,0.692753,-0.44849,-0.111528,0.186132
1.03368,1.32879,0.771886,0.748182,-0.457288,-0.114051,0.183666
1.02514,1.35504,0.767752,0.716051,-0.458499,-0.0942703,0.186503
1.03478,1.3201,0.799725,0.693763,-0.449024,-0.104692,0.188208
1.04748,1.33758,0.786616,0.734735,-0.453839,-0.107345,0.1921
1.06278,1.36885,0.779017,0.71048,-0.457154,-0.0922285,0.193109
1.05989,1.31794,0.791614,0.705097,-0.454012,-0.0993038,0.193442
1.04544,1.32128,0.774151,0.72105,-0.455754,-0.0820541,0.197567
1.07836,1.35002,0.796048,0.721708,-0.460397,-0.0783188,0.199938
1.10941,1.32249,0.812176,0.730374,-0.455409,-0.0805441,0.204039
1.07728,1.32725,0.772558,0.716123,-0.460244,-0.0566508,0.20756
1.07944,1.33675,0.792355,0.668836,-0.456579,-0.0274433,0.209671
1.11475,1.30415,0.813015,0.721805,-0.455735,-0.0102223,0.213949
1.11164,1.31734,0.776801,0.751142,-0.464117,0.0270611,0.215278
1.11523,1.32532,0.797077,0.702427,-0.457729,0.054479,0.218539
1.14029,1.29732,0.824475,0.724572,-0.45407,0.0862526,0.218202
1.1263,1.3172,0.780599,0.745498,-0.464134,0.176056,0.221955
1.11312,1.31361,0.782625,0.719886,-0.456658,0.28353,0.220012
1.1387,1.27427,0.820709,0.779556,-0.451689,0.37149,0.218372
1.15037,1.30834,0.797378,0.844046,-0.458595,0.463465,0.217615
1.13542,1.31839,0.792475,0.805369,-0.449158,0.529439,0.213949
1.10842,1.27283,0.806343,0.804497,-0.440935,0.55903,0.211838
1.10062,1.28895,0.788568,0.85394,-0.442505,0.585799,0.208065
1.12553,1.30754,0.798373,0.881462,-0.438461,0.597345,0.206397
1.13034,1.26313,0.807275,0.909402,-0.434183,0.582324,0.200839
1.112,1.26924,0.790703,0.896994,-0.427819,0.588452,0.198596
1.11185,1.29573,0.797855,0.878903,-0.422947,0.580946,0.196081
1.11925,1.25162,0.799595,0.915438,-0.416563,0.553853,0.194077
1.11858,1.2412,0.781018,0.956128,-0.413053,0.538139,0.188975
1.15236,1.27509,0.805612,0.925912,-0.399037,0.530699,0.186132
1.16142,1.25141,0.819151,0.954546,-0.393898,0.489041,0.18248
1.11837,1.23237,0.769814,0.944596,-0.384137,0.475198,0.17942
1.12128,1.24699,0.785716,0.936414,-0.369528,0.448835,0.173468
1.17754,1.23744,0.832888,0.966156,-0.353936,0.398785,0.170947
1.15916,1.23022,0.797101,0.986806,-0.342108,0.367644,0.165331
1.12451,1.23999,0.776154,0.924258,-0.31643,0.349277,0.15967
1.15543,1.21858,0.823046,0.945869,-0.281824,0.294793,0.158691
1.17267,1.20104,0.806819,0.987873,-0.257473,0.251052,0.151681
1.15128,1.22082,0.779749,0.930442,-0.21041,0.238564,0.147434
1.16393,1.21575,0.821104,0.931093,-0.154698,0.186255,0.14316
1.18835,1.1867,0.826872,0.977098,-0.0853106,0.135281,0.138853
1.15966,1.19582,0.770724,0.952436,-0.000134248,0.0665349,0.137779
1.16292,1.199,0.797031,0.902423,0.110334,-0.0497957,0.131614
1.19313,1.18974,0.833915,0.961856,0.208502,-0.198622,0.128348
1.18451,1.19311,0.782721,0.958546,0.312,-0.332175,0.133124
1.16903,1.19391,0.777495,0.917863,0.404501,-0.489844,0.136773
1.19296,1.17604,0.819777,0.901404,0.488336,-0.650064,0.13781
1.1878,1.17558,0.791061,0.930194,0.532989,-0.770077,0.148517
1.17415,1.18509,0.758057,0.879484,0.570502,-0.827579,0.153366
1.20669,1.1677,0.810511,0.894075,0.594711,-0.912782,0.157996
1.22717,1.15786,0.808859,0.884937,0.607011,-0.937693,0.161443
1.17885,1.17332,0.747379,0.839763,0.59588,-0.915059,0.156295
1.18384,1.16445,0.774907,0.7989,0.577366,-0.91545,0.150034
1.22517,1.15022,0.821368,0.824604,0.536593,-0.924526,0.130086
1.19893,1.15394,0.771971,0.734987,0.482832,-0.859686,0.101137
1.16055,1.15764,0.7646,0.567296,0.416543,-0.784769,0.0601594
1.18362,1.14271,0.803898,0.459942,0.313822,-0.742729,-0.0044822
1.20083,1.1163,0.728864,0.349776,0.182137,-0.694398,-0.076913
1.20309,1.11028,0.581489,0.161875,0.0437579,-0.626335,-0.167244
1.26956,1.10701,0.478483,0.0337109,-0.0575613,-0.521278,-0.287531
1.32878,1.10262,0.312413,-0.0126796,-0.104064,-0.31427,-0.413622
1.33011,1.12553,0.0853497,-0.0508599,-0.109121,-0.0498413,-0.50782
1.35494,1.1984,-0.00913177,-0.0371383,-0.122428,0.168207,-0.556499
1.34303,1.24258,-0.0455771,0.00792179,-0.146614,0.366786,-0.571913
1.24931,1.23932,-0.102019,0.0367188,-0.137077,0.537145,-0.5797
1.15584,1.25621,-0.127336,0.0462483,-0.105061,0.623543,-0.577007
