Afshin1997/kuka_rl_ros2/src/catch_and_throw/output_files/ft/idealpd_8/ft_received_joint_vel_np.csv
joint_0,joint_1,joint_2,joint_3,joint_4,joint_5,joint_6
-1.199913859384338366e-05,0.000000000000000000e+00,-2.397646059471014723e-05,0.000000000000000000e+00,-1.916371514809611654e-05,2.397646057250568674e-05,0.000000000000000000e+00
3.595378255116798982e-05,0.000000000000000000e+00,5.993024312367367656e-05,-4.793110455203475340e-05,0.000000000000000000e+00,0.000000000000000000e+00,0.000000000000000000e+00
3.355613649169697510e-04,-6.711009132402689925e-04,1.390154747626937137e-03,-1.090568981831907536e-03,1.399754058484248276e-03,3.595378252896352933e-05,0.000000000000000000e+00
-2.996075823658017612e-04,-6.219829848225222335e-03,3.115849043666685247e-04,-1.197732197866230308e-05,4.007520304094569497e-03,-1.198386696099618121e-04,-1.557924521833342624e-04
9.588402565263720589e-05,-1.714940886095930872e-02,3.355591832665538732e-03,2.157008786696223979e-04,1.077622129486144331e-02,-3.595378255116798982e-05,-8.388488708099828273e-05
1.581922798976620470e-03,-3.326822261640952072e-02,1.381781530547243619e-02,-4.913320005073273933e-04,2.460121863019359978e-02,-2.396991558795136257e-04,-2.516764778359714683e-04
3.403501120580187944e-03,-5.276653921525015223e-02,3.171025446140340875e-02,2.636319832216571513e-04,5.083229552726997724e-02,-4.434008959552926399e-04,-3.115849043666685247e-04
5.596638222904459781e-03,-7.512909382964977345e-02,5.477988558819646414e-02,1.114545442426617683e-03,8.538520700800411589e-02,-6.351689473049759727e-04,-4.793764951216417103e-04
9.371676307567966546e-03,-1.049698388649093761e-01,8.376973898083228676e-02,2.037322833547960954e-03,1.244633383549853534e-01,-5.033311391011707769e-04,-5.392849216523387668e-04
1.440503133163240079e-02,-1.339117175198030474e-01,1.187277239272699347e-01,4.733769258313813566e-03,1.670505239723674151e-01,-4.314453905918114174e-04,-1.174453868912905818e-03
2.336923870918106161e-02,-1.615473481307656001e-01,1.660773720157937561e-01,1.102548485500953745e-02,2.209315606334527615e-01,-7.430084783432988615e-04,-4.410185215375506118e-03
3.374757729492916525e-02,-1.922988714185218384e-01,2.162913017530243565e-01,2.390852363083340038e-02,2.805075717307481398e-01,-1.138500086383942289e-03,-1.094159996792853917e-02
4.189684681239480568e-02,-2.282515631377407539e-01,2.676317106214742836e-01,3.592871525861518478e-02,3.354049136141235010e-01,-7.430302949584799421e-04,-2.172740748371815300e-02
5.543903099609615026e-02,-2.631615951630094652e-01,3.281999806673319142e-01,5.416869310148619832e-02,3.944056292840780742e-01,-1.773669033688918262e-03,-3.411909244239730299e-02
7.244462472684176646e-02,-2.973286187099375977e-01,3.951918041180668695e-01,7.621966281150527323e-02,4.572029596714877187e-01,-3.151846459359397556e-03,-4.694220097509749223e-02
8.536363910178756953e-02,-3.310522195442873183e-01,4.574977894150844548e-01,1.033279858228208781e-01,5.215726571802914435e-01,-6.171876927063557616e-03,-5.986121534999888638e-02
1.009910772235445009e-01,-3.692339803317594149e-01,5.207984596681924927e-01,1.342113469187999897e-01,5.839289428661853520e-01,-1.190033114160105043e-02,-6.890928579807997778e-02
1.145452169125649178e-01,-4.024542282104094371e-01,5.819659448788261358e-01,1.591385101497699850e-01,6.483370027118962042e-01,-1.807220806866460805e-02,-7.572830899440496921e-02
1.227184628906252684e-01,-4.417385353017219130e-01,6.349721614332892727e-01,1.938807942174936016e-01,7.049216940076430404e-01,-2.281797646557226500e-02,-8.077368497367842792e-02
1.282192170878548865e-01,-4.781705816994531455e-01,6.860968694231139864e-01,2.342436493354416172e-01,7.628678119314891148e-01,-2.678473896835509294e-02,-9.559816255735320567e-02
1.452128553132370214e-01,-5.110792446737468797e-01,7.489421614582880693e-01,2.709633259935895211e-01,8.119935594246729949e-01,-3.770236247573333088e-02,-1.141377479825234076e-01
1.589587630536293261e-01,-5.499560828350312791e-01,8.074012011055398119e-01,3.058494033748804242e-01,8.601030366021333862e-01,-4.832040021731653923e-02,-1.314190164683370909e-01
1.567416713073477297e-01,-5.763932831164813031e-01,8.423951398344620145e-01,3.401482647300557716e-01,9.010219667091590168e-01,-5.064533149465866302e-02,-1.452368099572165505e-01
1.546084862647845171e-01,-5.999302915998219188e-01,8.758191330864750768e-01,3.775270431628285905e-01,9.407712120593547667e-01,-5.712881514270407024e-02,-1.580240083405293205e-01
1.547523013949669846e-01,-6.273022684109563762e-01,9.143604098827751159e-01,4.144384660556887923e-01,9.771841209218479207e-01,-8.011453956580094626e-02,-1.597017715319726250e-01
1.619548170608053894e-01,-6.504438071028625368e-01,9.595049871802263652e-01,4.490009812106787734e-01,1.003875371328932786e+00,-1.048499783786738249e-01,-1.628056868868021922e-01
1.693730336052912122e-01,-6.703975455528747851e-01,9.989690195510991799e-01,4.930789441701666220e-01,1.026578300053637705e+00,-1.172896162584979862e-01,-1.752453247666263536e-01
1.583475705668968558e-01,-7.045046388566816864e-01,1.013577818072608494e+00,5.283005829164189038e-01,1.046309107598597521e+00,-1.200699475703670416e-01,-1.863786709692671906e-01
1.355895243444482645e-01,-7.237752772548594615e-01,1.010258158205923351e+00,5.585008439605854136e-01,1.058235815028440996e+00,-1.224308326302159244e-01,-1.869179558909195293e-01
1.371714253267874994e-01,-7.419433693491968018e-01,1.045695541464075617e+00,5.999422689217936977e-01,1.069798202430716216e+00,-1.350741940667754548e-01,-1.837421329710320350e-01
1.446495939310343815e-01,-7.549462467946216337e-01,1.086393957946940603e+00,6.321438990169347960e-01,1.075627322873007330e+00,-1.410783012196992203e-01,-1.914719562364997074e-01
1.228143469163001100e-01,-7.634190785384409317e-01,1.081792004680259822e+00,6.460695756700385317e-01,1.075704047546821585e+00,-1.454884864350525220e-01,-1.994894097623323148e-01
9.203884716797450238e-02,-7.920494159222093433e-01,1.067758488496073355e+00,6.918732547421146961e-01,1.079769058996404851e+00,-1.537815710827228344e-01,-2.004840947185559941e-01
8.672983920547938652e-02,-7.848349011177937484e-01,1.096364827602691605e+00,7.253452227318657464e-01,1.073594817148215697e+00,-1.671439863536683390e-01,-1.944200791391459404e-01
8.968993943008207737e-02,-7.769253307561813093e-01,1.130747573844903542e+00,7.518543087617679532e-01,1.065407163477205543e+00,-1.801348864771012970e-01,-1.992018013185603564e-01
6.422344764425158559e-02,-7.689557865182161667e-01,1.118307935965034972e+00,7.977179398936051768e-01,1.058427591806454515e+00,-1.792600401905541929e-01,-2.053017488639508059e-01
4.112986187350120559e-02,-7.762781844868962278e-01,1.109343750404168105e+00,7.933676849213533444e-01,1.056625120476795132e+00,-1.884998786898961498e-01,-2.023896015604709220e-01
3.502989251149557504e-02,-7.855779095961342717e-01,1.129489235088865229e+00,7.951772859209782496e-01,1.046730988584876343e+00,-2.070394641150885562e-01,-1.945159413482056010e-01
1.708950043446400002e-02,-7.725271228627983433e-01,1.127032444186726323e+00,8.154785630579031164e-01,1.034018080141052565e+00,-2.125522174509120177e-01,-1.980393247716261129e-01
-1.119325462917153402e-02,-7.784353241734320861e-01,1.110590111838183347e+00,8.544752398888189049e-01,1.024584121759231081e+00,-2.147333335980272651e-01,-1.996212257539653478e-01
-2.171540834512430962e-02,-7.931639395480305499e-01,1.119422481407505998e+00,8.574473174353780536e-01,1.012254731964778998e+00,-2.355139872300737736e-01,-1.965053330771571183e-01
-3.827762299652981426e-02,-7.819227319977056778e-01,1.119254689816706616e+00,8.232563392445158001e-01,9.986023127856569204e-01,-2.439149332253975899e-01,-1.876130550813481790e-01
-7.364305505634938243e-02,-7.941945782867693149e-01,1.095466026672164972e+00,8.331433021965484187e-01,9.905297461253681490e-01,-2.474862259367549555e-01,-1.894586098635464566e-01
-1.059045935779767689e-01,-7.849906935699701993e-01,1.084128935096151380e+00,8.425868860692187212e-01,9.748447863149323211e-01,-2.548804878373056582e-01,-1.913161637843163732e-01
-1.117289318181446944e-01,-7.688239923432260703e-01,1.112603458211136598e+00,8.443365786423129293e-01,9.616717392676221721e-01,-2.747623405388255335e-01,-1.910285335239070292e-01
-1.331926855020482137e-01,-7.595721547052847189e-01,1.117049597209041067e+00,8.317411701269428193e-01,9.462360473805997430e-01,-2.770752726775516095e-01,-1.797873477901834605e-01
-1.876130332647329979e-01,-7.664271316841997361e-01,1.075919735335562066e+00,7.967472095813388222e-01,9.392564408032821888e-01,-2.715146100538134988e-01,-1.792600401905541929e-01
-2.207733945335021986e-01,-7.747441927924564320e-01,1.070454934920839207e+00,7.903236779930544742e-01,9.304552340876792726e-01,-2.791365501550346906e-01,-1.849884944050472768e-01
-2.329014256923445103e-01,-7.548743392295220733e-01,1.096868180558363548e+00,7.797416158505932060e-01,9.181641717236121991e-01,-2.800713485013206494e-01,-1.858393642310662841e-01
-2.671523341263748463e-01,-7.434174308005137011e-01,1.089953273336341510e+00,7.879627929332055913e-01,9.056814373012755937e-01,-2.864828809510555629e-01,-1.781934476692281777e-01
-3.134593879707603392e-01,-7.532564626480053871e-01,1.062401527612477636e+00,7.588171470883420255e-01,9.006384829663538483e-01,-2.773389482939814243e-01,-1.792240864080252294e-01
-3.403519882867467317e-01,-7.357475159615434190e-01,1.067842373383154353e+00,7.151226765982787725e-01,8.949052160063697414e-01,-2.726411110016035977e-01,-1.863067634041648546e-01
-3.570699953903577750e-01,-7.304864391035753579e-01,1.088982543024075156e+00,7.130853319481378350e-01,8.882515671198465412e-01,-2.762124037129831677e-01,-1.939287253220456364e-01
-4.011359592112517802e-01,-7.203717761342792736e-01,1.062988765455230578e+00,7.195208844916756163e-01,8.767467057696265442e-01,-2.698488023677558800e-01,-1.900098721071330488e-01
-4.338409422620870259e-01,-7.086272156282630297e-01,1.055222988407189533e+00,7.046244993429429115e-01,8.703040322827870767e-01,-2.565702719839357826e-01,-1.921670554269283571e-01
-4.413909747982058818e-01,-7.027909000661025640e-01,1.085363319208232369e+00,6.924604925849120463e-01,8.675236529744001501e-01,-2.619511875115110300e-01,-2.000406720059633159e-01
-4.808430516636708063e-01,-6.868998081445532033e-01,1.062701135194821234e+00,6.577182303337814062e-01,8.637270382568118521e-01,-2.499429950222786800e-01,-2.082858473657633880e-01
-5.394698829016331132e-01,-6.969186307213992571e-01,1.012007872595654945e+00,6.450988453578165860e-01,8.614452646085624110e-01,-2.320625331883485742e-01,-2.057331724379274362e-01
-5.630069132016135569e-01,-7.056910918642189667e-01,1.021103895964792230e+00,6.454463840447122180e-01,8.609658924767948918e-01,-2.314153869190649360e-01,-2.112459475903438744e-01
-5.699337759289990757e-01,-6.796014084530566102e-01,1.051771534365464333e+00,6.250372455601560517e-01,8.517811671117758721e-01,-2.250157881580783226e-01,-2.195989188479519072e-01
-5.952684299066035578e-01,-6.734894835857097029e-01,1.051352066296873389e+00,6.273861532980262723e-01,8.515127354731699683e-01,-2.170702640139410278e-01,-2.277841639645838967e-01
-6.384715683961816879e-01,-6.708529455874301384e-01,1.022793680111400150e+00,6.142274834004535222e-01,8.533918616634661447e-01,-2.047624857589136482e-01,-2.256270024614259739e-01
-6.565317991428676336e-01,-6.536076308841842764e-01,1.032440987540805821e+00,5.788380530634018584e-01,8.533151718962184162e-01,-1.999328106583320164e-01,-2.338122257615093957e-01
-6.703016615271950585e-01,-6.537394686924102860e-01,1.047972519820206116e+00,5.706528515800002310e-01,8.500554553625416787e-01,-1.983868634585217450e-01,-2.428842944866449471e-01
-7.184542919703940100e-01,-6.552974150308032986e-01,1.003918511504675593e+00,5.585367759264769916e-01,8.502280335188405758e-01,-1.715661707076154840e-01,-2.449096181815768603e-01
-7.589130092974016861e-01,-6.486341842866116814e-01,9.791471407258889315e-01,5.548096907630029051e-01,8.506498795985528716e-01,-1.606125716010931015e-01,-2.455447871289262451e-01
-7.489900925628401041e-01,-6.446074915407107309e-01,1.033555511166639462e+00,5.431370596386653204e-01,8.482338203177341995e-01,-1.768152484269869262e-01,-2.554916803240381284e-01
-7.507158086754062154e-01,-6.244620068559691983e-01,1.062089942708066559e+00,5.334298219661359752e-01,8.453959847704695107e-01,-1.764677097400912942e-01,-2.550722558886331370e-01
-7.990122542487654300e-01,-6.212861839360539484e-01,1.015315511507175472e+00,5.226560354056442037e-01,8.424814245492573406e-01,-1.569094628981249073e-01,-2.576368645052173889e-01
-8.482074789360583011e-01,-6.424503300375583592e-01,9.688047341060990192e-01,5.031576751735489239e-01,8.449933373124718372e-01,-1.391488397338047633e-01,-2.679552728478196144e-01
-8.548467550362870426e-01,-6.429896149591884935e-01,9.909396105197920690e-01,4.799202742725494630e-01,8.422513203409476290e-01,-1.442661014615875814e-01,-2.696330796724932810e-01
-8.460622947548790407e-01,-6.231677143174019218e-01,1.030104057124914263e+00,4.763369824226426630e-01,8.359428277668001783e-01,-1.488800320502692287e-01,-2.719939647322977549e-01
-8.607310017029856652e-01,-6.185537837287147234e-01,1.026245112336487963e+00,4.920243289708636780e-01,8.294233946995799300e-01,-1.447694326006665477e-01,-2.806705636661188663e-01
-8.934239637985674776e-01,-6.147547910000883409e-01,9.904243020587788493e-01,4.789255893164146016e-01,8.282537797559275106e-01,-1.324975863116195640e-01,-2.808622880841937786e-01
-9.141447090041276979e-01,-6.135323842100026681e-01,9.754080346071614116e-01,4.668215128014630011e-01,8.248981399267663051e-01,-1.190632634755717234e-01,-2.860035262725268979e-01
-9.153790494829561197e-01,-6.152940759217184752e-01,9.930368417798263181e-01,4.725259905554057838e-01,8.197018060573046938e-01,-1.184880465880278066e-01,-2.942247033550948743e-01
-9.187226639936429962e-01,-6.213341368571989598e-01,1.002540334079027318e+00,4.772478043083783206e-01,8.138535218997766663e-01,-1.256306320106981289e-01,-2.929423881385506689e-01
-9.291010025793688953e-01,-6.189852073027024559e-01,9.985016421945491771e-01,4.666057901061559932e-01,8.097309145849607148e-01,-1.226585326475015947e-01,-2.988985641869223997e-01
-9.486832258819299923e-01,-6.150064456613202335e-01,9.767023489623216648e-01,4.579891432321847589e-01,8.064137069058396889e-01,-1.181884171890246193e-01,-3.046989041499248430e-01
-9.673786255758987096e-01,-6.027945296153802701e-01,9.635796328472778782e-01,4.529078134703379277e-01,8.027896703445502880e-01,-1.128434772605935166e-01,-3.011635870377116220e-01
-9.660723338987375897e-01,-5.977491754527108903e-01,9.784400423968442340e-01,4.644126966370620835e-01,7.961168577427901738e-01,-1.079778701940536934e-01,-3.067242496614941416e-01
-9.530694564533259694e-01,-5.975454300793936468e-01,1.003906534182696930e+00,4.831320291584617621e-01,7.859925867359507379e-01,-1.033998715713080330e-01,-3.044232730280871380e-01
-9.684571954191811827e-01,-6.162767835559357366e-01,9.824068485329018330e-01,4.745393587449520112e-01,7.851488945765261462e-01,-1.047780926301644655e-01,-3.075511648435114154e-01
-1.001365880210070003e+00,-6.257083682900066446e-01,9.456871718747095201e-01,4.631183822819018303e-01,7.796648955400886649e-01,-1.056649162387346408e-01,-3.136511342054504325e-01
-1.004361934217246066e+00,-6.177628223292319642e-01,9.570482180947248452e-01,4.693382121301326038e-01,7.716306912167514298e-01,-1.012786856673164593e-01,-3.113142037896032832e-01
-9.833895343504872599e-01,-6.055149525007408329e-01,1.000503011245479357e+00,4.820175055326281210e-01,7.649578786149469067e-01,-1.042267867533253067e-01,-3.188642799589302967e-01
-9.939836174481353481e-01,-5.982285301312229020e-01,9.854268571840130164e-01,4.776792060657175654e-01,7.606627280504874022e-01,-1.059885002816729482e-01,-3.174860807166446364e-01
-1.023908203737233791e+00,-6.016680068509694390e-01,9.517991185587160174e-01,4.717350509725548591e-01,7.567893886591292585e-01,-1.012067781022141233e-01,-3.213330263664104791e-01
-1.023584619694273279e+00,-6.106561906890850544e-01,9.678460029324487124e-01,4.781705816994552549e-01,7.479498894197966763e-01,-9.543037096657602802e-02,-3.265461721198903433e-01
-1.006710841955138491e+00,-6.218614226402352507e-01,9.974949799163468356e-01,4.922280525275546381e-01,7.411427911855561490e-01,-9.509483141825203489e-02,-3.252758124086430058e-01
-1.021547318677362703e+00,-6.182781526069103251e-01,9.715131796694365107e-01,4.960270888894502406e-01,7.345467032576102895e-01,-9.404021621894909089e-02,-3.328858188210936930e-01
-1.041429149562289602e+00,-6.143233456094854272e-01,9.539562800618739402e-01,4.987474681415804412e-01,7.286792204783676397e-01,-9.990048642505300336e-02,-3.309084262307138147e-01
-1.034490265879672855e+00,-6.009489530165834648e-01,9.783202037272342722e-01,5.095572739345133328e-01,7.191685374226874927e-01,-9.987653178109567875e-02,-3.341920886816396319e-01
-1.021942810285425551e+00,-5.926558901855227823e-01,9.951340948564979527e-01,5.156691988018380357e-01,7.086224203361357610e-01,-9.496299361002602524e-02,-3.336408264380530397e-01
-1.035760603774305011e+00,-6.037292843284469690e-01,9.676662340196706680e-01,5.227159438321304918e-01,7.020838584602895338e-01,-9.140370003728470749e-02,-3.331974037254603616e-01
-1.044425181752828280e+00,-6.232875529870285369e-01,9.610749108406313468e-01,5.212658370247424955e-01,6.931483661122062045e-01,-9.787516273012109025e-02,-3.392134882003627894e-01
-1.035425064225981018e+00,-6.213341368571989598e-01,9.792549802569272543e-01,5.289837047848688911e-01,6.771374835175869578e-01,-9.197891692485082871e-02,-3.378832418792221404e-01
-1.033399696897818743e+00,-6.178467072163074114e-01,9.731070797903917935e-01,5.536591915380029150e-01,6.636959699251043787e-01,-7.962318574870064225e-02,-3.440431196677362635e-01
-1.046055057472949912e+00,-6.115909454021517533e-01,9.500853797681507729e-01,5.619762526462235286e-01,6.542619766365831424e-01,-7.369100797749439380e-02,-3.438034423285163399e-01
-1.039164126711478175e+00,-6.013444446246296593e-01,9.699792097916049016e-01,5.686514825290256425e-01,6.406670835096051064e-01,-8.309861625099834725e-02,-3.493761040907816806e-01
-1.023836296172131455e+00,-5.953643139322783995e-01,9.945348578751289637e-01,5.822295986786407695e-01,6.210129308253709013e-01,-9.400426243639792290e-02,-3.522283647843682530e-01
-1.038804610702603881e+00,-6.095056914640961665e-01,9.637474026214398748e-01,5.874906755366282596e-01,6.039665792932691346e-01,-8.689760897961917863e-02,-3.557637037132188595e-01
-1.055187034624660569e+00,-6.292556845407970556e-01,9.388681486783845287e-01,5.787182143937918966e-01,5.918864923288857938e-01,-8.010256224384448842e-02,-3.599581662332429488e-01
-1.036455681148096275e+00,-6.154858221564474263e-01,9.767023489623216648e-01,5.893722059179484773e-01,5.693561417604797725e-01,-8.828778554386129684e-02,-3.565786197566200855e-01
-1.020432773234936086e+00,-6.020275446764644656e-01,9.962725731262889184e-01,6.147787456440401144e-01,5.456369776265290739e-01,-8.958207808245077786e-02,-3.598023955976970001e-01
-1.048272149219231508e+00,-6.017159379554937182e-01,9.465620181613232376e-01,6.299627610531821631e-01,5.247172867031579813e-01,-7.276820876978007391e-02,-3.567464113473750587e-01
-1.057368150771753612e+00,-6.035615145542960747e-01,9.373461561225315819e-01,6.316525451998344920e-01,5.103937535208658005e-01,-6.429537702596910265e-02,-3.631100345092175274e-01
-1.022398188503359506e+00,-5.963589988884798743e-01,1.001845256705191645e+00,6.330666764080117304e-01,4.817466871561926212e-01,-7.355917016929058860e-02,-3.595027661986716083e-01
-1.017053248574928404e+00,-6.124058832622014670e-01,1.006063695685854853e+00,6.367098766844492275e-01,4.632238568918367605e-01,-8.065382448743108057e-02,-3.647279110907231114e-01
-1.064786389132899025e+00,-6.240185841433931735e-01,9.272314495200273399e-01,6.411200837164177102e-01,4.450461480333345321e-01,-7.172559270907097329e-02,-3.633736664924391846e-01
-1.065529419427813096e+00,-6.178826828154737605e-01,9.369986174355915409e-01,6.479750606953604830e-01,4.211544406497402804e-01,-7.341535503908591664e-02,-3.668491188113076618e-01
-1.016789572958498589e+00,-5.988876537224907537e-01,1.019689764756614991e+00,6.579938614555747023e-01,4.012126577052299581e-01,-8.940233098631011899e-02,-3.680954584287743359e-01
-1.017796257053271702e+00,-5.887729907531835671e-01,1.004913196460854863e+00,6.863125921184209943e-01,3.777811238316886033e-01,-8.470449369391008787e-02,-3.706361342179498308e-01
-1.065625281636894961e+00,-6.007332521379082912e-01,9.218385566704512257e-01,6.821301069202867495e-01,3.609265141710338298e-01,-7.203717761343764181e-02,-3.709117653397875358e-01
-1.055378780859372867e+00,-6.170797222773916069e-01,9.529975488882236334e-01,6.580897454812717484e-01,3.432857384030540970e-01,-8.305068514646851696e-02,-3.702526199319322586e-01
-1.005632272111856018e+00,-6.130170757489450395e-01,1.030175964689972190e+00,6.620325533400972517e-01,3.202184547440367623e-01,-8.858739312624930307e-02,-3.693777736453185412e-01
-1.023788365067612727e+00,-6.008410916689355119e-01,9.840247032977700314e-01,6.943420011495948785e-01,2.994905755052457152e-01,-7.327153990888124468e-02,-3.675921272896953695e-01
-1.069088734817214004e+00,-6.085469602904569619e-01,9.089315632507144471e-01,6.972062609818419077e-01,2.853779828160263321e-01,-6.614093180814517581e-02,-3.699290577055425189e-01
-1.040997704171686689e+00,-6.017399144160662239e-01,9.639151723955574624e-01,6.988001611027083726e-01,2.715337519523686183e-01,-8.278703134665388319e-02,-3.669330036984330690e-01
-9.883030725215347090e-01,-5.841950139470530878e-01,1.036695380303997993e+00,6.975657769907162020e-01,2.586291714502308992e-01,-1.032920320402475056e-01,-3.701088048016831777e-01
-1.016238310714878690e+00,-5.940100911505985515e-01,9.772895649884816294e-01,7.005977847803990244e-01,2.462997816558676334e-01,-9.588579281776254959e-02,-3.663337885336570565e-01
-1.062161850273191099e+00,-6.197282375976498336e-01,9.033229258891939395e-01,6.940783691664176303e-01,2.454177620661468495e-01,-9.112804709885402588e-02,-3.706720880005232033e-01
-1.032177311924342700e+00,-6.121901605669055613e-01,9.616501713614056257e-01,6.912860387159547315e-01,2.321871540600817241e-01,-1.082774559598043140e-01,-3.684669735762202691e-01
-9.836532099669281770e-01,-5.984802066090755268e-01,1.029576727708603201e+00,7.191733458047799843e-01,2.215835458280857040e-01,-1.247677630461296872e-01,-3.713551662357872374e-01
-1.018275611731778163e+00,-5.940819768990746041e-01,9.636275639518299130e-01,7.301149239560711379e-01,2.239420092435828735e-01,-1.057727775863659403e-01,-3.673524499503866281e-01
-1.058063249962193364e+00,-6.048797835534358569e-01,9.070739875132627361e-01,6.909385000290590995e-01,2.210849750746035625e-01,-1.015303621451746352e-01,-3.676161037502456708e-01
-1.017340857018711464e+00,-6.082473527080800579e-01,9.831858107937740954e-01,6.859410769709306521e-01,2.094842602419433319e-01,-1.324376560684736859e-01,-3.614442268231599087e-01
-9.742815336593491082e-01,-6.092061056983344436e-01,1.036899125677326339e+00,7.155421228502767406e-01,1.973657760340863376e-01,-1.511210784405081498e-01,-3.634216194135841960e-01
-1.017999980609984867e+00,-6.231317387182300216e-01,9.544955649834818701e-01,7.166806229367050918e-01,1.950840372924034227e-01,-1.407067860722088781e-01,-3.597065115719999540e-01
-1.052910034451870480e+00,-6.312690527303654875e-01,9.056119252005778719e-01,7.134208933130548047e-01,2.000885943838959236e-01,-1.484605857982490562e-01,-3.586878501552259735e-01
-1.005524388947587333e+00,-6.203873611889121342e-01,9.841445419673799933e-01,7.057390229687321437e-01,2.022170234042164338e-01,-1.647351483726744448e-01,-3.582803812252510767e-01
-9.650776489425583193e-01,-6.067373592908320568e-01,1.008232834510991438e+00,7.014486764230110083e-01,1.977109672531618401e-01,-1.809258478766118117e-01,-3.557876801737247519e-01
-1.000323264149360902e+00,-6.085709149344031843e-01,9.327442246724437780e-01,7.003820620851364254e-01,2.004912767484157143e-01,-1.800510015899980942e-01,-3.591072964072683504e-01
-1.028785788125752276e+00,-6.228920613789878935e-01,9.067384261483457664e-01,7.042649615173868227e-01,2.100786495713435897e-01,-1.792959721564901798e-01,-3.550086960962595128e-01
-9.929769115367248489e-01,-6.403890525600752781e-01,9.818795409332281565e-01,7.094421534883377234e-01,2.152558546322680399e-01,-1.973322482592188010e-01,-3.585560123470443727e-01
-9.675823491326118742e-01,-6.360747295537594326e-01,1.011528496100533303e+00,7.272147539746143252e-01,2.255910661321358646e-01,-1.960379557206515244e-01,-3.516291496195922406e-01
-1.008304742076082672e+00,-6.372731380666740719e-01,9.455194021005919325e-01,7.059187700648728025e-01,2.509208899111214919e-01,-1.892548863068110876e-01,-3.540619422445878683e-01
-1.032117403497834207e+00,-6.442599310371832644e-01,9.242593719734237823e-01,6.856534685271142848e-01,2.693862290299442463e-01,-1.889432795858514424e-01,-3.468833812227511970e-01
-9.876319497916896673e-01,-6.471840992958721728e-01,9.988012497768927744e-01,6.986083930514030982e-01,2.785900832035892449e-01,-1.999448097969480642e-01,-3.480818115522144041e-01
-9.579350635198546904e-01,-6.485143456169795151e-01,1.027167911544246692e+00,7.223731233686692121e-01,2.824058616361924123e-01,-1.984467718850080331e-01,-3.443187726061669451e-01
-1.000562919671998952e+00,-6.739328844816760977e-01,9.530335026707525969e-01,7.310137467031907477e-01,3.119349824972417196e-01,-1.869898634560218653e-01,-3.418979573031499797e-01
-1.024807026484375605e+00,-6.828851145372460962e-01,9.247747022510743875e-01,7.095979459405210577e-01,3.368429951029483504e-01,-1.771747862524986061e-01,-3.443547045721029320e-01
-9.816638182379211486e-01,-6.771806149666881325e-01,1.002744057635762687e+00,6.941502767315199662e-01,3.516075729868006761e-01,-1.883920173422648503e-01,-3.399684958173221361e-01
-9.544116800964119740e-01,-6.732497844298412915e-01,1.033891072531512023e+00,7.119468536783468693e-01,3.661804089991171907e-01,-1.842574632486826403e-01,-3.432162263023119664e-01
-9.982739639938675857e-01,-6.742684458466041697e-01,9.578271803555971076e-01,7.119468536783912782e-01,3.962272294223190272e-01,-1.691812873705789144e-01,-3.385543427924631033e-01
-1.020205073217661518e+00,-6.916455765414553092e-01,9.326243641861964306e-01,7.169922078410273514e-01,4.129476232636264399e-01,-1.653703391365723974e-01,-3.414665119125803727e-01
-9.734066873727797997e-01,-7.133849395305258412e-01,1.007417918467545803e+00,7.349206007795316964e-01,4.228226263469636592e-01,-1.794517646086735141e-01,-3.383386419137934809e-01
-9.511399949674426146e-01,-7.043608455430949711e-01,1.032488918645313447e+00,7.224570082557058015e-01,4.354012840648735505e-01,-1.712066546986967808e-01,-3.352587030195586237e-01
-9.987293422118126429e-01,-7.097537383926710852e-01,9.629084883007621443e-01,7.075006928638494230e-01,4.534447072908953658e-01,-1.512528944321189783e-01,-3.338085962122150363e-01
-1.024507418901987599e+00,-7.252613160281584648e-01,9.384846562089599331e-01,7.108083535920073359e-01,4.650454570300333046e-01,-1.535298946048868629e-01,-3.282359344498608777e-01
-9.825027107419281869e-01,-7.212825543867817935e-01,1.007393942006995502e+00,7.168723691714173896e-01,4.743451995925518361e-01,-1.573169318281664175e-01,-3.327899347954410558e-01
-9.548071717044748219e-01,-7.281734851482424276e-01,1.034298541461531329e+00,7.549941778991264840e-01,4.709896295764792740e-01,-1.626259179740241478e-01,-3.261147267292763274e-01
-9.951100965793102660e-01,-7.424946315928049323e-01,9.658326565594954616e-01,7.419433693491850335e-01,4.843352547800883201e-01,-1.403712465239070895e-01,-3.263783805290909612e-01
-1.022841611215941082e+00,-7.461138772253073093e-01,9.421637884512890082e-01,7.066618003598534870e-01,4.942486202002882578e-01,-1.305321710431961435e-01,-3.234422567650607760e-01
-9.829341561325311005e-01,-7.575108772277960867e-01,1.009850711092497022e+00,7.187778541966949319e-01,4.929830819611069614e-01,-1.538055475432731356e-01,-3.214768196800221745e-01
-9.648978800298024794e-01,-7.567558696108700467e-01,1.029229210838344954e+00,7.431058458961636859e-01,4.959934956647593651e-01,-1.550518871607398097e-01,-3.244129652606453362e-01
-1.010090388431750252e+00,-7.621367851384674985e-01,9.640589875258065433e-01,7.424107467057350362e-01,5.034908367107071570e-01,-1.362366706137319028e-01,-3.189242102020539704e-01
-1.027503472909163662e+00,-7.888855703242714235e-01,9.425473027373953983e-01,7.516505852050769931e-01,5.074216672475984069e-01,-1.387054170212564941e-01,-3.207697649842078391e-01
-9.830539948021632668e-01,-7.855419776301997281e-01,1.008136972301887369e+00,7.315889854074164589e-01,5.040085711795150303e-01,-1.444938014788732517e-01,-3.179534580731946392e-01
-9.633878647959281949e-01,-7.864887096652450893e-01,1.024279718884724133e+00,7.402535852025771135e-01,5.030306632006542600e-01,-1.490717782849593220e-01,-3.137949493356995134e-01
-1.008268788293531504e+00,-8.031228318817640321e-01,9.446685104579799486e-01,7.427582853926306683e-01,5.191757965212318027e-01,-1.465071478518265025e-01,-3.137469964145100931e-01
-1.027395611561510158e+00,-8.089831239044831257e-01,9.188544799852316203e-01,7.417516231144727357e-01,5.234709470857801250e-01,-1.478733479554961150e-01,-3.064965714608014480e-01
-9.779247339357977076e-01,-8.145797403107724044e-01,9.858583025746270323e-01,7.680689629097070537e-01,5.232983689294812280e-01,-1.652984097548770848e-01,-3.100438658949933313e-01
-9.573238710331222201e-01,-8.088632852348509594e-01,1.000946433958027626e+00,7.644617382323914967e-01,5.269224054907262200e-01,-1.607803631918258702e-01,-3.060291722876140597e-01
-1.003858581261540817e+00,-8.215425786373353745e-01,9.301436186401446093e-01,7.362508471006279365e-01,5.373151081363047865e-01,-1.577723318627377580e-01,-3.039798721321762542e-01
-1.025382265188556907e+00,-8.467573939453076903e-01,9.041378637492769599e-01,7.397023229589461124e-01,5.514468994471499741e-01,-1.713864017948374396e-01,-3.066882958789207692e-01
-9.854388563225957576e-01,-8.493819546216196947e-01,9.582586257461223056e-01,7.513270011621386857e-01,5.515428227426788510e-01,-1.879725710902668823e-01,-3.008759567773022781e-01
-9.643945488907179620e-01,-8.491542327877188434e-01,9.664678255068004376e-01,7.846192002391116915e-01,5.525973855822208236e-01,-1.872894492217724860e-01,-3.031169813509482225e-01
-9.991487884638106109e-01,-8.551223861580914409e-01,9.045812646451878436e-01,7.605189085569286078e-01,5.636228748004512568e-01,-1.827594253367870181e-01,-3.036922418717669103e-01
-1.018467379783127846e+00,-8.775089172330829967e-01,8.867727321930196638e-01,7.328233695194974473e-01,5.727309103982669569e-01,-2.015027779519229512e-01,-3.004565105253043100e-01
-9.881233036087899713e-01,-8.916023636603487290e-01,9.285736949797396278e-01,7.467370470339851352e-01,5.749551929009832918e-01,-2.187720254825276101e-01,-3.042674805759482126e-01
-9.778887801532465396e-01,-8.859218405503854754e-01,9.257693872072536578e-01,7.663312476585470989e-01,5.756837980497309104e-01,-2.234818182802911224e-01,-2.976881565354361214e-01
-1.005069010729658929e+00,-8.764063491126128369e-01,8.775328718770403214e-01,7.707534538290872206e-01,5.839097791509928470e-01,-2.168305866746766952e-01,-2.949317798675021862e-01
-1.009263473249716325e+00,-8.966716942836017168e-01,8.688323401159436798e-01,7.640542474857792143e-01,5.884542325456543210e-01,-2.306004490590041200e-01,-2.939970033378536129e-01
-9.878836262695311898e-01,-9.218385566704290213e-01,8.944426252153192536e-01,7.442083921999742557e-01,5.969486103790444531e-01,-2.531547717247395468e-01,-2.869862339067719148e-01
-9.903643718156385223e-01,-9.280703638406384570e-01,8.726073782006515955e-01,7.515547011794243559e-01,5.995947389615174927e-01,-2.504223497008073451e-01,-2.900302190184333995e-01
-1.009359357275391167e+00,-9.209038019573512202e-01,8.295240783806612228e-01,7.537238618211539176e-01,6.092012754996822821e-01,-2.510335640041105876e-01,-2.859915489505482356e-01
-1.003211434992262729e+00,-9.212992717487988870e-01,8.309262322668153899e-01,7.600994623049306398e-01,6.113872305720136069e-01,-2.612321336771472602e-01,-2.809821267538481493e-01
-9.814720720031921974e-01,-9.507325260374344111e-01,8.339582400566314391e-01,7.704178924641702508e-01,6.187503208923139653e-01,-2.727250177052997770e-01,-2.813895956838230461e-01
-9.972553025771047075e-01,-9.709019871827262449e-01,7.847030633095997132e-01,7.539155862392732388e-01,6.209362410580787639e-01,-2.745106422443743810e-01,-2.740912178089693896e-01
-1.012583111299830696e+00,-9.583544879552263751e-01,7.333027460145302712e-01,7.327275073103933778e-01,6.306003385548208939e-01,-2.833909647348420435e-01,-2.699326872548812872e-01
-9.895134801730320895e-01,-9.411811026337257857e-01,7.393068313509942868e-01,7.456704545127479378e-01,6.242343199287070377e-01,-2.865548103327508755e-01,-2.703760881507921709e-01
-9.620815731187670750e-01,-9.703507031225022672e-01,7.208870845953008200e-01,7.526932012658082982e-01,6.244643892303614052e-01,-3.031170031675856080e-01,-2.608606185296569180e-01
-9.900168331287317880e-01,-9.953258410912102505e-01,6.135443833485965115e-01,7.653964929454470933e-01,6.232180496129835490e-01,-3.015710341511379511e-01,-2.554557483581021415e-01
-1.013889381160382186e+00,-9.890820347824291758e-01,5.170833518266526596e-01,7.290483532514269172e-01,6.278007955312858712e-01,-3.052022571055967859e-01,-2.540415953332875176e-01
-9.845280562534808322e-01,-9.696196719661376306e-01,5.048115055376278804e-01,7.116472242793658864e-01,6.120199822383654009e-01,-3.225074584187748172e-01,-2.444661954690285910e-01
-9.417323648773234801e-01,-9.849954336100141816e-01,4.767204748921116675e-01,7.145114841115685067e-01,6.031804480924662926e-01,-3.399205647127701013e-01,-2.378509176459875363e-01
-9.642747102210913468e-01,-1.004349956895289608e+00,3.633736883090321612e-01,7.071291777163590808e-01,5.932862114808479248e-01,-3.447861499626725390e-01,-2.378029865414355015e-01
-1.004541703130001906e+00,-9.859301883230697783e-01,2.400679875756317472e-01,7.008255066143220802e-01,5.851753522968294874e-01,-3.409751580954800687e-01,-2.220317332894961027e-01
-9.941753418662380160e-01,-9.529136640011426351e-01,1.968768482246474605e-01,6.796253849135958092e-01,5.634694603594780915e-01,-3.628823344919318572e-01,-1.968768482246474605e-01
-9.578152030336073430e-01,-9.578391794941909509e-01,1.852521482049063195e-01,6.474717077396885401e-01,5.403639190832976169e-01,-3.951558503355379059e-01,-1.761920568016606126e-01
-9.741616949897252686e-01,-9.821191964558551035e-01,8.641823248449753692e-02,6.261877447851116330e-01,5.212275008677380583e-01,-4.227914809464827783e-01,-1.550279325167824851e-01
-1.016525919158661750e+00,-9.718487410343978894e-01,-3.070357036660809058e-02,6.128732606187625720e-01,5.086488431499169849e-01,-4.334813826199823694e-01,-1.244681772803790665e-01
-1.004865265356333248e+00,-9.471732106480335034e-01,-5.167597023341130580e-02,5.900912597523344516e-01,5.000969043577718764e-01,-4.339008506885733141e-01,-8.400941632009661930e-02
-9.653053489598328873e-01,-9.600562494238573663e-01,-4.782904640023843967e-02,5.786103530461161881e-01,4.927913400896599683e-01,-4.537107740083978769e-01,-4.555202441083316955e-02
-9.778288717267435981e-01,-9.813282568729819744e-01,-1.261459622884153475e-01,5.283365366989922762e-01,5.045071070265194635e-01,-4.666417438887293656e-01,-1.619069950393736690e-02
-1.007118310885160462e+00,-9.778648255093003172e-01,-2.302768868326587892e-01,4.731971132852397233e-01,5.192141588580945211e-01,-4.462685591867465718e-01,7.370307256593378042e-03
-9.682174962633016690e-01,-9.574436878861281031e-01,-2.556115189936924992e-01,4.197594731567999560e-01,5.304697173782457753e-01,-4.418104428668190309e-01,2.103230829324509443e-02
-8.955092395532493477e-01,-9.704226106876046032e-01,-2.505302328650316213e-01,3.595746737637739443e-01,5.438920672555802582e-01,-4.599665358225646372e-01,3.905658525744648557e-02
-8.763224642255346142e-01,-9.941034343011301289e-01,-3.404118967132774287e-01,3.091450649644666981e-01,5.626833291586308405e-01,-4.421939353362436265e-01,6.024470781946789089e-02
-8.782998786325546536e-01,-1.000071587671524931e+00,-4.497559888275937112e-01,2.387017874719621346e-01,5.875338157124154748e-01,-4.243973583894167234e-01,7.588410144658830347e-02
-8.296199405897153323e-01,-9.801538030040468641e-01,-4.709560668950452111e-01,1.547762778555394902e-01,5.966610150252016354e-01,-4.282802360051629620e-01,8.730507790968289328e-02
-7.488103236500898152e-01,-9.864215421401922868e-01,-4.572341356151810032e-01,8.265519353840566907e-02,6.046952193485388705e-01,-4.256077660409030017e-01,1.054012624388978026e-01
-7.079680920369979535e-01,-1.007501803354604597e+00,-5.006289985229450679e-01,2.020541492786520621e-02,6.082233675209103296e-01,-4.205144589570775082e-01,1.401075709074550701e-01
-7.059307692034721970e-01,-1.006411256189387871e+00,-5.846983450861209519e-01,-5.075319284228996253e-02,6.240617417724081406e-01,-4.229712498592608227e-01,1.807341016418551050e-01
-6.757904384024487898e-01,-9.797103802914763904e-01,-6.137601060439479284e-01,-1.142695857907494172e-01,6.333614843349266721e-01,-4.096567438762299673e-01,2.232661174015770911e-01
-6.167202062685130937e-01,-9.960568722475748871e-01,-6.080436073347073034e-01,-1.835264320923180037e-01,6.464962039519406289e-01,-4.162600661938853364e-01,2.613279958862069208e-01
-5.656793831658152305e-01,-1.018994665566164137e+00,-6.208787368226609260e-01,-2.291743187122552428e-01,6.502352926172960679e-01,-4.254399962667854140e-01,2.910608795737790189e-01
-5.288877989425844195e-01,-1.010701580918493825e+00,-6.537154922318322292e-01,-2.779980718852215205e-01,6.606663226931708266e-01,-4.244692659545190594e-01,3.287272882669611818e-01
-4.866434352598883462e-01,-9.906520020760423151e-01,-6.731179466216374863e-01,-3.311840573525071107e-01,6.631590717412372271e-01,-4.269859434665512765e-01,3.563269650954214995e-01
-4.411752739195154427e-01,-1.009575058154066340e+00,-6.856654458490929471e-01,-3.938615577969706294e-01,6.688156489338403787e-01,-4.255598131197579903e-01,3.857362429234179046e-01
-4.000933431505496185e-01,-1.025250449196946079e+00,-6.990278611199940428e-01,-4.275611821707325788e-01,6.646163518517766988e-01,-4.392937653547868138e-01,4.120536045352451993e-01
-3.605693805365975391e-01,-1.012714927291447076e+00,-7.159615691023191175e-01,-4.565630128853914727e-01,6.661886840664266174e-01,-4.440394901184419041e-01,4.355666583746753417e-01
-3.147656578312965636e-01,-9.954816335433935848e-01,-7.280416473400386224e-01,-4.979085974541774817e-01,6.633124512757326841e-01,-4.383589888250938316e-01,4.557960061298160781e-01
-2.599018873560149379e-01,-1.020360865669855954e+00,-7.324878081545804775e-01,-5.516099131990692683e-01,6.665338403789355937e-01,-4.489410291509621231e-01,4.788177279687388932e-01
-1.978116029377252616e-01,-1.038936426694192505e+00,-7.275143615569135136e-01,-5.737088140136847869e-01,6.678377060485019001e-01,-4.725499888325934705e-01,4.951641981082222088e-01
-1.394364699942154950e-01,-1.024279718884724133e+00,-7.346329923357153291e-01,-5.648165142012384621e-01,6.748556749627709905e-01,-4.662222976367313976e-01,5.164362055574134303e-01
-8.507600884140320563e-02,-1.004565679590574412e+00,-7.593804084706334834e-01,-5.837755676950440176e-01,6.830816211574664010e-01,-4.607454980834368996e-01,5.331781673049373893e-01
-3.843341544870620963e-02,-1.019581903408939283e+00,-7.853382322568158713e-01,-6.100449763857263008e-01,6.942605248169364529e-01,-4.807711659152058559e-01,5.453181976023735444e-01
1.615474572138342335e-02,-1.028821720091688263e+00,-7.816830546584441208e-01,-6.166962298079337046e-01,7.063981727399415433e-01,-4.813344054807711103e-01,5.574821607271740476e-01
7.849666298429397449e-02,-1.011180979230230648e+00,-7.502124775363050446e-01,-6.174392382862770035e-01,7.187850536798379153e-01,-4.822931366544214171e-01,5.686035296078806311e-01
1.376388244999471322e-01,-9.937319191536619911e-01,-7.206833610386986777e-01,-6.295553139398002429e-01,7.306542001511040496e-01,-5.007248825485532961e-01,5.775917134460240021e-01
1.821961857712064980e-01,-1.004757404008693733e+00,-7.119108998957734968e-01,-6.205791074236355342e-01,7.383624816903022747e-01,-5.170234434001663715e-01,5.855492367287329358e-01
2.201621802301462205e-01,-1.017976025966005338e+00,-6.972661694083726047e-01,-5.872030670928118923e-01,7.477581126417831570e-01,-5.145187213935198400e-01,5.975693847233731759e-01
2.708554646459387927e-01,-1.007825365580949928e+00,-6.548060612136197278e-01,-5.765850293512286839e-01,7.544309252436320890e-01,-5.254722986833826326e-01,6.077919526735087175e-01
3.285714958147986642e-01,-9.942712258919295110e-01,-5.929195221687777462e-01,-5.719111685194011585e-01,7.566743714614965199e-01,-5.461690674283925517e-01,6.128732606187181631e-01
3.862755496616854245e-01,-1.002780011418269446e+00,-5.269703365953226637e-01,-5.714318138408724934e-01,7.604709861791292269e-01,-5.520173821291329830e-01,6.163726675816327827e-01
4.372324442440719827e-01,-1.015327510645769316e+00,-4.667136514537872927e-01,-5.557444672926958873e-01,7.564442672531868084e-01,-5.583450296917646938e-01,6.186975988589082931e-01
4.838151510268770550e-01,-1.013601772716588023e+00,-4.328222808453574544e-01,-5.333459370790549769e-01,7.474704823813738130e-01,-5.595794138038456822e-01,6.201596611716375662e-01
5.344005522784036621e-01,-1.014416688760055862e+00,-3.943049586928815131e-01,-5.043081743985489140e-01,7.368860378646147069e-01,-5.643491368446884593e-01,6.201596611716375662e-01
5.893841832399284719e-01,-1.028270479664672443e+00,-3.439472574586766029e-01,-4.922640063101280106e-01,7.233486358829921414e-01,-5.724864290402198463e-01,6.227961991699171307e-01
6.485383220775589042e-01,-1.031122696725028653e+00,-2.854043111078397033e-01,-4.841746888523790204e-01,7.045765376951784731e-01,-5.811989381232507412e-01,6.213940452837185546e-01
7.121865310176306307e-01,-1.014081149211731869e+00,-2.343994636041735191e-01,-4.596189753190316196e-01,6.836952440151478072e-01,-5.857529602854683048e-01,6.190691140063986353e-01
7.756429937229747384e-01,-1.012127711265287111e+00,-1.932216488096827334e-01,-4.362976895309955694e-01,6.692949861590413718e-01,-5.929674750898783486e-01,6.149944683393471223e-01
8.352765090557351391e-01,-1.009850711092497022e+00,-1.601212177839705930e-01,-4.212694883906742405e-01,6.502352926173848857e-01,-6.029862758500925679e-01,6.103685604286646083e-01
8.808045788226137596e-01,-1.002720102991760953e+00,-1.384777388205193915e-01,-3.964621201960394359e-01,6.374073669760171867e-01,-5.997025915825737741e-01,6.064017761092888037e-01
9.166254327336087471e-01,-9.857743958709086485e-01,-1.250314168459887298e-01,-3.736441655471267609e-01,6.187311222704217073e-01,-6.032139758673782381e-01,6.058265374051075014e-01
9.689964803408085414e-01,-9.813642106555553468e-01,-7.967111685323047254e-02,-3.507543033330673410e-01,6.028352917800461341e-01,-6.147787456440401144e-01,6.032139758673782381e-01
1.032536849749848828e+00,-9.769540036235646596e-01,-2.649713052456093010e-02,-3.017987341684236213e-01,5.817238589852280484e-01,-6.254327371681966952e-01,6.000980831905700086e-01
1.062233757838290549e+00,-9.662641019500872730e-01,-2.130793941512720835e-02,-2.524237187517819336e-01,5.686083379899287138e-01,-6.324435065992783933e-01,5.958436686108292690e-01
1.063348281464107536e+00,-9.367828729237137608e-01,-3.922437684815704984e-02,-2.387137866105781825e-01,5.489733490208870137e-01,-6.251451069078317602e-01,5.897556983873730729e-01
1.101697812025737022e+00,-9.243432786770977572e-01,-9.419607412120001300e-03,-2.284552648778248596e-01,5.348991186686191668e-01,-6.338097067029480058e-01,5.876704226327689184e-01
1.164878643609276621e+00,-9.173804185339307082e-01,3.643204639773856002e-02,-1.843413481357636385e-01,5.177376801258404271e-01,-6.419709535424367175e-01,5.825771373655364016e-01
1.178732412697305776e+00,-9.128144408663940723e-01,1.710149957308004787e-02,-1.296693238951984739e-01,5.000393783056722441e-01,-6.394662533523831627e-01,5.827329516343127125e-01
1.173627128291518273e+00,-8.869525011057310948e-01,-1.036636126379164580e-02,-1.180685785193702486e-01,4.848146269118558394e-01,-6.311372149220950689e-01,5.817262457229244177e-01
1.221767759596098513e+00,-8.620372715635316041e-01,2.661696919421530083e-02,-1.139580008864271576e-01,4.613064032711555740e-01,-6.381000532487135501e-01,5.803241136533632272e-01
1.258367575767993518e+00,-8.567522400615867895e-01,3.112303843524344416e-02,-6.970024719752387909e-02,4.430711683606425311e-01,-6.327790679642397720e-01,5.789818681936065303e-01
1.246838759773882810e+00,-8.530011784374957884e-01,-9.958892333727931145e-03,-3.876897681363011827e-02,4.199463935560920902e-01,-6.313289611568517756e-01,5.751469216824567354e-01
1.271897782629688445e+00,-8.280020858248082760e-01,2.229069068260258746e-03,-2.801910126382090027e-02,3.830925447119604144e-01,-6.272423381678216003e-01,5.749551754477000287e-01
1.308929022375560081e+00,-7.825339244844409237e-01,1.460875488827895197e-02,-1.378186152289906374e-02,3.474274745264516184e-01,-6.185897375112769936e-01,5.767288444813889470e-01
1.296896853425755225e+00,-7.762422088877229953e-01,-2.968493076638267780e-02,1.102546303810569839e-03,3.135648407639912705e-01,-6.183141063894836975e-01,5.780950445851029684e-01
1.308233945001746612e+00,-7.760265080090533729e-01,-3.628823126753388806e-02,1.610679280026339200e-02,2.655512519755376388e-01,-6.297710148184254564e-01,5.770763831683289879e-01
1.337727129533483605e+00,-7.534002777782156102e-01,-2.161952431949387687e-02,4.504871508834717986e-02,2.086022057456560219e-01,-6.249773371336697636e-01,5.770763831682845790e-01
1.323741522637228440e+00,-7.267114228355131544e-01,-6.978415390124226292e-02,4.876380111329403633e-02,1.567153124723219548e-01,-6.163606684430167348e-01,5.737447459796207738e-01
1.328235614556289024e+00,-6.947015389751287628e-01,-8.421313987678757940e-02,4.714594634842583787e-02,1.033327767515856976e-01,-6.112913378197859515e-01,5.718033289883628356e-01
1.345492906581513548e+00,-6.737051844643904275e-01,-7.529688542042833888e-02,6.019675489832287951e-02,4.523327929328857522e-02,-6.104284906717882819e-01,5.688552060857166026e-01
1.318468468457284493e+00,-6.616131070880770793e-01,-1.228143469163001100e-01,7.529688542042833888e-02,-6.308527480758385764e-03,-6.051074835707215271e-01,5.691548136681046088e-01
1.316431145623758736e+00,-6.365421069103094354e-01,-1.358771327882202229e-01,8.802413174402445861e-02,-5.227037701605041775e-02,-6.059104222921440908e-01,5.702573599719595876e-01
1.331099852571848707e+00,-6.160730381826073909e-01,-1.303524239470554846e-01,9.562213901794791582e-02,-1.044832628866565472e-01,-6.103565612900929693e-01,5.678844757734946569e-01
1.300156561232745922e+00,-5.885093369533800356e-01,-1.720215489255494390e-01,7.819705540188515158e-02,-1.588820689230274752e-01,-6.017878673372223375e-01,5.661707369829294123e-01
1.289011237708098667e+00,-5.619642753242670707e-01,-1.835983396573759308e-01,7.473362403822569888e-02,-2.076051340516471555e-01,-5.991872613048787599e-01,5.650082604359507599e-01
1.293433443878666544e+00,-5.294510821413966895e-01,-1.865104869609446325e-01,8.187623127753340668e-02,-2.497704037760506424e-01,-5.999183142778363731e-01,5.626353980541232147e-01
1.266912315076906825e+00,-5.005690900964143708e-01,-2.397923564537940422e-01,7.732220911536025199e-02,-2.798364577276224452e-01,-5.928955675247760126e-01,5.603463987427392823e-01
1.271598175047311541e+00,-4.734847217290338861e-01,-2.442025416692139572e-01,7.919176217470180745e-02,-3.122609401878584379e-01,-5.890006907704581351e-01,5.627073056192255507e-01
1.288424021681933151e+00,-4.539744278082347151e-01,-2.416738868351586689e-01,7.035939260542356521e-02,-3.538893815417054611e-01,-5.922963305434070236e-01,5.643011839235878568e-01
1.252746982901142836e+00,-4.472872424200913244e-01,-3.072395799391891558e-01,4.533632353216354716e-02,-3.936386617984233283e-01,-5.876344906667885226e-01,5.623837215762428343e-01
1.240942513968601446e+00,-4.296823898913615380e-01,-3.356062198897724613e-01,2.882206180188084943e-02,-4.272519927307705245e-01,-5.871670914936455432e-01,5.621799980195962831e-01
1.264335729138366116e+00,-3.925313114758299804e-01,-3.276606957457239844e-01,2.509495482172496850e-02,-4.628211745272281519e-01,-5.825771373655808105e-01,5.599748835952489401e-01
1.243267445245921365e+00,-3.526118354372220765e-01,-3.742194042513524721e-01,8.496830020998658028e-03,-4.958784435605601004e-01,-5.740803291611307202e-01,5.580214674654193630e-01
1.227412350740142433e+00,-3.246286879559745486e-01,-3.950959419089628000e-01,-1.066596884613524310e-02,-5.197318933269023944e-01,-5.755064595079240064e-01,5.549175521106342046e-01
1.243147606576289199e+00,-2.964537724233773375e-01,-3.779105356323420040e-01,-1.527987761820170931e-02,-5.507949491590835578e-01,-5.790777304027105998e-01,5.573383674136067611e-01
1.219742414084556970e+00,-2.809102191887236089e-01,-4.126168659174034303e-01,-3.112303843524344416e-02,-5.694328664342052093e-01,-5.773280596461649594e-01,5.597831373605366423e-01
1.187408989814453530e+00,-2.646955868574440984e-01,-4.477306433161132304e-01,-5.569068565729473619e-02,-5.855588011330681297e-01,-5.730496904223780774e-01,5.568829673790354207e-01
1.199465113408204608e+00,-2.419974490615262042e-01,-4.264226820843042276e-01,-7.034741528344490291e-02,-6.034488797311610142e-01,-5.792335228548495252e-01,5.556725597275935513e-01
1.186102719953907592e+00,-2.261063789565476156e-01,-4.494803358891630296e-01,-8.569917865011156266e-02,-6.130362176475223634e-01,-5.773640134287383319e-01,5.543303142678368545e-01
1.145596027889117519e+00,-2.096999567573476497e-01,-4.978606663496698559e-01,-1.127475932348964704e-01,-6.204952312631739630e-01,-5.705210137717742214e-01,5.521371989821499682e-01
1.154512282345510066e+00,-1.781574938866992142e-01,-4.884410589375498546e-01,-1.266013623229866880e-01,-6.256340739871468770e-01,-5.740084215960283842e-01,5.511065820599903020e-01
1.169756227997786890e+00,-1.485204942247575488e-01,-4.920722600753713039e-01,-1.387413708037854576e-01,-6.312906162732723203e-01,-5.747394527524374297e-01,5.543183369458581922e-01
1.133887442982262073e+00,-1.349663327191219508e-01,-5.392062291018184794e-01,-1.679109712925619391e-01,-6.286253239755623667e-01,-5.754105754822713692e-01,5.553249992240605337e-01
1.127727543377166075e+00,-1.237371243073992488e-01,-5.343765976344450053e-01,-1.997410644235753097e-01,-6.266886717331665579e-01,-5.737926989007213763e-01,5.544981058585918277e-01
1.153889112536798933e+00,-1.018659235100916050e-01,-5.050871366594655854e-01,-2.077465406275180726e-01,-6.194214698020061860e-01,-5.729178526141964767e-01,5.542704058413505663e-01
1.127715544238561129e+00,-8.221177082583519535e-02,-5.431011058560919480e-01,-2.320265794057974063e-01,-6.093738536558923613e-01,-5.701854524068572516e-01,5.529281603816382784e-01
1.094207687916137761e+00,-7.118630778744083898e-02,-5.715156987279534917e-01,-2.652588264230537618e-01,-5.893937781874747373e-01,-5.628151669668568502e-01,5.497643366002780141e-01
1.113993612958752433e+00,-5.147224667667593678e-02,-5.429213369433583125e-01,-2.763682179817372742e-01,-5.749935203313683019e-01,-5.670935143740507556e-01,5.485779054093864460e-01
1.118775335138211258e+00,-3.191397801811657331e-02,-5.539228671544549343e-01,-2.866267178978532115e-01,-5.588483521042242330e-01,-5.698259145813455717e-01,5.503755290870326888e-01
1.081983750914983222e+00,-2.400440765648603758e-02,-6.015601455032992817e-01,-3.216086574882481841e-01,-5.427991071726090411e-01,-5.712280902841815333e-01,5.523169678948836037e-01
1.085662926790598171e+00,-1.391369933114727786e-02,-5.824093675913744050e-01,-3.506584193074147038e-01,-5.190991067539840742e-01,-5.693225834422666054e-01,5.501837828523203910e-01
1.120213442806983206e+00,5.632613822026399930e-04,-5.413993443875497746e-01,-3.449898735193634991e-01,-4.984287186606373155e-01,-5.728818988316231042e-01,5.503395753045037253e-01
1.096077197342271159e+00,5.117261727782818070e-03,-5.734571375358044065e-01,-3.524081118805533208e-01,-4.644701965093034346e-01,-5.753626443777637434e-01,5.489733752007897039e-01
1.056768957423614985e+00,8.904298951017963759e-03,-6.001699907557167535e-01,-3.858441042710492042e-01,-4.248743306934699149e-01,-5.733253215442157824e-01,5.460731834027399145e-01
1.078460389308155687e+00,2.024134689380119312e-02,-5.624196753587717978e-01,-3.989788195247534475e-01,-3.992376780324491392e-01,-5.743799367435187264e-01,5.467922372370814799e-01
1.092937350021516707e+00,3.245328475636188870e-02,-5.564395446664871514e-01,-3.957191117177405459e-01,-3.657393642976458636e-01,-5.800484607148881366e-01,5.484940205223054477e-01
1.055270919511730465e+00,3.193795447866687454e-02,-6.047239911012525226e-01,-4.173506351757616528e-01,-3.183201648385924898e-01,-5.797128993499711669e-01,5.488774911751370666e-01
1.047517119785668083e+00,3.595266990259471385e-02,-5.930992910814669727e-01,-4.460648356300112027e-01,-2.819073257892767970e-01,-5.801443447405851828e-01,5.488415592092454887e-01
1.084907919173672131e+00,5.128050044196363899e-02,-5.400451216058588244e-01,-4.517453587399966608e-01,-2.416019836333660464e-01,-5.818341288872375117e-01,5.494407525573397066e-01
1.075632126891756801e+00,5.754826139470203827e-02,-5.574342296226664217e-01,-4.552806976687584495e-01,-1.943745260457596657e-01,-5.843747610431826445e-01,5.477749448712820879e-01
1.028186572960998468e+00,5.809950182169565380e-02,-6.000741067300197074e-01,-4.832159358621357370e-01,-1.373871523854042209e-01,-5.836797054859843570e-01,5.423341209171983479e-01
1.035712672669764078e+00,6.759103861553317216e-02,-5.767048680208386457e-01,-4.833597291757030234e-01,-8.176120535328124106e-02,-5.843028534780803085e-01,5.428494293783003855e-01
1.073594804058231045e+00,8.257130865134687525e-02,-5.476431288796934638e-01,-4.687270196433779290e-01,-3.081382281537869972e-02,-5.905466597869057921e-01,5.423940293436846360e-01
1.058914119788179065e+00,8.481235504156359184e-02,-5.840032677123296878e-01,-4.824009980020971255e-01,1.852283026444467851e-02,-5.887490142926221637e-01,5.436643672383389969e-01
1.028905626795373340e+00,8.650213918819371628e-02,-6.076960686478560802e-01,-5.035291903209948572e-01,5.802280769113821179e-02,-5.904747522218034561e-01,5.435804823512579986e-01
1.053317503381900888e+00,9.872605437273307416e-02,-5.660988512344200529e-01,-5.014199599223889692e-01,9.173206191901428497e-02,-5.897676757093517352e-01,5.416869528312773241e-01
1.070167304660474272e+00,1.062042011603425706e-01,-5.515979140604976294e-01,-4.910895742578080814e-01,1.252303407472510344e-01,-5.908462455526564128e-01,5.391822744578611548e-01
1.027263795569899330e+00,1.019737630411299278e-01,-5.997145689045524364e-01,-5.049193668852591799e-01,1.608570485958082941e-01,-5.930154061944303834e-01,5.362341297386219452e-01
9.995682347158085790e-01,1.077022172556452162e-01,-6.145270909827971195e-01,-5.209782285809705371e-01,1.902903159742841410e-01,-5.936385760031193115e-01,5.348199985304002979e-01
1.027359657778958990e+00,1.188715390574524022e-01,-5.727261063794397700e-01,-5.037089592337729016e-01,2.152558546322680399e-01,-6.025428531374998897e-01,5.323752285834704168e-01
1.042615602569818556e+00,1.204414627178573838e-01,-5.750750141173543994e-01,-4.871826983649185649e-01,2.449959159863013269e-01,-6.008770672681240654e-01,5.330223748527540550e-01
1.006303373025108083e+00,1.211365400916486479e-01,-6.157015448517544343e-01,-4.950443594386122470e-01,2.842274617744777743e-01,-6.035375380937235690e-01,5.337054749046110658e-01
9.955175655093406739e-01,1.341873704582274840e-01,-6.062699601176557707e-01,-5.027262515995278847e-01,3.124527169659607750e-01,-6.047719222057601485e-01,5.306854444368180879e-01
1.021020011077711231e+00,1.473100865732712705e-01,-5.672253303656393797e-01,-4.815381508540994560e-01,3.270830441238103958e-01,-6.066534525871247752e-01,5.274856450563802923e-01
1.007657595806787931e+00,1.460277713567048608e-01,-5.895040219095371015e-01,-4.725859207985294574e-01,3.450114501521994725e-01,-6.058145600831288391e-01,5.249210364397960404e-01
9.565688634161961801e-01,1.455723931387487013e-01,-6.431933603325390436e-01,-4.843424368099480404e-01,3.686155970885174327e-01,-6.053711373705361609e-01,5.198277511726079325e-01
9.537046035840157643e-01,1.543927635694553047e-01,-6.226044529351604240e-01,-4.959671586462821580e-01,3.750774691972047492e-01,-6.080196526907943877e-01,5.173589829484903646e-01
9.902565104679794672e-01,1.641000012419846499e-01,-5.794252909061992085e-01,-4.655751513674477593e-01,3.745597696349634020e-01,-6.093019460907900253e-01,5.183057368001176002e-01
9.846358957845025017e-01,1.700321790131686939e-01,-6.037173070065016134e-01,-4.437159278921409822e-01,3.782221336265934042e-01,-6.002059445382457170e-01,5.175627283218187102e-01
9.326363415081972974e-01,1.692172629697452635e-01,-6.488738834424800928e-01,-4.574618356325110824e-01,3.844155740965859991e-01,-5.989475839656144274e-01,5.146505592017014408e-01
9.217187398174120361e-01,1.775942106878813931e-01,-6.323715772175830807e-01,-4.651077740108977565e-01,3.831117084271085105e-01,-5.995467991303460309e-01,5.122297438987288842e-01
9.414567337555190818e-01,1.875771012987970110e-01,-6.033937447801118736e-01,-4.351951432271849995e-01,3.768799056201643793e-01,-6.006253907902436850e-01,5.093415294226133483e-01
9.265843032507214971e-01,1.854918255441262431e-01,-6.317124536263207801e-01,-4.326424901159420244e-01,3.841087801210285591e-01,-6.010927681467936878e-01,5.040804743812188349e-01
8.774729634505318288e-01,1.871935870127350299e-01,-6.682643605103066875e-01,-4.558319817290268361e-01,3.870617026790590387e-01,-5.956519223760725623e-01,5.023667137740606137e-01
8.660400096654585766e-01,1.923348252010681492e-01,-6.476754531129724768e-01,-4.702250357386361657e-01,3.860454672699908940e-01,-6.003976907729580148e-01,4.974172436370771777e-01
8.851189018289185029e-01,2.028929326995720928e-01,-6.093259225513403265e-01,-4.444469590485056187e-01,3.896694689246693599e-01,-5.979289225488848558e-01,4.980044596632371423e-01
8.781560635023444306e-01,2.072192330278443961e-01,-6.243062144037914152e-01,-4.210417665567511847e-01,3.937345152808191528e-01,-5.908582446912280517e-01,4.983160663841967875e-01
8.268875621989968394e-01,2.091007634091868184e-01,-6.705653153270318967e-01,-4.297543192730568506e-01,4.001963873895064694e-01,-5.879940066757072259e-01,4.952480829953032071e-01
7.880706324642217098e-01,2.102272643569769173e-01,-6.783310923750729415e-01,-4.549691127644361899e-01,4.094386737130584208e-01,-5.873229057624218541e-01,4.952840585944695562e-01
7.970947700848718398e-01,2.164590715272085575e-01,-6.394782524909548016e-01,-4.513618662705276563e-01,4.141747991659450179e-01,-5.900912379357414750e-01,4.936541828743479243e-01
8.117874316769357890e-01,2.242967561403075294e-01,-6.167201844518910292e-01,-4.300179512562785078e-01,4.150376899470842318e-01,-5.871910679541958444e-01,4.897593279367118413e-01
7.896166014806249578e-01,2.194071944298325860e-01,-6.402212827859354860e-01,-4.360460130531595979e-01,4.260823079739850527e-01,-5.817022910790115020e-01,4.923479130138019855e-01
7.396903238203744735e-01,2.055294488812142717e-01,-6.708289691268465305e-01,-4.590197819708929927e-01,4.328126815344113254e-01,-5.777115521155895550e-01,4.912333675713753678e-01
7.069494306202406264e-01,1.986145634758074152e-01,-6.771806149667103369e-01,-4.729334813020624750e-01,4.345000658533493265e-01,-5.769086133941669914e-01,4.956555519253669218e-01
7.046963850914078620e-01,2.036718949604443551e-01,-6.583533774644489966e-01,-4.581209592237733830e-01,4.361490878353357914e-01,-5.728459450490941407e-01,4.988074202012970915e-01
7.109162149396386354e-01,1.994175021972743878e-01,-6.413597610557264517e-01,-4.471554046118431103e-01,4.424000543574280186e-01,-5.710842533373838847e-01,4.981962058979494401e-01
6.981170610509179753e-01,1.904652939583195703e-01,-6.462013916616271558e-01,-4.564191977551868007e-01,4.521792039582805955e-01,-5.693945128239619180e-01,5.011443288005956731e-01
6.605225381062007628e-01,1.805543327291214695e-01,-6.668622066240637025e-01,-4.756419050488069900e-01,4.740575693321424922e-01,-5.678365446689870311e-01,5.018514053129585761e-01
6.219692839878998569e-01,1.776900947135562348e-01,-6.802725311829238564e-01,-4.873145361731445746e-01,4.905478938717955373e-01,-5.617125988464088948e-01,5.004612287487830713e-01
6.069410610309189380e-01,1.714702866819406424e-01,-6.702537304226652282e-01,-4.845102284006586046e-01,5.074600295845499431e-01,-5.566911993276857373e-01,5.030618129644892633e-01
5.996666596165933782e-01,1.619068859562755591e-01,-6.540750300573439091e-01,-4.880335900075305489e-01,5.250816067308150537e-01,-5.565953589352634623e-01,5.048834131026858074e-01
5.862203376419961032e-01,1.495870867460613596e-01,-6.493412607990300955e-01,-5.003293909405126527e-01,5.392134329482267674e-01,-5.536831679985532162e-01,5.096171823610440299e-01
5.629709376024472078e-01,1.428399929314094763e-01,-6.587968001770416748e-01,-5.159088979577397538e-01,5.584648683614190645e-01,-5.503155988439090152e-01,5.148423054364137386e-01
5.412075981527930679e-01,1.417613794548966411e-01,-6.720393767783772176e-01,-5.213976748329685051e-01,5.703724120761144434e-01,-5.458934363065992557e-01,5.169395366964923966e-01
5.193363973554854240e-01,1.350742158833906359e-01,-6.782112755220115474e-01,-5.237585817094547735e-01,5.895087953850186580e-01,-5.430531747515843222e-01,5.191326519821792829e-01
4.905382901975841037e-01,1.240487092117437129e-01,-6.821660388862671454e-01,-5.309370990981054916e-01,6.022600312592274463e-01,-5.342327606876473567e-01,5.196839142257658750e-01
4.671810288103594999e-01,1.174214322501088148e-01,-6.777678309928258926e-01,-5.387867828498205114e-01,6.113872305721024247e-01,-5.292713132286408495e-01,5.189648822080172863e-01
4.552207892422721613e-01,1.142096555476257436e-01,-6.649447224602145212e-01,-5.608976828029632600e-01,6.197282288709970999e-01,-5.292952678725981741e-01,5.223923597891921844e-01
4.465561894471115068e-01,1.099193090019046082e-01,-6.590125228723486828e-01,-5.776036907679582555e-01,6.272830959691333419e-01,-5.245255666483927826e-01,5.269583592732995925e-01
4.298621588040951735e-01,1.060723851687539465e-01,-6.729381995254524185e-01,-5.901631455008438110e-01,6.314823581447193135e-01,-5.218290984069451355e-01,5.308172822450885064e-01
4.065288738774652799e-01,1.039272009875746861e-01,-6.912860387159547315e-01,-5.862203594586112843e-01,6.386153791630100329e-01,-5.198397284945865948e-01,5.335376833138116837e-01
3.817934350645924013e-01,1.015902705716831278e-01,-7.125340915211886283e-01,-5.975214536188211412e-01,6.442911200709389163e-01,-5.076277906320036948e-01,5.359225448342552767e-01
3.571299038168662676e-01,9.798302407777459422e-02,-7.215102544040341570e-01,-6.223168444913884656e-01,6.452115019975224186e-01,-5.026663431730860054e-01,5.373726516415988641e-01
3.345875802897024798e-01,9.534648607947282528e-02,-7.235835310201554904e-01,-6.430495233856969861e-01,6.409930412003106426e-01,-5.019951986265702715e-01,5.371329524857415549e-01
3.112782500070077063e-01,9.873803169471173646e-02,-7.225528922813584387e-01,-6.683003142928356510e-01,6.445403530878301979e-01,-4.982561361410731138e-01,5.404765669964284314e-01
2.832711260652098773e-01,1.059884784650577672e-01,-7.263159312274947155e-01,-6.941862305140933387e-01,6.386921038369131054e-01,-4.920363281094353169e-01,5.423460982391770102e-01
2.447538257294157305e-01,1.103387552539025762e-01,-7.566839620457788129e-01,-7.080399777854573529e-01,6.361801561670432648e-01,-4.846060906097626741e-01,5.457376220377785359e-01
2.063803405238262556e-01,1.158395312677695799e-01,-7.962079246596864834e-01,-7.128097226429819244e-01,6.326712066166528814e-01,-4.838151510268673405e-01,5.512383980516233350e-01
1.844252330228446368e-01,1.248636252551893477e-01,-8.081562087224547497e-01,-7.441963930614026168e-01,6.271488801497859811e-01,-4.805194894373254755e-01,5.532397671025979236e-01
1.709909320034341818e-01,1.358531781442628983e-01,-8.142681554064168381e-01,-7.620049473302525911e-01,6.113872305721024247e-01,-4.632741747341295735e-01,5.530000679467406144e-01
1.491316867115122236e-01,1.499106707889996670e-01,-8.418079019917090733e-01,-7.945301396516946113e-01,6.043117006991671758e-01,-4.531235361656005267e-01,5.523648989994356384e-01
1.115012318008812287e-01,1.603728942618287689e-01,-8.893253634875808444e-01,-8.202962390198909048e-01,5.954338391229718752e-01,-4.481980424892118009e-01,5.538030284848005635e-01
7.891610923629333030e-02,1.700561554737634040e-01,-9.361477257930239659e-01,-8.288769321113775845e-01,5.834112433040772316e-01,-4.339128280105519764e-01,5.552051605544061630e-01
6.231798443556701983e-02,1.833826169621133317e-01,-9.520148412539786165e-01,-8.528094103861683095e-01,5.659622094074556742e-01,-4.195077966789639845e-01,5.598310902816816537e-01
4.942294652117151799e-02,2.065720867585607579e-01,-9.582706248847827624e-01,-8.708816402714258942e-01,5.490308750728978282e-01,-4.220963817560541287e-01,5.637738981405071570e-01
1.870737701596958402e-02,2.282635186431125618e-01,-9.961886882392079201e-01,-9.104056247019709502e-01,5.330391561935599043e-01,-4.108192204231642108e-01,5.643131830621594958e-01
-2.846254579298435061e-02,2.417457944002610049e-01,-1.052119073052359965e+00,-9.250503333729120925e-01,5.042770028181209341e-01,-4.006685818547683908e-01,5.652599369137867313e-01
-5.168796937198294472e-02,2.473543881285289459e-01,-1.076411089152662370e+00,-9.523024715143879604e-01,4.793881888340401076e-01,-4.006326498887879950e-01,5.667699303310680392e-01
-6.715959322491915628e-02,2.670924256998663537e-01,-1.074925050379382796e+00,-9.601641107714886658e-01,4.437231186487089474e-01,-3.861197353928869092e-01,5.693106061202879431e-01
-9.779127784304009197e-02,2.817012024048271002e-01,-1.112639411993665561e+00,-9.989929960116494811e-01,4.097070704450977985e-01,-3.827641653768587560e-01,5.715516525105268641e-01
-1.475497639125356031e-01,2.954111345460308513e-01,-1.161115604663187639e+00,-1.022721772546297814e+00,3.715876833617848263e-01,-3.713431889137641662e-01,5.754824830473737052e-01
-1.720815009852882937e-01,3.047588343930485166e-01,-1.169432643954859685e+00,-1.041129541979923800e+00,3.265461459399432442e-01,-3.592511115374286135e-01,5.798087833756238041e-01
-1.846529330401303071e-01,3.361335493061057278e-01,-1.174585859465171467e+00,-1.045455842308218308e+00,2.790311279049717541e-01,-3.618157419706502509e-01,5.818820599917451375e-01
-2.181009027526714661e-01,3.581485652336180436e-01,-1.221468152013693853e+00,-1.075452357979012064e+00,2.341813323545771652e-01,-3.469433114658304618e-01,5.810191910271544913e-01
-2.531907255072907148e-01,3.718465200528653369e-01,-1.244274129340716684e+00,-1.096580528481316819e+00,1.871840138818470223e-01,-3.439232809981263017e-01,5.795211531152588691e-01
-2.611242723294937562e-01,3.883727809217196736e-01,-1.241481820706846761e+00,-1.098677803374625839e+00,1.337247534872076926e-01,-3.385543427925075122e-01,5.811749834792934166e-01
-2.844096261515938195e-01,4.008363734455011596e-01,-1.277614237705604339e+00,-1.099792305183822094e+00,8.047646849238532241e-02,-3.329697037081746913e-01,5.827689054168860849e-01
-3.171145655691764986e-01,4.042998048092050212e-01,-1.311289929252046349e+00,-1.147932958305020179e+00,2.989347579518408793e-02,-3.256473493727263246e-01,5.860645451898349734e-01
-3.238617030170587441e-01,4.184771361235739562e-01,-1.308509576123562113e+00,-1.136763636503212993e+00,-1.725729202517456429e-02,-3.235500962960990989e-01,5.872629755192981804e-01
-3.365409964195320569e-01,4.321990892199867318e-01,-1.340902930636778123e+00,-1.124168249804391451e+00,-5.052550155166812829e-02,-3.090971338599146634e-01,5.871311377111165797e-01
-3.699530341661372290e-01,4.316238505158276340e-01,-1.371342869020164557e+00,-1.168833428790083673e+00,-8.164611834260426804e-02,-3.116018340499682182e-01,5.862802678850975724e-01
-3.904340583992027547e-01,4.475748508638632828e-01,-1.369137776412499008e+00,-1.184592704720044409e+00,-1.175988187884335900e-01,-3.061250344967181292e-01,5.836197752429050922e-01
-4.129284508218145078e-01,4.781705598828400738e-01,-1.393705445451232094e+00,-1.156405790048831150e+00,-1.454788827608410884e-01,-2.932539948594659052e-01,5.841350837039183119e-01
-4.419182823978573538e-01,4.855408889560486330e-01,-1.389403099766850502e+00,-1.192478320437695416e+00,-1.672231021285774943e-01,-2.996655273092230232e-01,5.868435292673002124e-01
-4.625071897951693600e-01,4.933306206480247980e-01,-1.364943292075837533e+00,-1.226046107003231356e+00,-1.980944160894004824e-01,-3.032248645152169075e-01,5.881857529104195237e-01
-4.928752206134756619e-01,5.024865524436927799e-01,-1.401638992273390727e+00,-1.182615312129620122e+00,-2.329349927371104911e-01,-2.961901186235404992e-01,5.889407605273788704e-01
-5.106238664558171436e-01,4.927793365878008203e-01,-1.406888069992762169e+00,-1.199680836103489412e+00,-2.580347472143529330e-01,-2.997374566909627447e-01,5.874547217540548871e-01
-5.144827676109464676e-01,4.945290509775324139e-01,-1.389846522479443180e+00,-1.236975729649225642e+00,-2.828277077159491171e-01,-2.981914876745150877e-01,5.854054215985282639e-01
-5.378160525375763612e-01,4.992508210972745886e-01,-1.431299946579267512e+00,-1.202904590127973350e+00,-3.034022074203335251e-01,-2.967413808671715003e-01,5.834759601127004203e-01
-5.592318751169278457e-01,4.963746057597306915e-01,-1.447131108257693199e+00,-1.214972712860307169e+00,-3.239959406529990815e-01,-2.986828414916153918e-01,5.825172071224127279e-01
-5.736129518046029219e-01,5.170473980441236961e-01,-1.438035084888600323e+00,-1.253525945161992894e+00,-3.454524599471042734e-01,-2.928944570339986342e-01,5.841470828425343598e-01
-5.986479763832264211e-01,5.381156819365573440e-01,-1.442289477651748086e+00,-1.236736052309961309e+00,-3.606197201954763898e-01,-2.961301883804168256e-01,5.848541375383042862e-01
-5.987079066263500948e-01,5.352154683218479647e-01,-1.418309046455812350e+00,-1.226729228871725752e+00,-3.688648301054087142e-01,-3.036083569846859120e-01,5.828527903039670832e-01
-6.048318524489060266e-01,5.478948053575516397e-01,-1.413191784728073941e+00,-1.234566913484824724e+00,-3.863138989086856157e-01,-2.956268572413378593e-01,5.797728295930948406e-01
-6.257682767165206883e-01,5.432089672037676564e-01,-1.425331793208872710e+00,-1.244993183175058249e+00,-3.932168157186666235e-01,-3.019425492986282933e-01,5.768007302298983063e-01
-6.279614138188449601e-01,5.215175135026006714e-01,-1.424996253660593126e+00,-1.229929028252207956e+00,-3.933126692011512660e-01,-2.973166413879457792e-01,5.755424132904973789e-01
-6.544105696056456978e-01,5.291754292029882123e-01,-1.463285832162508626e+00,-1.244825413400896252e+00,-4.022289280208646289e-01,-2.968492422148027998e-01,5.728938761536017665e-01
-6.777079225663396045e-01,5.209542521203980314e-01,-1.453890223027576312e+00,-1.284720891162383083e+00,-4.048175305512380362e-01,-2.996895255864107099e-01,5.724984063621985086e-01
-6.732378071078626292e-01,5.269823139172791215e-01,-1.422623369462128196e+00,-1.249834813781047771e+00,-4.035903546490970939e-01,-3.006961878646130515e-01,5.733492980047660836e-01
-6.788224461921732455e-01,5.480026667052051437e-01,-1.425415678095998118e+00,-1.246766852208791576e+00,-4.090359564418832861e-01,-2.977840187444957820e-01,5.695502834595522756e-01
-6.864683845705599197e-01,5.304577444195768265e-01,-1.396102284293609941e+00,-1.280969829538269877e+00,-4.090935174006382624e-01,-3.055857495750657904e-01,5.639776216972425260e-01
-6.962475079915542153e-01,5.298345527942505129e-01,-1.410519314763813981e+00,-1.243603006610838335e+00,-4.028808783089310452e-01,-3.064366194010403888e-01,5.559002597448348126e-01
-7.278379455999184344e-01,5.216373739888480188e-01,-1.451097870760520436e+00,-1.251488644145126727e+00,-3.975119313765596019e-01,-3.038120805413768721e-01,5.513222829387043333e-01
-7.368620395873604068e-01,4.896993976935437587e-01,-1.415840300048332168e+00,-1.303080729491412626e+00,-3.928716594062464651e-01,-3.101277725986673062e-01,5.453541295683095314e-01
-7.359153075523261478e-01,5.016955910442044697e-01,-1.417625946403955339e+00,-1.260368944818957004e+00,-3.900529526674745284e-01,-3.015231030466303253e-01,5.390863904321641087e-01
-7.352441848224477994e-01,4.986396286105421183e-01,-1.418488815368590394e+00,-1.252255629084020327e+00,-3.813667980561596949e-01,-3.108588037549875338e-01,5.331781673049373893e-01
-7.276581548705696179e-01,4.979685276972789509e-01,-1.377227115686885384e+00,-1.292498645532402790e+00,-3.785481262238654665e-01,-3.021223182114063377e-01,5.224283135717211479e-01
-7.490500228059637777e-01,5.151179365582514436e-01,-1.413215761188624242e+00,-1.257876221950882112e+00,-3.739269830621338997e-01,-3.003965802821806363e-01,5.106358437778180104e-01
-7.683326167094994830e-01,4.884530362595063124e-01,-1.422515508114496896e+00,-1.262154612991261970e+00,-3.647806200341108251e-01,-2.962979799712162077e-01,4.990470975405170151e-01
-7.571633385409004546e-01,4.741199124929762476e-01,-1.374818299522484466e+00,-1.295542630644064275e+00,-3.636493325207545979e-01,-3.011036567945879483e-01,4.860681747390849239e-01
-7.550181325431060131e-01,4.656590362545287576e-01,-1.379252461198410273e+00,-1.255012005751909854e+00,-3.619619482019054146e-01,-2.959504194676831901e-01,4.747550596236660425e-01
-7.570195234106957827e-01,4.125569356743463700e-01,-1.380522777276382840e+00,-1.248947990172499800e+00,-3.499968784351992213e-01,-2.947999420593205855e-01,4.668574665840363735e-01
-7.724911472636319942e-01,4.038084509920825127e-01,-1.385951645725169712e+00,-1.288376068760799242e+00,-3.433815918853611038e-01,-2.869742565847488436e-01,4.547294354251718573e-01
-8.030988772378178098e-01,3.994102649153452589e-01,-1.415444808440247115e+00,-1.281700882511271899e+00,-3.435541700416600008e-01,-2.819888108485990585e-01,4.471554046118875192e-01
-7.956806170600572159e-01,3.689822820372778978e-01,-1.380187237728103256e+00,-1.271238637221783208e+00,-3.394699599703621118e-01,-2.863630640980385778e-01,4.363575979574818575e-01
-7.714245547423503879e-01,3.740396571551896088e-01,-1.337020053021076293e+00,-1.282407937207041826e+00,-3.397767539459195518e-01,-2.755772347656559873e-01,4.265904736751480186e-01
-7.748880079226472262e-01,3.529833505846902142e-01,-1.337319660603464300e+00,-1.262022775183035961e+00,-3.428830560384454884e-01,-2.724014336623614696e-01,4.181655512192072877e-01
-7.847390170921286767e-01,2.947040798502609249e-01,-1.338625930464010239e+00,-1.258139875750696746e+00,-3.366512532315901751e-01,-2.730246252876877833e-01,4.111068506836179637e-01
-8.071974775488044429e-01,2.745585951654971879e-01,-1.354684792159721596e+00,-1.290736975637285511e+00,-3.306495546330445734e-01,-2.602494260429466522e-01,4.067805503552790469e-01
-8.185225481695868055e-01,2.387017874719621346e-01,-1.347410368928780855e+00,-1.289442661282080849e+00,-3.205061199110126324e-01,-2.545689029329167852e-01,4.034848887657815908e-01
-7.826537849706882710e-01,1.904772712802982326e-01,-1.299281736762791795e+00,-1.262933575252134233e+00,-3.141401012848099583e-01,-2.456886022591309171e-01,4.053903737910591332e-01
-7.667866695097114160e-01,1.769950173397427662e-01,-1.288651721699229924e+00,-1.260273082609897344e+00,-3.087711543526161506e-01,-2.409548111841353091e-01,4.047432275217754949e-01
-7.914022478362925384e-01,1.367639782133833748e-01,-1.309000929940662417e+00,-1.274030967672290515e+00,-2.893854682135099665e-01,-2.298694179026838924e-01,4.106394733270679609e-01
-8.015648855433710196e-01,9.478322469729238975e-02,-1.307574799593869130e+00,-1.268062814301895713e+00,-2.600864515608591887e-01,-2.222354786628244483e-01,4.101361203713516090e-01
-7.949016547991738513e-01,8.840762421349346312e-02,-1.287669014064984907e+00,-1.276044314045199357e+00,-2.455327792636907702e-01,-2.190596339262995684e-01,4.149058434122387951e-01
-7.790585157987583997e-01,6.360029965215563408e-02,-1.256090575595214531e+00,-1.281640952268148226e+00,-2.231942054731206326e-01,-2.132592939633415341e-01,4.171229351584759826e-01
-7.546346400736481108e-01,2.067277046777782346e-02,-1.236819959013635284e+00,-1.252267606405998990e+00,-1.867238054652275991e-01,-1.992377332844963433e-01,4.240258432419707901e-01
-7.651328391456324596e-01,-7.286400552897198679e-03,-1.259997429671511071e+00,-1.263472860173786572e+00,-1.599558652907617784e-01,-1.943721480345939057e-01,4.249845962321696646e-01
-7.953930086162852575e-01,-3.793006249299679666e-02,-1.286626376187660625e+00,-1.303763829543269637e+00,-1.207626120264926328e-01,-1.859951566832052094e-01,4.349674432098993293e-01
-7.837084001699912150e-01,-6.862167735426361048e-02,-1.270052206030891639e+00,-1.276212083819361354e+00,-8.548109539701087556e-02,-1.846649321787463549e-01,4.387424594779254505e-01
-7.464733932341927058e-01,-8.184027749498223869e-02,-1.240582997959727152e+00,-1.268254582353245397e+00,-6.594199481693152620e-02,-1.746700860624006424e-01,4.478265273417214587e-01
-7.392229464638355729e-01,-1.081696164287659911e-01,-1.241361960220599414e+00,-1.281964514494449148e+00,-4.295147073838379015e-02,-1.666526107199750584e-01,4.540942664778668814e-01
-7.459460856345301316e-01,-1.573888175766535724e-01,-1.267990906736793377e+00,-1.266073444389492764e+00,-1.787087997637826220e-02,-1.652744551108753512e-01,4.584445432667116904e-01
-7.532684617866047816e-01,-1.815370403633220775e-01,-1.286278859317402379e+00,-1.279963145443474559e+00,-7.209710785627265750e-03,-1.626858482171922304e-01,4.664140438714881043e-01
-7.533763013176320023e-01,-1.998848795538021861e-01,-1.283558414615404430e+00,-1.310882460322027043e+00,2.837870453920032787e-03,-1.562143855243114388e-01,4.690985129742308857e-01
-7.279817389135079253e-01,-2.318468323096567474e-01,-1.268410352988791345e+00,-1.272676744890599565e+00,3.988356588902064459e-03,-1.446735485749695016e-01,4.732929973109367694e-01
-6.970384912076466044e-01,-2.510694959700909834e-01,-1.262034774321607600e+00,-1.261219836461568988e+00,-2.166756450705520365e-03,-1.430317391661439785e-01,4.760373748402546568e-01
-7.018201697538750672e-01,-2.688660947335552720e-01,-1.282264122076837154e+00,-1.288316160334268545e+00,-1.303865669477488609e-03,-1.446375947924405381e-01,4.797405053598602365e-01
-7.174835616581498599e-01,-3.035963578460698642e-01,-1.311110160339268305e+00,-1.276104222471730054e+00,-2.320170891767503463e-03,-1.391608170557834256e-01,4.851933284525156154e-01
-7.101851619666588178e-01,-3.213450255050265270e-01,-1.307311145794054497e+00,-1.274881837498265114e+00,-1.478374159900042173e-02,-1.403952011678644141e-01,4.863318285388995577e-01
-7.016164461971619026e-01,-3.258151191468883212e-01,-1.295962098712699628e+00,-1.298442844258795859e+00,-2.766915838581240905e-02,-1.315148786773967515e-01,4.891840674158931535e-01
-6.854257685098508190e-01,-3.557876583571317752e-01,-1.287932667864799541e+00,-1.261087998653342979e+00,-4.484976064382806271e-02,-1.262178698535176835e-01,4.894836968148741363e-01
-6.690912538757087802e-01,-3.753818807982867156e-01,-1.289298867968513562e+00,-1.245951914348708556e+00,-6.695826513265501490e-02,-1.259062631325136294e-01,4.880215908689145010e-01
-6.819742926515104386e-01,-3.760889354940566420e-01,-1.312056914190939949e+00,-1.281581043841617529e+00,-8.007378612777671378e-02,-1.230420251169483947e-01,4.858165200778419290e-01
-6.915377151938018052e-01,-3.910452727025282016e-01,-1.325023837853844810e+00,-1.269009568153567358e+00,-9.773376051764870454e-02,-1.215679854822404593e-01,4.811546365680374748e-01
-6.762817922195574205e-01,-3.986312590212204299e-01,-1.310451014931413027e+00,-1.242452529202475731e+00,-1.242907951053418003e-01,-1.236292629597457449e-01,4.803876516290994658e-01
-6.690193681272327275e-01,-3.945566351707840980e-01,-1.302781121909024620e+00,-1.268458305909936357e+00,-1.470512498821463510e-01,-1.132389470520411834e-01,4.796686196113508771e-01
-6.674254461896622637e-01,-4.270338963876962879e-01,-1.301127291544990072e+00,-1.236256675814839667e+00,-1.684694417460441684e-01,-1.114413015577575550e-01,4.762051446144166533e-01
-6.625478836177700614e-01,-4.521648049919724244e-01,-1.316251398527645833e+00,-1.209963290663562674e+00,-1.928021938309321115e-01,-1.085770853587852969e-01,4.745992889881200938e-01
-6.780075083321124296e-01,-4.615963897260710880e-01,-1.338110600186315224e+00,-1.245005182313674297e+00,-2.125713986194099903e-01,-1.115970940099408892e-01,4.692183516438852564e-01
-6.874510922047716299e-01,-4.845461821832319771e-01,-1.344162660260384001e+00,-1.236783983414491139e+00,-2.351976026702118361e-01,-1.113933704532055202e-01,4.633101285166141281e-01
-6.764016527058047679e-01,-4.975610369506444641e-01,-1.340854999532270497e+00,-1.189985597569598319e+00,-2.640172471911839125e-01,-1.040949707617588871e-01,4.575337431976134184e-01
-6.672816310594686939e-01,-4.955237359337338887e-01,-1.335366222656997337e+00,-1.218112581997687904e+00,-2.914180088449569439e-01,-1.035916396226355118e-01,4.486414433851670935e-01
-6.617329457577092455e-01,-4.976928747588704738e-01,-1.319882621482104668e+00,-1.208824790577178732e+00,-3.139099970765002467e-01,-1.015423394671532975e-01,4.469516592385591736e-01
-6.575864143421816799e-01,-4.996343353833365697e-01,-1.329098461704258938e+00,-1.164722851157096173e+00,-3.313206686361702680e-01,-8.484830882413696429e-02,4.405161503282517543e-01
-6.780075083321013274e-01,-5.130446599421745191e-01,-1.350993660778732064e+00,-1.184017444199225721e+00,-3.527580591218715256e-01,-8.172043882535007242e-02,4.388862746081301225e-01
-6.965591147125249627e-01,-5.275575526214604238e-01,-1.352323907099828304e+00,-1.196085566931603950e+00,-3.708973707367668737e-01,-8.578308535378553756e-02,4.348955356447969933e-01
-6.965231391133475114e-01,-5.380677290154345371e-01,-1.349495622866880851e+00,-1.139759712326959828e+00,-3.880588092796344313e-01,-8.972589321265544982e-02,4.286997040737539066e-01
-6.949292608090296142e-01,-5.607059365682509622e-01,-1.344486222486729332e+00,-1.133072505122201257e+00,-4.040505281590611730e-01,-9.253020098505260194e-02,4.246849668331886818e-01
-6.936828775583658846e-01,-5.686275060684531368e-01,-1.340699207080042754e+00,-1.155746666457568850e+00,-4.202148601013533380e-01,-7.975500174031147083e-02,4.177341276452306573e-01
-6.955883844002808125e-01,-5.567391522488307487e-01,-1.353450429864277993e+00,-1.108085411648129792e+00,-4.411153524030098083e-01,-7.661515441959032557e-02,4.149058652288317717e-01
-7.103649308794035555e-01,-5.627672140457340433e-01,-1.363672954181227581e+00,-1.107582058692413440e+00,-4.501658270420705321e-01,-8.151669345202172678e-02,4.051147208526728605e-01
-7.238352074979803596e-01,-5.607059365682509622e-01,-1.354540998846109900e+00,-1.129009858593743587e+00,-4.637415913605558160e-01,-8.695753922274285230e-02,4.034010038786561836e-01
-7.319724778768743612e-01,-5.520413367730903076e-01,-1.351209361657446095e+00,-1.104490142476199921e+00,-4.780267622058964605e-01,-7.741809314101288919e-02,3.973968967257768270e-01
-7.298273155123102818e-01,-5.791855917503196949e-01,-1.342856368583245086e+00,-1.070694612260147949e+00,-4.860226390990263212e-01,-7.051518505760689948e-02,3.980799967775894288e-01
-7.269511001747774870e-01,-6.079477451256920517e-01,-1.339380938080925176e+00,-1.057991342397079926e+00,-4.935774712905072192e-01,-6.814230085909755985e-02,3.923635198850750072e-01
-7.411524079497189277e-01,-6.047359684232311849e-01,-1.368179045238848701e+00,-1.073894411640607949e+00,-5.005379490592432035e-01,-6.659633184273872075e-02,3.921597963283840471e-01
-7.638505239290327431e-01,-6.080196526908165922e-01,-1.374782345739955502e+00,-1.067662604470420717e+00,-5.076134091189565822e-01,-7.709453091466755836e-02,3.849333042019509321e-01
-7.633351936513599334e-01,-6.050715297881481547e-01,-1.357872592401587752e+00,-1.048260150080637665e+00,-5.092432673858837688e-01,-8.047405557469744508e-02,3.840225041328526601e-01
-7.562046073672612501e-01,-5.918529296474517309e-01,-1.349843183370369459e+00,-1.041213426866982594e+00,-5.178527322299508739e-01,-7.602793839343036097e-02,3.765083817460990190e-01
-7.594163622531069358e-01,-6.030821598757674096e-01,-1.340866976854249160e+00,-1.044916557386565970e+00,-5.159544423245066014e-01,-7.533283920295730240e-02,3.742433807118583644e-01
-7.700583546386696732e-01,-6.225924756132261706e-01,-1.345924330155501281e+00,-1.000934434819478192e+00,-5.129823560512392078e-01,-7.888015545374216231e-02,3.663218112116783942e-01
-7.919774865404960451e-01,-6.362424993279214291e-01,-1.370803584098512218e+00,-9.988851564805889538e-01,-5.129631574295245855e-01,-7.792144609672924105e-02,3.660102044907187491e-01
-8.088153541303322314e-01,-6.421746770991276776e-01,-1.373787638967138847e+00,-1.043550357282896357e+00,-5.047563749499772712e-01,-7.472162489960965104e-02,3.610846889976482288e-01
-7.952132397035294176e-01,-6.216097679790033581e-01,-1.346475614215725258e+00,-1.024747096241251931e+00,-5.107389098332859589e-01,-6.868160759738728416e-02,3.602338191716292215e-01
-7.796097780423671963e-01,-6.158093843827927572e-01,-1.335150499961690329e+00,-9.863017034705601205e-01,-5.104704781946800551e-01,-6.267747862782613311e-02,3.584601501380291211e-01
-7.968910247115656986e-01,-6.386872910914664914e-01,-1.347542206737051274e+00,-9.754679648502628808e-01,-4.976233539315089160e-01,-6.738731505882000761e-02,3.558595877388270878e-01
-8.215306013153456099e-01,-6.476275220084648510e-01,-1.367459991404462727e+00,-9.952659108481087813e-01,-4.933474019887640338e-01,-7.179747845755812818e-02,3.522043665071805663e-01
-8.382725630629028757e-01,-6.460575765314446883e-01,-1.359526422765666709e+00,-9.839288410887325753e-01,-4.849296790160551041e-01,-8.635832405801124878e-02,3.458527643005915309e-01
-8.305307624754454388e-01,-6.529964383974462550e-01,-1.344510177130686657e+00,-9.724958873036593232e-01,-4.736932493044854198e-01,-8.338624651136328225e-02,3.455291584410602468e-01
-8.137168931627969393e-01,-6.411560374989910827e-01,-1.330560567650218573e+00,-9.482038493867861462e-01,-4.698775057784487785e-01,-8.481235504160800076e-02,3.391775344177894169e-01
-8.196730255779605123e-01,-6.366499682579629393e-01,-1.347374415146251891e+00,-9.770139338666883333e-01,-4.503192414831325152e-01,-7.870040835760150344e-02,3.376795183225311803e-01
-8.537681851930267740e-01,-6.548659696401948338e-01,-1.358088315096894760e+00,-9.588578409109427270e-01,-4.292078086883144294e-01,-8.433297854644195013e-02,3.302972119273661633e-01
-8.617855950856623259e-01,-6.600671380716738312e-01,-1.352180091969668041e+00,-9.282021798322492856e-01,-4.078087805397423438e-01,-8.470451551052526895e-02,3.280082344326196164e-01
-8.486269470046825525e-01,-6.619846222355452170e-01,-1.329242298651078791e+00,-9.079488337998542491e-01,-3.811175301326130693e-01,-8.476442393705596601e-02,3.283437957975365862e-01
-8.351686477080844107e-01,-6.666344847901850557e-01,-1.320098322360774290e+00,-9.159543100037526031e-01,-3.573024776097000199e-01,-7.527290895987803765e-02,3.227351802526534641e-01
-8.510477404910510302e-01,-6.476394993304213088e-01,-1.328954668390669447e+00,-9.136174014044762259e-01,-3.299209145777304286e-01,-7.865247725304946869e-02,3.261866342943342545e-01
-8.820868940392023738e-01,-6.462852765487525630e-01,-1.349303876632124144e+00,-9.148757183438549490e-01,-2.901333068906275514e-01,-9.012136300410311662e-02,3.198709422370882294e-01
-8.871801793064015840e-01,-6.623681147050142215e-01,-1.346187983955315914e+00,-8.837047706207190600e-01,-2.500005079843603539e-01,-9.473529359276255946e-02,3.214169112535358863e-01
-8.544273087842835235e-01,-6.574066454294147377e-01,-1.323322076385236024e+00,-8.512155102652130267e-01,-2.315352386786706518e-01,-9.931327039889303876e-02,3.175100571771949376e-01
-8.447440257557392584e-01,-6.564359151172149964e-01,-1.308425691236458910e+00,-8.522941019250884764e-01,-1.915366555918396330e-01,-1.036755245097165101e-01,3.132436652754755357e-01
-8.809004628482886012e-01,-6.626317685048288553e-01,-1.336025368064897023e+00,-8.444684164505389390e-01,-1.487961602530951666e-01,-1.049219077603691375e-01,3.140825577794714718e-01
-8.973308178748584663e-01,-6.563759848740691183e-01,-1.347062830241885223e+00,-8.455709627543939177e-01,-1.152019232228518320e-01,-1.017820168064176301e-01,3.067002950174924081e-01
-8.814517250918973978e-01,-6.477353833560961505e-01,-1.332358169511249635e+00,-8.238555325926766315e-01,-8.034225267303796159e-02,-1.028965404322068622e-01,3.046389957233941459e-01
-8.557455559668081246e-01,-6.502520608681505720e-01,-1.313303275624999600e+00,-7.865366625863901007e-01,-4.444711318587479809e-02,-1.124240310085955485e-01,3.014152416989546168e-01
-8.597842478513084696e-01,-6.392625079790326126e-01,-1.311301906574002807e+00,-7.708612933601255435e-01,-1.307715865834779834e-02,-1.266852253933858918e-01,2.961901186235849082e-01
-8.966597169616175034e-01,-6.491495145642955933e-01,-1.333796298996636764e+00,-7.717721152458612011e-01,2.231941007533322363e-02,-1.259542160536586408e-01,3.010077727688909022e-01
-9.039580948364989155e-01,-6.655918687294759550e-01,-1.338026715299256431e+00,-7.492537245460617612e-01,4.778348458023273793e-02,-1.303524021304180991e-01,2.955789261368302334e-01
-8.666751786127746549e-01,-6.474717295562593122e-01,-1.312140799078020947e+00,-7.113356611916366035e-01,6.162768053723510775e-02,-1.410063936546190888e-01,2.958545572585791206e-01
-8.521143330123381876e-01,-6.279853684628022847e-01,-1.306232575950772024e+00,-7.107244468882889521e-01,8.494419721314372396e-02,-1.318144862597847577e-01,2.998692726825957777e-01
-8.810442779784821710e-01,-6.320120612086865819e-01,-1.322243506541953550e+00,-6.990997686851407877e-01,1.075704012639455698e-01,-1.397121011160074033e-01,2.948838487629501515e-01
-8.964679489102789223e-01,-6.294474525921245345e-01,-1.326234245505308884e+00,-6.781992763834399085e-01,1.282024270205184280e-01,-1.526670474569336022e-01,2.996655273093118410e-01
-8.847593640034179252e-01,-6.420069073249878855e-01,-1.312488337764938784e+00,-6.503479230771880282e-01,1.517874102415994741e-01,-1.579760554193843092e-01,2.968013111102507651e-01
-8.574952703565508205e-01,-6.463451849752388512e-01,-1.297783698850896172e+00,-6.096015754897710082e-01,1.700993000127937194e-01,-1.663769795981373534e-01,2.951594798847878565e-01
-8.487347865357153243e-01,-6.299867375137768732e-01,-1.304626698507860283e+00,-6.023630842247884587e-01,1.916900700328127982e-01,-1.649149172854080803e-01,3.004325340647540088e-01
-8.727991244353250355e-01,-6.194526064758454353e-01,-1.319594969405080143e+00,-6.318802452170979578e-01,2.290041622003080590e-01,-1.685221855959539994e-01,2.959983723887837925e-01
-8.725714026014352864e-01,-6.200278451800267376e-01,-1.316311328770747302e+00,-6.015841219638717874e-01,2.611985753589785020e-01,-1.819924403978490091e-01,2.958905110411969019e-01
-8.326519701960466424e-01,-6.120223689761283836e-01,-1.285403991214195685e+00,-5.593277373259875063e-01,2.800665270292768128e-01,-1.934253723663292845e-01,2.982394187790227136e-01
-8.166530169268437778e-01,-6.193806989107653038e-01,-1.281784745581693308e+00,-5.401170291709389559e-01,3.104585386714653339e-01,-1.974640860674448106e-01,2.930262948422246438e-01
-8.355401628555580995e-01,-6.350320916764129464e-01,-1.302673260561415525e+00,-5.373606743196202018e-01,3.494216528209470596e-01,-1.954027867733465484e-01,2.983352809881267831e-01
-8.421674398172040998e-01,-6.280572760279046207e-01,-1.310355152722331162e+00,-5.450185682034147661e-01,3.896886675463839822e-01,-2.078544019751493721e-01,2.983472801266984220e-01
-8.180791254570163318e-01,-6.138559682529631800e-01,-1.297879582876593219e+00,-5.468282128362478289e-01,4.287476002716950063e-01,-2.126241031993991726e-01,2.971728262577855162e-01
-7.749119843832252830e-01,-6.076002064387964197e-01,-1.276475737619198192e+00,-5.181139905654275069e-01,4.732139120792844267e-01,-2.206655331858264901e-01,3.045670881583362188e-01
-7.491818169809538741e-01,-6.026986455896832240e-01,-1.271813875926008919e+00,-4.990590748625178819e-01,5.208823445553178999e-01,-2.306843557627225039e-01,3.011635870376672131e-01
-7.677933536044845297e-01,-6.108359596018519966e-01,-1.288699652803737550e+00,-5.181379670260000125e-01,5.789243508681707340e-01,-2.305644952764307476e-01,3.061250344967625381e-01
-7.815152630676780454e-01,-6.300586232622418237e-01,-1.301007452875335701e+00,-4.972973831508076259e-01,6.418367333598240521e-01,-2.419734944175466751e-01,3.074552808177699603e-01
-7.417036701933277243e-01,-6.266910759242350082e-01,-1.283126991041427800e+00,-4.896514665890361329e-01,6.924005972483548987e-01,-2.499190185617283788e-01,3.073713959307333710e-01
-6.955644297563234879e-01,-5.984562519651071000e-01,-1.267391713388654750e+00,-4.795966902296111556e-01,7.478539661242677994e-01,-2.541374793589401548e-01,3.143222569353731899e-01
-6.716319078483246052e-01,-5.945253996116672823e-01,-1.272832537342760695e+00,-4.672409590535053781e-01,8.006421125155149809e-01,-2.658460642658511119e-01,3.121770727541495205e-01
-6.631231223219513637e-01,-6.008411134855506930e-01,-1.277134883027075674e+00,-4.519011511921577906e-01,8.551367371278928431e-01,-2.733841194799246921e-01,3.142024182657188192e-01
-6.721352389874063471e-01,-5.984202763659407509e-01,-1.288352114116841918e+00,-4.465322348031541821e-01,9.059882312768330337e-01,-2.803829334057095224e-01,3.170906109252413785e-01
-6.669700679717255332e-01,-6.062939147616130953e-01,-1.282899291024142130e+00,-4.260511669368582943e-01,9.521994185488047435e-01,-2.929903410596512714e-01,3.167190957777066274e-01
-6.278775071151404541e-01,-5.962631366794202137e-01,-1.261375628913730118e+00,-3.956831579351893780e-01,9.897627437331912859e-01,-2.966455186581118397e-01,3.257551889038090565e-01
-5.963829535324288722e-01,-5.766689142383096822e-01,-1.264179914869578703e+00,-3.758852119373656819e-01,1.024699173863385937e+00,-3.022181804204215894e-01,3.255754418075795797e-01
-5.841111290599804162e-01,-5.731335753094590757e-01,-1.274845905532329127e+00,-3.460684651792833577e-01,1.053365403943207212e+00,-3.113861113547056192e-01,3.312919187002272281e-01
-5.688552060857332560e-01,-5.636660367928758575e-01,-1.271334499430865073e+00,-3.088095035995053195e-01,1.079538989694661666e+00,-3.171744958122779678e-01,3.345156727245779393e-01
-5.678724984515187701e-01,-5.490452609492990632e-01,-1.270471652282889607e+00,-2.691177493947982668e-01,1.093574892616633321e+00,-3.252878115472146447e-01,3.352347047423265280e-01
-5.707726684330116651e-01,-5.489494205568767882e-01,-1.270100137135421470e+00,-2.318707869536140720e-01,1.110774693496274779e+00,-3.298538110314108707e-01,3.412148572513373779e-01
-5.492010752180975786e-01,-5.504713912960923494e-01,-1.251452690362575559e+00,-1.746341322798938833e-01,1.119038967121444017e+00,-3.325143036736477598e-01,3.372360956100273199e-01
-5.242738901705151777e-01,-5.383194054932705086e-01,-1.256462090742682669e+00,-1.322339325117605213e-01,1.120592135621034657e+00,-3.385783192530578134e-01,3.423653346596999825e-01
-5.115106900643456855e-01,-5.247053137444890325e-01,-1.265306437633983982e+00,-8.906676962139314924e-02,1.118828061534848928e+00,-3.378592654186718391e-01,3.400284042437640153e-01
-4.848218133050474776e-01,-4.962667444120771876e-01,-1.250338166736741918e+00,-4.672647827976827983e-02,1.114571273307252142e+00,-3.446303575104892047e-01,3.406515958691791468e-01
-4.722863132161581046e-01,-4.665698581402644152e-01,-1.241745452690090623e+00,-8.305083786286360237e-03,1.101724183950736347e+00,-3.502989032985404094e-01,3.391176041747101522e-01
-4.871946975034985305e-01,-4.660185740799960286e-01,-1.246239544609117900e+00,3.476623871170314573e-02,1.099193107472373754e+00,-3.570819508956990518e-01,3.379431721223014051e-01
-4.930909433087743432e-01,-4.702370130606592369e-01,-1.239863944125341177e+00,7.850866212288920565e-02,1.088704516437832837e+00,-3.589395266331063539e-01,3.420657270774007941e-01
-4.819575752894877940e-01,-4.634898974293921725e-01,-1.234387144572068884e+00,1.207650467607734868e-01,1.076624394566927378e+00,-3.645601194999237293e-01,3.374877502711370880e-01
-4.696018659299638909e-01,-4.627588444564345593e-01,-1.242284759428335938e+00,1.597976337410322856e-01,1.064333402016082175e+00,-3.588556199294323790e-01,3.435877414498023086e-01
-4.391379510859910740e-01,-4.539504731642551860e-01,-1.232949036903296935e+00,2.051100244458314847e-01,1.050048196263997369e+00,-3.686347651669752423e-01,3.384464814448762127e-01
-3.983915816819505462e-01,-4.290831747265855256e-01,-1.213942052304939345e+00,2.403316413754685854e-01,1.030259827760460212e+00,-3.549008347486282133e-01,3.413946261640710134e-01
-3.889719960864734816e-01,-4.059296587127114719e-01,-1.210418712514749195e+00,2.729886496885214342e-01,1.020595765170284608e+00,-3.638171110215804305e-01,3.367447199762452215e-01
-3.994102430987162000e-01,-3.951318956915805813e-01,-1.211005928540909160e+00,3.013193794898949562e-01,1.013884625138139484e+00,-3.647758203786377607e-01,3.335689188729062948e-01
-4.038803585571987265e-01,-3.832315427333643498e-01,-1.199788675634549939e+00,3.319869960739740833e-01,1.003050842884700700e+00,-3.641766270304991338e-01,3.316155027431655355e-01
-4.121015356397861318e-01,-3.786895197098072430e-01,-1.206571766864983353e+00,3.573815584780870580e-01,9.947482069225799250e-01,-3.647039346301728102e-01,3.231785811485643478e-01
-4.151934736726203834e-01,-3.842861579326672938e-01,-1.211796889940397470e+00,3.911770886941612346e-01,9.898969595525386467e-01,-3.671487263936956680e-01,3.209135801144569200e-01
-3.885885036170155793e-01,-3.809185887780675017e-01,-1.195222697966991099e+00,4.229113196161149446e-01,9.788715052407859218e-01,-3.653390817608404006e-01,3.114220651371901738e-01
-3.591672048337629652e-01,-3.722659663048411005e-01,-1.184892290485795030e+00,4.394854897729061349e-01,9.728697717355849761e-01,-3.650994262382134536e-01,3.074792572784090794e-01
-3.492922192037256623e-01,-3.689823038539152833e-01,-1.187672643614279266e+00,4.584924743712415207e-01,9.717576479374656628e-01,-3.718704965134378426e-01,3.048547184187455628e-01
-3.359298257494147677e-01,-3.589515039550850162e-01,-1.176155804942147221e+00,4.695059819042946003e-01,9.754775728878506413e-01,-3.655068733515953738e-01,2.946681260676875524e-01
-3.163355814916724018e-01,-3.348991651940469438e-01,-1.161391235785003140e+00,4.662222976367313976e-01,9.714124916250455044e-01,-3.783899121274192368e-01,2.940808882248902023e-01
-3.091330876424658314e-01,-3.219921499576727797e-01,-1.162733459428100247e+00,4.727896661718578031e-01,9.799836290388164173e-01,-3.645481421779894760e-01,2.850208186383262898e-01
-3.027095342375343834e-01,-3.235141643301631120e-01,-1.164111658670363703e+00,4.740839368938098985e-01,9.823229636458208347e-01,-3.733685126086960793e-01,2.757929574610074042e-01
-2.818450175350248332e-01,-3.131477812497784896e-01,-1.146974205314754691e+00,4.684154347390334650e-01,9.884013520116141649e-01,-3.795883424569268527e-01,2.722216865661764018e-01
-2.710711655246222929e-01,-3.162397410992223712e-01,-1.147693259149162870e+00,4.614285981352939103e-01,1.000002066844096760e+00,-3.738718655643680222e-01,2.559351030366308066e-01
-2.669486105696589062e-01,-3.324543734305240861e-01,-1.154488327701552741e+00,4.604578896396649412e-01,1.011430238427113437e+00,-3.811343114733745097e-01,2.460840720504897661e-01
-2.474143183716526195e-01,-3.293744345362448200e-01,-1.133252274034957097e+00,4.432365513969971360e-01,1.024430707318124689e+00,-3.834592427506500201e-01,2.409668103227957658e-01
-2.286829867117257109e-01,-3.198589649151095671e-01,-1.123736804413799639e+00,4.225877355731766372e-01,1.029722964483159586e+00,-3.922556585373992988e-01,2.215284021504615453e-01
-2.167227253270190279e-01,-3.202304800625999093e-01,-1.124228158230922148e+00,4.032691878870897639e-01,1.042454966828998408e+00,-3.949041738577019345e-01,2.057811253590280387e-01
-1.885238333338493111e-01,-3.182770421161329466e-01,-1.108420951196431581e+00,3.982118127692002574e-01,1.054209131009198330e+00,-4.059416578512831109e-01,1.911124184109880275e-01
-1.466749394425870268e-01,-3.116257886939255428e-01,-1.076327204265559168e+00,3.753938581202431735e-01,1.061361315742725964e+00,-4.143186273860788305e-01,1.805183789465480970e-01
-1.280754019576502145e-01,-3.066883176955581547e-01,-1.067111342226811921e+00,3.489686569773775560e-01,1.076183384772022578e+00,-4.065528503380377856e-01,1.526550701349549399e-01
-1.204893938223719485e-01,-3.117576265021515525e-01,-1.056553234728319079e+00,3.370083737760820597e-01,1.090200158885412662e+00,-4.249965517375553503e-01,1.318144862597847577e-01
