Afshin1997/kuka_rl_ros2/src/catch_and_throw/output_files/tm/nn_ema7.00_jvws1_realball_D24H09M51S06/recorded_data.csv
pure_target_joint_0,pure_target_joint_1,pure_target_joint_2,pure_target_joint_3,pure_target_joint_4,pure_target_joint_5,pure_target_joint_6,target_joint_0,target_joint_1,target_joint_2,target_joint_3,target_joint_4,target_joint_5,target_joint_6,pos_joint_0,pos_joint_1,pos_joint_2,pos_joint_3,pos_joint_4,pos_joint_5,pos_joint_6,vel_joint_0,vel_joint_1,vel_joint_2,vel_joint_3,vel_joint_4,vel_joint_5,vel_joint_6,vel_smooth_joint_0,vel_smooth_joint_1,vel_smooth_joint_2,vel_smooth_joint_3,vel_smooth_joint_4,vel_smooth_joint_5,vel_smooth_joint_6,ee_pos_x,ee_pos_y,ee_pos_z,ee_or_w,ee_or_x,ee_or_y,ee_or_z,ee_vel_x,ee_vel_y,ee_vel_z,ball_pos_x,ball_pos_y,ball_pos_z,ball_raw_vx,ball_raw_vy,ball_raw_vz,ball_ema_vx,ball_ema_vy,ball_ema_vz,action_0,action_1,action_2,action_3,action_4,action_5,action_6,command_published
1.71215,-1.01749,-1.76802,-1.16764,2.01111,1.17897,-0.939041,1.76321,-1.05289,-1.80334,-1.12973,1.95569,1.13237,-0.921947,1.78023,-1.06469,-1.81512,-1.11709,1.93722,1.11684,-0.916249,0,0,0,0,0,0,0,0,0,0,0,0,0,0,0.531066,-0.454423,0.694252,0.574496,0.175215,0.152611,0.784834,0,0,0,2.98711,-0.458447,0.311111,-2.96659,0.2424,5.59773,-3.25398,0.105752,5.12504,-0.680756,0.472035,0.470994,-0.505496,0.738946,0.621295,-0.22792,1
1.71179,-1.0159,-1.76746,-1.16594,2.01192,1.17696,-0.937563,1.72908,-1.02889,-1.77965,-1.15458,1.99284,1.16293,-0.932974,1.78023,-1.06469,-1.81512,-1.11709,1.93722,1.11684,-0.916249,0,0,0,0,0,0,0,0,0,0,0,0,0,0,0.531066,-0.454423,0.694252,0.574496,0.175215,0.152611,0.784834,0,0,0,2.95633,-0.456051,0.366235,-3.07786,0.239646,5.5124,-3.17518,0.162179,5.25735,-0.68438,0.487969,0.476617,-0.488446,0.747059,0.601222,-0.21314,1
1.71154,-1.01446,-1.76709,-1.16528,2.01223,1.1748,-0.937315,1.71182,-1.01594,-1.7675,-1.1662,2.0118,1.17692,-0.937871,1.78023,-1.06469,-1.81512,-1.11709,1.93722,1.11684,-0.916249,9.24443e-07,-1.0734e-06,-4.17006e-07,-9.88176e-07,-5.23159e-07,-8.9103e-07,5.10404e-07,9.24443e-07,-1.0734e-06,-4.17006e-07,-9.88176e-07,-5.23159e-07,-8.9103e-07,5.10404e-07,0.531066,-0.454423,0.694252,0.574496,0.175215,0.152611,0.784834,7.81011e-07,4.29784e-07,-1.03496e-06,2.92588,-0.453838,0.41997,-3.04499,0.22122,5.37349,-3.10626,0.202011,5.31149,-0.686939,0.502334,0.480265,-0.481847,0.750122,0.579637,-0.21066,1
1.70827,-1.00381,-1.76415,-1.16911,2.01622,1.1761,-0.942079,1.71078,-1.01216,-1.76645,-1.1664,2.01315,1.17567,-0.938568,1.77647,-1.06208,-1.81251,-1.11989,1.9413,1.12027,-0.91751,-0.352967,0.244746,0.244208,-0.262097,0.383138,0.322137,-0.118175,-0.352967,0.244746,0.244208,-0.262097,0.383138,0.322137,-0.118175,0.528768,-0.454364,0.696323,0.575084,0.17315,0.150651,0.78524,-0.1942,0.00931479,0.182895,2.89476,-0.451322,0.472747,-3.1122,0.251642,5.27765,-3.06259,0.226304,5.29745,-0.681916,0.582767,0.483581,-0.492227,0.749198,0.558303,-0.245697,1
1.69711,-0.98762,-1.76025,-1.17142,2.02613,1.18619,-0.946686,1.7063,-1.00242,-1.76391,-1.16873,2.0177,1.1783,-0.94204,1.76598,-1.05474,-1.80524,-1.12756,1.9527,1.12971,-0.92093,-0.982706,0.688363,0.681518,-0.719474,1.06887,0.884746,-0.32072,-0.982706,0.688363,0.681518,-0.719474,1.06887,0.884746,-0.32072,0.522368,-0.454156,0.702092,0.576704,0.167428,0.145229,0.786313,-0.54033,0.0328182,0.508055,2.86458,-0.448781,0.524629,-3.01824,0.254124,5.18817,-3.04545,0.237235,5.2315,-0.688738,0.671211,0.449955,-0.438602,0.734284,0.564836,-0.257557,1
1.68309,-0.976224,-1.75827,-1.17676,2.03865,1.19439,-0.947922,1.69639,-0.988818,-1.76073,-1.17218,2.02678,1.18572,-0.945843,1.754,-1.04616,-1.7969,-1.13611,1.96578,1.14015,-0.924677,-1.12339,0.804817,0.782697,-0.801321,1.22558,0.979171,-0.35134,-1.12339,0.804817,0.782697,-0.801321,1.22558,0.979171,-0.35134,0.515061,-0.453829,0.708727,0.578534,0.16096,0.139128,0.787422,-0.61698,0.0464782,0.585446,2.83412,-0.446152,0.575708,-3.04639,0.262889,5.10799,-3.05224,0.243639,5.14024,-0.709173,0.699337,0.386223,-0.406508,0.728736,0.542398,-0.232447,1
1.67231,-0.967257,-1.75425,-1.18371,2.0495,1.19916,-0.951392,1.6839,-0.976831,-1.75776,-1.17716,2.03823,1.19353,-0.948481,1.74444,-1.03864,-1.79016,-1.14281,1.97625,1.14801,-0.92775,-0.896339,0.705189,0.631487,-0.628263,0.982574,0.736543,-0.288091,-0.896339,0.705189,0.631487,-0.628263,0.982574,0.736543,-0.288091,0.509244,-0.453289,0.714321,0.580069,0.155755,0.13455,0.788135,-0.491728,0.0608236,0.497182,2.8041,-0.444096,0.626113,-3.00157,0.205547,5.04043,-3.05278,0.242526,5.04503,-0.721282,0.713794,0.359127,-0.409053,0.732405,0.511507,-0.236422,1
1.66343,-0.957575,-1.75174,-1.18892,2.05854,1.20263,-0.955149,1.67279,-0.967078,-1.75463,-1.18328,2.04904,1.19884,-0.951464,1.73601,-1.03063,-1.78435,-1.14854,1.98542,1.15471,-0.930911,-0.791107,0.751051,0.544395,-0.537602,0.859609,0.628245,-0.296368,-0.791107,0.751051,0.544395,-0.537602,0.859609,0.628245,-0.296368,0.504058,-0.452316,0.719893,0.581777,0.150772,0.13113,0.788421,-0.438816,0.0952989,0.499152,2.77385,-0.442145,0.675515,-3.02505,0.195163,4.94022,-3.04167,0.237042,4.95387,-0.725785,0.730511,0.326176,-0.403775,0.731132,0.479248,-0.242383,1
1.65448,-0.946957,-1.74957,-1.19182,2.06727,1.20706,-0.959682,1.66341,-0.957341,-1.75182,-1.18834,2.05846,1.20287,-0.955343,1.72724,-1.02138,-1.77913,-1.15377,1.99457,1.16157,-0.934214,-0.82147,0.867054,0.48992,-0.490174,0.857779,0.643142,-0.309679,-0.82147,0.867054,0.48992,-0.490174,0.857779,0.643142,-0.309679,0.49861,-0.451233,0.725962,0.58402,0.145403,0.128222,0.78825,-0.462986,0.102221,0.546001,2.74354,-0.440074,0.723837,-3.03068,0.207046,4.83221,-3.03332,0.229754,4.8665,-0.727666,0.744214,0.295584,-0.380488,0.726942,0.454922,-0.254677,1
1.64435,-0.93619,-1.74811,-1.19374,2.07674,1.2119,-0.963383,1.65418,-0.946919,-1.74975,-1.19157,2.06745,1.20716,-0.959474,1.71766,-1.01152,-1.7744,-1.15894,2.00423,1.16864,-0.93737,-0.898913,0.923845,0.443148,-0.485133,0.905439,0.662928,-0.295873,-0.898913,0.923845,0.443148,-0.485133,0.905439,0.662928,-0.295873,0.492766,-0.450406,0.732115,0.586606,0.140042,0.125361,0.78776,-0.499966,0.079037,0.554322,2.71274,-0.437722,0.770855,-3.07994,0.235191,4.70175,-3.02999,0.22221,4.77338,-0.733026,0.753346,0.262891,-0.347969,0.725103,0.432572,-0.260137,1
1.63504,-0.926633,-1.74866,-1.19416,2.08543,1.21625,-0.965719,1.64455,-0.936492,-1.74861,-1.19337,2.07654,1.21178,-0.963042,1.70888,-1.0027,-1.77035,-1.16369,2.01302,1.17477,-0.940178,-0.961243,0.94869,0.418779,-0.521487,0.959252,0.640882,-0.300535,-0.961243,0.94869,0.418779,-0.521487,0.959252,0.640882,-0.300535,0.487545,-0.449693,0.73744,0.588926,0.135478,0.12286,0.787221,-0.517906,0.0677501,0.542461,2.68191,-0.435212,0.816701,-3.08304,0.251073,4.58464,-3.04036,0.219958,4.67226,-0.738475,0.760708,0.216974,-0.304715,0.724099,0.414843,-0.255413,1
1.62501,-0.915791,-1.74985,-1.19631,2.09525,1.22076,-0.969002,1.63486,-0.926312,-1.74882,-1.19459,2.08571,1.21629,-0.965956,1.69882,-0.99267,-1.76625,-1.16915,2.02307,1.18099,-0.943533,-0.943025,0.94078,0.384288,-0.511213,0.942315,0.582815,-0.314506,-0.943025,0.94078,0.384288,-0.511213,0.942315,0.582815,-0.314506,0.481779,-0.448955,0.743175,0.591672,0.130849,0.120298,0.786341,-0.498065,0.072295,0.518448,2.65111,-0.432953,0.861311,-3.08032,0.225881,4.461,-3.05178,0.220675,4.56187,-0.738114,0.768788,0.164041,-0.271623,0.72179,0.397788,-0.254698,1
1.61538,-0.904849,-1.75122,-1.19808,2.10472,1.224,-0.973089,1.62511,-0.915766,-1.74989,-1.19621,2.09516,1.22045,-0.969203,1.68895,-0.98255,-1.7626,-1.17411,2.03289,1.18678,-0.947059,-0.925803,0.948806,0.342321,-0.465158,0.920392,0.542891,-0.330606,-0.925803,0.948806,0.342321,-0.465158,0.920392,0.542891,-0.330606,0.476156,-0.448237,0.748804,0.594647,0.126409,0.11804,0.785164,-0.487173,0.0695263,0.510148,2.62065,-0.430897,0.904839,-3.04651,0.205627,4.35279,-3.06241,0.224449,4.44512,-0.735735,0.777007,0.113825,-0.239731,0.718358,0.372202,-0.260306,1
1.60663,-0.895048,-1.75216,-1.20074,2.11313,1.22464,-0.976207,1.6156,-0.905134,-1.75111,-1.1983,2.10446,1.22335,-0.972847,1.68013,-0.973443,-1.75963,-1.17818,2.0416,1.19183,-0.950224,-0.947293,0.983969,0.293264,-0.404374,0.930467,0.53123,-0.341323,-0.947293,0.983969,0.293264,-0.404374,0.930467,0.53123,-0.341323,0.471144,-0.447657,0.753779,0.597466,0.122511,0.116143,0.783923,-0.50196,0.0493413,0.519618,2.59035,-0.428885,0.947278,-3.02925,0.201166,4.24389,-3.06401,0.224659,4.32767,-0.734987,0.783956,0.0746687,-0.225631,0.715244,0.328137,-0.259823,1
1.59701,-0.884063,-1.75023,-1.20567,2.12254,1.22581,-0.98012,1.60641,-0.894752,-1.75144,-1.20131,2.11338,1.22477,-0.976406,1.67011,-0.963018,-1.75724,-1.18181,2.05136,1.19724,-0.953704,-0.938821,0.977446,0.224134,-0.340388,0.914799,0.507359,-0.326259,-0.938821,0.977446,0.224134,-0.340388,0.914799,0.507359,-0.326259,0.465435,-0.447407,0.759291,0.601131,0.11833,0.114241,0.782041,-0.498697,0.0255854,0.501584,2.56009,-0.426791,0.988772,-3.02653,0.209406,4.14948,-3.05863,0.220858,4.21354,-0.73105,0.789551,0.0700462,-0.238535,0.711842,0.2857,-0.264159,1
1.58714,-0.873193,-1.74793,-1.20893,2.13212,1.22478,-0.984242,1.59695,-0.884092,-1.75014,-1.20525,2.12258,1.22526,-0.980172,1.66016,-0.952566,-1.75561,-1.185,2.06105,1.20237,-0.957133,-0.933352,0.979941,0.152251,-0.298703,0.908456,0.48125,-0.321434,-0.933352,0.979941,0.152251,-0.298703,0.908456,0.48125,-0.321434,0.459814,-0.447336,0.764582,0.605018,0.114434,0.112572,0.779863,-0.493442,0.00877722,0.482409,2.52958,-0.424252,1.02997,-3.05059,0.253937,4.11934,-3.04963,0.219008,4.1123,-0.730186,0.793723,0.0768374,-0.239308,0.710743,0.224054,-0.271091,1
1.57707,-0.862397,-1.74891,-1.21139,2.14169,1.21998,-0.989087,1.58709,-0.873212,-1.74875,-1.20873,2.13212,1.22384,-0.984423,1.6503,-0.942074,-1.75462,-1.18794,2.07065,1.20701,-0.960609,-0.924134,0.98367,0.0933021,-0.275931,0.900218,0.435044,-0.325896,-0.924134,0.98367,0.0933021,-0.275931,0.900218,0.435044,-0.325896,0.454359,-0.447338,0.76965,0.609056,0.110905,0.111183,0.777425,-0.481647,0.00173879,0.463229,2.49877,-0.42184,1.0696,-3.08106,0.241187,3.96377,-3.04658,0.220087,4.01411,-0.732278,0.796768,0.0570627,-0.234466,0.710375,0.129692,-0.284785,1
1.56769,-0.851508,-1.74984,-1.21332,2.15065,1.21478,-0.993932,1.57725,-0.862374,-1.7489,-1.21126,2.14154,1.21988,-0.989087,1.64059,-0.931606,-1.75391,-1.1909,2.0801,1.21094,-0.964103,-0.910255,0.981403,0.0658255,-0.277228,0.886159,0.368314,-0.327612,-0.910255,0.981403,0.0658255,-0.277228,0.886159,0.368314,-0.327612,0.449156,-0.44727,0.774504,0.613064,0.107805,0.110071,0.774865,-0.46206,0.00816541,0.444809,2.46923,-0.420057,1.10767,-2.95401,0.178236,3.8071,-3.03628,0.219408,3.91182,-0.729022,0.800982,0.0407094,-0.224256,0.70548,0.0384086,-0.298293,1
1.55841,-0.840413,-1.75045,-1.21381,2.1589,1.20603,-0.998255,1.56772,-0.851457,-1.74976,-1.21296,2.15047,1.21389,-0.993802,1.63094,-0.921096,-1.75308,-1.19407,2.0895,1.21411,-0.967657,-0.905175,0.985396,0.0783337,-0.297666,0.881019,0.29695,-0.333255,-0.905175,0.985396,0.0783337,-0.297666,0.881019,0.29695,-0.333255,0.444174,-0.447005,0.779267,0.616943,0.105063,0.109152,0.772288,-0.444283,0.0267872,0.437253,2.43913,-0.417569,1.14525,-3.01013,0.248808,3.75774,-3.02896,0.223531,3.81023,-0.725269,0.806834,0.0263405,-0.197361,0.693987,-0.0808041,-0.30598,1
1.5489,-0.829372,-1.75555,-1.21307,2.16684,1.19612,-1.00329,1.55835,-0.840427,-1.75157,-1.2135,2.15882,1.20574,-0.998432,1.62124,-0.910504,-1.75212,-1.19731,2.09893,1.21626,-0.971366,-0.909347,0.993063,0.0897907,-0.303923,0.883888,0.201756,-0.34769,-0.909347,0.993063,0.0897907,-0.303923,0.883888,0.201756,-0.34769,0.439374,-0.44665,0.783983,0.620817,0.102772,0.108412,0.769592,-0.430766,0.0361315,0.434133,2.40895,-0.415393,1.18197,-3.01809,0.217631,3.67165,-3.02314,0.225406,3.70979,-0.7234,0.811318,-0.0343344,-0.157556,0.679089,-0.201405,-0.319208,1
1.54013,-0.818361,-1.76364,-1.21029,2.17442,1.19096,-1.00766,1.54909,-0.82938,-1.7563,-1.21256,2.16675,1.19731,-1.00312,1.61151,-0.899858,-1.75141,-1.2004,2.10835,1.21706,-0.975286,-0.912393,0.998159,0.0668462,-0.289149,0.883691,0.0750861,-0.367513,-0.912393,0.998159,0.0668462,-0.289149,0.883691,0.0750861,-0.367513,0.434795,-0.446393,0.788569,0.624848,0.101159,0.107953,0.766602,-0.415741,0.0287965,0.423709,2.37856,-0.413243,1.21746,-3.03905,0.215012,3.54921,-3.01962,0.223686,3.60613,-0.713742,0.814968,-0.122278,-0.098916,0.660721,-0.261037,-0.323769,1
1.53228,-0.807476,-1.76865,-1.19783,2.18266,1.18992,-1.01081,1.54036,-0.818393,-1.76287,-1.20787,2.17459,1.19199,-1.00736,1.60182,-0.889151,-1.75104,-1.20318,2.11767,1.21636,-0.979382,-0.908213,1.00383,0.0341748,-0.26054,0.873546,-0.0656973,-0.384015,-0.908213,1.00383,0.0341748,-0.26054,0.873546,-0.0656973,-0.384015,0.430471,-0.446266,0.79303,0.629069,0.100269,0.10784,0.763275,-0.398157,0.0182755,0.414116,2.34825,-0.410567,1.25175,-3.03106,0.267541,3.42854,-3.01682,0.224681,3.49767,-0.695416,0.816754,-0.17603,0.053508,0.649932,-0.2644,-0.314274,1
1.52418,-0.796762,-1.77393,-1.18801,2.19101,1.19141,-1.01319,1.53222,-0.807519,-1.76871,-1.19849,2.18269,1.19055,-1.01062,1.59221,-0.878374,-1.75116,-1.20546,2.12677,1.21401,-0.983596,-0.901514,1.01054,-0.0109548,-0.214148,0.853468,-0.220278,-0.395111,-0.901514,1.01054,-0.0109548,-0.214148,0.853468,-0.220278,-0.395111,0.426402,-0.446343,0.797383,0.633542,0.100149,0.108134,0.759541,-0.381264,0.000959042,0.406094,2.31823,-0.407918,1.285,-3.00195,0.264943,3.3253,-3.01488,0.232397,3.39477,-0.68025,0.816117,-0.227689,0.174515,0.642359,-0.226025,-0.295967,1
1.51442,-0.78611,-1.7789,-1.18737,2.20019,1.18502,-1.01447,1.52377,-0.796777,-1.77385,-1.1903,2.19122,1.18944,-1.01292,1.58267,-0.867536,-1.7523,-1.20703,2.13561,1.21032,-0.987915,-0.894302,1.01612,-0.106541,-0.147223,0.829104,-0.346455,-0.40499,-0.894302,1.01612,-0.106541,-0.147223,0.829104,-0.346455,-0.40499,0.422522,-0.446812,0.801532,0.638443,0.100761,0.108875,0.755238,-0.370858,-0.0340821,0.38953,2.28834,-0.405554,1.31745,-2.98867,0.236443,3.24478,-3.01847,0.241569,3.29496,-0.682524,0.814259,-0.266062,0.196595,0.645705,-0.252945,-0.265548,1
1.50542,-0.775378,-1.78194,-1.18748,2.20988,1.17536,-1.01696,1.51461,-0.78609,-1.77842,-1.18756,2.20031,1.1842,-1.01477,1.57331,-0.856666,-1.75464,-1.20722,2.14424,1.20626,-0.992215,-0.877423,1.01922,-0.219251,-0.0173742,0.80827,-0.380102,-0.403186,-0.877423,1.01922,-0.219251,-0.0173742,0.80827,-0.380102,-0.403186,0.41856,-0.44782,0.805666,0.643945,0.101528,0.109798,0.750314,-0.381276,-0.0837196,0.389315,2.25845,-0.403721,1.34933,-2.98903,0.183299,3.18856,-3.01279,0.237677,3.19548,-0.678894,0.812881,-0.273053,0.197383,0.656401,-0.308979,-0.247409,1
1.49809,-0.765777,-1.78318,-1.18379,2.21803,1.17321,-1.02028,1.50584,-0.775661,-1.78149,-1.18653,2.20949,1.17724,-1.01716,1.56507,-0.846922,-1.75714,-1.20626,2.1519,1.20294,-0.995948,-0.87471,1.04932,-0.308147,0.206935,0.819904,-0.329794,-0.390686,-0.87471,1.04932,-0.308147,0.206935,0.819904,-0.329794,-0.390686,0.414792,-0.448987,0.809569,0.649202,0.101893,0.11049,0.745619,-0.431885,-0.145181,0.441301,2.22854,-0.401875,1.38042,-2.99129,0.184602,3.10916,-3.00483,0.230762,3.10289,-0.669773,0.811445,-0.260404,0.224686,0.66128,-0.297285,-0.243278,1
1.48934,-0.754808,-1.78547,-1.17892,2.22695,1.17303,-1.02599,1.49774,-0.765435,-1.78345,-1.18349,2.21822,1.1737,-1.02087,1.55593,-0.83583,-1.76084,-1.20273,2.1606,1.19995,-0.999701,-0.85656,1.03998,-0.346535,0.330889,0.815375,-0.279906,-0.351919,-0.85656,1.03998,-0.346535,0.330889,0.815375,-0.279906,-0.351919,0.409942,-0.450941,0.81451,0.655825,0.101537,0.110895,0.739788,-0.456836,-0.171375,0.463796,2.19823,-0.399546,1.41022,-3.0303,0.232869,2.97937,-3.00059,0.223835,3.01415,-0.665884,0.810223,-0.246324,0.238098,0.663552,-0.269185,-0.262876,1
1.48073,-0.743815,-1.78707,-1.17482,2.23609,1.16972,-1.02996,1.48938,-0.754802,-1.7853,-1.17911,2.22701,1.17225,-1.02555,1.54679,-0.824828,-1.76473,-1.19937,2.16938,1.19647,-1.00303,-0.856988,1.0316,-0.364598,0.314655,0.823696,-0.326582,-0.312569,-0.856988,1.0316,-0.364598,0.314655,0.823696,-0.326582,-0.312569,0.405184,-0.452885,0.819289,0.66221,0.101553,0.111319,0.734012,-0.450325,-0.169117,0.449293,2.1677,-0.397219,1.43877,-3.05357,0.232673,2.85541,-3.00512,0.215958,2.92319,-0.660559,0.810125,-0.223414,0.245533,0.667104,-0.267469,-0.269229,1
1.47273,-0.73389,-1.78801,-1.17095,2.24445,1.16275,-1.03104,1.48088,-0.744082,-1.7869,-1.17488,2.2359,1.16881,-1.02924,1.53864,-0.815033,-1.76812,-1.19664,2.1773,1.19294,-1.00591,-0.873578,1.04851,-0.356168,0.26922,0.857188,-0.418018,-0.299651,-0.873578,1.04851,-0.356168,0.26922,0.857188,-0.418018,-0.299651,0.401042,-0.454494,0.823479,0.667715,0.101808,0.111713,0.728912,-0.440589,-0.154377,0.443854,2.13724,-0.394743,1.46609,-3.0462,0.247622,2.7323,-3.01597,0.215603,2.82437,-0.659154,0.811432,-0.198908,0.256896,0.671458,-0.301821,-0.251323,1
1.46423,-0.723871,-1.79132,-1.16636,2.2523,1.15671,-1.03324,1.4726,-0.733867,-1.7886,-1.17077,2.24432,1.16298,-1.03132,1.53043,-0.805123,-1.77131,-1.19405,2.18545,1.18905,-1.00884,-0.870749,1.05689,-0.323282,0.280997,0.872754,-0.408664,-0.320547,-0.870749,1.05689,-0.323282,0.280997,0.872754,-0.408664,-0.320547,0.396925,-0.455953,0.827732,0.673119,0.102177,0.112059,0.723819,-0.444778,-0.135452,0.461412,2.10688,-0.392319,1.49239,-3.03547,0.242364,2.6299,-3.02729,0.222548,2.71684,-0.662067,0.812518,-0.200098,0.276882,0.668522,-0.323432,-0.244019,1
1.45511,-0.712677,-1.79554,-1.16084,2.26129,1.15338,-1.03706,1.46407,-0.723577,-1.79155,-1.16613,2.25259,1.15739,-1.03365,1.52135,-0.793992,-1.7744,-1.19074,2.19464,1.18533,-1.01253,-0.851492,1.04364,-0.290225,0.309725,0.861905,-0.348441,-0.346676,-0.851492,1.04364,-0.290225,0.309725,0.861905,-0.348441,-0.346676,0.392138,-0.457341,0.832805,0.679259,0.101965,0.112188,0.71807,-0.449395,-0.116178,0.475544,2.07679,-0.390108,1.51764,-3.00958,0.221103,2.52447,-3.03322,0.231252,2.60263,-0.662416,0.813152,-0.211397,0.298998,0.666504,-0.319522,-0.24529,1
1.44722,-0.702699,-1.79777,-1.15627,2.27009,1.15025,-1.03802,1.45542,-0.712981,-1.79504,-1.16108,2.26124,1.15343,-1.03635,1.51328,-0.784063,-1.777,-1.18767,2.20285,1.18203,-1.01585,-0.862732,1.06472,-0.263762,0.340739,0.880176,-0.352236,-0.356582,-0.862732,1.06472,-0.263762,0.340739,0.880176,-0.352236,-0.356582,0.387834,-0.458448,0.837418,0.684684,0.101651,0.112233,0.712937,-0.46217,-0.102685,0.501959,2.04681,-0.387919,1.54208,-2.99752,0.218958,2.44427,-3.03176,0.234439,2.49084,-0.660638,0.813644,-0.207737,0.314051,0.672415,-0.317878,-0.221713,1
1.43891,-0.691544,-1.79701,-1.15347,2.27992,1.14407,-1.03948,1.44711,-0.702405,-1.79703,-1.15671,2.27035,1.14949,-1.03814,1.50428,-0.77296,-1.77957,-1.18393,2.21202,1.17782,-1.01927,-0.843644,1.04107,-0.240585,0.350571,0.860234,-0.395094,-0.320933,-0.843644,1.04107,-0.240585,0.350571,0.860234,-0.395094,-0.320933,0.383013,-0.459573,0.84275,0.690595,0.101341,0.1122,0.707263,-0.450722,-0.0911666,0.499213,2.01655,-0.385943,1.56571,-3.02598,0.197589,2.36249,-3.02599,0.228732,2.38795,-0.653721,0.814156,-0.174452,0.30468,0.67896,-0.337463,-0.202073,1
1.43078,-0.680618,-1.7966,-1.14922,2.28901,1.13767,-1.04289,1.43895,-0.691601,-1.7971,-1.1531,2.27973,1.14402,-1.03997,1.49539,-0.762036,-1.78222,-1.17999,2.22099,1.1733,-1.02245,-0.833924,1.02414,-0.248423,0.369284,0.84128,-0.423765,-0.298152,-0.833924,1.02414,-0.248423,0.369284,0.84128,-0.423765,-0.298152,0.378234,-0.460693,0.848025,0.696399,0.101147,0.112185,0.701579,-0.44749,-0.0903473,0.494147,1.98596,-0.384009,1.58802,-3.05947,0.193369,2.23157,-3.02382,0.220111,2.28807,-0.646127,0.814181,-0.143795,0.307789,0.680174,-0.356331,-0.204417,1
1.42231,-0.66981,-1.79815,-1.14377,2.29784,1.13315,-1.0473,1.43069,-0.680648,-1.79709,-1.14892,2.28894,1.13814,-1.04314,1.48655,-0.751185,-1.78505,-1.17581,2.2299,1.1689,-1.02552,-0.828981,1.01735,-0.266011,0.392313,0.83473,-0.412122,-0.288188,-0.828981,1.01735,-0.266011,0.392313,0.83473,-0.412122,-0.288188,0.373395,-0.461795,0.853299,0.702199,0.100856,0.112131,0.695824,-0.45242,-0.088766,0.493935,1.95579,-0.381953,1.60898,-3.01661,0.205582,2.09548,-3.02295,0.211267,2.18561,-0.642315,0.813758,-0.130945,0.320415,0.679399,-0.357518,-0.217751,1
1.41407,-0.659005,-1.79928,-1.13864,2.30698,1.12934,-1.05062,1.42237,-0.669811,-1.79804,-1.14385,2.29792,1.13333,-1.04703,1.47782,-0.740395,-1.7877,-1.17159,2.23884,1.16461,-1.02832,-0.817786,1.01165,-0.24828,0.3961,0.838859,-0.402703,-0.261735,-0.817786,1.01165,-0.24828,0.3961,0.838859,-0.402703,-0.261735,0.368573,-0.462705,0.85862,0.707766,0.100444,0.111956,0.69025,-0.449184,-0.0712674,0.497762,1.92628,-0.379946,1.62923,-2.95089,0.200689,2.02578,-3.0166,0.20478,2.08264,-0.637563,0.813901,-0.115808,0.329445,0.681383,-0.352699,-0.223068,1
1.40701,-0.649255,-1.79951,-1.13496,2.31564,1.1245,-1.05079,1.41436,-0.659269,-1.79906,-1.139,2.30686,1.12908,-1.04983,1.47007,-0.730722,-1.78977,-1.16787,2.24691,1.16062,-1.0307,-0.828655,1.04175,-0.195078,0.393254,0.8739,-0.442206,-0.246651,-0.828655,1.04175,-0.195078,0.393254,0.8739,-0.442206,-0.246651,0.364315,-0.463303,0.863443,0.712551,0.10005,0.111736,0.685403,-0.448333,-0.0402422,0.522924,1.89673,-0.37766,1.64863,-2.95511,0.228602,1.93931,-3.0071,0.204563,1.98052,-0.63066,0.814673,-0.0973917,0.329112,0.68727,-0.361255,-0.200901,1
1.39958,-0.639262,-1.80082,-1.13262,2.3243,1.11909,-1.05007,1.40691,-0.649194,-1.79978,-1.1353,2.31564,1.12436,-1.05057,1.46222,-0.720782,-1.79139,-1.16411,2.25526,1.15626,-1.03313,-0.839454,1.06873,-0.15168,0.404661,0.897055,-0.482453,-0.266674,-0.839454,1.06873,-0.15168,0.404661,0.897055,-0.482453,-0.266674,0.360046,-0.463635,0.868503,0.717236,0.0996142,0.111433,0.680612,-0.449843,-0.0144398,0.547786,1.8667,-0.375511,1.6672,-3.00322,0.214887,1.85769,-2.99877,0.206604,1.88009,-0.626404,0.815197,-0.0942915,0.31489,0.69048,-0.371649,-0.169458,1
1.39166,-0.627936,-1.80051,-1.12847,2.33402,1.11289,-1.05146,1.39946,-0.638929,-1.80042,-1.13217,2.32457,1.11889,-1.0506,1.4534,-0.709507,-1.79286,-1.15963,2.26469,1.15119,-1.0362,-0.826437,1.05708,-0.137949,0.420253,0.884718,-0.475532,-0.288321,-0.826437,1.05708,-0.137949,0.420253,0.884718,-0.475532,-0.288321,0.355215,-0.463784,0.874397,0.722547,0.0989447,0.111022,0.675137,-0.446182,3.89837e-05,0.550123,1.83703,-0.373284,1.68458,-2.96702,0.222757,1.73767,-2.98624,0.21166,1.78086,-0.617396,0.815712,-0.0764673,0.311637,0.693284,-0.382955,-0.152639,1
1.38473,-0.617884,-1.79887,-1.12483,2.34271,1.10795,-1.0538,1.39191,-0.628254,-1.80018,-1.1286,2.33376,1.11321,-1.0517,1.4456,-0.699487,-1.79413,-1.15557,2.27309,1.14674,-1.03893,-0.831729,1.07099,-0.131233,0.441172,0.899205,-0.470132,-0.290493,-0.831729,1.07099,-0.131233,0.441172,0.899205,-0.470132,-0.290493,0.350919,-0.463786,0.879664,0.727209,0.0982561,0.110617,0.670282,-0.452697,0.0139523,0.563685,1.80727,-0.37106,1.70054,-2.97602,0.22243,1.59615,-2.97563,0.216507,1.68122,-0.608718,0.816037,-0.0474507,0.307424,0.696142,-0.387825,-0.148764,1
1.37742,-0.60671,-1.7962,-1.12127,2.35209,1.10247,-1.05932,1.38464,-0.617603,-1.79861,-1.12485,2.34288,1.10782,-1.0546,1.43704,-0.688363,-1.79538,-1.15109,2.2825,1.14179,-1.0415,-0.80225,1.04302,-0.11725,0.420452,0.882427,-0.464149,-0.2415,-0.80225,1.04302,-0.11725,0.420452,0.882427,-0.464149,-0.2415,0.346223,-0.463579,0.88553,0.732087,0.0974568,0.110085,0.665155,-0.431811,0.0323171,0.546902,1.7774,-0.368712,1.71563,-2.98667,0.234738,1.50869,-2.97463,0.220975,1.58046,-0.596159,0.816528,-0.00817959,0.298153,0.695903,-0.393155,-0.178227,1
1.37107,-0.596799,-1.7946,-1.11849,2.36036,1.09824,-1.06485,1.37766,-0.607026,-1.79647,-1.12146,2.35181,1.10279,-1.05933,1.4295,-0.678492,-1.79643,-1.14723,2.29088,1.13729,-1.04351,-0.800056,1.05354,-0.106215,0.400949,0.896984,-0.48986,-0.188783,-0.800056,1.05354,-0.106215,0.400949,0.896984,-0.48986,-0.188783,0.342149,-0.46324,0.890691,0.736205,0.0968075,0.109608,0.660769,-0.42025,0.0524063,0.545386,1.7478,-0.366562,1.72985,-2.9606,0.215062,1.42235,-2.97696,0.223222,1.4757,-0.584346,0.816935,0.0182306,0.287336,0.694718,-0.390441,-0.213426,1
1.36417,-0.586791,-1.79472,-1.11564,2.36892,1.09378,-1.06733,1.37093,-0.596774,-1.79503,-1.11847,2.36043,1.09818,-1.06409,1.42197,-0.668487,-1.79728,-1.14348,2.29941,1.13255,-1.04521,-0.800473,1.07135,-0.0771431,0.396213,0.914662,-0.515126,-0.172882,-0.800473,1.07135,-0.0771431,0.396213,0.914662,-0.515126,-0.172882,0.338168,-0.462686,0.895897,0.740089,0.0962223,0.109108,0.656585,-0.412237,0.0780966,0.555816,1.71811,-0.364643,1.744,-2.96816,0.191823,1.41469,-2.97602,0.219723,1.38022,-0.577998,0.81696,0.0255763,0.2784,0.695022,-0.387728,-0.22118,1
1.357,-0.576593,-1.79532,-1.11227,2.37768,1.08894,-1.06747,1.3641,-0.586743,-1.79484,-1.11551,2.36897,1.09369,-1.06674,1.41446,-0.658336,-1.79774,-1.13974,2.30808,1.12764,-1.04698,-0.794313,1.08467,-0.0232963,0.396653,0.926643,-0.527836,-0.202732,-0.794313,1.08467,-0.0232963,0.396653,0.926643,-0.527836,-0.202732,0.334267,-0.461843,0.901231,0.743842,0.0955586,0.108563,0.652519,-0.401802,0.112056,0.571697,1.68799,-0.362664,1.75696,-3.01278,0.197896,1.29578,-2.97657,0.215429,1.29074,-0.574611,0.817429,0.0241701,0.274697,0.695962,-0.386988,-0.204888,1
1.34949,-0.565179,-1.79486,-1.10833,2.38719,1.0828,-1.06891,1.35692,-0.576289,-1.79506,-1.11213,2.37787,1.08862,-1.0678,1.40632,-0.646986,-1.79746,-1.1357,2.31776,1.12214,-1.04971,-0.763258,1.06411,0.0263549,0.379074,0.906882,-0.515443,-0.255935,-0.763258,1.06411,0.0263549,0.379074,0.906882,-0.515443,-0.255935,0.330125,-0.460421,0.907312,0.747935,0.0945657,0.107915,0.648078,-0.376824,0.143703,0.565692,1.65782,-0.360535,1.7683,-3.01663,0.212911,1.13471,-2.98384,0.211089,1.20132,-0.568339,0.818065,0.0259344,0.273693,0.694305,-0.393407,-0.191952,1
1.34294,-0.555097,-1.79473,-1.10519,2.39561,1.07691,-1.07007,1.34973,-0.565512,-1.79495,-1.10853,2.38692,1.08286,-1.06884,1.39919,-0.636942,-1.79707,-1.1322,2.3263,1.11732,-1.0524,-0.752564,1.06963,0.0542572,0.365553,0.908796,-0.50954,-0.311265,-0.752564,1.06963,0.0542572,0.365553,0.908796,-0.50954,-0.311265,0.326561,-0.458971,0.912669,0.751519,0.0936187,0.10736,0.64415,-0.362212,0.170885,0.566633,1.62753,-0.358071,1.77868,-3.02882,0.246471,1.03724,-2.99351,0.211494,1.11021,-0.562561,0.818448,0.0233682,0.270114,0.693028,-0.404078,-0.176696,1
1.337,-0.543914,-1.79045,-1.10188,2.40523,1.07007,-1.07397,1.34309,-0.554822,-1.79369,-1.10515,2.39591,1.07667,-1.07075,1.39143,-0.625838,-1.79658,-1.12851,2.33574,1.11209,-1.05557,-0.72778,1.04111,0.0461738,0.346162,0.884856,-0.490159,-0.297502,-0.72778,1.04111,0.0461738,0.346162,0.884856,-0.490159,-0.297502,0.322773,-0.45716,0.918509,0.755394,0.0925309,0.106789,0.639854,-0.34342,0.178159,0.542997,1.59757,-0.35597,1.78786,-2.99574,0.210026,0.918126,-3.00108,0.211842,1.00943,-0.544344,0.819244,0.0612789,0.266245,0.694905,-0.420193,-0.183957,1
1.33165,-0.534036,-1.78685,-1.10124,2.41359,1.06465,-1.07959,1.33714,-0.54424,-1.79062,-1.10255,2.40491,1.07043,-1.0744,1.38454,-0.615962,-1.79622,-1.12524,2.34414,1.10742,-1.05817,-0.735662,1.05651,0.030923,0.349038,0.898257,-0.500898,-0.256393,-0.735662,1.05651,0.030923,0.349038,0.898257,-0.500898,-0.256393,0.31946,-0.455473,0.923646,0.758729,0.0915963,0.106295,0.636115,-0.342433,0.186244,0.543062,1.56739,-0.35368,1.79612,-3.01863,0.229052,0.825918,-3.00985,0.216376,0.900819,-0.528951,0.819262,0.0936565,0.239961,0.694508,-0.427713,-0.214208,1
1.32635,-0.524006,-1.78391,-1.1004,2.42234,1.0594,-1.08303,1.33166,-0.533998,-1.78702,-1.10119,2.41368,1.06469,-1.07904,1.37759,-0.60592,-1.79595,-1.12191,2.35266,1.10259,-1.06042,-0.741824,1.07607,0.0267191,0.356374,0.912224,-0.525272,-0.224238,-0.741824,1.07607,0.0267191,0.356374,0.912224,-0.525272,-0.224238,0.316171,-0.453687,0.928807,0.761954,0.0907218,0.105814,0.632454,-0.339296,0.199081,0.548237,1.53711,-0.351714,1.80335,-3.02821,0.196597,0.723457,-3.01595,0.219009,0.785464,-0.512328,0.819143,0.120414,0.215096,0.696751,-0.431875,-0.226123,1
1.3207,-0.512683,-1.77967,-1.101,2.43212,1.05282,-1.08572,1.32626,-0.523682,-1.78358,-1.10076,2.42259,1.05907,-1.08284,1.36995,-0.594617,-1.79545,-1.1182,2.36223,1.09686,-1.06271,-0.715446,1.05976,0.046749,0.347715,0.896937,-0.537448,-0.21433,-0.715446,1.05976,0.046749,0.347715,0.896937,-0.537448,-0.21433,0.312674,-0.451467,0.934597,0.765337,0.0898239,0.105297,0.628572,-0.317161,0.216273,0.538412,1.5071,-0.349895,1.80979,-3.00082,0.181928,0.643861,-3.01513,0.215512,0.678695,-0.492514,0.819346,0.157783,0.171998,0.698931,-0.440311,-0.23011,1
1.31476,-0.501618,-1.77735,-1.1053,2.4416,1.04539,-1.08772,1.32063,-0.512747,-1.78015,-1.10193,2.43204,1.05261,-1.08555,1.3627,-0.583474,-1.79438,-1.11474,2.37167,1.09101,-1.06529,-0.680507,1.04481,0.100153,0.324708,0.885318,-0.548119,-0.242506,-0.680507,1.04481,0.100153,0.324708,0.885318,-0.548119,-0.242506,0.309522,-0.448903,0.940309,0.768462,0.0889118,0.104799,0.624963,-0.284625,0.247485,0.530967,1.47705,-0.348128,1.81515,-3.00478,0.176701,0.535667,-3.01303,0.206542,0.579462,-0.479391,0.818556,0.170366,0.0943955,0.699347,-0.456182,-0.224294,1
1.31014,-0.491684,-1.77417,-1.11003,2.45052,1.03738,-1.08613,1.31509,-0.501901,-1.77713,-1.10541,2.44146,1.04525,-1.08682,1.3564,-0.573592,-1.79313,-1.11188,2.38005,1.08578,-1.06785,-0.658846,1.0544,0.16273,0.284776,0.895625,-0.561597,-0.298041,-0.658846,1.0544,0.16273,0.284776,0.895625,-0.561597,-0.298041,0.306936,-0.446385,0.945319,0.771108,0.0880963,0.104387,0.621881,-0.251067,0.288743,0.529035,1.44698,-0.346142,1.8193,-3.00649,0.198525,0.415146,-3.01064,0.197342,0.478987,-0.462598,0.819078,0.18957,0.0185205,0.704677,-0.484032,-0.182729,1
1.30631,-0.480659,-1.76895,-1.11896,2.46014,1.02919,-1.08866,1.31034,-0.491411,-1.77366,-1.11108,2.4507,1.03734,-1.08716,1.34973,-0.562552,-1.79102,-1.10942,2.38946,1.07987,-1.07117,-0.625024,1.03511,0.197889,0.230672,0.882293,-0.554036,-0.310886,-0.625024,1.03511,0.197889,0.230672,0.882293,-0.554036,-0.310886,0.304563,-0.443092,0.95075,0.773716,0.0872648,0.104018,0.618813,-0.212501,0.313845,0.504364,1.4178,-0.344157,1.82259,-2.91821,0.198528,0.329566,-3.00063,0.19322,0.379877,-0.434227,0.818932,0.220659,-0.0953282,0.70672,-0.506828,-0.174953,1
1.30337,-0.469769,-1.76503,-1.1273,2.46949,1.0207,-1.09133,1.30653,-0.480693,-1.76927,-1.11881,2.46007,1.02912,-1.0887,1.3433,-0.551535,-1.78861,-1.10777,2.39888,1.07384,-1.07435,-0.603621,1.03294,0.225375,0.155463,0.883125,-0.565447,-0.298209,-0.603621,1.03294,0.225375,0.155463,0.883125,-0.565447,-0.298209,0.30266,-0.439519,0.955875,0.775921,0.0867212,0.103796,0.616159,-0.170658,0.339911,0.476252,1.38841,-0.342194,1.82486,-2.93945,0.196257,0.226665,-2.98449,0.190436,0.279375,-0.399263,0.817658,0.23582,-0.195305,0.706111,-0.531455,-0.169827,1
1.29979,-0.458807,-1.75984,-1.13515,2.4789,1.01217,-1.09194,1.30321,-0.469751,-1.76471,-1.12718,2.4695,1.02069,-1.09082,1.33706,-0.540556,-1.78607,-1.10725,2.4083,1.06752,-1.07711,-0.584989,1.0294,0.238073,0.0488665,0.883091,-0.593084,-0.25868,-0.584989,1.0294,0.238073,0.0488665,0.883091,-0.593084,-0.25868,0.301339,-0.435751,0.960525,0.777619,0.0867403,0.103809,0.614011,-0.120281,0.359134,0.432598,1.35855,-0.340076,1.82654,-2.98551,0.211859,0.168264,-2.97244,0.193874,0.182727,-0.372716,0.817492,0.262313,-0.279039,0.705952,-0.553507,-0.148273,1
1.29593,-0.449024,-1.75415,-1.14248,2.48694,1.00449,-1.09449,1.29972,-0.459102,-1.75971,-1.13502,2.47856,1.01238,-1.09242,1.33164,-0.530773,-1.78369,-1.10751,2.41672,1.06166,-1.0793,-0.567277,1.04822,0.267066,-0.0952158,0.904744,-0.647817,-0.209394,-0.567277,1.04822,0.267066,-0.0952158,0.904744,-0.647817,-0.209394,0.300565,-0.432245,0.964361,0.778791,0.0871281,0.103978,0.612439,-0.0544126,0.392348,0.386538,1.32891,-0.337938,1.82712,-2.96422,0.213772,0.0581026,-2.96475,0.199716,0.0869913,-0.35705,0.817488,0.295416,-0.349786,0.702234,-0.571741,-0.151934,1
1.29794,-0.438014,-1.74488,-1.14997,2.49654,0.995617,-1.095,1.2974,-0.448717,-1.75325,-1.14252,2.48733,1.00419,-1.09398,1.32609,-0.519695,-1.7805,-1.11001,2.42631,1.05446,-1.08138,-0.520694,1.03865,0.29891,-0.23447,0.899072,-0.675012,-0.194953,-0.520694,1.03865,0.29891,-0.23447,0.899072,-0.675012,-0.194953,0.300846,-0.427841,0.967899,0.77921,0.0885654,0.104619,0.61159,0.0190448,0.421331,0.330709,1.29938,-0.335882,1.82652,-2.95348,0.205591,-0.060606,-2.95864,0.204377,-0.00815991,-0.281432,0.816817,0.356149,-0.399621,0.702343,-0.588455,-0.136239,1
1.30081,-0.427325,-1.73791,-1.15956,2.50543,0.987646,-1.09606,1.29816,-0.438094,-1.74546,-1.1505,2.49636,0.995842,-1.09514,1.32103,-0.508648,-1.77701,-1.1138,2.43586,1.04699,-1.08346,-0.474461,1.03583,0.327404,-0.356074,0.895842,-0.700465,-0.195786,-0.474461,1.03583,0.327404,-0.356074,0.895842,-0.700465,-0.195786,0.301903,-0.423135,0.970906,0.779123,0.0905656,0.105581,0.611243,0.0867807,0.450331,0.281822,1.26991,-0.333515,1.82515,-2.94669,0.236738,-0.136495,-2.95563,0.209601,-0.101155,-0.202189,0.813223,0.390942,-0.457541,0.695613,-0.593458,-0.125924,1
1.31305,-0.416517,-1.72742,-1.16783,2.51536,0.979211,-1.09087,1.30315,-0.427295,-1.73703,-1.15923,2.50569,0.98753,-1.0945,1.31631,-0.497688,-1.77318,-1.1185,2.44531,1.03934,-1.08545,-0.441878,1.02752,0.358627,-0.439989,0.885397,-0.717807,-0.185804,-0.441878,1.02752,0.358627,-0.439989,0.885397,-0.717807,-0.185804,0.303526,-0.41821,0.973503,0.778627,0.092963,0.106784,0.611306,0.136103,0.471249,0.244264,1.24023,-0.331597,1.82269,-2.96792,0.19176,-0.246525,-2.96033,0.211543,-0.196991,-0.0326175,0.811716,0.457633,-0.493346,0.700497,-0.601244,-0.0542662,1
1.34121,-0.406202,-1.71765,-1.1736,2.52481,0.971058,-1.08173,1.31703,-0.41664,-1.7276,-1.16721,2.51524,0.979282,-1.08988,1.31213,-0.486856,-1.76877,-1.12381,2.4546,1.03156,-1.08733,-0.392238,1.0156,0.41328,-0.49824,0.871525,-0.728877,-0.176962,-0.392238,1.0156,0.41328,-0.49824,0.871525,-0.728877,-0.176962,0.305701,-0.412955,0.975819,0.777671,0.0955675,0.108161,0.611879,0.185516,0.501828,0.21842,1.2107,-0.329628,1.8195,-2.95259,0.196928,-0.31935,-2.95986,0.211,-0.292072,0.290857,0.806538,0.511263,-0.497865,0.702063,-0.605038,0.0560645,1
1.35538,-0.397653,-1.71705,-1.17438,2.53288,0.970317,-1.06845,1.33771,-0.406643,-1.71994,-1.17235,2.52447,0.972911,-1.08069,1.30896,-0.477171,-1.76442,-1.12889,2.4629,1.02453,-1.08894,-0.287678,1.04059,0.505104,-0.575401,0.891009,-0.763829,-0.165026,-0.287678,1.04059,0.505104,-0.575401,0.891009,-0.763829,-0.165026,0.308089,-0.407921,0.977742,0.776441,0.0979856,0.109512,0.612817,0.270588,0.578765,0.20437,1.18099,-0.327574,1.8156,-2.9718,0.205365,-0.38954,-2.95807,0.208606,-0.385432,0.464167,0.795184,0.473717,-0.454953,0.699792,-0.542092,0.204929,1
1.35727,-0.388449,-1.7191,-1.17372,2.5406,0.966677,-1.06321,1.35231,-0.397489,-1.71771,-1.17402,2.53279,0.969592,-1.07046,1.30716,-0.467259,-1.75924,-1.13469,2.4714,1.0172,-1.09023,-0.106658,1.06419,0.59135,-0.65338,0.913029,-0.7902,-0.113476,-0.106658,1.06419,0.59135,-0.65338,0.913029,-0.7902,-0.113476,0.311442,-0.402034,0.979509,0.774318,0.100571,0.111083,0.614799,0.383103,0.677849,0.186988,1.15108,-0.325856,1.81048,-2.99108,0.171798,-0.512373,-2.96247,0.202672,-0.476584,0.501135,0.788099,0.401412,-0.390231,0.691946,-0.505273,0.270266,1
1.36186,-0.378296,-1.72083,-1.16251,2.54855,0.961087,-1.06146,1.35794,-0.388212,-1.71902,-1.17108,2.54066,0.96619,-1.06408,1.30934,-0.456062,-1.75224,-1.14188,2.4811,1.00882,-1.09016,0.204766,1.04976,0.656165,-0.674259,0.90911,-0.786473,0.00731594,0.204766,1.04976,0.656165,-0.674259,0.90911,-0.786473,0.00731594,0.317247,-0.393609,0.981333,0.769697,0.103453,0.11309,0.619738,0.515814,0.79321,0.172695,1.12117,-0.323889,1.80403,-2.99073,0.196779,-0.644636,-2.96977,0.197574,-0.571117,0.525199,0.777659,0.314072,-0.206296,0.674536,-0.477292,0.287008,1
1.36406,-0.369897,-1.73521,-1.12782,2.55611,0.962357,-1.06278,1.36126,-0.378735,-1.72399,-1.15664,2.54845,0.962802,-1.06222,1.31347,-0.446167,-1.74589,-1.14809,2.48973,1.00153,-1.08902,0.645534,1.05248,0.69098,-0.646079,0.924869,-0.762217,0.221637,0.645534,1.05248,0.69098,-0.646079,0.924869,-0.762217,0.221637,0.323156,-0.385325,0.982912,0.764536,0.105842,0.114935,0.625358,0.673682,0.949716,0.178913,1.09146,-0.322023,1.79676,-2.97039,0.186551,-0.727105,-2.97532,0.191659,-0.669724,0.50586,0.762698,0.106822,0.202721,0.66375,-0.391778,0.262397,1
1.36079,-0.3613,-1.76046,-1.11961,2.56603,0.966387,-1.06836,1.36269,-0.369848,-1.73793,-1.13444,2.5567,0.963047,-1.06384,1.32055,-0.436349,-1.73989,-1.15365,2.4984,0.994813,-1.08597,0.845735,1.0348,0.590514,-0.542345,0.915996,-0.671607,0.413164,0.845735,1.0348,0.590514,-0.542345,0.915996,-0.671607,0.413164,0.329807,-0.376134,0.984565,0.758015,0.107808,0.116718,0.632588,0.688705,0.980774,0.186799,1.06158,-0.319783,1.7883,-2.98853,0.223953,-0.846195,-2.97947,0.19406,-0.77221,0.402373,0.750492,-0.205695,0.340445,0.676388,-0.284257,0.176135,1
1.36135,-0.35091,-1.75974,-1.12157,2.57752,0.961431,-1.06519,1.36175,-0.360852,-1.75397,-1.12215,2.56642,0.964141,-1.06617,1.32882,-0.425701,-1.73527,-1.15751,2.50774,0.988482,-1.08113,0.775525,0.998308,0.432775,-0.361457,0.876458,-0.593616,0.454028,0.775525,0.998308,0.432775,-0.361457,0.876458,-0.593616,0.454028,0.336172,-0.366538,0.986796,0.751125,0.109164,0.118277,0.640238,0.574156,0.891606,0.209732,1.03165,-0.317483,1.7787,-2.99329,0.230041,-0.959229,-2.98429,0.199462,-0.881056,0.32532,0.747914,-0.244695,0.359368,0.697773,-0.270504,0.15941,1
1.36835,-0.340786,-1.76259,-1.11627,2.58632,0.958425,-1.07318,1.36296,-0.350976,-1.76063,-1.11975,2.57685,0.961919,-1.06798,1.336,-0.415312,-1.73278,-1.15732,2.51675,0.982801,-1.07695,0.672795,0.974026,0.23392,0.0179951,0.844247,-0.532564,0.392078,0.672795,0.974026,0.23392,0.0179951,0.844247,-0.532564,0.392078,0.34049,-0.358244,0.990102,0.746129,0.109212,0.119112,0.645892,0.395299,0.767465,0.308261,1.00188,-0.315657,1.76827,-2.97643,0.182575,-1.04388,-2.98486,0.202151,-0.990283,0.323575,0.745263,-0.298125,0.4105,0.695712,-0.243766,0.0377194,1
1.37351,-0.331193,-1.75608,-1.11196,2.59695,0.96081,-1.07731,1.36789,-0.340918,-1.76025,-1.11652,2.58678,0.959773,-1.07221,1.3419,-0.405255,-1.73392,-1.15226,2.52559,0.978432,-1.07405,0.553596,0.942875,-0.106789,0.474432,0.82857,-0.409679,0.2718,0.553596,0.942875,-0.106789,0.474432,0.82857,-0.409679,0.2718,0.342257,-0.351936,0.994619,0.743875,0.107616,0.118947,0.648784,0.172124,0.581547,0.418769,0.972022,-0.313773,1.75723,-2.98595,0.188389,-1.10366,-2.98411,0.204468,-1.09044,0.316108,0.740626,-0.221629,0.402993,0.713668,-0.176215,-0.0325844,1
1.37928,-0.321862,-1.74607,-1.11012,2.60783,0.959465,-1.0847,1.37367,-0.331258,-1.7552,-1.11257,2.59701,0.959877,-1.07812,1.34629,-0.395433,-1.73835,-1.1456,2.53462,0.975271,-1.07231,0.411548,0.920878,-0.415809,0.624328,0.846943,-0.296376,0.16338,0.411548,0.920878,-0.415809,0.624328,0.846943,-0.296376,0.16338,0.342481,-0.347408,0.999203,0.743645,0.105594,0.118314,0.649495,0.0330071,0.418883,0.424869,0.942215,-0.311721,1.74498,-2.98069,0.205272,-1.22503,-2.98371,0.204031,-1.18658,0.329929,0.73571,-0.0771755,0.354777,0.732127,-0.158057,-0.12391,1
1.38743,-0.312657,-1.73968,-1.10605,2.61774,0.963523,-1.08473,1.37988,-0.321893,-1.74697,-1.10956,2.60759,0.960816,-1.08286,1.34998,-0.385599,-1.74328,-1.13988,2.54396,0.972317,-1.07135,0.345726,0.921985,-0.462088,0.535941,0.875788,-0.2769,0.0897587,0.345726,0.921985,-0.462088,0.535941,0.875788,-0.2769,0.0897587,0.342631,-0.343188,1.00336,0.743791,0.103918,0.117763,0.649698,0.0242388,0.391995,0.385427,0.912337,-0.309852,1.73148,-2.9878,0.186825,-1.34951,-2.98475,0.201239,-1.28549,0.374473,0.729428,0.0359863,0.338322,0.737769,-0.0879425,-0.133785,1
1.39251,-0.303657,-1.73677,-1.10558,2.62764,0.971666,-1.07268,1.38666,-0.312708,-1.74055,-1.10695,2.61774,0.964544,-1.08171,1.35394,-0.375716,-1.74703,-1.13471,2.55343,0.969542,-1.07154,0.371531,0.926626,-0.351941,0.48457,0.887983,-0.260156,-0.0179003,0.371531,0.926626,-0.351941,0.48457,0.887983,-0.260156,-0.0179003,0.343071,-0.338304,1.00749,0.743756,0.102002,0.117269,0.650131,0.052355,0.45181,0.382955,0.883321,-0.308096,1.7171,-2.90158,0.175595,-1.43857,-2.9752,0.193781,-1.3833,0.385633,0.720586,0.1026,0.29128,0.742082,0.0212372,-0.011407,1
1.39863,-0.294671,-1.73471,-1.10657,2.63799,0.976376,-1.06599,1.39277,-0.303661,-1.73699,-1.10595,2.62775,0.970808,-1.07402,1.3583,-0.365882,-1.74884,-1.12982,2.56307,0.967404,-1.073,0.409077,0.92204,-0.169455,0.459126,0.903887,-0.200446,-0.136512,0.409077,0.92204,-0.169455,0.459126,0.903887,-0.200446,-0.136512,0.343735,-0.332465,1.01181,0.743368,0.0994015,0.116634,0.651092,0.0775683,0.53704,0.397674,0.854464,-0.306216,1.70181,-2.88569,0.188074,-1.52894,-2.95839,0.18873,-1.48132,0.403209,0.712105,0.141269,0.232457,0.749224,0.0897196,0.0700145,1
1.40279,-0.286252,-1.73935,-1.10588,2.64827,0.97465,-1.06829,1.39814,-0.294813,-1.73639,-1.10615,2.63797,0.974767,-1.06824,1.36308,-0.356152,-1.74843,-1.12534,2.57292,0.965947,-1.07518,0.4474,0.912311,0.0387111,0.420074,0.923257,-0.13665,-0.204525,0.4474,0.912311,0.0387111,0.420074,0.923257,-0.13665,-0.204525,0.344669,-0.325606,1.01625,0.742324,0.0961815,0.115807,0.652911,0.106989,0.62853,0.407139,0.825063,-0.304278,1.68579,-2.94019,0.193763,-1.60174,-2.94452,0.188847,-1.57909,0.39711,0.698998,0.0908279,0.194593,0.75352,0.0870325,0.0688574,1
1.40678,-0.277539,-1.74095,-1.10248,2.65837,0.970338,-1.07129,1.40275,-0.286179,-1.73859,-1.1052,2.64823,0.974004,-1.06847,1.36829,-0.346542,-1.74669,-1.12127,2.58283,0.965637,-1.07662,0.489126,0.901008,0.163364,0.381299,0.929506,-0.0290948,-0.135451,0.489126,0.901008,0.163364,0.381299,0.929506,-0.0290948,-0.135451,0.345751,-0.318,1.02067,0.740396,0.0923852,0.114771,0.655826,0.124719,0.694193,0.404016,0.795851,-0.30202,1.66882,-2.92113,0.225773,-1.69672,-2.93104,0.192075,-1.67595,0.384859,0.690026,0.05735,0.187904,0.755418,0.0470134,0.0532791,1
1.41088,-0.268542,-1.74407,-1.09426,2.66784,0.966104,-1.07646,1.40681,-0.277468,-1.74133,-1.10127,2.65822,0.970358,-1.07184,1.37371,-0.337057,-1.74454,-1.11788,2.59277,0.966781,-1.07605,0.507549,0.889348,0.201177,0.317768,0.931634,0.107248,0.0539465,0.507549,0.889348,0.201177,0.317768,0.931634,0.107248,0.0539465,0.346867,-0.310054,1.02485,0.737454,0.0882435,0.113549,0.65991,0.130885,0.723114,0.379705,0.766559,-0.299804,1.65055,-2.92927,0.221628,-1.82701,-2.92214,0.197258,-1.77108,0.371759,0.685143,0.00466783,0.236156,0.750714,-0.00676131,-0.00417261,1
1.4142,-0.259979,-1.75026,-1.08988,2.6778,0.964242,-1.08086,1.41069,-0.268651,-1.74484,-1.09522,2.66796,0.966697,-1.07627,1.37911,-0.327713,-1.74274,-1.11528,2.60277,0.968547,-1.07432,0.50666,0.876123,0.169098,0.243265,0.937558,0.165642,0.161899,0.50666,0.876123,0.169098,0.243265,0.937558,0.165642,0.161899,0.34804,-0.302221,1.02859,0.734023,0.0843177,0.112318,0.664443,0.135576,0.712902,0.339894,0.737326,-0.298397,1.63159,-2.9233,0.140685,-1.89681,-2.91848,0.196949,-1.86345,0.350917,0.677334,-0.0752042,0.254068,0.750353,-0.0430549,-0.0653793,1
1.41756,-0.252708,-1.75649,-1.0868,2.68845,0.964285,-1.08372,1.41421,-0.260302,-1.75027,-1.0902,2.67797,0.964718,-1.08047,1.38434,-0.318525,-1.74182,-1.11305,2.61282,0.969754,-1.07303,0.490176,0.8614,0.086024,0.209157,0.942814,0.113167,0.121367,0.490176,0.8614,0.086024,0.209157,0.942814,0.113167,0.121367,0.349205,-0.294901,1.03196,0.730915,0.0810226,0.111208,0.668454,0.131291,0.668839,0.306733,0.708639,-0.295805,1.61141,-2.86864,0.259244,-2.01764,-2.91724,0.203522,-1.95982,0.332256,0.65817,-0.146744,0.262587,0.756278,-0.0546951,-0.106925,1
1.41852,-0.246761,-1.7652,-1.08354,2.699,0.96411,-1.08273,1.41696,-0.253039,-1.75711,-1.08675,2.68843,0.96423,-1.08276,1.38931,-0.309444,-1.74171,-1.11045,2.62286,0.969888,-1.07276,0.465998,0.851509,0.0101434,0.244315,0.9414,0.0125156,0.0246714,0.465998,0.851509,0.0101434,0.244315,0.9414,0.0125156,0.0246714,0.350193,-0.288105,1.03525,0.728482,0.0782315,0.110183,0.671606,0.111827,0.623617,0.301607,0.678942,-0.294419,1.59103,-2.96968,0.138578,-2.03813,-2.92121,0.199857,-2.05123,0.292152,0.626824,-0.234881,0.269054,0.76136,-0.0577804,-0.0997168,1
1.41468,-0.241819,-1.77257,-1.08248,2.70957,0.95636,-1.0793,1.41732,-0.247012,-1.76487,-1.08409,2.699,0.962216,-1.08212,1.39404,-0.30042,-1.7424,-1.10708,2.63284,0.969182,-1.07354,0.443376,0.846028,-0.0648671,0.315812,0.935368,-0.0661707,-0.0727457,0.443376,0.846028,-0.0648671,0.315812,0.935368,-0.0661707,-0.0727457,0.350868,-0.281763,1.03866,0.726802,0.0756401,0.109166,0.673884,0.0814536,0.583818,0.312826,0.649324,-0.292735,1.56935,-2.96179,0.16841,-2.16738,-2.92483,0.192256,-2.14302,0.206426,0.586009,-0.301666,0.246003,0.767259,-0.128223,-0.0576368,1
1.41086,-0.23424,-1.7788,-1.08203,2.71966,0.944217,-1.07959,1.41469,-0.24116,-1.77228,-1.08263,2.70945,0.955261,-1.08023,1.3985,-0.291546,-1.74414,-1.10335,2.64282,0.968195,-1.07507,0.418431,0.832036,-0.16317,0.350009,0.936075,-0.0925776,-0.143852,0.418431,0.832036,-0.16317,0.350009,0.936075,-0.0925776,-0.143852,0.351251,-0.275988,1.04202,0.725802,0.0732259,0.10811,0.675397,0.0534315,0.533192,0.30796,0.619917,-0.290945,1.54627,-2.94079,0.178954,-2.30857,-2.93091,0.183362,-2.23794,0.123619,0.573062,-0.346568,0.21317,0.768349,-0.239778,-0.0451752,1
1.41191,-0.23087,-1.7865,-1.07699,2.72945,0.938227,-1.08712,1.41208,-0.235292,-1.77917,-1.08088,2.71958,0.945755,-1.0814,1.40258,-0.283028,-1.74701,-1.09968,2.65291,0.967318,-1.07677,0.382925,0.798624,-0.268949,0.344158,0.945788,-0.0822201,-0.159373,0.382925,0.798624,-0.268949,0.344158,0.945788,-0.0822201,-0.159373,0.351367,-0.270967,1.04512,0.725268,0.0710894,0.106915,0.676389,0.027929,0.465578,0.285354,0.59024,-0.289187,1.52245,-2.9677,0.175858,-2.38171,-2.9396,0.177948,-2.33213,0.093242,0.521589,-0.394866,0.226837,0.765416,-0.290908,-0.103451,1
1.41849,-0.235362,-1.79248,-1.07317,2.73866,0.939598,-1.09425,1.41329,-0.232835,-1.78607,-1.0773,2.72931,0.940067,-1.08702,1.40581,-0.275687,-1.75016,-1.0965,2.66201,0.966398,-1.07802,0.306669,0.763605,-0.391696,0.330606,0.985175,-0.111371,-0.109199,0.306669,0.763605,-0.391696,0.330606,0.985175,-0.111371,-0.109199,0.351302,-0.267018,1.04771,0.724964,0.0694975,0.105748,0.677063,-0.0042846,0.37097,0.258669,0.560734,-0.287438,1.49739,-2.95056,0.174862,-2.50576,-2.94857,0.177095,-2.43304,0.126835,0.403248,-0.423276,0.233383,0.766515,-0.268001,-0.162297,1
1.42465,-0.240846,-1.79835,-1.06583,2.74904,0.950359,-1.09772,1.41838,-0.23561,-1.79246,-1.07229,2.73895,0.941945,-1.09333,1.40777,-0.268049,-1.75505,-1.09344,2.6725,0.963935,-1.07851,0.184155,0.716076,-0.458924,0.287698,0.983849,-0.23097,-0.0458448,0.184155,0.716076,-0.458924,0.287698,0.983849,-0.23097,-0.0458448,0.350942,-0.264222,1.05012,0.725141,0.0691451,0.10435,0.677127,-0.0247112,0.269629,0.222441,0.531433,-0.285593,1.47121,-2.93006,0.184527,-2.61788,-2.954,0.171948,-2.53841,0.168764,0.27203,-0.433009,0.276087,0.765327,-0.135753,-0.192064,1
1.43041,-0.269154,-1.80692,-1.06252,2.75944,0.975848,-1.09849,1.42455,-0.246552,-1.79903,-1.06684,2.74904,0.954041,-1.09704,1.40872,-0.260804,-1.76039,-1.09066,2.68292,0.959913,-1.07915,0.0893178,0.679343,-0.500126,0.260342,0.976397,-0.377022,-0.0599229,0.0893178,0.679343,-0.500126,0.260342,0.976397,-0.377022,-0.0599229,0.350538,-0.262316,1.05223,0.72578,0.0698485,0.10308,0.676564,-0.0353864,0.192349,0.196899,0.502252,-0.283473,1.44411,-2.91818,0.212014,-2.71083,-2.94656,0.180821,-2.6497,0.21684,-0.0835059,-0.465323,0.281348,0.765243,0.159342,-0.19338,1
1.45128,-0.296597,-1.81359,-1.07051,2.76876,1.00144,-1.10683,1.43418,-0.268938,-1.80645,-1.06535,2.75917,0.975874,-1.10038,1.40973,-0.254617,-1.76607,-1.0877,2.69318,0.955523,-1.08089,0.0947431,0.580027,-0.532664,0.277157,0.962045,-0.411585,-0.163203,0.0947431,0.580027,-0.532664,0.277157,0.962045,-0.411585,-0.163203,0.349981,-0.26124,1.05415,0.726881,0.0709142,0.101516,0.675507,-0.0500096,0.118855,0.17907,0.47295,-0.281397,1.41665,-2.93016,0.207585,-2.74588,-2.94021,0.18769,-2.74885,0.415414,-0.419804,-0.475253,0.17196,0.755825,0.459191,-0.259399,1
1.46655,-0.302733,-1.82285,-1.07096,2.7749,1.00682,-1.11307,1.44988,-0.29127,-1.81424,-1.06863,2.76797,0.996387,-1.1063,1.41165,-0.250413,-1.7719,-1.08429,2.7033,0.95252,-1.08364,0.179388,0.394182,-0.547248,0.319692,0.949301,-0.281587,-0.25807,0.179388,0.394182,-0.547248,0.319692,0.949301,-0.281587,-0.25807,0.349063,-0.26112,1.05588,0.728088,0.0716068,0.0990276,0.674503,-0.0764193,0.0319325,0.159149,0.443394,-0.279392,1.38832,-2.95559,0.200453,-2.83235,-2.93796,0.193587,-2.83831,0.549028,-0.5232,-0.509409,0.133313,0.715932,0.542971,-0.294294,1
1.46531,-0.302839,-1.83146,-1.06686,2.78119,1.0023,-1.09266,1.46242,-0.301225,-1.82268,-1.06982,2.77494,1.00434,-1.10641,1.4145,-0.249559,-1.7779,-1.08043,2.71342,0.952856,-1.08661,0.267545,0.0800604,-0.56249,0.362035,0.948588,0.0315453,-0.277904,0.267545,0.0800604,-0.56249,0.362035,0.948588,0.0315453,-0.277904,0.347362,-0.26276,1.0572,0.729079,0.0714783,0.0947572,0.674059,-0.134344,-0.129287,0.116121,0.413691,-0.277424,1.35849,-2.9703,0.196832,-2.98351,-2.9386,0.198485,-2.93069,0.508067,-0.5328,-0.535526,0.135683,0.677702,0.494438,-0.0605698,1
1.45058,-0.316222,-1.84185,-1.09717,2.78989,0.992253,-1.08234,1.46194,-0.306158,-1.8319,-1.07546,2.78179,1.00092,-1.09518,1.41886,-0.253845,-1.78422,-1.0771,2.72354,0.957948,-1.08965,0.408209,-0.401902,-0.591918,0.312864,0.948769,0.47736,-0.285648,0.408209,-0.401902,-0.591918,0.312864,0.948769,0.47736,-0.285648,0.344971,-0.267212,1.05734,0.729507,0.0708413,0.0880582,0.674571,-0.180388,-0.38442,0.000110642,0.385068,-0.275591,1.3274,-2.86236,0.183305,-3.10851,-2.93336,0.199855,-3.02572,0.317285,-0.623763,-0.576306,-0.20071,0.663465,0.34305,0.0731323,1
1.41939,-0.334862,-1.85431,-1.11902,2.7926,0.999441,-1.10829,1.44647,-0.317536,-1.84237,-1.09505,2.78839,0.996562,-1.09141,1.42572,-0.262124,-1.79086,-1.07522,2.73337,0.966451,-1.09334,0.643361,-0.776147,-0.62258,0.175649,0.921305,0.797186,-0.345329,0.643361,-0.776147,-0.62258,0.175649,0.921305,0.797186,-0.345329,0.342875,-0.273455,1.05605,0.729173,0.0703259,0.0799294,0.675997,-0.142143,-0.544935,-0.137776,0.356439,-0.273908,1.29539,-2.86285,0.16835,-3.20104,-2.92361,0.195688,-3.1251,-0.0632565,-0.727379,-0.63454,-0.437986,0.592316,0.3299,-0.149511,1
1.40458,-0.346106,-1.86623,-1.12957,2.79462,1.0308,-1.12978,1.42349,-0.333013,-1.85418,-1.11619,2.79243,1.00548,-1.10717,1.43384,-0.270773,-1.7979,-1.07403,2.74256,0.974833,-1.09623,0.761193,-0.810917,-0.660057,0.111942,0.86209,0.785862,-0.271113,0.761193,-0.810917,-0.660057,0.111942,0.86209,0.785862,-0.271113,0.341433,-0.279638,1.05424,0.728265,0.0702839,0.0721176,0.677856,-0.0844379,-0.538215,-0.184601,0.32755,-0.27212,1.26279,-2.88889,0.178748,-3.26023,-2.91233,0.188709,-3.22634,-0.292551,-0.753328,-0.683311,-0.555375,0.520557,0.559714,-0.335541,1
1.41341,-0.352822,-1.87465,-1.13444,2.79189,1.04441,-1.1305,1.41049,-0.344974,-1.86535,-1.12815,2.79343,1.02637,-1.12459,1.44005,-0.2786,-1.80542,-1.07435,2.75124,0.980603,-1.096,0.582787,-0.733839,-0.705193,-0.0297865,0.813566,0.540968,0.0216394,0.582787,-0.733839,-0.705193,-0.0297865,0.813566,0.540968,0.0216394,0.340506,-0.286258,1.0518,0.726956,0.0720948,0.0653725,0.679753,-0.054027,-0.573394,-0.239027,0.299181,-0.269998,1.22923,-2.83691,0.212219,-3.35572,-2.89374,0.186637,-3.33001,-0.266426,-0.74222,-0.692303,-0.600995,0.406454,0.6381,-0.345007,1
1.38796,-0.363033,-1.88039,-1.14862,2.76387,1.0516,-1.10502,1.40484,-0.353696,-1.87398,-1.13677,2.78557,1.04281,-1.12395,1.44147,-0.287213,-1.81359,-1.07893,2.75946,0.984133,-1.09498,0.133031,-0.80748,-0.766224,-0.429473,0.770469,0.33097,0.0951836,0.133031,-0.80748,-0.766224,-0.429473,0.770469,0.33097,0.0951836,0.339914,-0.295491,1.04729,0.726642,0.0772555,0.0595665,0.680055,-0.0502938,-0.800425,-0.427852,0.270282,-0.268325,1.19488,-2.88996,0.16731,-3.43508,-2.87813,0.184022,-3.42659,-0.535073,-0.758204,-0.667953,-0.69695,0.044128,0.674712,-0.100378,1
1.36527,-0.374339,-1.88874,-1.16151,2.74335,1.05693,-1.09855,1.38865,-0.363307,-1.88104,-1.1483,2.76575,1.05114,-1.10977,1.43749,-0.297344,-1.82257,-1.08717,2.76675,0.988856,-1.09768,-0.372966,-0.949835,-0.841644,-0.772868,0.683718,0.44281,-0.252851,-0.372966,-0.949835,-0.841644,-0.772868,0.683718,0.44281,-0.252851,0.338575,-0.307687,1.0408,0.729268,0.0839242,0.0541226,0.676902,-0.135876,-1.06549,-0.61241,0.241245,-0.266465,1.15967,-2.90362,0.186014,-3.52093,-2.87203,0.183288,-3.51302,-0.722272,-0.769957,-0.661721,-0.743366,-0.233982,0.680777,-0.00871376,1
1.35668,-0.383745,-1.89869,-1.171,2.73869,1.0605,-1.09755,1.36879,-0.373864,-1.88914,-1.16066,2.74732,1.05649,-1.09992,1.43152,-0.307879,-1.83203,-1.09623,2.77265,0.997153,-1.10363,-0.559991,-0.987792,-0.887326,-0.84986,0.553306,0.777901,-0.55805,-0.559991,-0.987792,-0.887326,-0.84986,0.553306,0.777901,-0.55805,0.336233,-0.320435,1.03377,0.733943,0.089224,0.0488364,0.671552,-0.224418,-1.12282,-0.663848,0.212203,-0.264763,1.12369,-2.9042,0.170174,-3.59861,-2.87946,0.182734,-3.59462,-0.748422,-0.758653,-0.666607,-0.747686,-0.339576,0.633468,0.0608578,1
1.35033,-0.394142,-1.91012,-1.17978,2.73221,1.06926,-1.09359,1.35724,-0.383993,-1.89906,-1.17082,2.73824,1.0618,-1.09681,1.42562,-0.318014,-1.84131,-1.1052,2.77551,1.00725,-1.10813,-0.553294,-0.950175,-0.869903,-0.840643,0.267801,0.946837,-0.421378,-0.553294,-0.950175,-0.869903,-0.840643,0.267801,0.946837,-0.421378,0.333717,-0.332166,1.02678,0.738522,0.0931306,0.0446434,0.666272,-0.237984,-1.04196,-0.658474,0.183104,-0.262692,1.08666,-2.90996,0.207099,-3.70289,-2.88798,0.185338,-3.67847,-0.752864,-0.761282,-0.68813,-0.745787,-0.432989,0.620103,0.145373,1
1.34131,-0.405585,-1.92081,-1.18708,2.72989,1.07967,-1.08734,1.34966,-0.394403,-1.90994,-1.17941,2.73325,1.06967,-1.09302,1.41744,-0.328033,-1.8501,-1.11473,2.77335,1.01696,-1.10849,-0.766672,-0.939319,-0.823947,-0.893797,-0.202483,0.910156,-0.0341471,-0.766672,-0.939319,-0.823947,-0.893797,-0.202483,0.910156,-0.0341471,0.330935,-0.343713,1.0195,0.742899,0.096896,0.0424789,0.66099,-0.275346,-1.03612,-0.684825,0.154638,-0.261813,1.04795,-2.84661,0.0878453,-3.8711,-2.88918,0.175335,-3.77455,-0.761286,-0.775523,-0.707136,-0.72346,-0.434637,0.627141,0.211481,1
1.32848,-0.417023,-1.93063,-1.1955,2.72281,1.09,-1.08099,1.34036,-0.405584,-1.9206,-1.18736,2.7287,1.07965,-1.08732,1.40668,-0.338171,-1.85874,-1.12489,2.76759,1.0257,-1.10659,-1.00895,-0.950531,-0.809704,-0.95248,-0.53988,0.819905,0.177806,-1.00895,-0.950531,-0.809704,-0.95248,-0.53988,0.819905,0.177806,0.327652,-0.355659,1.01177,0.747608,0.101098,0.0418186,0.655067,-0.335182,-1.07745,-0.723954,0.125954,-0.259832,1.00882,-2.86836,0.198168,-3.9126,-2.88968,0.168907,-3.87186,-0.781962,-0.788524,-0.718992,-0.70605,-0.447804,0.643002,0.256035,1
1.31686,-0.427552,-1.93987,-1.20541,2.71419,1.09904,-1.07957,1.32878,-0.416796,-1.93049,-1.19587,2.72242,1.08968,-1.08222,1.39574,-0.348306,-1.86766,-1.13505,2.7611,1.03369,-1.10443,-1.02541,-0.950339,-0.836388,-0.952584,-0.608774,0.748591,0.202959,-1.02541,-0.950339,-0.836388,-0.952584,-0.608774,0.748591,0.202959,0.324177,-0.367587,1.00385,0.752315,0.105667,0.0415473,0.648945,-0.357062,-1.07488,-0.741335,0.097679,-0.258303,0.968286,-2.82751,0.152865,-4.05362,-2.87842,0.165286,-3.97584,-0.788874,-0.792455,-0.72217,-0.703619,-0.469099,0.653548,0.248584,1
1.30678,-0.438004,-1.94947,-1.21541,2.70804,1.10701,-1.0768,1.31724,-0.427533,-1.93996,-1.20543,2.71481,1.09878,-1.07923,1.38555,-0.358503,-1.87701,-1.14486,2.75494,1.04165,-1.1019,-0.955688,-0.956041,-0.876939,-0.919975,-0.577563,0.746343,0.236699,-0.955688,-0.956041,-0.876939,-0.919975,-0.577563,0.746343,0.236699,0.320526,-0.379339,0.995852,0.756665,0.110255,0.0410636,0.64313,-0.371184,-1.05704,-0.747706,0.0679099,-0.256472,0.927257,-2.97691,0.183064,-4.10292,-2.8793,0.163415,-4.07819,-0.787726,-0.795007,-0.724607,-0.705429,-0.468992,0.653663,0.251029,1
1.29661,-0.448785,-1.95943,-1.22425,2.70384,1.11476,-1.07226,1.30676,-0.438086,-1.94956,-1.21512,2.70853,1.10696,-1.07636,1.37556,-0.368917,-1.88665,-1.15426,2.74913,1.05006,-1.09868,-0.937239,-0.976443,-0.903993,-0.881333,-0.544216,0.788214,0.30257,-0.937239,-0.976443,-0.903993,-0.881333,-0.544216,0.788214,0.30257,0.316426,-0.391089,0.9878,0.760711,0.11465,0.0401768,0.637621,-0.409292,-1.05564,-0.753528,0.0390958,-0.254422,0.885399,-2.8814,0.205037,-4.18578,-2.88096,0.167755,-4.1762,-0.789485,-0.798674,-0.727822,-0.699873,-0.452959,0.647097,0.264184,1
1.28593,-0.459808,-1.96956,-1.23279,2.69975,1.12304,-1.06737,1.29648,-0.448845,-1.95947,-1.22418,2.70387,1.1149,-1.07217,1.36521,-0.379508,-1.89635,-1.16347,2.74323,1.05882,-1.09504,-0.970009,-0.992987,-0.909198,-0.862942,-0.553957,0.82184,0.341256,-0.970009,-0.992987,-0.909198,-0.862942,-0.553957,0.82184,0.341256,0.31182,-0.402848,0.979641,0.764684,0.118892,0.0391314,0.632132,-0.454543,-1.05573,-0.763536,0.0102582,-0.252715,0.842214,-2.88377,0.170669,-4.31846,-2.88452,0.171684,-4.27142,-0.79275,-0.802999,-0.732151,-0.693267,-0.434801,0.642213,0.276634,1
1.27521,-0.470773,-1.97951,-1.24207,2.69476,1.13174,-1.06323,1.28592,-0.459793,-1.96952,-1.23298,2.69952,1.12315,-1.06756,1.3546,-0.390131,-1.906,-1.17275,2.73694,1.06766,-1.09154,-0.994789,-0.99602,-0.904565,-0.870351,-0.589402,0.828677,0.32778,-0.994789,-0.99602,-0.904565,-0.870351,-0.589402,0.828677,0.32778,0.306917,-0.414447,0.971317,0.768687,0.123135,0.0382178,0.626496,-0.482532,-1.0407,-0.778573,-0.0184638,-0.250199,0.798198,-2.8722,0.251648,-4.40161,-2.89028,0.189133,-4.36197,-0.793875,-0.806421,-0.735192,-0.693171,-0.421784,0.64079,0.283079,1
1.2647,-0.48154,-1.98931,-1.25192,2.68766,1.14114,-1.05983,1.27527,-0.470724,-1.97947,-1.24221,2.69423,1.13191,-1.06342,1.34402,-0.400739,-1.91563,-1.18212,2.73065,1.07635,-1.08818,-0.992281,-0.994575,-0.903551,-0.878733,-0.589281,0.815087,0.314904,-0.992281,-0.994575,-0.903551,-0.878733,-0.589281,0.815087,0.314904,0.301836,-0.425838,0.962828,0.77258,0.127516,0.0373236,0.62086,-0.499376,-1.02003,-0.793346,-0.0486421,-0.25265,0.756409,-3.01782,-0.245157,-4.17891,-2.90616,0.148247,-4.42306,-0.793134,-0.808019,-0.736759,-0.697969,-0.429965,0.647834,0.283497,1
1.25453,-0.492199,-1.99898,-1.26199,2.67887,1.15132,-1.05822,1.26479,-0.481513,-1.98928,-1.25197,2.68724,1.14133,-1.06028,1.3335,-0.41138,-1.92533,-1.19142,2.72473,1.08488,-1.08464,-0.985861,-0.997719,-0.909284,-0.872179,-0.555602,0.799403,0.332038,-0.985861,-0.997719,-0.909284,-0.872179,-0.555602,0.799403,0.332038,0.296502,-0.437097,0.954211,0.776253,0.132038,0.0362234,0.615374,-0.52194,-1.0055,-0.804694,-0.0797294,-0.26074,0.71662,-3.10873,-0.808924,-3.97893,-2.93889,0.0162753,-4.42819,-0.789682,-0.808195,-0.736481,-0.705659,-0.458543,0.664454,0.264219,1
1.24512,-0.503128,-2.00832,-1.2713,2.66973,1.16198,-1.06017,1.25472,-0.492267,-1.9989,-1.2618,2.67878,1.15144,-1.05911,1.32298,-0.422089,-1.9351,-1.20062,2.71915,1.09334,-1.08086,-0.986794,-1.00409,-0.916453,-0.861783,-0.522772,0.793676,0.354264,-0.986794,-1.00409,-0.916453,-0.861783,-0.522772,0.793676,0.354264,0.290851,-0.448253,0.945474,0.779736,0.136643,0.0348771,0.610019,-0.549888,-0.993683,-0.8155,-0.110951,-0.270419,0.675955,-3.12214,-0.96789,-4.06652,-2.97547,-0.194318,-4.40453,-0.778552,-0.81039,-0.732181,-0.70686,-0.494274,0.686372,0.206897,1
1.23664,-0.513702,-2.01691,-1.28073,2.6606,1.17247,-1.06606,1.24536,-0.503039,-2.00813,-1.27133,2.66973,1.16194,-1.06116,1.31242,-0.432847,-1.94492,-1.20982,2.71364,1.10187,-1.077,-0.989529,-1.00867,-0.920232,-0.862695,-0.516869,0.799934,0.361796,-0.989529,-1.00867,-0.920232,-0.862695,-0.516869,0.799934,0.361796,0.284934,-0.459232,0.936586,0.783094,0.141277,0.0334341,0.604721,-0.573638,-0.976072,-0.829136,-0.142108,-0.279121,0.633706,-3.11567,-0.870252,-4.22489,-3.02605,-0.42873,-4.37563,-0.757791,-0.808557,-0.719953,-0.709089,-0.530407,0.705981,0.109446,1
1.22817,-0.523687,-2.02546,-1.29048,2.65072,1.18244,-1.07144,1.23664,-0.513555,-2.0169,-1.28081,2.66041,1.17234,-1.06593,1.30189,-0.443612,-1.95473,-1.21914,2.7078,1.1106,-1.07331,-0.987945,-1.00933,-0.919975,-0.87433,-0.547587,0.818356,0.346862,-0.987945,-1.00933,-0.919975,-0.87433,-0.547587,0.818356,0.346862,0.27885,-0.469917,0.927531,0.786398,0.14587,0.0321153,0.59939,-0.589061,-0.948997,-0.844309,-0.172622,-0.287881,0.59114,-3.05149,-0.876033,-4.25659,-3.06514,-0.646824,-4.35237,-0.737167,-0.800752,-0.70732,-0.713418,-0.570766,0.718341,0.018662,1
1.21999,-0.533505,-2.03406,-1.30007,2.64134,1.19235,-1.07478,1.22824,-0.523645,-2.02547,-1.29044,2.65085,1.18242,-1.07093,1.29145,-0.454374,-1.9645,-1.22858,2.70138,1.11964,-1.07017,-0.978157,-1.00909,-0.915983,-0.884726,-0.601806,0.846966,0.294371,-0.978157,-1.00909,-0.915983,-0.884726,-0.601806,0.846966,0.294371,0.272669,-0.480219,0.918334,0.789758,0.150331,0.03107,0.5939,-0.598074,-0.914893,-0.857326,-0.203949,-0.297315,0.548438,-3.13262,-0.943372,-4.27014,-3.09569,-0.822115,-4.35262,-0.714613,-0.791304,-0.695572,-0.714906,-0.600368,0.72711,-0.0461413,1
1.21125,-0.543945,-2.04321,-1.31002,2.63389,1.20192,-1.07431,1.21985,-0.53366,-2.0342,-1.30016,2.64183,1.19226,-1.07383,1.28126,-0.465139,-1.97415,-1.23803,2.69438,1.12899,-1.06817,-0.956025,-1.00925,-0.904914,-0.886622,-0.656388,0.877312,0.186831,-0.956025,-1.00925,-0.904914,-0.886622,-0.656388,0.877312,0.186831,0.266458,-0.490078,0.909047,0.793298,0.154594,0.0303455,0.588097,-0.6005,-0.875576,-0.865431,-0.234825,-0.306298,0.504534,-3.08766,-0.898311,-4.39038,-3.10236,-0.898419,-4.40286,-0.700056,-0.788064,-0.69053,-0.719839,-0.604874,0.729305,-0.0614133,1
1.20258,-0.55465,-2.05282,-1.32014,2.62725,1.21131,-1.07179,1.21127,-0.544011,-2.04332,-1.31006,2.6341,1.20188,-1.0738,1.27139,-0.475848,-1.98361,-1.2475,2.68687,1.13858,-1.06768,-0.925195,-1.00409,-0.886611,-0.88709,-0.704461,0.898963,0.0464462,-0.925195,-1.00409,-0.886611,-0.88709,-0.704461,0.898963,0.0464462,0.260308,-0.499433,0.899717,0.797057,0.158668,0.0299797,0.581915,-0.594566,-0.830836,-0.869324,-0.266424,-0.315272,0.459689,-3.15989,-0.897333,-4.4845,-3.10598,-0.905533,-4.48178,-0.688114,-0.788011,-0.692121,-0.726389,-0.596153,0.727328,-0.0411674,1
1.18882,-0.567501,-2.06452,-1.33049,2.62026,1.2211,-1.05882,1.20131,-0.555186,-2.05334,-1.32019,2.62717,1.21141,-1.06918,1.26086,-0.487598,-1.99389,-1.25814,2.67784,1.14944,-1.06874,-1.09199,-1.2266,-1.0732,-1.11902,-0.958989,1.14047,-0.135562,-1.09199,-1.2266,-1.0732,-1.11902,-0.958989,1.14047,-0.135562,0.253661,-0.509188,0.889285,0.801407,0.163038,0.0300922,0.574683,-0.71146,-0.958976,-1.08509,-0.297038,-0.324472,0.41403,-3.0614,-0.920004,-4.56596,-3.10392,-0.903132,-4.55861,-0.720382,-0.799031,-0.706251,-0.723476,-0.575754,0.716613,0.0992119,1
1.1834,-0.576226,-2.07232,-1.34094,2.61041,1.23165,-1.06881,1.1909,-0.566469,-2.06355,-1.33051,2.61955,1.22129,-1.06456,1.25179,-0.497787,-2.00281,-1.26743,2.66987,1.15891,-1.06986,-0.850445,-0.955279,-0.835806,-0.871491,-0.746862,0.888197,-0.105576,-0.850445,-0.955279,-0.835806,-0.871491,-0.746862,0.888197,-0.105576,0.247807,-0.517369,0.880118,0.805073,0.166854,0.0302708,0.568419,-0.566372,-0.725438,-0.853078,-0.328383,-0.333354,0.367352,-3.13451,-0.888249,-4.66774,-3.10762,-0.906556,-4.63581,-0.683884,-0.784396,-0.695124,-0.735026,-0.594611,0.727439,0.0105249,1
1.17438,-0.586696,-2.08144,-1.35015,2.60272,1.24117,-1.07239,1.1825,-0.576663,-2.07265,-1.34063,2.61095,1.23139,-1.06721,1.24283,-0.508012,-2.01177,-1.27686,2.66196,1.16841,-1.07073,-0.840337,-0.958634,-0.840197,-0.884038,-0.741982,0.891106,-0.0816512,-0.840337,-0.958634,-0.840197,-0.884038,-0.741982,0.891106,-0.0816512,0.24189,-0.525328,0.870786,0.808483,0.170773,0.0304006,0.562377,-0.572193,-0.703721,-0.86788,-0.35961,-0.342875,0.319612,-3.12269,-0.952095,-4.77406,-3.11445,-0.911544,-4.72593,-0.684426,-0.786847,-0.696661,-0.732895,-0.592429,0.72753,-0.016554,1
1.16535,-0.59622,-2.08966,-1.35852,2.59704,1.24961,-1.07311,1.17438,-0.58646,-2.08121,-1.34994,2.60322,1.2409,-1.07167,1.23467,-0.517288,-2.01993,-1.2854,2.65498,1.17694,-1.07087,-0.888548,-1.0092,-0.8898,-0.926622,-0.740726,0.918069,0.0450017,-0.888548,-1.0092,-0.8898,-0.926622,-0.740726,0.918069,0.0450017,0.236377,-0.532394,0.862244,0.811275,0.174426,0.0303527,0.557213,-0.619384,-0.727002,-0.920996,-0.391523,-0.352123,0.270596,-3.19129,-0.924793,-4.90157,-3.12233,-0.91307,-4.82753,-0.693291,-0.789327,-0.697338,-0.731246,-0.579452,0.726753,-0.0223621,1
1.15609,-0.606143,-2.09838,-1.36736,2.59098,1.25826,-1.07232,1.16529,-0.59632,-2.08978,-1.35864,2.59694,1.24966,-1.07273,1.22607,-0.526997,-2.02852,-1.29431,2.64793,1.18572,-1.06995,-0.936452,-1.05112,-0.932763,-0.964101,-0.755883,0.947125,0.143625,-0.936452,-1.05112,-0.932763,-0.964101,-0.755883,0.947125,0.143625,0.230426,-0.539657,0.853223,0.813807,0.178374,0.0300652,0.552265,-0.664782,-0.739724,-0.967961,-0.423123,-0.360256,0.221466,-3.15995,-0.813276,-4.91299,-3.13451,-0.907067,-4.92075,-0.699831,-0.791468,-0.698615,-0.730573,-0.569536,0.725412,-0.0236806,1
1.14696,-0.616836,-2.10811,-1.37799,2.58191,1.26841,-1.06743,1.15612,-0.606336,-2.09863,-1.36781,2.59023,1.25864,-1.07129,1.21643,-0.537983,-2.03828,-1.30455,2.63975,1.19583,-1.06935,-0.903596,-1.03001,-0.915252,-0.960648,-0.766966,0.947128,0.0569466,-0.903596,-1.03001,-0.915252,-0.960648,-0.766966,0.947128,0.0569466,0.223657,-0.547559,0.842861,0.816633,0.182859,0.0298639,0.54661,-0.651843,-0.691136,-0.962352,-0.454397,-0.369728,0.170795,-3.1274,-0.947192,-5.06716,-3.14009,-0.90609,-5.01631,-0.694691,-0.78853,-0.698278,-0.734426,-0.578403,0.725891,0.0192019,1
1.1377,-0.627337,-2.11758,-1.38822,2.57292,1.27836,-1.06466,1.14693,-0.616788,-2.10804,-1.37789,2.58193,1.26836,-1.06796,1.20713,-0.548706,-2.04778,-1.31459,2.63167,1.2058,-1.06986,-0.872185,-1.00535,-0.890411,-0.94129,-0.757645,0.934788,-0.0482926,-0.872185,-1.00535,-0.890411,-0.94129,-0.757645,0.934788,-0.0482926,0.217001,-0.554946,0.832658,0.819525,0.187202,0.0297885,0.540783,-0.640091,-0.644412,-0.946991,-0.484285,-0.378028,0.118315,-2.98887,-0.830072,-5.24796,-3.13314,-0.895708,-5.12288,-0.694276,-0.786312,-0.69807,-0.736316,-0.587482,0.725654,0.0519735,1
