Afshin1997/kuka_rl_ros2/src/catch_and_throw/output_files/tm/idealpd4/tm_received_joint_vel_np.csv
joint_0,joint_1,joint_2,joint_3,joint_4,joint_5,joint_6
-4.793e-05,0,-3.5953e-05,0,-9.58862e-05,-3.5953e-05,0
-4.793e-05,0,-3.5953e-05,0,-9.58862e-05,-3.5953e-05,0
0,1.1977e-05,-1.1977e-05,1.1977e-05,7.6688e-05,0,1.1977e-05
0,1.1977e-05,-1.1977e-05,1.1977e-05,7.6688e-05,0,1.1977e-05
0,-2.39552e-05,0,-2.39771e-05,0,3.59547e-05,0
2.39759e-05,1.1977e-05,3.5953e-05,-2.39541e-05,-3.83615e-05,2.39759e-05,-3.5953e-05
0.000419437,0.00080292,0.0114926,-0.017916,0.00500451,0.0142729,-0.0092516
0.00183362,0.00532114,0.0829209,-0.0988843,0.0207476,0.0626671,-0.0404358
-0.0105818,-0.00425432,0.17934,-0.143304,0.0408605,0.127749,-0.0889209
-0.0418739,-0.0432881,0.212078,-0.138985,0.0537098,0.200861,-0.138218
-0.0461262,-0.102079,0.25056,-0.186818,0.072268,0.26415,-0.177866
-0.0158076,-0.166825,0.316427,-0.24808,0.0836999,0.301854,-0.185592
0.0121637,-0.214225,0.362167,-0.281982,0.0931872,0.342142,-0.217077
0.0259105,-0.248775,0.388454,-0.295167,0.113115,0.395609,-0.250369
0.0443886,-0.272911,0.421188,-0.305902,0.1333,0.432393,-0.262293
0.0730696,-0.289234,0.467936,-0.336801,0.147323,0.456335,-0.275296
0.10317,-0.303637,0.507568,-0.375337,0.159511,0.475367,-0.282198
0.130559,-0.322288,0.530423,-0.39308,0.167592,0.488885,-0.290493
0.152556,-0.34612,0.545581,-0.407275,0.183096,0.513189,-0.298173
0.178677,-0.361873,0.56072,-0.431047,0.194494,0.517288,-0.299673
0.211025,-0.37759,0.580371,-0.439655,0.205932,0.514519,-0.305063
0.240997,-0.391331,0.593785,-0.448712,0.221436,0.519433,-0.308422
0.262029,-0.400671,0.594536,-0.455114,0.22664,0.521565,-0.309066
0.281996,-0.419566,0.595283,-0.45099,0.232941,0.518151,-0.3066
0.299287,-0.436012,0.589826,-0.456073,0.244166,0.513836,-0.300941
0.315241,-0.455831,0.586355,-0.470464,0.249853,0.507497,-0.297024
0.333238,-0.476254,0.590006,-0.474229,0.259716,0.500941,-0.290203
0.341918,-0.488237,0.585708,-0.486871,0.269968,0.500486,-0.286238
0.340991,-0.493871,0.574199,-0.501996,0.277241,0.49713,-0.279154
0.333541,-0.496806,0.562374,-0.511104,0.28481,0.499359,-0.273391
0.327018,-0.49858,0.556726,-0.518354,0.288535,0.502475,-0.26282
0.325892,-0.506022,0.564001,-0.511391,0.301881,0.496926,-0.253269
0.321988,-0.515982,0.569397,-0.50057,0.305155,0.491761,-0.243226
0.311403,-0.516964,0.570999,-0.500701,0.307364,0.492277,-0.232297
0.296725,-0.513069,0.578145,-0.489508,0.310543,0.495308,-0.218238
0.272072,-0.503578,0.583031,-0.489892,0.318946,0.491474,-0.20586
0.238528,-0.491078,0.581034,-0.486524,0.321147,0.490383,-0.18298
0.197939,-0.480461,0.578921,-0.481839,0.321074,0.489125,-0.162622
0.154828,-0.468858,0.57944,-0.480388,0.321722,0.488885,-0.137846
0.113548,-0.461981,0.588544,-0.472275,0.326558,0.476026,-0.11483
0.0683837,-0.459403,0.594384,-0.468439,0.328606,0.461176,-0.0863125
0.0230451,-0.444365,0.597232,-0.473402,0.325024,0.463551,-0.0601115
-0.0178929,-0.43185,0.603133,-0.464556,0.324733,0.465982,-0.0246761
-0.0564684,-0.423237,0.604482,-0.467746,0.329492,0.457056,0.00248069
-0.0981173,-0.410769,0.596578,-0.469937,0.327992,0.461704,0.0167424
-0.133058,-0.399916,0.597412,-0.466415,0.324717,0.464354,0.0248307
-0.154552,-0.395981,0.608394,-0.468691,0.325365,0.45407,0.0305246
-0.17783,-0.39257,0.610391,-0.46451,0.331102,0.445407,0.0304632
-0.205343,-0.386045,0.600628,-0.46174,0.329181,0.449971,0.0270131
-0.232644,-0.386243,0.593757,-0.473917,0.327593,0.451627,0.0286656
-0.253485,-0.389857,0.588955,-0.478302,0.334608,0.45528,0.0424372
-0.272096,-0.388088,0.582408,-0.478232,0.337276,0.459405,0.0538199
-0.278364,-0.389377,0.586367,-0.485805,0.337101,0.457833,0.0667298
-0.280341,-0.390701,0.59317,-0.491917,0.337123,0.452035,0.0706454
-0.286682,-0.38843,0.588428,-0.490323,0.341875,0.457114,0.0703971
-0.295632,-0.386842,0.578645,-0.485038,0.34207,0.459009,0.0699623
-0.298724,-0.386315,0.576596,-0.484499,0.341073,0.457619,0.0689317
-0.300104,-0.386177,0.574178,-0.487794,0.341127,0.463789,0.0715596
-0.308059,-0.399066,0.559603,-0.484655,0.346327,0.475943,0.0744922
-0.31155,-0.41464,0.548987,-0.485229,0.346823,0.474779,0.0711162
-0.307904,-0.418899,0.548517,-0.494242,0.34763,0.481851,0.0595722
-0.299026,-0.421651,0.554704,-0.488597,0.350753,0.480807,0.0545176
-0.298484,-0.415052,0.548266,-0.492181,0.351369,0.486309,0.0467614
-0.299685,-0.408121,0.544708,-0.490634,0.352038,0.488357,0.0444146
-0.296267,-0.403524,0.545713,-0.484164,0.350794,0.489185,0.0446402
-0.292374,-0.409859,0.544217,-0.487566,0.35455,0.489052,0.0486332
-0.286788,-0.42428,0.544179,-0.489892,0.355684,0.482162,0.0528612
-0.284225,-0.436249,0.539675,-0.485817,0.358366,0.482761,0.0504309
-0.285985,-0.444641,0.530026,-0.494458,0.35948,0.488753,0.0479837
-0.286202,-0.448233,0.52775,-0.495824,0.364675,0.493451,0.0483336
-0.282498,-0.434059,0.53174,-0.495728,0.363066,0.492085,0.0473366
-0.280006,-0.420777,0.532856,-0.491449,0.361722,0.490419,0.050335
-0.281347,-0.415879,0.527342,-0.486572,0.36274,0.499084,0.0557373
-0.279108,-0.412244,0.526971,-0.49121,0.362546,0.501061,0.0608454
-0.270717,-0.421991,0.533621,-0.490335,0.366249,0.48517,0.0659357
-0.270239,-0.432186,0.527463,-0.489268,0.365192,0.492396,0.063506
-0.271676,-0.444077,0.520103,-0.499623,0.36924,0.49719,0.0596801
-0.2729,-0.453398,0.516617,-0.500989,0.369258,0.495476,0.0606057
-0.271544,-0.451939,0.514159,-0.501816,0.371157,0.501025,0.0665109
-0.26795,-0.444458,0.513753,-0.492983,0.37315,0.498808,0.0735131
-0.25968,-0.436851,0.520139,-0.485038,0.36832,0.500402,0.0814789
-0.248355,-0.429649,0.527354,-0.486692,0.368281,0.496651,0.0826293
-0.243585,-0.424791,0.525605,-0.48608,0.372747,0.494409,0.0822018
-0.239308,-0.428402,0.521506,-0.482438,0.372404,0.498353,0.0871473
-0.23546,-0.435266,0.519265,-0.497034,0.373955,0.498856,0.0955166
-0.232297,-0.442831,0.516388,-0.49852,0.372595,0.500198,0.0999821
-0.234813,-0.448485,0.503434,-0.499287,0.37919,0.503865,0.0986685
-0.237138,-0.454156,0.49254,-0.493307,0.377657,0.506729,0.10136
-0.227442,-0.449611,0.49707,-0.487866,0.37292,0.509666,0.109586
-0.212895,-0.437163,0.507233,-0.48704,0.373477,0.503566,0.116855
-0.202862,-0.431323,0.510445,-0.482952,0.373112,0.49991,0.117568
-0.198658,-0.428318,0.504896,-0.485002,0.37156,0.501768,0.124142
-0.194497,-0.434511,0.500366,-0.498041,0.369258,0.502379,0.127743
-0.188831,-0.44186,0.498808,-0.501265,0.371675,0.503973,0.127737
-0.185401,-0.448641,0.490694,-0.503122,0.371405,0.503769,0.124903
-0.179268,-0.460567,0.482498,-0.494494,0.371982,0.498425,0.12727
-0.168814,-0.464161,0.479668,-0.491677,0.373687,0.504728,0.122038
-0.147522,-0.452945,0.48384,-0.489724,0.370659,0.508563,0.1164
-0.123584,-0.445357,0.489412,-0.483899,0.371079,0.50051,0.110246
-0.100198,-0.437714,0.4897,-0.483996,0.372097,0.497957,0.0950687
-0.077396,-0.432965,0.485301,-0.494709,0.370178,0.507856,0.07893
-0.0577626,-0.445312,0.480053,-0.496974,0.371982,0.507305,0.0691594
-0.047267,-0.456946,0.46627,-0.504788,0.372901,0.509067,0.0568306
-0.04029,-0.478064,0.458674,-0.500486,0.377408,0.510061,0.0489544
-0.0328256,-0.491054,0.458468,-0.497142,0.374435,0.508323,0.0421256
-0.0197975,-0.48378,0.464618,-0.501768,0.372845,0.510396,0.0329439
0.000431414,-0.467602,0.473426,-0.495021,0.375798,0.505435,0.0272515
0.0202898,-0.448125,0.477487,-0.493319,0.371846,0.504476,0.0153761
0.0419678,-0.435449,0.479442,-0.503314,0.370755,0.508563,0.000563248
0.0660827,-0.435661,0.480591,-0.502918,0.371597,0.508923,-0.00671135
0.0852898,-0.445551,0.47206,-0.503805,0.374283,0.506106,-0.00868836
0.102755,-0.462866,0.460493,-0.493535,0.373629,0.509774,-0.00901236
0.123063,-0.474145,0.453005,-0.491306,0.37459,0.51211,-0.00524896
0.149783,-0.47696,0.453207,-0.495943,0.377062,0.515718,-0.00156998
0.18091,-0.465553,0.457799,-0.492301,0.376507,0.521026,-0.000299601
0.210256,-0.448557,0.463585,-0.49067,0.374147,0.516245,-0.0022411
0.242172,-0.434838,0.473582,-0.496795,0.377964,0.513045,-0.00521303
0.264474,-0.424372,0.472933,-0.499227,0.375739,0.517384,-0.0113374
0.282977,-0.42724,0.468776,-0.497394,0.375184,0.514615,-0.0230571
0.297552,-0.432653,0.45993,-0.486164,0.379785,0.510145,-0.0326698
0.312002,-0.433987,0.452226,-0.483492,0.379613,0.511799,-0.0399425
0.327106,-0.429993,0.452272,-0.483887,0.380226,0.516713,-0.0407833
0.341387,-0.407682,0.449626,-0.480736,0.380936,0.517215,-0.0400144
0.353759,-0.370046,0.448677,-0.477284,0.383505,0.510457,-0.0398366
0.369441,-0.331788,0.455366,-0.48257,0.382451,0.509689,-0.0379052
0.379358,-0.295119,0.455963,-0.480843,0.381395,0.507856,-0.0351146
0.384289,-0.267841,0.452274,-0.478351,0.384905,0.507652,-0.0288574
0.385626,-0.244748,0.444566,-0.46748,0.386036,0.502859,-0.013962
0.382983,-0.221356,0.433495,-0.457403,0.385826,0.493942,0.0058242
0.378124,-0.197852,0.422454,-0.457461,0.39244,0.48765,0.0221833
0.371095,-0.162706,0.408173,-0.454,0.391674,0.465145,0.0325724
0.369046,-0.120043,0.400192,-0.44669,0.391942,0.399473,0.0461981
0.364006,-0.0777076,0.39314,-0.450103,0.396812,0.299289,0.06661
0.354353,-0.0413926,0.382336,-0.450249,0.40128,0.180071,0.0930194
0.34042,-0.010834,0.369327,-0.448677,0.405614,0.0674369,0.117748
0.329475,0.0101264,0.364851,-0.444185,0.411538,-0.0332794,0.137024
0.323163,0.0287988,0.371724,-0.429202,0.417828,-0.0961279,0.161791
0.30782,0.0543952,0.373096,-0.425946,0.419477,-0.130385,0.175397
0.28468,0.0799847,0.372886,-0.427452,0.425326,-0.129696,0.173847
0.260879,0.117155,0.38055,-0.420265,0.427971,-0.082114,0.129187
0.238612,0.146199,0.393116,-0.400583,0.430369,-0.00342758,0.0623675
0.213111,0.166433,0.403092,-0.396285,0.433052,0.0682486,-0.0066511
0.176987,0.181793,0.406107,-0.394435,0.438365,0.122446,-0.0583526
0.141015,0.195578,0.405765,-0.338511,0.439303,0.158296,-0.0980407
0.109527,0.216357,0.409523,-0.232392,0.443351,0.207476,-0.102
0.0711727,0.23032,0.428977,-0.187333,0.451191,0.249997,-0.0463779
0.0141657,0.236239,0.447059,-0.190542,0.455143,0.285435,0.0132309
-0.0461382,0.234933,0.465469,-0.180562,0.456828,0.323183,0.044796
-0.0986206,0.232416,0.483623,-0.0988723,0.450254,0.32073,0.0576216
-0.147642,0.227096,0.501289,0.00129426,0.444883,0.314087,0.0129786
-0.195911,0.211011,0.520668,0.057334,0.45382,0.295718,-0.037188
-0.245671,0.194296,0.535047,0.084343,0.453741,0.300462,-0.0669064
-0.286346,0.175166,0.556429,0.0964275,0.453533,0.294807,-0.0721468
-0.317455,0.155923,0.579364,0.0837199,0.450654,0.273881,-0.0455031
-0.338299,0.134227,0.587817,0.073537,0.422661,0.205295,-0.00465
-0.346804,0.106669,0.580898,0.0259572,0.397695,0.155935,0.0124513
-0.338283,0.0698544,0.58278,-0.0596202,0.391635,0.157277,0.00127031
-0.316236,0.0390696,0.594588,-0.139272,0.384655,0.191764,0.0213924
-0.289916,0.0165378,0.597412,-0.173971,0.382451,0.238457,0.0458506
-0.25992,-0.00273247,0.594288,-0.151556,0.383294,0.283734,0.0731415
-0.234142,-0.0107017,0.587513,-0.125568,0.378808,0.33277,0.0990833
-0.219425,-0.0258147,0.579859,-0.122997,0.376487,0.377045,0.127731
-0.212715,-0.0456828,0.565762,-0.123051,0.375836,0.422087,0.163916
-0.206673,-0.0674249,0.559797,-0.119054,0.370446,0.455819,0.20273
-0.201522,-0.0945654,0.558608,-0.137744,0.367016,0.465109,0.224939
-0.212821,-0.126341,0.544313,-0.161324,0.364617,0.485481,0.246689
-0.225909,-0.151789,0.532543,-0.176188,0.365443,0.489892,0.264905
-0.240913,-0.168371,0.528338,-0.199255,0.362565,0.483851,0.27755
-0.25974,-0.183942,0.520787,-0.216059,0.360746,0.478435,0.289017
-0.282092,-0.201112,0.512698,-0.225728,0.362028,0.470009,0.294316
-0.302079,-0.219067,0.510924,-0.231973,0.358464,0.4572,0.297406
-0.320262,-0.23069,0.512218,-0.247265,0.356736,0.439796,0.296209
-0.342166,-0.239799,0.508922,-0.258937,0.355856,0.435712,0.295129
-0.36427,-0.246486,0.505004,-0.28015,0.358193,0.423425,0.291476
-0.389107,-0.239979,0.496327,-0.303278,0.353996,0.414213,0.282102
-0.413838,-0.226867,0.476732,-0.32653,0.350351,0.419686,0.26813
-0.432105,-0.215424,0.453976,-0.351993,0.353996,0.424951,0.258686
-0.446579,-0.200897,0.428327,-0.36995,0.35037,0.428003,0.246138
-0.455534,-0.192834,0.404626,-0.38834,0.35158,0.432561,0.235377
-0.461236,-0.188996,0.38372,-0.402452,0.350945,0.432737,0.226016
-0.464055,-0.195914,0.35681,-0.411577,0.352482,0.437642,0.217581
-0.466823,-0.209779,0.32226,-0.41039,0.352405,0.452826,0.213949
-0.467732,-0.225944,0.273703,-0.416558,0.350658,0.460673,0.202383
-0.466715,-0.242232,0.18961,-0.41643,0.357313,0.467506,0.196345
-0.458336,-0.254923,0.0977338,-0.40751,0.357062,0.461093,0.184693
-0.442244,-0.249098,0.0293247,-0.401259,0.356144,0.457463,0.176823
-0.428315,-0.225872,0.00726263,-0.392181,0.354378,0.451037,0.166453
-0.426509,-0.207214,-0.00921567,-0.380203,0.352577,0.455846,0.160237
-0.430832,-0.210592,-0.0554044,-0.383253,0.348644,0.458983,0.149986
-0.408773,-0.202936,-0.0297082,-0.393241,0.344332,0.440902,0.135946
-0.385302,-0.18153,0.0485373,-0.401529,0.340725,0.422047,0.126365
-0.393062,-0.18254,0.101288,-0.409827,0.34345,0.362514,0.0730062
-0.403267,-0.212306,0.152647,-0.419302,0.351597,0.293669,0.00258865
-0.395698,-0.248823,0.217557,-0.4273,0.354936,0.217533,-0.0577027
-0.366427,-0.297132,0.298918,-0.435673,0.365192,0.166549,-0.0965473
-0.336401,-0.352388,0.3556,-0.446258,0.368415,0.135131,-0.125784
-0.303136,-0.41168,0.391438,-0.448389,0.377465,0.0962716,-0.153474
-0.265241,-0.448643,0.411277,-0.445336,0.384714,0.0574151,-0.190329
-0.21342,-0.470057,0.440335,-0.445213,0.389833,0.0299014,-0.222373
-0.148301,-0.489353,0.476086,-0.454683,0.394147,-0.00155791,-0.251423
-0.0883978,-0.498017,0.489436,-0.460385,0.396371,-0.0120804,-0.272876
-0.0247469,-0.505819,0.499599,-0.469723,0.403581,-0.0123555,-0.290395
0.035594,-0.503673,0.511499,-0.47539,0.404559,-0.0134946,-0.302118
0.0950567,-0.499875,0.523818,-0.484583,0.408835,-0.0169932,-0.310288
0.151832,-0.50667,0.529272,-0.489664,0.413706,-0.0274685,-0.316787
0.205141,-0.521134,0.523087,-0.495057,0.413303,-0.0393073,-0.321218
0.264797,-0.542286,0.524106,-0.500486,0.417214,-0.0630236,-0.32389
0.327705,-0.566149,0.528182,-0.512111,0.423811,-0.0992318,-0.326686
0.386303,-0.572437,0.52443,-0.523063,0.422794,-0.116113,-0.329367
0.443415,-0.569373,0.531106,-0.540598,0.42523,-0.150633,-0.328628
0.490743,-0.563593,0.539553,-0.563246,0.431729,-0.187417,-0.327545
0.521674,-0.564651,0.538045,-0.582544,0.431788,-0.213097,-0.327537
0.542418,-0.57982,0.535119,-0.583115,0.436925,-0.238025,-0.325616
0.562338,-0.588176,0.541413,-0.583562,0.439535,-0.266512,-0.321125
0.582048,-0.6006,0.554402,-0.588052,0.442313,-0.301073,-0.321469
0.590813,-0.594336,0.55728,-0.590573,0.445364,-0.323738,-0.314402
0.599881,-0.575481,0.5582,-0.592618,0.446378,-0.341279,-0.318162
0.605889,-0.555399,0.560396,-0.587841,0.449813,-0.357774,-0.306121
0.605058,-0.547355,0.554354,-0.577483,0.451766,-0.368902,-0.310241
0.603229,-0.553913,0.54363,-0.54538,0.455086,-0.360638,-0.301626
0.606795,-0.568327,0.541423,-0.522968,0.454144,-0.367476,-0.297585
0.609844,-0.580842,0.539819,-0.496842,0.46057,-0.361118,-0.287473
0.608929,-0.573732,0.528564,-0.4749,0.458094,-0.346324,-0.280365
0.609665,-0.550197,0.523508,-0.460326,0.457598,-0.335159,-0.271881
0.610558,-0.520763,0.523459,-0.439236,0.461794,-0.325244,-0.265325
0.605518,-0.503002,0.519265,-0.407402,0.458902,-0.299601,-0.257763
0.602745,-0.502283,0.520715,-0.375877,0.461219,-0.293439,-0.247672
0.599693,-0.511535,0.520356,-0.334344,0.45963,-0.283889,-0.242794
0.593565,-0.532219,0.515753,-0.292289,0.461008,-0.281407,-0.228654
0.581465,-0.537985,0.496806,-0.239187,0.46266,-0.278233,-0.220935
0.569669,-0.528241,0.485158,-0.182084,0.460855,-0.258686,-0.208125
0.556535,-0.513632,0.488394,-0.144982,0.461277,-0.237007,-0.196273
0.541964,-0.499599,0.496375,-0.107453,0.462219,-0.197948,-0.178833
0.525113,-0.502331,0.509606,-0.0646055,0.461814,-0.159674,-0.166433
0.499012,-0.511104,0.517084,-0.04336,0.45988,-0.143275,-0.156614
0.472527,-0.528528,0.525197,-0.0356163,0.46515,-0.144395,-0.141315
0.445908,-0.541712,0.524622,-0.0345873,0.46337,-0.14898,-0.131482
0.433615,-0.532087,0.53017,-0.0293607,0.463999,-0.15699,-0.1167
0.434067,-0.516845,0.541497,-0.0153522,0.461625,-0.176208,-0.108076
0.43594,-0.499958,0.541087,-0.000491343,0.45957,-0.196776,-0.10722
0.44097,-0.492348,0.534174,0.0107501,0.460934,-0.205247,-0.105032
0.450956,-0.497658,0.528504,0.0247469,0.46283,-0.207682,-0.0940141
0.463729,-0.508443,0.516509,0.0482377,0.460455,-0.204851,-0.0880862
0.48203,-0.532435,0.507652,0.0927798,0.467355,-0.203559,-0.0757506
0.498544,-0.54055,0.493678,0.133556,0.464194,-0.184178,-0.0591077
0.515274,-0.534892,0.48547,0.166373,0.465437,-0.171946,-0.0392355
0.532293,-0.522094,0.486715,0.205882,0.465766,-0.160101,-0.0214643
0.541351,-0.502211,0.486548,0.232153,0.460989,-0.138463,-0.00626762
0.54544,-0.50812,0.486044,0.259753,0.465402,-0.124291,0.00127037
0.542621,-0.519732,0.483481,0.27629,0.464517,-0.118953,-0.00150998
0.540214,-0.537182,0.486452,0.287964,0.463331,-0.131302,-0.00244485
0.536222,-0.558404,0.489065,0.291677,0.469138,-0.14473,-0.00468571
0.527115,-0.552415,0.482017,0.291571,0.464904,-0.137678,-0.01238
0.526419,-0.533777,0.488658,0.288909,0.465878,-0.147223,-0.0177602
0.52515,-0.504369,0.49701,0.280462,0.464252,-0.156805,-0.0268214
0.523842,-0.485518,0.501912,0.270969,0.463156,-0.160885,-0.0323806
0.522548,-0.485278,0.502367,0.272419,0.465994,-0.166769,-0.0361436
0.519889,-0.487183,0.49677,0.273223,0.463235,-0.158795,-0.0430364
0.521733,-0.505855,0.495956,0.278471,0.46561,-0.165546,-0.044772
0.519373,-0.510517,0.48644,0.280713,0.468393,-0.160461,-0.0535708
0.521745,-0.4987,0.481263,0.288178,0.46561,-0.15264,-0.0535203
0.529872,-0.481107,0.486392,0.293441,0.463811,-0.157812,-0.0536787
0.53283,-0.460184,0.4865,0.294721,0.465131,-0.149452,-0.0551142
0.536883,-0.459163,0.48596,0.299925,0.463849,-0.150873,-0.0583526
0.539302,-0.465457,0.48378,0.304009,0.465936,-0.148889,-0.0619451
0.54218,-0.47684,0.47823,0.315732,0.467396,-0.136456,-0.0652437
0.544299,-0.49254,0.470766,0.3312,0.468505,-0.132351,-0.0650129
0.541185,-0.494697,0.455831,0.330881,0.470484,-0.119498,-0.0671493
0.542609,-0.480161,0.454899,0.330889,0.470404,-0.111475,-0.0653245
0.545691,-0.450558,0.464412,0.333565,0.465901,-0.113601,-0.0717513
0.545318,-0.429445,0.472479,0.332974,0.468141,-0.114495,-0.0781833
0.544912,-0.417625,0.484235,0.32852,0.466936,-0.116549,-0.0835321
0.538487,-0.418288,0.487819,0.330038,0.4663,-0.112937,-0.0874109
0.533743,-0.429345,0.490275,0.327417,0.467473,-0.117197,-0.0908906
0.524705,-0.442052,0.483061,0.314423,0.467604,-0.114507,-0.0995866
0.517456,-0.456526,0.471867,0.306288,0.470541,-0.1145,-0.107621
0.516197,-0.453257,0.468465,0.301444,0.471036,-0.119911,-0.110276
0.520835,-0.435518,0.470824,0.30358,0.466706,-0.123644,-0.112211
0.532267,-0.42229,0.47822,0.310912,0.471976,-0.131176,-0.114423
0.541557,-0.406994,0.483444,0.315564,0.469199,-0.145924,-0.118479
0.547127,-0.400803,0.482438,0.321014,0.471113,-0.142381,-0.114734
0.549632,-0.402601,0.476542,0.324262,0.472877,-0.141207,-0.116652
0.547645,-0.410482,0.464496,0.327261,0.471922,-0.133999,-0.123081
0.546971,-0.420193,0.456924,0.324909,0.477076,-0.128037,-0.122536
0.543186,-0.422898,0.455256,0.325572,0.473111,-0.127192,-0.124603
0.544275,-0.420924,0.459009,0.327989,0.474028,-0.132447,-0.128132
0.547513,-0.41071,0.468475,0.328747,0.474702,-0.134227,-0.136911
0.552244,-0.399629,0.482054,0.332051,0.471343,-0.134388,-0.135119
0.554164,-0.391954,0.48958,0.334644,0.471883,-0.144677,-0.14282
0.546169,-0.385955,0.483696,0.333873,0.471918,-0.13464,-0.145641
0.539615,-0.392289,0.475654,0.334344,0.471136,-0.1273,-0.1485
0.532339,-0.396273,0.46886,0.333549,0.475504,-0.130505,-0.15681
0.528637,-0.400966,0.469637,0.328256,0.475603,-0.124052,-0.160581
0.532543,-0.403967,0.476338,0.323339,0.478975,-0.131704,-0.162251
0.533383,-0.401625,0.47569,0.327177,0.478096,-0.139152,-0.166681
0.541039,-0.40024,0.477513,0.327809,0.48141,-0.140596,-0.166817
0.54532,-0.387759,0.476313,0.33486,0.479151,-0.137606,-0.170827
0.549188,-0.380371,0.475523,0.342525,0.477134,-0.132542,-0.173228
0.546842,-0.373773,0.468787,0.339737,0.476428,-0.12821,-0.179085
0.541591,-0.374307,0.46264,0.339769,0.477632,-0.122033,-0.180646
0.543558,-0.377405,0.469829,0.340816,0.478499,-0.131506,-0.184825
0.544503,-0.381917,0.475895,0.342262,0.477076,-0.136989,-0.188112
0.547525,-0.388119,0.476421,0.339426,0.481413,-0.139548,-0.195779
0.546588,-0.392522,0.47007,0.335503,0.480758,-0.143628,-0.197579
0.547477,-0.393692,0.46428,0.32949,0.483312,-0.146223,-0.204504
0.547726,-0.388939,0.460999,0.327857,0.48536,-0.147606,-0.207694
0.547223,-0.380191,0.458302,0.32697,0.481601,-0.143148,-0.21782
0.549311,-0.37496,0.462722,0.325691,0.485344,-0.146415,-0.220024
0.550579,-0.369777,0.469675,0.332435,0.4821,-0.158536,-0.227204
0.552606,-0.362388,0.477751,0.33323,0.4822,-0.160796,-0.232991
0.553011,-0.357481,0.478387,0.32232,0.483346,-0.164204,-0.236935
0.548376,-0.36059,0.470321,0.314318,0.480129,-0.167639,-0.241584
0.548434,-0.365055,0.467027,0.300809,0.483979,-0.174307,-0.24645
0.54683,-0.364797,0.464436,0.298067,0.480666,-0.17942,-0.250584
0.548038,-0.369933,0.462892,0.287231,0.480854,-0.181988,-0.255102
0.550257,-0.373462,0.461428,0.279108,0.483849,-0.197325,-0.258434
0.553982,-0.373767,0.458734,0.272946,0.479722,-0.20181,-0.268081
0.560696,-0.365192,0.458612,0.266919,0.484194,-0.215158,-0.271078
0.565559,-0.357313,0.457967,0.263851,0.482138,-0.216886,-0.27961
0.565034,-0.346628,0.452272,0.252023,0.48243,-0.22598,-0.284848
0.55989,-0.338978,0.450704,0.244736,0.483691,-0.231889,-0.291198
0.561631,-0.330641,0.462459,0.237713,0.482545,-0.236155,-0.293321
0.563425,-0.331979,0.470646,0.233987,0.481851,-0.255462,-0.297957
0.560133,-0.33577,0.468799,0.229779,0.480877,-0.254791,-0.303916
0.559567,-0.341495,0.462077,0.220241,0.481448,-0.257595,-0.311031
0.556933,-0.346413,0.450834,0.219185,0.482832,-0.264954,-0.316547
0.557745,-0.350567,0.449506,0.209611,0.481793,-0.26403,-0.323063
0.554871,-0.349996,0.44598,0.204803,0.480896,-0.27568,-0.326938
0.551453,-0.34775,0.450237,0.195159,0.482292,-0.277824,-0.330493
0.555231,-0.339054,0.466174,0.194485,0.480225,-0.293633,-0.334548
0.555276,-0.325244,0.476374,0.189838,0.479952,-0.300629,-0.337264
0.551525,-0.314471,0.476518,0.182659,0.479991,-0.302403,-0.345114
0.546063,-0.304766,0.466689,0.176604,0.48057,-0.304671,-0.346425
0.54485,-0.304956,0.457056,0.174043,0.479607,-0.296279,-0.354533
0.541593,-0.308494,0.448041,0.165482,0.479745,-0.29851,-0.354898
0.541854,-0.315034,0.443826,0.154257,0.477997,-0.298137,-0.363737
0.545583,-0.316607,0.445045,0.145792,0.478978,-0.303172,-0.365564
0.546037,-0.319372,0.44168,0.136341,0.474948,-0.305567,-0.370376
0.546506,-0.31614,0.437435,0.12416,0.477233,-0.309476,-0.372239
0.541627,-0.310756,0.42543,0.107448,0.473261,-0.308826,-0.375745
0.536056,-0.298415,0.41385,0.0911543,0.471922,-0.306444,-0.378807
0.53132,-0.285673,0.4032,0.0825335,0.472647,-0.304428,-0.384181
0.525701,-0.272588,0.389569,0.07591,0.470599,-0.301315,-0.389197
0.525964,-0.256516,0.384853,0.0675895,0.470538,-0.297609,-0.388664
0.526983,-0.244293,0.381168,0.0661785,0.469947,-0.296233,-0.39646
0.52443,-0.233975,0.367536,0.0654084,0.470404,-0.292109,-0.395926
0.512626,-0.232596,0.348618,0.0623914,0.470982,-0.283086,-0.405245
0.498089,-0.23473,0.332327,0.0599437,0.47048,-0.273282,-0.405273
0.481562,-0.23238,0.323115,0.0475666,0.465862,-0.276183,-0.408564
0.458194,-0.233519,0.315394,0.026137,0.46678,-0.263299,-0.406556
0.439281,-0.229504,0.308242,0.0118527,0.461318,-0.268417,-0.407174
0.429493,-0.22102,0.309474,-0.00192942,0.459839,-0.265972,-0.40471
0.417349,-0.204971,0.299601,-0.0166225,0.456275,-0.270682,-0.404633
0.411685,-0.189322,0.283097,-0.0326083,0.454278,-0.271868,-0.400899
0.410602,-0.171918,0.261394,-0.0422574,0.452497,-0.271366,-0.401553
0.412488,-0.160693,0.237845,-0.0501049,0.453223,-0.278783,-0.399293
0.409947,-0.148829,0.209396,-0.0596801,0.450117,-0.274253,-0.40042
0.403615,-0.132908,0.184166,-0.0694263,0.450963,-0.274865,-0.396927
0.396237,-0.119216,0.170675,-0.0808677,0.449427,-0.282486,-0.393169
0.381575,-0.109802,0.159538,-0.0895603,0.447166,-0.285076,-0.39018
0.367512,-0.100282,0.154509,-0.101312,0.447049,-0.296914,-0.388196
0.355832,-0.0932396,0.156889,-0.110521,0.440839,-0.303424,-0.385578
0.342154,-0.0909702,0.149739,-0.116867,0.43495,-0.322177,-0.38363
0.333949,-0.088314,0.151448,-0.120852,0.433015,-0.32206,-0.378999
0.322824,-0.0818144,0.147199,-0.1254,0.424922,-0.335826,-0.381952
0.315433,-0.0772522,0.141082,-0.13183,0.422335,-0.336094,-0.377548
0.308371,-0.0724909,0.136437,-0.130445,0.417118,-0.349464,-0.382036
0.302202,-0.0677245,0.13032,-0.130703,0.414415,-0.348857,-0.378279
0.296004,-0.0615016,0.122776,-0.136509,0.408528,-0.354857,-0.379268
0.289714,-0.0516653,0.121739,-0.132729,0.407991,-0.361621,-0.37478
0.285434,-0.0436695,0.118006,-0.138463,0.401453,-0.36575,-0.376704
0.278496,-0.035642,0.110965,-0.137906,0.3957,-0.36675,-0.374265
0.276398,-0.0333633,0.112146,-0.138175,0.395355,-0.373719,-0.373708
0.273451,-0.0316392,0.111372,-0.137726,0.388241,-0.377728,-0.371976
0.268069,-0.034346,0.103649,-0.145341,0.381531,-0.380227,-0.371203
0.264379,-0.0350667,0.0962597,-0.147134,0.38013,-0.3906,-0.372503
0.263,-0.0338307,0.091066,-0.147834,0.370697,-0.39281,-0.371982
0.264295,-0.0295778,0.0809315,-0.144509,0.360782,-0.40546,-0.371556
0.264126,-0.0183235,0.0645096,-0.143664,0.352462,-0.413854,-0.368099
0.266128,-0.00587241,0.041059,-0.149063,0.342527,-0.422179,-0.364737
0.268548,0.00738212,0.0158668,-0.13416,0.328744,-0.435796,-0.355899
0.271245,0.0183953,-0.00627959,-0.104896,0.314095,-0.445659,-0.351274
0.26022,0.0209849,-0.0226028,-0.0927722,0.306133,-0.466989,-0.341415
0.234754,0.00794536,-0.0384685,-0.0676734,0.294287,-0.478399,-0.332998
0.208639,-0.00892847,-0.044139,-0.0373677,0.282164,-0.483408,-0.330222
0.176092,-0.017928,-0.0386842,-0.0129786,0.275343,-0.498928,-0.322728
0.142017,-0.0275764,-0.0328496,-0.00450618,0.266708,-0.506442,-0.326866
0.111271,-0.0275391,-0.0350411,0.00387083,0.264778,-0.508922,-0.321398
0.0987285,-0.0211047,-0.0341679,0.0206493,0.249566,-0.505795,-0.322719
0.0946373,-0.00757386,-0.0475523,0.0352807,0.236784,-0.503074,-0.317083
0.0848264,0.00373918,-0.0738247,0.0548172,0.202644,-0.510457,-0.313215
0.073893,0.0104979,-0.112481,0.0751513,0.172991,-0.512733,-0.301324
0.0590477,0.00941982,-0.157069,0.11311,0.141686,-0.510924,-0.280354
0.0352927,0.0023249,-0.205165,0.160142,0.114298,-0.5106,-0.263359
0.000731049,-0.00266056,-0.246725,0.19512,0.0900085,-0.507413,-0.241608
-0.0386243,-0.0029241,-0.27502,0.231003,0.0652311,-0.506538,-0.234274
-0.0808595,-0.00250476,-0.294112,0.263228,0.0446591,-0.498245,-0.226699
-0.12558,-0.00304392,-0.305651,0.293727,0.0186566,-0.493259,-0.219162
-0.165147,-0.00548891,-0.311166,0.316991,-0.00471711,-0.499671,-0.210688
-0.198406,-0.015675,-0.312302,0.329007,-0.0202289,-0.502175,-0.200216
-0.226364,-0.0246282,-0.324349,0.338683,-0.0367206,-0.495057,-0.191896
-0.249158,-0.0338906,-0.337396,0.348901,-0.0499108,-0.490683,-0.179556
-0.266763,-0.0382546,-0.346712,0.360926,-0.0629906,-0.489783,-0.1764
-0.278267,-0.0404099,-0.352268,0.370712,-0.0726899,-0.497933,-0.169297
-0.288156,-0.043336,-0.361429,0.384811,-0.0778514,-0.4952,-0.166177
-0.296255,-0.0460064,-0.371982,0.397711,-0.0821236,-0.48964,-0.158488
-0.302798,-0.0506921,-0.378082,0.403152,-0.0912122,-0.495452,-0.15367
-0.308901,-0.0560636,-0.379502,0.403363,-0.10345,-0.4958,-0.152946
-0.315789,-0.0601594,-0.378321,0.405369,-0.114087,-0.49145,-0.146
-0.320802,-0.0674369,-0.376278,0.402392,-0.125732,-0.488082,-0.14089
-0.326071,-0.0752712,-0.369861,0.391899,-0.13445,-0.490947,-0.133357
-0.335507,-0.0811113,-0.37001,0.379502,-0.141456,-0.499551,-0.12869
-0.34473,-0.0878543,-0.372078,0.367811,-0.152052,-0.491953,-0.122368
-0.347839,-0.0952889,-0.373066,0.352393,-0.157141,-0.495656,-0.116645
-0.349296,-0.1013,-0.375577,0.353359,-0.162963,-0.50202,-0.10716
-0.355125,-0.105895,-0.389317,0.353963,-0.169336,-0.492959,-0.104649
-0.360837,-0.105567,-0.402469,0.345138,-0.17627,-0.489808,-0.097849
-0.360327,-0.10526,-0.404669,0.342901,-0.184025,-0.490491,-0.0894285
-0.361316,-0.106597,-0.402912,0.344011,-0.186547,-0.493547,-0.0832405
-0.368272,-0.108736,-0.40588,0.344579,-0.191081,-0.498376,-0.0844429
-0.37203,-0.111762,-0.401307,0.339266,-0.193411,-0.497681,-0.081419
-0.377536,-0.116034,-0.399756,0.336106,-0.194303,-0.501013,-0.076677
-0.38665,-0.119792,-0.399173,0.330697,-0.195195,-0.504345,-0.073186
-0.392469,-0.121811,-0.395909,0.324421,-0.2018,-0.500845,-0.0686833
-0.394104,-0.123579,-0.394488,0.318689,-0.207198,-0.496064,-0.0697226
-0.399396,-0.128055,-0.401074,0.319399,-0.209029,-0.490167,-0.0696421
-0.406675,-0.136006,-0.413434,0.321086,-0.213218,-0.489197,-0.0667266
-0.404813,-0.137798,-0.419099,0.320214,-0.213114,-0.495141,-0.0594432
-0.4006,-0.137276,-0.415831,0.320535,-0.21573,-0.496483,-0.0563725
-0.401673,-0.139704,-0.41772,0.321173,-0.221052,-0.502751,-0.0516173
-0.399845,-0.139517,-0.414836,0.319408,-0.222576,-0.511894,-0.0498652
-0.398227,-0.136905,-0.410978,0.326934,-0.225893,-0.506274,-0.0544311
-0.396939,-0.138445,-0.409751,0.332295,-0.227648,-0.503038,-0.0538225
-0.401486,-0.139913,-0.40936,0.325975,-0.227216,-0.502235,-0.0525976
-0.402956,-0.139488,-0.406851,0.319627,-0.226632,-0.50323,-0.0477823
-0.40779,-0.144251,-0.414836,0.322093,-0.235346,-0.50486,-0.0426029
-0.415551,-0.153342,-0.424372,0.315145,-0.237965,-0.501109,-0.040244
-0.416251,-0.155336,-0.423225,0.30166,-0.237915,-0.506286,-0.0386363
-0.417181,-0.155763,-0.419422,0.303892,-0.243717,-0.512111,-0.0367805
-0.41522,-0.157505,-0.41697,0.30444,-0.243054,-0.499443,-0.0332315
-0.413023,-0.156482,-0.417469,0.298738,-0.247782,-0.495524,-0.034096
-0.412847,-0.163533,-0.420109,0.296447,-0.251605,-0.485961,-0.0346696
-0.411057,-0.16547,-0.421591,0.29905,-0.25133,-0.482749,-0.0353064
-0.40882,-0.169825,-0.423884,0.301492,-0.251433,-0.476338,-0.0326563
-0.407222,-0.178306,-0.427871,0.305869,-0.249163,-0.465323,-0.0281397
-0.414513,-0.179627,-0.439284,0.305651,-0.254558,-0.460747,-0.0252861
-0.417852,-0.18733,-0.438741,0.296557,-0.25459,-0.465071,-0.0191992
-0.417545,-0.187812,-0.429025,0.285326,-0.257607,-0.462425,-0.0158188
-0.420801,-0.186491,-0.424216,0.286646,-0.259019,-0.460002,-0.0105224
-0.422039,-0.187657,-0.418887,0.275355,-0.256936,-0.470682,-0.0085925
-0.425043,-0.188996,-0.414257,0.273499,-0.262643,-0.466737,-0.00645965
-0.423453,-0.193469,-0.414848,0.272755,-0.264989,-0.459369,-0.00510517
-0.420273,-0.189883,-0.416091,0.278029,-0.267648,-0.456922,-0.00460207
-0.416466,-0.192199,-0.419043,0.279406,-0.265258,-0.455306,-0.00551261
-0.416642,-0.197769,-0.428602,0.279779,-0.264906,-0.447083,-0.00598028
-0.420349,-0.201282,-0.439499,0.279238,-0.269342,-0.442028,-0.00762179
-0.417113,-0.197436,-0.433268,0.273318,-0.266542,-0.443766,-0.00865242
-0.41832,-0.195192,-0.425798,0.276471,-0.271406,-0.440731,-0.00823336
-0.420049,-0.196609,-0.41975,0.273881,-0.269112,-0.444796,-0.00653127
-0.424743,-0.188576,-0.417816,0.268873,-0.270371,-0.449456,-0.00655553
-0.426149,-0.188675,-0.412296,0.265852,-0.277146,-0.446127,-0.00401462
-0.424588,-0.189787,-0.407642,0.258962,-0.277542,-0.450522,-0.00129432
-0.425298,-0.199197,-0.413722,0.258398,-0.279312,-0.449314,-0.000215696
-0.427104,-0.207836,-0.427044,0.255234,-0.277772,-0.443487,-4.79541e-05
-0.431147,-0.219091,-0.437558,0.24754,-0.281978,-0.440302,0.000179765
-0.430388,-0.222373,-0.437159,0.237581,-0.282854,-0.445884,-0.000191751
-0.429037,-0.221583,-0.435257,0.237462,-0.285927,-0.443466,0.000275625
-0.429897,-0.217615,-0.432677,0.23721,-0.285366,-0.442397,0.000239705
-0.429145,-0.211972,-0.428414,0.234945,-0.285467,-0.45255,0.000155789
-0.428435,-0.211766,-0.423377,0.23558,-0.289795,-0.450498,-9.58864e-05
-0.425035,-0.212607,-0.419834,0.232273,-0.289935,-0.44669,0.000395483
-0.423797,-0.214379,-0.422131,0.237006,-0.286325,-0.442888,0.000479367
-0.42253,-0.222266,-0.426269,0.239571,-0.284624,-0.437714,0.000107859
-0.425043,-0.230115,-0.435733,0.240038,-0.288952,-0.432569,0.000970754
-0.425934,-0.231937,-0.43624,0.233927,-0.288804,-0.433232,0.00045539
-0.425199,-0.230714,-0.428315,0.227694,-0.289469,-0.43638,0.0014621
-0.42827,-0.22815,-0.422386,0.223189,-0.291009,-0.43745,0.0017976
-0.431742,-0.220995,-0.419135,0.214942,-0.294781,-0.447011,0.00254072
-0.431398,-0.218635,-0.413135,0.212715,-0.297739,-0.447373,0.00393074
-0.428447,-0.217471,-0.411608,0.214403,-0.30107,-0.450258,0.00407472
-0.425598,-0.221607,-0.417377,0.209707,-0.300366,-0.450656,0.00312782
-0.423393,-0.229696,-0.426701,0.206615,-0.301209,-0.445659,0.00301996
-0.424012,-0.24132,-0.440515,0.202826,-0.306363,-0.441378,0.00162989
-0.42241,-0.247576,-0.447325,0.201918,-0.306099,-0.442495,0.00173765
-0.419518,-0.255642,-0.443907,0.194293,-0.306344,-0.444554,0.00232501
-0.421416,-0.253461,-0.441932,0.191827,-0.309723,-0.44017,0.00431422
-0.424084,-0.251927,-0.43789,0.182045,-0.311463,-0.451769,0.00719072
-0.425778,-0.253437,-0.432165,0.179088,-0.314325,-0.452394,0.0143568
-0.422155,-0.248307,-0.430172,0.174423,-0.315279,-0.447922,0.0268214
-0.417665,-0.247253,-0.428306,0.175265,-0.31605,-0.449698,0.0357361
-0.415024,-0.24935,-0.434607,0.17676,-0.318942,-0.445752,0.0414425
-0.4122,-0.250692,-0.443178,0.177303,-0.321649,-0.433939,0.0443886
-0.411345,-0.254647,-0.44936,0.180008,-0.317676,-0.438945,0.0487051
-0.409971,-0.257823,-0.44663,0.175649,-0.318351,-0.436575,0.0539398
-0.411908,-0.256265,-0.442097,0.17646,-0.32362,-0.432893,0.0653037
-0.417257,-0.255977,-0.437726,0.169872,-0.321649,-0.445719,0.0763018
-0.424156,-0.259717,-0.434523,0.170456,-0.320878,-0.44562,0.0854856
-0.424579,-0.260639,-0.432189,0.165103,-0.324986,-0.446127,0.0909821
-0.4214,-0.263012,-0.429645,0.164631,-0.32548,-0.45063,0.0939826
-0.421188,-0.270178,-0.436899,0.165786,-0.327478,-0.442747,0.100713
-0.419015,-0.279491,-0.446903,0.163792,-0.323927,-0.437914,0.112643
-0.419247,-0.288298,-0.457583,0.167679,-0.325503,-0.441525,0.116184
-0.419314,-0.2941,-0.458156,0.159909,-0.324157,-0.432318,0.118024
-0.420649,-0.296123,-0.453269,0.160166,-0.32512,-0.432752,0.126383
-0.426038,-0.291356,-0.447107,0.161396,-0.321607,-0.440994,0.132932
-0.431542,-0.286273,-0.439595,0.161424,-0.322608,-0.436959,0.137588
-0.432129,-0.276769,-0.431207,0.167452,-0.326845,-0.436527,0.148038
-0.429501,-0.271977,-0.423114,0.166405,-0.325135,-0.436261,0.15333
-0.430248,-0.272575,-0.426653,0.173036,-0.323106,-0.429732,0.156187
-0.428447,-0.280018,-0.434535,0.167436,-0.324272,-0.424672,0.163181
-0.429409,-0.292948,-0.441932,0.167751,-0.321879,-0.424639,0.166062
-0.432497,-0.304575,-0.448904,0.166777,-0.319594,-0.41343,0.169114
-0.433507,-0.305003,-0.44476,0.159147,-0.314919,-0.413051,0.171131
-0.436764,-0.306336,-0.438406,0.162618,-0.315222,-0.423425,0.172733
-0.444425,-0.304992,-0.437115,0.152316,-0.31559,-0.420625,0.173156
-0.445836,-0.304407,-0.432294,0.151113,-0.314493,-0.421484,0.17519
-0.44192,-0.300953,-0.428558,0.150423,-0.312465,-0.418432,0.177842
-0.439976,-0.301207,-0.429513,0.147577,-0.314512,-0.415743,0.175981
-0.436695,-0.303158,-0.434945,0.148313,-0.313059,-0.407934,0.176584
-0.435326,-0.302274,-0.439712,0.142065,-0.311847,-0.39501,0.177587
-0.435557,-0.301852,-0.440278,0.140572,-0.305466,-0.403895,0.180742
-0.43704,-0.297911,-0.434283,0.143886,-0.308549,-0.401038,0.177443
-0.441848,-0.298005,-0.427468,0.13869,-0.306156,-0.402109,0.179328
-0.453015,-0.300236,-0.425498,0.135976,-0.305423,-0.408612,0.180619
-0.45823,-0.301876,-0.420565,0.130373,-0.300385,-0.408653,0.181269
-0.455628,-0.299985,-0.416894,0.125802,-0.30481,-0.410925,0.185784
-0.4543,-0.303685,-0.423153,0.127557,-0.306789,-0.399329,0.184745
-0.45244,-0.310255,-0.433684,0.12247,-0.303045,-0.400643,0.187857
-0.453125,-0.313476,-0.444005,0.112997,-0.300347,-0.399737,0.187669
-0.450498,-0.319088,-0.447011,0.110294,-0.299824,-0.388167,0.193214
-0.451687,-0.315238,-0.442004,0.112901,-0.300442,-0.392594,0.190761
-0.455786,-0.312386,-0.432609,0.105974,-0.295342,-0.394452,0.192402
-0.464161,-0.305102,-0.428722,0.107058,-0.291483,-0.395022,0.194736
-0.463959,-0.294805,-0.418695,0.11193,-0.294748,-0.393038,0.195914
-0.461512,-0.286035,-0.411045,0.109515,-0.29177,-0.392913,0.19693
-0.463156,-0.286189,-0.415843,0.10565,-0.291948,-0.39094,0.196788
-0.462423,-0.297887,-0.428351,0.108616,-0.28805,-0.380604,0.195504
-0.462065,-0.308755,-0.438517,0.108263,-0.28681,-0.380227,0.19879
-0.459798,-0.316979,-0.437327,0.102036,-0.282969,-0.381108,0.19663
-0.464929,-0.322668,-0.434922,0.0965787,-0.28309,-0.37759,0.19837
-0.469398,-0.322228,-0.430975,0.0949174,-0.281895,-0.388059,0.198655
-0.472431,-0.319073,-0.424064,0.096303,-0.274691,-0.385272,0.202361
-0.47533,-0.312544,-0.420489,0.0894405,-0.279709,-0.386429,0.203006
-0.473102,-0.301624,-0.414968,0.0812871,-0.280271,-0.383307,0.206424
-0.469661,-0.29712,-0.415839,0.079721,-0.279422,-0.377536,0.208015
-0.470418,-0.297957,-0.428019,0.07913,-0.277874,-0.369549,0.211361
-0.469649,-0.299769,-0.434067,0.0755504,-0.274954,-0.35654,0.212006
-0.466463,-0.297454,-0.4244,0.0711727,-0.276053,-0.368195,0.213003
-0.465886,-0.300584,-0.419674,0.0687192,-0.273247,-0.357127,0.216548
-0.469004,-0.308023,-0.422362,0.0707772,-0.270089,-0.367907,0.218407
-0.472598,-0.310327,-0.421496,0.0728179,-0.264196,-0.363491,0.219317
-0.474325,-0.308203,-0.419306,0.0648931,-0.264356,-0.359806,0.225322
-0.471974,-0.305953,-0.414533,0.0641531,-0.265558,-0.361921,0.226172
-0.475511,-0.306142,-0.423393,0.0566122,-0.264606,-0.351933,0.230344
-0.481622,-0.312928,-0.433013,0.0501193,-0.260841,-0.344974,0.22912
-0.48221,-0.314447,-0.434586,0.0407215,-0.255287,-0.340524,0.232716
-0.479022,-0.310516,-0.423585,0.0370304,-0.257549,-0.338642,0.233675
-0.477116,-0.30642,-0.418559,0.0391654,-0.254494,-0.334212,0.234405
-0.476494,-0.298137,-0.4148,0.0364072,-0.252852,-0.334196,0.236371
-0.476924,-0.290912,-0.409571,0.0335926,-0.248971,-0.322348,0.239127
-0.47653,-0.282953,-0.408689,0.0364432,-0.245297,-0.319552,0.239823
-0.473029,-0.284189,-0.406371,0.0377153,-0.248338,-0.306372,0.241548
-0.478987,-0.292289,-0.415903,0.027671,-0.243744,-0.305735,0.244185
-0.486488,-0.300955,-0.420609,0.0251315,-0.240898,-0.287449,0.243717
-0.49006,-0.306202,-0.41939,0.0139373,-0.237033,-0.29266,0.24458
-0.491174,-0.310423,-0.411057,0.00391895,-0.231119,-0.287137,0.24808
-0.48988,-0.309521,-0.408137,-0.00529691,-0.23293,-0.288358,0.250405
-0.488992,-0.303388,-0.411333,-0.0149567,-0.234954,-0.279922,0.25376
-0.484643,-0.297897,-0.415675,-0.0347295,-0.2327,-0.266859,0.261945
-0.480795,-0.280666,-0.42243,-0.0521447,-0.239269,-0.250237,0.265889
-0.479154,-0.269843,-0.4331,-0.0761101,-0.238241,-0.238421,0.271952
-0.475929,-0.250429,-0.440467,-0.103954,-0.244197,-0.225956,0.279491
-0.475871,-0.231122,-0.452166,-0.127317,-0.251375,-0.219774,0.285074
-0.47575,-0.217771,-0.466366,-0.152431,-0.25528,-0.211371,0.290996
-0.469567,-0.195135,-0.478675,-0.180454,-0.25661,-0.202697,0.299683
-0.459858,-0.174734,-0.493918,-0.201652,-0.25411,-0.195563,0.302573
-0.455474,-0.168327,-0.517719,-0.223153,-0.252564,-0.183594,0.306765
-0.454633,-0.168095,-0.541089,-0.243202,-0.252135,-0.161444,0.308338
-0.459692,-0.172605,-0.561005,-0.260088,-0.249036,-0.147247,0.311271
-0.463525,-0.177263,-0.561559,-0.277885,-0.247763,-0.133424,0.313359
-0.471712,-0.167488,-0.554857,-0.286117,-0.242229,-0.120762,0.314051
-0.483145,-0.160118,-0.55518,-0.293715,-0.24267,-0.115022,0.318533
-0.488118,-0.149387,-0.54236,-0.299014,-0.243698,-0.109898,0.317937
-0.483828,-0.131728,-0.522476,-0.307568,-0.241117,-0.102403,0.31948
-0.481934,-0.121966,-0.508719,-0.310579,-0.241397,-0.101365,0.314737
-0.48408,-0.119061,-0.506921,-0.306945,-0.235135,-0.0991792,0.314687
-0.487698,-0.11764,-0.505915,-0.311106,-0.234475,-0.0871275,0.311897
-0.490827,-0.119264,-0.499899,-0.315873,-0.234809,-0.079154,0.314818
-0.492144,-0.121871,-0.491365,-0.315205,-0.234993,-0.0749272,0.311681
-0.494542,-0.124609,-0.483888,-0.316017,-0.234905,-0.0805082,0.314866
-0.493523,-0.126005,-0.474911,-0.324565,-0.232404,-0.0827052,0.314905
-0.495357,-0.122728,-0.466955,-0.327977,-0.22712,-0.0795255,0.317059
-0.497837,-0.118,-0.464316,-0.33414,-0.230812,-0.0729258,0.32176
-0.499839,-0.110061,-0.462089,-0.334184,-0.230993,-0.0714243,0.323183
-0.502056,-0.103726,-0.463406,-0.338886,-0.230582,-0.0804042,0.330665
-0.506789,-0.103338,-0.470298,-0.345749,-0.228136,-0.0808437,0.327426
-0.510193,-0.103894,-0.472406,-0.355449,-0.225577,-0.0818663,0.330989
-0.507688,-0.104572,-0.472024,-0.358704,-0.226679,-0.0786147,0.329295
-0.498736,-0.102252,-0.467444,-0.361993,-0.227457,-0.0862646,0.332247
-0.494242,-0.101001,-0.468944,-0.361316,-0.230073,-0.0975853,0.333346
-0.491989,-0.0996034,-0.476505,-0.360063,-0.231445,-0.102204,0.33269
-0.490383,-0.0978489,-0.476674,-0.355875,-0.23082,-0.102738,0.335107
-0.494937,-0.0969907,-0.477655,-0.366571,-0.229087,-0.103175,0.335327
-0.504836,-0.097789,-0.480149,-0.37197,-0.2327,-0.117539,0.336425
-0.514855,-0.101101,-0.484522,-0.374037,-0.236143,-0.120337,0.338251
-0.518965,-0.105615,-0.489377,-0.373432,-0.236918,-0.118138,0.339577
-0.512566,-0.102966,-0.483229,-0.376464,-0.235748,-0.12558,0.34207
-0.504512,-0.0997711,-0.483192,-0.378915,-0.232174,-0.132429,0.338838
-0.500701,-0.0999222,-0.494158,-0.372593,-0.236189,-0.129918,0.341495
-0.4952,-0.102,-0.500174,-0.370753,-0.240074,-0.126628,0.336322
-0.496447,-0.105123,-0.504105,-0.370472,-0.240599,-0.13108,0.339254
-0.500953,-0.108939,-0.503446,-0.36554,-0.244197,-0.129217,0.337784
-0.507424,-0.116124,-0.502954,-0.363186,-0.244127,-0.140859,0.338283
-0.514903,-0.124339,-0.506346,-0.367242,-0.245654,-0.140866,0.337952
-0.515022,-0.125124,-0.501325,-0.369082,-0.248442,-0.140596,0.34056
-0.511979,-0.122494,-0.498364,-0.364485,-0.250505,-0.147529,0.339557
-0.506046,-0.1228,-0.501385,-0.358883,-0.251107,-0.144383,0.341998
-0.502751,-0.122865,-0.503074,-0.35594,-0.251291,-0.148045,0.338119
-0.507041,-0.120355,-0.50631,-0.36007,-0.248365,-0.14763,0.340644
-0.508983,-0.12513,-0.505399,-0.361273,-0.255261,-0.151784,0.334967
-0.512062,-0.131416,-0.504237,-0.35971,-0.255996,-0.160177,0.339721
-0.512566,-0.137055,-0.505423,-0.359979,-0.257696,-0.163013,0.335531
-0.508575,-0.137396,-0.501468,-0.351214,-0.256974,-0.172641,0.339493
-0.504441,-0.139056,-0.502978,-0.353232,-0.259172,-0.174411,0.334692
-0.501636,-0.136605,-0.50758,-0.352592,-0.261538,-0.172629,0.339421
-0.502487,-0.134347,-0.511332,-0.348702,-0.266402,-0.180918,0.332259
-0.504488,-0.136006,-0.513452,-0.347487,-0.264376,-0.178477,0.337995
-0.506981,-0.139212,-0.509282,-0.340037,-0.26387,-0.188481,0.333278
-0.510253,-0.141566,-0.508791,-0.336953,-0.262573,-0.183618,0.340416
-0.51271,-0.14409,-0.506274,-0.332391,-0.266843,-0.190842,0.336202
-0.508743,-0.145257,-0.498784,-0.325688,-0.26451,-0.196033,0.339973
-0.50619,-0.141483,-0.496603,-0.311667,-0.26357,-0.190904,0.334376
-0.505759,-0.141633,-0.493678,-0.299134,-0.259498,-0.197888,0.333925
-0.512805,-0.146096,-0.493008,-0.287052,-0.262995,-0.194775,0.331009
-0.51996,-0.149171,-0.487039,-0.278892,-0.26132,-0.192711,0.330833
-0.525724,-0.155719,-0.479094,-0.271293,-0.259294,-0.197699,0.331164
-0.533263,-0.164847,-0.475917,-0.261418,-0.256545,-0.195791,0.32955
-0.531992,-0.170687,-0.466907,-0.247025,-0.248595,-0.19541,0.32727
-0.527043,-0.177335,-0.458276,-0.231745,-0.247073,-0.194041,0.327154
-0.523495,-0.18363,-0.454911,-0.210198,-0.243706,-0.192726,0.323423
-0.522489,-0.190686,-0.448101,-0.196139,-0.237773,-0.189391,0.324349
-0.526779,-0.200288,-0.43721,-0.180454,-0.232105,-0.191204,0.319097
-0.529848,-0.208543,-0.413023,-0.169941,-0.220055,-0.192244,0.318345
-0.537936,-0.221008,-0.387932,-0.159051,-0.216823,-0.199701,0.311151
-0.544756,-0.23347,-0.369531,-0.153318,-0.213785,-0.202227,0.309776
-0.545018,-0.251208,-0.355384,-0.141506,-0.210227,-0.209384,0.305351
-0.536535,-0.264019,-0.346389,-0.132033,-0.207457,-0.213888,0.305593
-0.523339,-0.270538,-0.34165,-0.117323,-0.204839,-0.222027,0.305375
-0.52038,-0.272252,-0.340624,-0.105428,-0.198962,-0.213372,0.302346
-0.522201,-0.275451,-0.328408,-0.10341,-0.190497,-0.220876,0.303242
-0.525222,-0.276447,-0.299949,-0.0914779,-0.190276,-0.224111,0.299026
-0.527953,-0.280305,-0.271317,-0.0746121,-0.186394,-0.224891,0.301253
-0.528134,-0.291044,-0.246006,-0.0560756,-0.184773,-0.226999,0.298654
-0.523435,-0.301732,-0.216358,-0.0342501,-0.178053,-0.212356,0.30196
-0.519745,-0.311741,-0.16601,-0.0117329,-0.168819,-0.19506,0.29923
-0.524502,-0.326754,-0.1106,0.0218827,-0.149406,-0.149224,0.298304
-0.533849,-0.360945,-0.0704536,0.0524418,-0.118957,-0.0736294,0.29284
-0.539064,-0.397611,-0.0268453,0.0847306,-0.0826261,-0.00999509,0.290577
-0.545785,-0.431063,-0.0337947,0.0971299,-0.0431231,0.00789741,0.281934
-0.542348,-0.448617,-0.0413945,0.101185,-0.0110258,-0.00413466,0.255067
-0.535599,-0.427611,0.00106657,0.0827372,0.0111403,-0.000107859,0.241525
-0.54677,-0.410829,0.0355341,0.0533551,0.0255031,0.00107862,0.245731
-0.553359,-0.417341,-0.00273234,0.0392594,0.0207083,-0.00877226,0.242411
-0.533659,-0.421592,-0.0609053,-0.0020254,-0.00751669,-0.0243286,0.237533
-0.49109,-0.392726,-0.0643898,-0.0546708,-0.036623,-0.073953,0.252022
-0.467049,-0.35177,-0.0283793,-0.0857013,-0.0682063,-0.127839,0.269232
-0.472036,-0.350483,-0.00903591,-0.114794,-0.0927462,-0.169681,0.277584
-0.472034,-0.386513,-0.0435518,-0.125286,-0.107957,-0.211275,0.290289
-0.434346,-0.40024,-0.104872,-0.124933,-0.114317,-0.245192,0.301265
-0.382402,-0.380808,-0.156602,-0.164476,-0.114975,-0.28027,0.312089
-0.36134,-0.355456,-0.226101,-0.194583,-0.126934,-0.294937,0.316868
-0.367421,-0.346496,-0.307619,-0.160629,-0.142855,-0.302825,0.317254
-0.384385,-0.325041,-0.349859,-0.117143,-0.134834,-0.318497,0.314135
-0.416858,-0.280114,-0.338407,-0.107681,-0.114495,-0.311789,0.31276
-0.458027,-0.249817,-0.270358,-0.082881,-0.0958524,-0.259668,0.303781
-0.505148,-0.273307,-0.217723,-0.0428447,-0.0715811,-0.188349,0.29706
-0.541519,-0.33778,-0.233435,0.00336749,-0.0386554,-0.118294,0.288669
-0.54369,-0.37442,-0.237449,0.0389257,-0.00615527,-0.0825494,0.276507
-0.515202,-0.365475,-0.186806,0.0738092,0.0102391,-0.0610942,0.250357
-0.501708,-0.353519,-0.159694,0.112007,0.015973,-0.0314114,0.225848
-0.515106,-0.353742,-0.127725,0.113788,0.029145,0.0125472,0.217089
-0.531045,-0.356151,-0.0691594,0.0905388,0.0454623,0.0462221,0.227252
-0.533371,-0.369758,-0.050323,0.0905311,0.02976,0.0254911,0.222996
-0.508647,-0.397448,-0.0792619,0.0661634,-0.00228176,-0.0123794,0.215615
-0.482197,-0.387675,-0.0712839,0.00852097,-0.0302969,-0.0569145,0.231661
-0.480724,-0.347019,-0.0301756,-0.0300078,-0.0585584,-0.103877,0.252274
-0.491282,-0.331144,-0.0225069,-0.0598147,-0.0812647,-0.146774,0.270443
-0.48227,-0.342873,-0.0727306,-0.0894123,-0.10032,-0.189191,0.281851
-0.42919,-0.345933,-0.144977,-0.0865043,-0.11043,-0.237497,0.289846
-0.369933,-0.32292,-0.174103,-0.109473,-0.105497,-0.285506,0.296207
-0.368248,-0.307978,-0.228569,-0.158184,-0.108704,-0.300392,0.29923
-0.39293,-0.313596,-0.307149,-0.15361,-0.130347,-0.312553,0.29417
-0.394123,-0.314162,-0.332079,-0.104721,-0.145713,-0.331624,0.288839
-0.396968,-0.288406,-0.326131,-0.107508,-0.137231,-0.335071,0.285877
-0.420896,-0.272995,-0.309836,-0.129373,-0.126672,-0.320418,0.276986
-0.436467,-0.284379,-0.270909,-0.0960633,-0.12471,-0.298676,0.264354
-0.451301,-0.306001,-0.228976,-0.0501912,-0.108302,-0.251999,0.256241
-0.475703,-0.327509,-0.2151,-0.00701061,-0.0759111,-0.185536,0.24512
-0.486488,-0.333613,-0.18769,0.0195348,-0.0409008,-0.1299,0.225393
-0.483433,-0.336473,-0.147199,0.0504524,-0.0127701,-0.0751633,0.201486
-0.480831,-0.344327,-0.135557,0.0876069,0.0109299,-0.0142855,0.195719
-0.487076,-0.35089,-0.115417,0.126562,0.0305447,0.0246869,0.19003
-0.503757,-0.354862,-0.089033,0.115339,0.0613224,0.0292303,0.162846
-0.513872,-0.366673,-0.105147,0.0800648,0.0863803,0.041081,0.0824136
-0.481143,-0.381156,-0.136024,0.0574538,0.0808045,0.0543378,0.00363131
-0.439439,-0.373648,-0.161412,0.00516507,0.0585775,0.0521661,0.0155911
-0.419175,-0.346732,-0.163857,-0.0559171,0.0272084,0.00274434,0.0584337
-0.410758,-0.325368,-0.143623,-0.106494,-0.00916575,-0.0528637,0.0912142
-0.397699,-0.317239,-0.109569,-0.129499,-0.0439092,-0.096327,0.0855654
-0.360602,-0.311406,-0.053463,-0.146403,-0.0678611,-0.124435,0.0702772
-0.32727,-0.319648,-0.00690275,-0.17451,-0.0833891,-0.15113,0.0709929
-0.307199,-0.354131,-0.0238612,-0.206469,-0.0955502,-0.182321,0.061181
-0.275128,-0.383846,-0.095608,-0.229421,-0.108718,-0.223453,0.0511115
-0.230355,-0.366235,-0.13648,-0.22133,-0.112731,-0.26469,0.076641
-0.221739,-0.318294,-0.174786,-0.237881,-0.110732,-0.304512,0.103529
-0.26608,-0.279227,-0.237461,-0.267015,-0.122722,-0.335231,0.104541
-0.28638,-0.253532,-0.260112,-0.242375,-0.125228,-0.351645,0.0984961
-0.303724,-0.227251,-0.216632,-0.249781,-0.121954,-0.362855,0.109802
-0.342909,-0.238277,-0.204111,-0.266403,-0.122064,-0.352316,0.126622
-0.350523,-0.285807,-0.24657,-0.234106,-0.124217,-0.336441,0.123489
-0.321074,-0.30166,-0.271484,-0.220565,-0.122505,-0.3405,0.126814
-0.290013,-0.267926,-0.243945,-0.216428,-0.12485,-0.337628,0.129864
-0.288681,-0.234873,-0.218671,-0.194044,-0.133626,-0.320715,0.125556
-0.296006,-0.234465,-0.218586,-0.186263,-0.134974,-0.310243,0.122889
-0.285146,-0.240973,-0.17735,-0.178657,-0.133472,-0.298988,0.131212
-0.266608,-0.237905,-0.125861,-0.168335,-0.145463,-0.294999,0.13201
-0.260687,-0.27013,-0.127485,-0.181089,-0.149291,-0.264126,0.129906
-0.251879,-0.312448,-0.129505,-0.193742,-0.151714,-0.266044,0.132573
-0.238672,-0.335431,-0.11078,-0.193025,-0.151976,-0.252466,0.13295
-0.231457,-0.336981,-0.0883978,-0.188612,-0.158598,-0.253041,0.13032
-0.231266,-0.344682,-0.0722273,-0.196393,-0.161448,-0.242651,0.12806
-0.224244,-0.352424,-0.0370064,-0.198622,-0.1658,-0.232884,0.123878
-0.214775,-0.365576,-0.0144893,-0.199135,-0.169988,-0.23051,0.117892
-0.206172,-0.386315,-0.0267601,-0.201702,-0.174505,-0.216766,0.117323
-0.193322,-0.399288,-0.0254791,-0.206793,-0.178886,-0.222097,0.111432
-0.181161,-0.400911,0.00385883,-0.201942,-0.178801,-0.227288,0.103709
-0.186323,-0.411369,0.0109419,-0.207572,-0.179135,-0.231217,0.0941025
-0.195506,-0.436599,-0.010474,-0.21172,-0.179778,-0.229253,0.0916892
-0.182764,-0.446771,0.0037272,-0.219233,-0.183411,-0.242758,0.0836879
-0.167344,-0.452382,0.0230331,-0.21981,-0.183345,-0.252442,0.0742765
-0.160916,-0.472418,-0.000143819,-0.21831,-0.183181,-0.246366,0.0638176
-0.156462,-0.48402,-0.00774162,-0.222206,-0.181255,-0.259477,0.0586375
-0.144138,-0.476864,0.00901236,-0.222541,-0.179672,-0.258027,0.0581729
-0.136174,-0.467626,0.00172568,-0.216898,-0.184783,-0.273594,0.0551022
-0.12875,-0.468367,-0.00149805,-0.213636,-0.189298,-0.280845,0.0478901
-0.126035,-0.467062,0.0132303,-0.214525,-0.190516,-0.299371,0.042555
-0.131051,-0.469793,-0.00148608,-0.211515,-0.195434,-0.311693,0.0386021
-0.124357,-0.480029,-0.00733419,-0.227252,-0.197764,-0.318198,0.031362
-0.110509,-0.482569,0.00547694,-0.228305,-0.201052,-0.332307,0.0307882
-0.0955001,-0.484032,-0.00645936,-0.234778,-0.202385,-0.335155,0.0272156
-0.0854017,-0.486871,-0.0228305,-0.243058,-0.210122,-0.346568,0.027864
-0.0759063,-0.474337,-0.0142369,-0.264498,-0.215193,-0.351094,0.0259573
-0.0652317,-0.45854,0.0160233,-0.271246,-0.218828,-0.36735,0.0200141
-0.0596921,-0.467398,0.0103781,-0.27653,-0.222901,-0.363725,0.0172209
-0.0583407,-0.491138,-0.0171618,-0.29887,-0.220726,-0.373342,0.0192112
-0.0536162,-0.499491,-0.0128228,-0.314878,-0.219584,-0.388364,0.0200012
-0.0369585,-0.494458,0.0134939,-0.32413,-0.228692,-0.393253,0.0154473
-0.0226867,-0.492061,0.0115771,-0.32677,-0.234628,-0.401889,0.00956364
-0.0135299,-0.493583,-0.00129426,-0.337864,-0.234157,-0.396585,0.00454192
-0.00129432,-0.479453,0.00116248,-0.345933,-0.241378,-0.408349,0.00598028
0.0120678,-0.457703,0.0138175,-0.35373,-0.243897,-0.413794,0.00460185
0.016251,-0.457953,0.0168622,-0.357103,-0.247725,-0.424516,0.00695101
0.0114567,-0.470622,0.0140212,-0.357913,-0.252277,-0.433232,0.00764576
0.00914418,-0.484486,0.0172098,-0.365252,-0.254072,-0.42424,0.00671133
0.016442,-0.495309,0.0215112,-0.37221,-0.253485,-0.427012,0.00509319
0.0308242,-0.502667,0.0214044,-0.371652,-0.247514,-0.424875,0.00137821
0.0428187,-0.49888,0.0214633,-0.368578,-0.25172,-0.413362,0.00285217
0.0485373,-0.485421,0.03255,-0.369615,-0.255376,-0.408109,0.00315195
0.0484631,-0.471544,0.0526455,-0.36315,-0.254424,-0.412284,0.00139012
0.0482736,-0.471148,0.0711641,-0.350763,-0.255184,-0.412723,-0.000407479
0.0529211,-0.481479,0.0852658,-0.34062,-0.253446,-0.412763,7.19059e-05
0.0625712,-0.492516,0.10496,-0.348678,-0.256239,-0.411441,-0.00106662
0.0752353,-0.509689,0.125232,-0.359339,-0.261614,-0.420097,-0.00103062
0.0865762,-0.523592,0.13799,-0.368416,-0.266555,-0.427104,-0.00196546
0.100929,-0.522356,0.155683,-0.377902,-0.272736,-0.423537,-0.00192942
0.117916,-0.511332,0.177263,-0.395621,-0.277619,-0.430544,-0.000755026
0.135562,-0.500929,0.19698,-0.416862,-0.286234,-0.440686,-0.000239672
0.145804,-0.506754,0.208351,-0.428962,-0.291694,-0.446627,0.000155796
0.151753,-0.51688,0.205441,-0.438708,-0.294575,-0.448631,-4.793e-05
0.15792,-0.526013,0.209226,-0.449503,-0.29526,-0.457006,-0.000179773
0.162359,-0.538223,0.209815,-0.449194,-0.297049,-0.462652,8.3883e-05
0.167488,-0.538115,0.206412,-0.454371,-0.303089,-0.464989,-0.000467367
0.180259,-0.52201,0.206853,-0.458048,-0.303333,-0.460625,0.000227706
0.193014,-0.504333,0.212811,-0.450597,-0.306252,-0.459632,-0.000227695
0.205774,-0.494122,0.21493,-0.443883,-0.308414,-0.459511,0.00026366
0.21202,-0.498532,0.209635,-0.44029,-0.308745,-0.461622,-0.00035953
0.21342,-0.501972,0.200933,-0.42756,-0.312537,-0.457389,-0.000131819
0.215268,-0.507976,0.198874,-0.426521,-0.31001,-0.451771,0.000179765
0.215685,-0.515802,0.197852,-0.417397,-0.30874,-0.457953,-0.000179773
0.215699,-0.514147,0.190233,-0.402996,-0.315878,-0.451411,-0.000599201
0.220108,-0.500438,0.196858,-0.397539,-0.317542,-0.443763,-0.000359525
0.224208,-0.482869,0.202852,-0.392654,-0.318926,-0.454228,-0.00105459
0.225932,-0.477943,0.205978,-0.383601,-0.318712,-0.447993,-0.00128235
0.225862,-0.488178,0.197711,-0.370436,-0.322838,-0.447409,-0.000599201
0.225705,-0.493726,0.195923,-0.366966,-0.320802,-0.443631,-0.00154601
0.222746,-0.501325,0.197567,-0.361448,-0.315724,-0.443694,-0.00146203
0.221138,-0.507161,0.198775,-0.347719,-0.315912,-0.440827,-0.00142617
0.221631,-0.501996,0.199161,-0.333094,-0.316626,-0.437007,-0.00115045
0.224614,-0.488381,0.207188,-0.318357,-0.315931,-0.436141,-0.00155801
0.227407,-0.475691,0.216862,-0.293271,-0.316012,-0.427863,-0.000587203
0.232284,-0.471567,0.226567,-0.2758,-0.311137,-0.434343,-0.00140219
0.230236,-0.479454,0.224639,-0.25527,-0.312005,-0.430068,-0.00139014
0.228197,-0.48904,0.22471,-0.24174,-0.308779,-0.417673,-0.00165385
0.225622,-0.497933,0.225598,-0.227827,-0.302513,-0.418312,-0.00304394
0.224374,-0.507269,0.222049,-0.209166,-0.296718,-0.408876,-0.00667537
0.222614,-0.505639,0.216262,-0.190293,-0.296703,-0.397927,-0.00861647
0.226281,-0.490383,0.221739,-0.167368,-0.294038,-0.392199,-0.0129666
0.230343,-0.473832,0.234441,-0.144965,-0.287897,-0.383061,-0.0159873
0.229936,-0.469855,0.235652,-0.11211,-0.280214,-0.383127,-0.0190545
0.220647,-0.482437,0.231385,-0.0743879,-0.275088,-0.364497,-0.0215242
0.204926,-0.488933,0.229241,-0.0566601,-0.263359,-0.353539,-0.0252742
0.190362,-0.4987,0.227706,-0.0257787,-0.250812,-0.339306,-0.0322623
0.183271,-0.508695,0.217569,0.0135658,-0.228424,-0.310025,-0.0391635
0.178078,-0.507533,0.204072,0.0470153,-0.197908,-0.269975,-0.0503829
0.179939,-0.488634,0.214129,0.0917371,-0.162272,-0.21057,-0.0550662
0.165602,-0.468882,0.237533,0.116621,-0.118867,-0.128534,-0.051114
0.127581,-0.469244,0.261478,0.120511,-0.0660939,-0.0422314,-0.0527773
0.089045,-0.49254,0.272636,0.1084,-0.0212845,0.00465,-0.0807637
0.0929235,-0.508311,0.27478,0.138019,0.00717122,0.0223261,-0.109953
0.141609,-0.509678,0.28172,0.194101,0.0141513,0.0412627,-0.142412
0.172329,-0.50788,0.286392,0.225682,0.00538799,0.0361196,-0.165822
0.173368,-0.50347,0.276135,0.236586,-0.0048897,0.00817345,-0.173152
0.17173,-0.493631,0.287171,0.26856,-0.00989394,-0.0382408,-0.169177
0.181098,-0.478626,0.323534,0.29428,-0.0129049,-0.0912381,-0.145001
0.171802,-0.475895,0.337372,0.306669,-0.0195386,-0.151333,-0.112985
0.151652,-0.493774,0.32091,0.296845,-0.00772764,-0.195144,-0.0935272
0.146863,-0.505435,0.303973,0.295237,0.0154545,-0.231626,-0.0844509
0.158723,-0.508623,0.306528,0.313899,0.039827,-0.240026,-0.0821779
0.167751,-0.511463,0.323579,0.333981,0.0760837,-0.209707,-0.0871712
0.168466,-0.509306,0.341151,0.341307,0.111197,-0.13944,-0.0975061
0.172665,-0.501025,0.369945,0.34062,0.138362,-0.0657439,-0.115465
0.183894,-0.49423,0.395842,0.348505,0.152167,-0.0167775,-0.14189
0.192208,-0.497765,0.411824,0.355377,0.156106,0.0298055,-0.175513
0.188244,-0.50891,0.411325,0.356343,0.127011,0.0462341,-0.194008
0.182644,-0.515298,0.40262,0.355437,0.0838725,0.0359056,-0.178509
0.183151,-0.51344,0.397124,0.339841,0.0443694,-0.00592007,-0.127857
0.189451,-0.498161,0.379478,0.313671,0.0115051,-0.0442349,-0.110593
0.208353,-0.480461,0.351393,0.309857,0.0140931,-0.0781473,-0.112757
0.24126,-0.450247,0.346053,0.320406,0.0367589,-0.123093,-0.108148
0.265049,-0.412164,0.35512,0.316017,0.0669951,-0.148301,-0.118114
0.280989,-0.398485,0.351698,0.326914,0.100689,-0.140315,-0.136815
0.296747,-0.403763,0.346252,0.347247,0.136732,-0.0826533,-0.15355
0.310495,-0.398833,0.350403,0.358181,0.165386,-0.00323583,-0.166177
0.313141,-0.388807,0.354353,0.364744,0.188215,0.0547667,-0.174271
0.302549,-0.366271,0.352692,0.375487,0.213286,0.104601,-0.16728
0.293858,-0.338786,0.351118,0.392079,0.238874,0.142741,-0.154389
0.2941,-0.305473,0.353843,0.405868,0.249412,0.183291,-0.134119
0.297657,-0.265864,0.350387,0.419175,0.240849,0.22265,-0.102307
0.301003,-0.225705,0.332499,0.420153,0.223296,0.2479,-0.0764613
0.300198,-0.195638,0.305914,0.434526,0.200755,0.210977,-0.0454431
0.30334,-0.163361,0.271006,0.430424,0.181762,0.160952,-0.0075982
0.305303,-0.123255,0.228342,0.421991,0.158111,0.111175,0.0273354
0.311789,-0.0728899,0.198739,0.407642,0.127266,0.0561954,0.0448461
0.322212,-0.0175085,0.183199,0.384841,0.098115,0.00578823,0.057463
0.336118,0.0182644,0.158483,0.378591,0.0699321,-0.0235855,0.0672451
0.361915,0.0534724,0.134819,0.373719,0.0446762,-0.0247828,0.0890408
0.393697,0.0905747,0.112206,0.367344,0.0261538,-0.00848464,0.11024
0.417924,0.135533,0.0896322,0.369782,0.0187342,0.00562075,0.128546
0.425622,0.174079,0.0837918,0.377375,0.0362011,0.00236083,0.154066
0.416726,0.206949,0.0904831,0.396184,0.0621086,-0.0198703,0.175873
0.401954,0.235604,0.112206,0.407766,0.0979616,-0.0425191,0.192007
0.38541,0.255138,0.14904,0.413862,0.138503,-0.0654235,0.213336
0.376799,0.27309,0.18405,0.425394,0.181504,-0.085901,0.230955
0.381779,0.283098,0.214044,0.444182,0.223046,-0.10061,0.242579
0.393014,0.293822,0.247636,0.467841,0.256572,-0.115981,0.25684
0.408456,0.304934,0.276639,0.494493,0.28063,-0.132165,0.268837
0.42132,0.31223,0.303661,0.508395,0.307844,-0.159518,0.282426
0.43058,0.324145,0.324097,0.518163,0.326056,-0.180715,0.292842
0.437642,0.332123,0.340212,0.532255,0.346135,-0.200252,0.305711
0.439952,0.339725,0.359835,0.533108,0.363447,-0.226472,0.312544
0.435365,0.351693,0.37626,0.530529,0.378252,-0.249973,0.319252
0.426062,0.358098,0.387376,0.527295,0.395566,-0.262641,0.324493
0.42289,0.361544,0.398874,0.531045,0.408087,-0.291941,0.330877
0.432833,0.369734,0.406839,0.53282,0.415968,-0.29736,0.337232
0.446822,0.379939,0.407574,0.534628,0.428489,-0.315477,0.341591
0.463921,0.388574,0.411548,0.542036,0.435949,-0.322216,0.347287
0.48565,0.395722,0.412715,0.537924,0.440856,-0.329151,0.352328
0.494469,0.397611,0.415503,0.531454,0.452785,-0.333565,0.357618
0.489604,0.394104,0.411577,0.518582,0.458343,-0.344287,0.360741
0.474563,0.391127,0.416198,0.511943,0.463408,-0.349253,0.369291
0.466823,0.392738,0.421428,0.506514,0.465763,-0.361232,0.372557
0.471928,0.393145,0.425346,0.508239,0.469886,-0.363893,0.376823
0.477751,0.396448,0.421232,0.507101,0.467799,-0.374744,0.378723
0.490371,0.404339,0.412775,0.506178,0.470442,-0.359087,0.379424
0.505639,0.41385,0.407929,0.500306,0.468048,-0.36856,0.380616
0.516544,0.421595,0.408473,0.495129,0.470231,-0.356511,0.378369
0.517863,0.428866,0.410254,0.487039,0.465249,-0.358349,0.381455
0.505028,0.428258,0.411109,0.484307,0.463731,-0.35506,0.376883
0.491809,0.422982,0.406024,0.478602,0.46337,-0.353999,0.383613
0.489185,0.423992,0.41214,0.479909,0.458688,-0.344838,0.37916
0.496543,0.430676,0.414101,0.479549,0.453379,-0.342302,0.382798
0.505327,0.427288,0.407011,0.487351,0.449734,-0.322716,0.381078
0.51277,0.429154,0.397658,0.480028,0.443772,-0.311945,0.375559
0.514663,0.43642,0.389586,0.470742,0.434893,-0.283504,0.370472
0.512662,0.447346,0.391331,0.46742,0.421759,-0.279503,0.365168
0.507089,0.45527,0.399018,0.460567,0.410024,-0.260591,0.359602
0.501193,0.453291,0.402069,0.466713,0.391175,-0.264486,0.35334
0.49852,0.447337,0.401187,0.468297,0.378348,-0.250764,0.348218
0.499743,0.44755,0.397551,0.464904,0.357676,-0.254264,0.343764
0.508862,0.446774,0.395003,0.473785,0.336663,-0.245755,0.339817
0.518319,0.43813,0.389593,0.470884,0.318386,-0.24041,0.336322
