Afshin1997/kuka_rl_ros2/src/catch_and_throw/input_files/idealpd/trajectory_evaluator/trajectories/2.csv
pure_target_joint_0,pure_target_joint_1,pure_target_joint_2,pure_target_joint_3,pure_target_joint_4,pure_target_joint_5,pure_target_joint_6,target_joint_0,target_joint_1,target_joint_2,target_joint_3,target_joint_4,target_joint_5,target_joint_6,pos_joint_0,pos_joint_1,pos_joint_2,pos_joint_3,pos_joint_4,pos_joint_5,pos_joint_6,vel_joint_0,vel_joint_1,vel_joint_2,vel_joint_3,vel_joint_4,vel_joint_5,vel_joint_6,vel_smooth_joint_0,vel_smooth_joint_1,vel_smooth_joint_2,vel_smooth_joint_3,vel_smooth_joint_4,vel_smooth_joint_5,vel_smooth_joint_6,ee_pos_x,ee_pos_y,ee_pos_z,ee_or_w,ee_or_x,ee_or_y,ee_or_z,ee_vel_x,ee_vel_y,ee_vel_z,ball_pos_x,ball_pos_y,ball_pos_z,ball_raw_vx,ball_raw_vy,ball_raw_vz,ball_ema_vx,ball_ema_vy,ball_ema_vz,action_0,action_1,action_2,action_3,action_4,action_5,action_6,command_published
2.5945,-1.6823,1.69957,1.0716,1.43605,-1.36215,-2.83942,-10.9262,-15.1324,6.48457,1.07465,-12.6888,10.8619,-6.9373,2.65012,-1.60871,1.77358,1.00329,1.42833,-1.42078,-2.85378,0,0,0,0,0,0,0,0,0,0,0,0,0,0,0.700015,8.30922e-05,0.564318,-0.382515,5.0504e-05,0.000130394,0.923949,0,0,0,2.99418,-0.69627,0.76232,-3.42514,-0.11358,3.81003,-3.68363,-0.106761,4.33661,-0.556154,-0.735805,-0.740089,0.683049,0.0771817,0.586289,0.143611,1
2.59451,-1.68219,1.69965,1.07146,1.43799,-1.36234,-2.83847,-10.7019,-15.1914,6.50642,1.07538,-12.6221,10.7122,-7.0156,2.65012,-1.60871,1.77358,1.00329,1.42833,-1.42078,-2.85378,0,0,0,0,0,0,0,0,0,0,0,0,0,0,0.700015,8.30922e-05,0.564318,-0.382515,5.0504e-05,0.000130394,0.923949,0,0,0,2.95755,-0.697515,0.801951,-3.54056,-0.120393,3.83063,-3.65502,-0.109487,4.23541,-0.556058,-0.734705,-0.739291,0.681677,0.0966415,0.58434,0.153104,1
2.59398,-1.68185,1.69969,1.07131,1.43906,-1.3624,-2.83765,-10.815,-15.1228,6.47881,1.07515,-12.6202,10.8118,-6.95094,2.65012,-1.60871,1.77358,1.00329,1.42833,-1.42078,-2.85378,0,0,0,0,0,0,0,0,0,0,0,0,0,0,0.700015,8.30922e-05,0.564318,-0.382515,5.0504e-05,0.000130394,0.923949,0,0,0,2.92092,-0.698739,0.840612,-3.82508,-0.127779,4.03795,-3.68903,-0.113146,4.19592,-0.561378,-0.731372,-0.738946,0.680215,0.10728,0.583733,0.161346,1
2.59367,-1.68163,1.69972,1.07113,1.4405,-1.36255,-2.8369,-10.7909,-15.1068,6.47153,1.07531,-12.5919,10.8087,-6.94609,2.65012,-1.60871,1.77358,1.00329,1.42833,-1.42078,-2.85378,0,0,0,0,0,0,0,0,0,0,0,0,0,0,0.700015,8.30922e-05,0.564318,-0.382515,5.0504e-05,0.000130394,0.923949,0,0,0,2.88421,-0.699908,0.87809,-3.74235,-0.119184,3.82002,-3.6997,-0.114353,4.12074,-0.564462,-0.729181,-0.738597,0.678417,0.12173,0.582267,0.168842,1
2.59483,-1.6821,1.69987,1.07093,1.4442,-1.36313,-2.83611,-9.87269,-15.4319,6.59662,1.07802,-12.3935,10.1413,-7.3245,2.65012,-1.60871,1.77358,1.00329,1.42833,-1.42078,-2.85378,0,0,0,0,0,0,0,0,0,0,0,0,0,0,0.700015,8.30922e-05,0.564318,-0.382515,5.0504e-05,0.000130394,0.923949,0,0,0,2.84759,-0.700964,0.914563,-2.83707,-0.0818327,2.82618,-3.52717,-0.107849,3.86183,-0.552874,-0.733881,-0.737152,0.676417,0.158664,0.576446,0.176679,1
2.59236,-1.6809,1.69972,1.07071,1.44255,-1.36271,-2.83576,-11.1696,-14.9118,6.39432,1.07444,-12.6146,11.1178,-6.75705,2.65012,-1.60871,1.77358,1.00329,1.42833,-1.42078,-2.85378,0,0,0,0,0,0,0,0,0,0,0,0,0,0,0.700015,8.30922e-05,0.564318,-0.382515,5.0504e-05,0.000130394,0.923949,0,0,0,2.811,-0.701973,0.950093,-4.91348,-0.13539,4.77044,-3.80443,-0.113357,4.04355,-0.577593,-0.721834,-0.738649,0.674138,0.142202,0.580722,0.180252,1
2.59246,-1.68092,1.69977,1.07049,1.44469,-1.36301,-2.83516,-10.889,-14.9942,6.42533,1.07535,-12.5371,10.9227,-6.86421,2.65012,-1.60871,1.77358,1.00329,1.42833,-1.42078,-2.85378,0,0,0,0,0,0,0,0,0,0,0,0,0,0,0.700015,8.30922e-05,0.564318,-0.382515,5.0504e-05,0.000130394,0.923949,0,0,0,2.77447,-0.702923,0.984641,-3.5709,-0.0928961,3.3777,-3.75773,-0.109265,3.91038,-0.576525,-0.722026,-0.738091,0.671986,0.163595,0.577714,0.186204,1
2.59164,-1.68044,1.69974,1.07023,1.44542,-1.36305,-2.83471,-11.1993,-14.852,6.36942,1.07455,-12.5723,11.1661,-6.71928,2.65012,-1.60871,1.77358,1.00329,1.42833,-1.42078,-2.85378,0,0,0,0,0,0,0,0,0,0,0,0,0,0,0.700015,8.30922e-05,0.564318,-0.382515,5.0504e-05,0.000130394,0.923949,0,0,0,2.73784,-0.7038,1.01826,-4.18339,-0.100155,3.83913,-3.84286,-0.107443,3.89613,-0.584745,-0.717244,-0.738416,0.669418,0.170864,0.577274,0.190714,1
2.59223,-1.68074,1.69984,1.07003,1.44802,-1.3635,-2.83409,-10.6329,-15.0458,6.44325,1.07626,-12.4429,10.7568,-6.94999,2.65012,-1.60871,1.77358,1.00329,1.42833,-1.42078,-2.85378,0,0,0,0,0,0,0,0,0,0,0,0,0,0,0.700015,8.30922e-05,0.564318,-0.382515,5.0504e-05,0.000130394,0.923949,0,0,0,2.70122,-0.704723,1.05088,-3.27148,-0.0824482,2.91424,-3.72858,-0.102444,3.69975,-0.578833,-0.720244,-0.73743,0.667372,0.196949,0.572751,0.196884,1
2.5921,-1.68063,1.69987,1.0698,1.44935,-1.36375,-2.83352,-10.5403,-15.0609,6.44748,1.07658,-12.4055,10.6988,-6.97829,2.65012,-1.60871,1.77358,1.00329,1.42833,-1.42078,-2.85378,0,0,0,0,0,0,0,0,0,0,0,0,0,0,0.700015,8.30922e-05,0.564318,-0.382515,5.0504e-05,0.000130394,0.923949,0,0,0,2.66456,-0.705696,1.08244,-3.72001,-0.098707,3.20199,-3.72687,-0.101697,3.6002,-0.580189,-0.719195,-0.737186,0.665076,0.210221,0.570276,0.202575,1
2.59228,-1.68068,1.69989,1.06963,1.45069,-1.36416,-2.83254,-10.2517,-15.152,6.47954,1.07742,-12.3334,10.496,-7.08732,2.65012,-1.60871,1.77358,1.00329,1.42833,-1.42078,-2.85378,0,0,0,0,0,0,0,0,0,0,0,0,0,0,0.700015,8.30922e-05,0.564318,-0.382515,5.0504e-05,0.000130394,0.923949,0,0,0,2.62783,-0.706757,1.11294,-3.52189,-0.101751,2.92488,-3.68587,-0.101707,3.46514,-0.578399,-0.719664,-0.73693,0.663388,0.223599,0.566218,0.212415,1
2.59158,-1.68007,1.69985,1.06947,1.45103,-1.36446,-2.83063,-10.4336,-15.0531,6.43607,1.07685,-12.3435,10.6538,-6.98122,2.65012,-1.60871,1.77358,1.00329,1.42833,-1.42078,-2.85378,0,0,0,0,0,0,0,0,0,0,0,0,0,0,0.700015,8.30922e-05,0.564318,-0.382515,5.0504e-05,0.000130394,0.923949,0,0,0,2.59122,-0.707825,1.14237,-4.33095,-0.126332,3.48213,-3.81489,-0.106632,3.46854,-0.585356,-0.713541,-0.737324,0.661808,0.227011,0.56319,0.231533,1
2.59196,-1.68032,1.69991,1.06933,1.4526,-1.36487,-2.8301,-10.0476,-15.1854,6.48544,1.07802,-12.2554,10.3739,-7.13836,2.65012,-1.60871,1.77358,1.00329,1.42833,-1.42078,-2.85378,0,0,0,0,0,0,0,0,0,0,0,0,0,0,0.700015,8.30922e-05,0.564318,-0.382515,5.0504e-05,0.000130394,0.923949,0,0,0,2.55469,-0.708877,1.17083,-3.33322,-0.0959851,2.59658,-3.71855,-0.104503,3.29415,-0.581536,-0.71607,-0.736709,0.660417,0.242727,0.559102,0.236779,1
2.59192,-1.68024,1.69996,1.0692,1.45376,-1.36528,-2.82895,-9.87185,-15.2299,6.49949,1.07855,-12.2019,10.2573,-7.19657,2.65012,-1.60871,1.77358,1.00329,1.42833,-1.42078,-2.85378,0,0,0,0,0,0,0,0,0,0,0,0,0,0,0.700015,8.30922e-05,0.564318,-0.382515,5.0504e-05,0.000130394,0.923949,0,0,0,2.51828,-0.709984,1.1983,-3.64178,-0.110749,2.74752,-3.7032,-0.105752,3.18482,-0.581998,-0.715283,-0.736216,0.659117,0.254354,0.555003,0.248268,1
2.59179,-1.6801,1.69999,1.06906,1.45489,-1.36569,-2.8278,-9.74125,-15.2564,6.50652,1.07897,-12.1558,10.1749,-7.23498,2.65012,-1.60871,1.77358,1.00329,1.42833,-1.42078,-2.85378,0,0,0,0,0,0,0,0,0,0,0,0,0,0,0.700015,8.30922e-05,0.564318,-0.382515,5.0504e-05,0.000130394,0.923949,0,0,0,2.48186,-0.711048,1.2248,-3.70704,-0.108316,2.69727,-3.70397,-0.106265,3.08731,-0.583279,-0.713884,-0.735908,0.657681,0.265586,0.550867,0.259836,1
2.59177,-1.68005,1.70001,1.06893,1.45625,-1.36608,-2.82702,-9.56569,-15.3022,6.52254,1.07956,-12.1024,10.0565,-7.29698,2.65012,-1.60871,1.77358,1.00329,1.42833,-1.42078,-2.85378,0,0,0,0,0,0,0,0,0,0,0,0,0,0,0.700015,8.30922e-05,0.564318,-0.382515,5.0504e-05,0.000130394,0.923949,0,0,0,2.44535,-0.712076,1.25028,-3.58438,-0.100943,2.50117,-3.68005,-0.1052,2.97008,-0.583466,-0.713347,-0.735699,0.656344,0.279239,0.546936,0.267623,1
2.59164,-1.67989,1.70002,1.06878,1.45743,-1.36644,-2.82616,-9.4627,-15.3203,6.52759,1.07991,-12.0629,9.99287,-7.32675,2.65012,-1.60871,1.77358,1.00329,1.42833,-1.42078,-2.85378,0,0,0,0,0,0,0,0,0,0,0,0,0,0,0.700015,8.30922e-05,0.564318,-0.382515,5.0504e-05,0.000130394,0.923949,0,0,0,2.40873,-0.713078,1.27466,-3.72224,-0.101788,2.47798,-3.68849,-0.104518,2.87166,-0.584729,-0.711769,-0.735594,0.654854,0.291002,0.543362,0.276178,1
2.59166,-1.67987,1.70005,1.06863,1.45873,-1.36676,-2.82571,-9.30474,-15.3634,6.54348,1.08045,-12.0159,9.88445,-7.38538,2.65012,-1.60871,1.77358,1.00329,1.42833,-1.42078,-2.85378,0,0,0,0,0,0,0,0,0,0,0,0,0,0,0.700015,8.30922e-05,0.564318,-0.382515,5.0504e-05,0.000130394,0.923949,0,0,0,2.37203,-0.713926,1.29776,-3.57234,-0.0826416,2.24892,-3.66526,-0.100143,2.74711,-0.584561,-0.711554,-0.735366,0.653419,0.304039,0.54018,0.280745,1
2.59159,-1.67976,1.70006,1.06849,1.45981,-1.36707,-2.82509,-9.20232,-15.3852,6.55055,1.0808,-11.9798,9.81838,-7.41847,2.65012,-1.60871,1.77358,1.00329,1.42833,-1.42078,-2.85378,0,0,0,0,0,0,0,0,0,0,0,0,0,0,0.700015,8.30922e-05,0.564318,-0.382515,5.0504e-05,0.000130394,0.923949,0,0,0,2.33548,-0.714876,1.31992,-3.67515,-0.0954611,2.22817,-3.66724,-0.0992064,2.64333,-0.585247,-0.710471,-0.735193,0.651999,0.314797,0.53704,0.286868,1
2.59136,-1.6795,1.70006,1.06832,1.46066,-1.36739,-2.82426,-9.19119,-15.3704,6.54259,1.08085,-11.9598,9.82242,-7.40939,2.65012,-1.60871,1.77358,1.00329,1.42833,-1.42078,-2.85378,0,0,0,0,0,0,0,0,0,0,0,0,0,0,0.700015,8.30922e-05,0.564318,-0.382515,5.0504e-05,0.000130394,0.923949,0,0,0,2.2992,-0.715853,1.34113,-3.89494,-0.104924,2.27708,-3.71278,-0.10035,2.57008,-0.587588,-0.707863,-0.73528,0.650253,0.323266,0.533879,0.295208,1
2.59138,-1.6795,1.70008,1.0682,1.46173,-1.3677,-2.82391,-9.05592,-15.408,6.55642,1.08132,-11.9199,9.72881,-7.46042,2.65012,-1.60871,1.77358,1.00329,1.42833,-1.42078,-2.85378,0,0,0,0,0,0,0,0,0,0,0,0,0,0,0.700015,8.30922e-05,0.564318,-0.382515,5.0504e-05,0.000130394,0.923949,0,0,0,2.26287,-0.716775,1.36149,-3.58097,-0.090875,2.00677,-3.68641,-0.0984549,2.45742,-0.587356,-0.707835,-0.734993,0.649051,0.333976,0.530822,0.298754,1
2.59149,-1.67959,1.70013,1.0681,1.46281,-1.368,-2.82372,-8.88272,-15.4624,6.57719,1.08191,-11.8747,9.60484,-7.53027,2.65012,-1.60871,1.77358,1.00329,1.42833,-1.42078,-2.85378,0,0,0,0,0,0,0,0,0,0,0,0,0,0,0.700015,8.30922e-05,0.564318,-0.382515,5.0504e-05,0.000130394,0.923949,0,0,0,2.22642,-0.717708,1.38091,-3.4386,-0.0879428,1.83187,-3.63685,-0.0963525,2.33231,-0.586241,-0.708716,-0.73457,0.648069,0.344826,0.527796,0.300664,1
2.5914,-1.67948,1.70013,1.06795,1.46366,-1.36832,-2.82321,-8.81389,-15.474,6.58015,1.08215,-11.847,9.56176,-7.55097,2.65012,-1.60871,1.77358,1.00329,1.42833,-1.42078,-2.85378,0,0,0,0,0,0,0,0,0,0,0,0,0,0,0.700015,8.30922e-05,0.564318,-0.382515,5.0504e-05,0.000130394,0.923949,0,0,0,2.19002,-0.718693,1.39937,-3.68814,-0.0998833,1.87043,-3.64711,-0.0970587,2.23993,-0.587148,-0.707669,-0.734513,0.646583,0.3533,0.524616,0.305759,1
2.59135,-1.67941,1.70015,1.06782,1.46447,-1.36863,-2.82277,-8.73306,-15.4916,6.5856,1.08243,-11.8184,9.50862,-7.57809,2.65012,-1.60871,1.77358,1.00329,1.42833,-1.42078,-2.85378,0,0,0,0,0,0,0,0,0,0,0,0,0,0,0.700015,8.30922e-05,0.564318,-0.382515,5.0504e-05,0.000130394,0.923949,0,0,0,2.1538,-0.719731,1.4168,-3.66127,-0.10486,1.76244,-3.64994,-0.0986189,2.14443,-0.58768,-0.706994,-0.734383,0.64524,0.361394,0.521463,0.310138,1
2.59131,-1.67936,1.70016,1.06769,1.46521,-1.36895,-2.82235,-8.65239,-15.5101,6.59136,1.08271,-11.7906,9.45505,-7.60565,2.65012,-1.60871,1.77358,1.00329,1.42833,-1.42078,-2.85378,0,0,0,0,0,0,0,0,0,0,0,0,0,0,0.700015,8.30922e-05,0.564318,-0.382515,5.0504e-05,0.000130394,0.923949,0,0,0,2.11772,-0.720856,1.4332,-3.67251,-0.114563,1.66891,-3.65446,-0.101808,2.04933,-0.588089,-0.706419,-0.734212,0.643986,0.368836,0.518308,0.314346,1
2.59122,-1.67925,1.70017,1.06754,1.46586,-1.36927,-2.82186,-8.60165,-15.517,6.59216,1.08287,-11.7684,9.42418,-7.6196,2.65012,-1.60871,1.77358,1.00329,1.42833,-1.42078,-2.85378,0,0,0,0,0,0,0,0,0,0,0,0,0,0,0.700015,8.30922e-05,0.564318,-0.382515,5.0504e-05,0.000130394,0.923949,0,0,0,2.08153,-0.722065,1.44855,-3.79083,-0.126596,1.60825,-3.68173,-0.106766,1.96111,-0.588994,-0.705338,-0.734179,0.642483,0.375295,0.515056,0.319212,1
2.59139,-1.6794,1.70022,1.06748,1.46665,-1.36956,-2.82181,-8.42746,-15.5766,6.61502,1.08346,-11.7274,9.29625,-7.69306,2.65012,-1.60871,1.77358,1.00329,1.42833,-1.42078,-2.85378,0,0,0,0,0,0,0,0,0,0,0,0,0,0,0.700015,8.30922e-05,0.564318,-0.382515,5.0504e-05,0.000130394,0.923949,0,0,0,2.04531,-0.723414,1.46289,-3.42182,-0.127515,1.35421,-3.62975,-0.110915,1.83973,-0.587225,-0.706899,-0.733637,0.641907,0.383211,0.512155,0.319704,1
2.59152,-1.67952,1.70027,1.06741,1.46739,-1.36986,-2.82172,-8.28233,-15.6244,6.63315,1.08395,-11.6913,9.19039,-7.75348,2.65012,-1.60871,1.77358,1.00329,1.42833,-1.42078,-2.85378,0,0,0,0,0,0,0,0,0,0,0,0,0,0,0.700015,8.30922e-05,0.564318,-0.382515,5.0504e-05,0.000130394,0.923949,0,0,0,2.00906,-0.724801,1.47621,-3.43721,-0.131499,1.26331,-3.59124,-0.115032,1.72445,-0.585992,-0.708039,-0.73316,0.641215,0.390595,0.50915,0.320596,1
2.59137,-1.67939,1.70026,1.06725,1.46792,-1.3702,-2.82125,-8.2674,-15.618,6.62859,1.08401,-11.676,9.18572,-7.75249,2.65012,-1.60871,1.77358,1.00329,1.42833,-1.42078,-2.85378,0,0,0,0,0,0,0,0,0,0,0,0,0,0,0.700015,8.30922e-05,0.564318,-0.382515,5.0504e-05,0.000130394,0.923949,0,0,0,1.97272,-0.726185,1.48859,-3.82852,-0.145757,1.30424,-3.6387,-0.121177,1.64041,-0.587456,-0.70671,-0.733201,0.639614,0.395867,0.505816,0.325283,1
2.59138,-1.67943,1.70029,1.06715,1.46857,-1.37051,-2.82109,-8.17776,-15.6432,6.63736,1.08433,-11.6489,9.12195,-7.78801,2.65012,-1.60871,1.77358,1.00329,1.42833,-1.42078,-2.85378,0,0,0,0,0,0,0,0,0,0,0,0,0,0,0.700015,8.30922e-05,0.564318,-0.382515,5.0504e-05,0.000130394,0.923949,0,0,0,1.93646,-0.727532,1.49995,-3.59152,-0.133398,1.12541,-3.62926,-0.123621,1.53741,-0.587393,-0.707166,-0.732972,0.63854,0.40238,0.502647,0.32688,1
2.59156,-1.67968,1.70034,1.0671,1.46937,-1.37082,-2.82128,-8.00092,-15.705,6.66156,1.08496,-11.6077,8.9894,-7.8659,2.65012,-1.60871,1.77358,1.00329,1.42833,-1.42078,-2.85378,0,0,0,0,0,0,0,0,0,0,0,0,0,0,0.700015,8.30922e-05,0.564318,-0.382515,5.0504e-05,0.000130394,0.923949,0,0,0,1.90028,-0.72877,1.51035,-3.22361,-0.110322,0.926286,-3.54813,-0.120961,1.41518,-0.585563,-0.70965,-0.732445,0.638065,0.410398,0.499571,0.325039,1
2.59116,-1.67938,1.70026,1.06681,1.46978,-1.37121,-2.82061,-8.09999,-15.651,6.63687,1.08465,-11.6096,9.07189,-7.81284,2.65012,-1.60871,1.77358,1.00329,1.42833,-1.42078,-2.85378,0,0,0,0,0,0,0,0,0,0,0,0,0,0,0.700015,8.30922e-05,0.564318,-0.382515,5.0504e-05,0.000130394,0.923949,0,0,0,1.86413,-0.729849,1.51974,-4.15794,-0.124068,1.07967,-3.67009,-0.121583,1.34808,-0.589604,-0.706643,-0.733197,0.635157,0.414472,0.495698,0.331674,1
2.59119,-1.67953,1.70027,1.06671,1.47044,-1.37153,-2.82071,-7.99757,-15.6829,6.64872,1.08505,-11.5808,8.99566,-7.85746,2.65012,-1.60871,1.77358,1.00329,1.42833,-1.42078,-2.85378,0,0,0,0,0,0,0,0,0,0,0,0,0,0,0.700015,8.30922e-05,0.564318,-0.382515,5.0504e-05,0.000130394,0.923949,0,0,0,1.82799,-0.730812,1.52813,-3.43002,-0.0914766,0.796911,-3.62208,-0.115562,1.23785,-0.589266,-0.708155,-0.7331,0.634163,0.421116,0.492444,0.33069,1
2.59108,-1.67953,1.70025,1.06655,1.47091,-1.37186,-2.82058,-7.97134,-15.6841,6.6475,1.08517,-11.5653,8.97831,-7.86629,2.65012,-1.60871,1.77358,1.00329,1.42833,-1.42078,-2.85378,0,0,0,0,0,0,0,0,0,0,0,0,0,0,0.700015,8.30922e-05,0.564318,-0.382515,5.0504e-05,0.000130394,0.923949,0,0,0,1.79197,-0.731801,1.53555,-3.6903,-0.101309,0.76027,-3.63572,-0.112711,1.14233,-0.590352,-0.708201,-0.7333,0.632563,0.425829,0.489181,0.33201,1
2.59107,-1.67963,1.70026,1.06644,1.47135,-1.37215,-2.82059,-7.91068,-15.7012,6.65306,1.08541,-11.546,8.93337,-7.89223,2.65012,-1.60871,1.77358,1.00329,1.42833,-1.42078,-2.85378,0,0,0,0,0,0,0,0,0,0,0,0,0,0,0.700015,8.30922e-05,0.564318,-0.382515,5.0504e-05,0.000130394,0.923949,0,0,0,1.75597,-0.732907,1.54195,-3.56823,-0.10964,0.633681,-3.62222,-0.112097,1.0406,-0.590509,-0.70912,-0.733274,0.631509,0.430164,0.48625,0.331945,1
2.59102,-1.67968,1.70025,1.06633,1.47166,-1.37243,-2.82056,-7.87407,-15.7098,6.65503,1.08555,-11.532,8.90635,-7.90756,2.65012,-1.60871,1.77358,1.00329,1.42833,-1.42078,-2.85378,0,0,0,0,0,0,0,0,0,0,0,0,0,0,0.700015,8.30922e-05,0.564318,-0.382515,5.0504e-05,0.000130394,0.923949,0,0,0,1.71993,-0.734107,1.54735,-3.64848,-0.121435,0.546667,-3.62748,-0.113965,0.941814,-0.590952,-0.709702,-0.733338,0.630336,0.433308,0.483519,0.332225,1
2.59092,-1.6797,1.70023,1.0662,1.47189,-1.37267,-2.82044,-7.86736,-15.7065,6.65198,1.08559,-11.5235,8.90237,-7.90888,2.65012,-1.60871,1.77358,1.00329,1.42833,-1.42078,-2.85378,0,0,0,0,0,0,0,0,0,0,0,0,0,0,0.700015,8.30922e-05,0.564318,-0.382515,5.0504e-05,0.000130394,0.923949,0,0,0,1.68394,-0.735358,1.55174,-3.74988,-0.13033,0.457641,-3.65196,-0.117238,0.84498,-0.591987,-0.709845,-0.733539,0.629037,0.435567,0.481079,0.333384,1
2.59093,-1.67983,1.70022,1.06609,1.47228,-1.37296,-2.82054,-7.79754,-15.7286,6.65955,1.08585,-11.5036,8.8493,-7.94015,2.65012,-1.60871,1.77358,1.00329,1.42833,-1.42078,-2.85378,0,0,0,0,0,0,0,0,0,0,0,0,0,0,0.700015,8.30922e-05,0.564318,-0.382515,5.0504e-05,0.000130394,0.923949,0,0,0,1.64782,-0.736631,1.55509,-3.56821,-0.125778,0.331112,-3.63521,-0.118946,0.742206,-0.591834,-0.711155,-0.733612,0.627989,0.439467,0.478212,0.332454,1
2.59089,-1.6799,1.70017,1.06593,1.47246,-1.37322,-2.82052,-7.76529,-15.7372,6.66079,1.08595,-11.4918,8.82455,-7.95411,2.65012,-1.60871,1.77358,1.00329,1.42833,-1.42078,-2.85378,0,0,0,0,0,0,0,0,0,0,0,0,0,0,0.700015,8.30922e-05,0.564318,-0.382515,5.0504e-05,0.000130394,0.923949,0,0,0,1.61173,-0.737957,1.55754,-3.72835,-0.136977,0.253152,-3.65383,-0.122552,0.644395,-0.592268,-0.711808,-0.734186,0.626392,0.44133,0.475535,0.332639,1
2.59097,-1.68007,1.7001,1.06579,1.47272,-1.37358,-2.8207,-7.6745,-15.7702,6.67192,1.08625,-11.4701,8.75363,-7.99636,2.65012,-1.60871,1.77358,1.00329,1.42833,-1.42078,-2.85378,0,0,0,0,0,0,0,0,0,0,0,0,0,0,0.700015,8.30922e-05,0.564318,-0.382515,5.0504e-05,0.000130394,0.923949,0,0,0,1.57577,-0.739293,1.55892,-3.47736,-0.129157,0.133687,-3.61854,-0.123873,0.542254,-0.591494,-0.713548,-0.734825,0.624955,0.443888,0.472023,0.3308,1
2.59099,-1.6802,1.70002,1.06562,1.47291,-1.37391,-2.82082,-7.60915,-15.7931,6.67871,1.08645,-11.4528,8.7022,-8.02681,2.65012,-1.60871,1.77358,1.00329,1.42833,-1.42078,-2.85378,0,0,0,0,0,0,0,0,0,0,0,0,0,0,0.700015,8.30922e-05,0.564318,-0.382515,5.0504e-05,0.000130394,0.923949,0,0,0,1.53979,-0.740634,1.5594,-3.55574,-0.132581,0.0471746,-3.60598,-0.125615,0.443238,-0.591218,-0.714897,-0.73559,0.623292,0.445789,0.468639,0.329607,1
2.59104,-1.68037,1.69995,1.06545,1.47315,-1.37429,-2.82102,-7.53046,-15.8213,6.68769,1.08672,-11.4329,8.64006,-8.06404,2.65012,-1.60871,1.77358,1.00329,1.42833,-1.42078,-2.85378,0,0,0,0,0,0,0,0,0,0,0,0,0,0,0.700015,8.30922e-05,0.564318,-0.382515,5.0504e-05,0.000130394,0.923949,0,0,0,1.5038,-0.741933,1.55886,-3.46833,-0.125203,-0.052372,-3.57845,-0.125532,0.344116,-0.590726,-0.716583,-0.736376,0.621607,0.448182,0.464922,0.327648,1
2.591,-1.68045,1.69983,1.06521,1.47321,-1.37461,-2.82102,-7.49773,-15.8315,6.68841,1.08677,-11.4217,8.6136,-8.07902,2.65012,-1.60871,1.77358,1.00329,1.42833,-1.42078,-2.85378,0,0,0,0,0,0,0,0,0,0,0,0,0,0,0.700015,8.30922e-05,0.564318,-0.382515,5.0504e-05,0.000130394,0.923949,0,0,0,1.46788,-0.743222,1.5573,-3.76184,-0.134991,-0.163328,-3.61513,-0.127424,0.242627,-0.591115,-0.717343,-0.737533,0.619207,0.448849,0.461681,0.327641,1
2.59101,-1.68057,1.69972,1.06499,1.47332,-1.37496,-2.82111,-7.44438,-15.8503,6.69275,1.08691,-11.4069,8.57077,-8.10418,2.65012,-1.60871,1.77358,1.00329,1.42833,-1.42078,-2.85378,0,0,0,0,0,0,0,0,0,0,0,0,0,0,0.700015,8.30922e-05,0.564318,-0.382515,5.0504e-05,0.000130394,0.923949,0,0,0,1.43194,-0.744491,1.55473,-3.66159,-0.129299,-0.261791,-3.62442,-0.127799,0.141743,-0.591088,-0.718579,-0.738615,0.61695,0.449957,0.458206,0.32672,1
2.59113,-1.68083,1.69965,1.06485,1.47361,-1.37537,-2.82149,-7.33314,-15.8923,6.70772,1.0873,-11.3816,8.48229,-8.1581,2.65012,-1.60871,1.77358,1.00329,1.42833,-1.42078,-2.85378,0,0,0,0,0,0,0,0,0,0,0,0,0,0,0.700015,8.30922e-05,0.564318,-0.382515,5.0504e-05,0.000130394,0.923949,0,0,0,1.39602,-0.74576,1.55111,-3.24128,-0.114491,-0.326288,-3.54779,-0.125138,0.0481371,-0.589859,-0.721129,-0.739299,0.615552,0.452799,0.454067,0.322955,1
2.5911,-1.68091,1.69952,1.06456,1.47366,-1.37566,-2.82146,-7.29681,-15.9045,6.7086,1.08733,-11.3703,8.45306,-8.17431,2.65012,-1.60871,1.77358,1.00329,1.42833,-1.42078,-2.85378,0,0,0,0,0,0,0,0,0,0,0,0,0,0,0.700015,8.30922e-05,0.564318,-0.382515,5.0504e-05,0.000130394,0.923949,0,0,0,1.36018,-0.74702,1.54658,-3.8619,-0.135737,-0.488107,-3.61061,-0.127257,-0.0591118,-0.590191,-0.721911,-0.740634,0.612637,0.453274,0.451146,0.323207,1
2.59115,-1.68108,1.69943,1.06435,1.4739,-1.37596,-2.82164,-7.21505,-15.9342,6.71787,1.08757,-11.3505,8.38873,-8.21244,2.65012,-1.60871,1.77358,1.00329,1.42833,-1.42078,-2.85378,0,0,0,0,0,0,0,0,0,0,0,0,0,0,0.700015,8.30922e-05,0.564318,-0.382515,5.0504e-05,0.000130394,0.923949,0,0,0,1.32438,-0.748253,1.54116,-3.6109,-0.124416,-0.546955,-3.61067,-0.126689,-0.15668,-0.58964,-0.723661,-0.74152,0.610554,0.455696,0.448141,0.321463,1
2.59122,-1.68127,1.69934,1.06413,1.47414,-1.37628,-2.82185,-7.12845,-15.9662,6.72803,1.08782,-11.3299,8.32027,-8.25324,2.65012,-1.60871,1.77358,1.00329,1.42833,-1.42078,-2.85378,0,0,0,0,0,0,0,0,0,0,0,0,0,0,0.700015,8.30922e-05,0.564318,-0.382515,5.0504e-05,0.000130394,0.923949,0,0,0,1.28857,-0.749476,1.53471,-3.5926,-0.122631,-0.647306,-3.60706,-0.125878,-0.254806,-0.588955,-0.725554,-0.742439,0.608401,0.458114,0.445013,0.319339,1
2.59131,-1.68149,1.69926,1.06396,1.47436,-1.37661,-2.82215,-7.03739,-16.0008,6.73973,1.08811,-11.3092,8.2475,-8.29738,2.65012,-1.60871,1.77358,1.00329,1.42833,-1.42078,-2.85378,0,0,0,0,0,0,0,0,0,0,0,0,0,0,0.700015,8.30922e-05,0.564318,-0.382515,5.0504e-05,0.000130394,0.923949,0,0,0,1.25259,-0.750762,1.52733,-3.45999,-0.123725,-0.70974,-3.57764,-0.125447,-0.345792,-0.588025,-0.727751,-0.74321,0.60666,0.460339,0.441721,0.316295,1
2.59138,-1.68165,1.69916,1.06371,1.47444,-1.37685,-2.82228,-6.96636,-16.0285,6.74748,1.08826,-11.2936,8.19081,-8.33065,2.65012,-1.60871,1.77358,1.00329,1.42833,-1.42078,-2.85378,0,0,0,0,0,0,0,0,0,0,0,0,0,0,0.700015,8.30922e-05,0.564318,-0.382515,5.0504e-05,0.000130394,0.923949,0,0,0,1.21672,-0.752144,1.51904,-3.77454,-0.145354,-0.872247,-3.61702,-0.129428,-0.451083,-0.587401,-0.729307,-0.744276,0.604169,0.461132,0.439325,0.315045,1
2.59149,-1.68185,1.69906,1.0635,1.47453,-1.37712,-2.82255,-6.87754,-16.0642,6.75899,1.0885,-11.2755,8.11931,-8.37372,2.65012,-1.60871,1.77358,1.00329,1.42833,-1.42078,-2.85378,0,0,0,0,0,0,0,0,0,0,0,0,0,0,0.700015,8.30922e-05,0.564318,-0.382515,5.0504e-05,0.000130394,0.923949,0,0,0,1.18101,-0.753589,1.50962,-3.62732,-0.146873,-0.956404,-3.61908,-0.132917,-0.552148,-0.586253,-0.731392,-0.74521,0.60206,0.462046,0.436546,0.312352,1
2.5916,-1.68208,1.69898,1.0633,1.47464,-1.37744,-2.82287,-6.78933,-16.0995,6.77059,1.08876,-11.2569,8.04776,-8.41735,2.65012,-1.60871,1.77358,1.00329,1.42833,-1.42078,-2.85378,0,0,0,0,0,0,0,0,0,0,0,0,0,0,0.700015,8.30922e-05,0.564318,-0.382515,5.0504e-05,0.000130394,0.923949,0,0,0,1.14533,-0.755043,1.49926,-3.50844,-0.142965,-1.0187,-3.59696,-0.134927,-0.645458,-0.585131,-0.733647,-0.746083,0.600114,0.463144,0.433377,0.309091,1
2.59175,-1.68235,1.69892,1.06323,1.47467,-1.37777,-2.82333,-6.69683,-16.138,6.78467,1.08909,-11.2391,7.97154,-8.46501,2.65012,-1.60871,1.77358,1.00329,1.42833,-1.42078,-2.85378,0,0,0,0,0,0,0,0,0,0,0,0,0,0,0.700015,8.30922e-05,0.564318,-0.382515,5.0504e-05,0.000130394,0.923949,0,0,0,1.10962,-0.756666,1.48793,-3.26029,-0.148155,-1.03433,-3.52962,-0.137572,-0.723232,-0.583612,-0.736387,-0.746685,0.599377,0.463375,0.430027,0.304542,1
2.5918,-1.68252,1.69876,1.06285,1.4747,-1.37804,-2.82345,-6.62775,-16.1655,6.79087,1.08917,-11.2238,7.91538,-8.49772,2.65012,-1.60871,1.77358,1.00329,1.42833,-1.42078,-2.85378,0,0,0,0,0,0,0,0,0,0,0,0,0,0,0.700015,8.30922e-05,0.564318,-0.382515,5.0504e-05,0.000130394,0.923949,0,0,0,1.074,-0.758138,1.47562,-3.87914,-0.160306,-1.34121,-3.59953,-0.142119,-0.846827,-0.583127,-0.738016,-0.748233,0.595553,0.463714,0.427339,0.303294,1
2.59186,-1.68278,1.69866,1.06262,1.4749,-1.3785,-2.8239,-6.55138,-16.1944,6.79986,1.08945,-11.2043,7.85148,-8.53789,2.65012,-1.60871,1.77358,1.00329,1.42833,-1.42078,-2.85378,0,0,0,0,0,0,0,0,0,0,0,0,0,0,0.700015,8.30922e-05,0.564318,-0.382515,5.0504e-05,0.000130394,0.923949,0,0,0,1.0384,-0.759437,1.4623,-3.43579,-0.125397,-1.28548,-3.56678,-0.138775,-0.934557,-0.582594,-0.740646,-0.749286,0.593279,0.465718,0.422801,0.298797,1
2.59192,-1.68305,1.69855,1.0624,1.47508,-1.37896,-2.82441,-6.47498,-16.2239,6.80932,1.08973,-11.1854,7.7869,-8.57892,2.65012,-1.60871,1.77358,1.00329,1.42833,-1.42078,-2.85378,0,0,0,0,0,0,0,0,0,0,0,0,0,0,0.700015,8.30922e-05,0.564318,-0.382515,5.0504e-05,0.000130394,0.923949,0,0,0,1.00278,-0.760724,1.448,-3.37926,-0.122036,-1.35627,-3.52927,-0.135427,-1.0189,-0.581915,-0.743378,-0.750319,0.591069,0.467489,0.418169,0.293756,1
2.59196,-1.68324,1.69837,1.06191,1.47516,-1.37935,-2.82461,-6.40414,-16.2515,6.81458,1.08981,-11.1679,7.7281,-8.61366,2.65012,-1.60871,1.77358,1.00329,1.42833,-1.42078,-2.85378,0,0,0,0,0,0,0,0,0,0,0,0,0,0,0.700015,8.30922e-05,0.564318,-0.382515,5.0504e-05,0.000130394,0.923949,0,0,0,0.967121,-0.762212,1.43268,-3.92926,-0.164017,-1.68807,-3.60927,-0.141145,-1.15273,-0.581593,-0.745273,-0.752098,0.586157,0.468329,0.414299,0.291732,1
2.59196,-1.68344,1.69825,1.06156,1.47521,-1.37968,-2.82493,-6.3644,-16.2675,6.81718,1.08987,-11.1569,7.69221,-8.63637,2.65012,-1.60871,1.77358,1.00329,1.42833,-1.42078,-2.85378,0,0,0,0,0,0,0,0,0,0,0,0,0,0,0.700015,8.30922e-05,0.564318,-0.382515,5.0504e-05,0.000130394,0.923949,0,0,0,0.931523,-0.763575,1.41652,-3.67474,-0.140675,-1.66832,-3.62237,-0.141051,-1.25585,-0.581581,-0.747212,-0.753353,0.58273,0.468766,0.410971,0.288551,1
2.59196,-1.68365,1.69815,1.0613,1.47524,-1.38002,-2.82537,-6.33466,-16.2801,6.81962,1.08996,-11.1482,7.66294,-8.65639,2.65012,-1.60871,1.77358,1.00329,1.42833,-1.42078,-2.85378,0,0,0,0,0,0,0,0,0,0,0,0,0,0,0.700015,8.30922e-05,0.564318,-0.382515,5.0504e-05,0.000130394,0.923949,0,0,0,0.895908,-0.764853,1.39938,-3.48589,-0.125104,-1.6777,-3.59507,-0.137861,-1.34022,-0.581535,-0.74934,-0.754316,0.580125,0.469066,0.407543,0.284163,1
2.59198,-1.68385,1.69805,1.061,1.47523,-1.38036,-2.82579,-6.30316,-16.2942,6.82219,1.09003,-11.14,7.63213,-8.67719,2.65012,-1.60871,1.77358,1.00329,1.42833,-1.42078,-2.85378,0,0,0,0,0,0,0,0,0,0,0,0,0,0,0.700015,8.30922e-05,0.564318,-0.382515,5.0504e-05,0.000130394,0.923949,0,0,0,0.860273,-0.766214,1.38123,-3.5519,-0.135634,-1.80945,-3.58644,-0.137416,-1.43407,-0.581343,-0.751402,-0.755324,0.577123,0.468989,0.404189,0.27988,1
2.59201,-1.68408,1.69796,1.06076,1.47518,-1.38072,-2.82631,-6.27554,-16.3074,6.82509,1.09013,-11.1329,7.60336,-8.69764,2.65012,-1.60871,1.77358,1.00329,1.42833,-1.42078,-2.85378,0,0,0,0,0,0,0,0,0,0,0,0,0,0,0.700015,8.30922e-05,0.564318,-0.382515,5.0504e-05,0.000130394,0.923949,0,0,0,0.824729,-0.76751,1.36201,-3.42627,-0.124927,-1.85248,-3.5544,-0.134918,-1.51775,-0.581071,-0.753662,-0.756263,0.574696,0.468557,0.400572,0.274732,1
2.59201,-1.68429,1.69779,1.06035,1.47502,-1.38112,-2.82677,-6.2572,-16.3181,6.82482,1.0901,-11.1278,7.58063,-8.71389,2.65012,-1.60871,1.77358,1.00329,1.42833,-1.42078,-2.85378,0,0,0,0,0,0,0,0,0,0,0,0,0,0,0.700015,8.30922e-05,0.564318,-0.382515,5.0504e-05,0.000130394,0.923949,0,0,0,0.789403,-0.768672,1.34182,-3.74898,-0.123308,-2.14267,-3.59332,-0.132596,-1.64273,-0.581075,-0.755778,-0.757948,0.570542,0.466896,0.396614,0.270121,1
2.59207,-1.68452,1.69766,1.06005,1.47476,-1.38142,-2.82735,-6.23787,-16.3319,6.82733,1.09011,-11.1258,7.55633,-8.7322,2.65012,-1.60871,1.77358,1.00329,1.42833,-1.42078,-2.85378,0,0,0,0,0,0,0,0,0,0,0,0,0,0,0.700015,8.30922e-05,0.564318,-0.382515,5.0504e-05,0.000130394,0.923949,0,0,0,0.754074,-0.769949,1.32063,-3.51468,-0.127023,-2.10781,-3.57759,-0.131482,-1.73575,-0.580445,-0.75805,-0.759276,0.56762,0.464346,0.393546,0.264331,1
2.59216,-1.68477,1.69757,1.05995,1.47441,-1.38168,-2.82807,-6.22987,-16.3432,6.83104,1.09018,-11.1283,7.53959,-8.74765,2.65012,-1.60871,1.77358,1.00329,1.42833,-1.42078,-2.85378,0,0,0,0,0,0,0,0,0,0,0,0,0,0,0.700015,8.30922e-05,0.564318,-0.382515,5.0504e-05,0.000130394,0.923949,0,0,0,0.718696,-0.771321,1.29854,-3.15736,-0.122497,-1.97131,-3.49355,-0.129685,-1.78286,-0.579511,-0.760547,-0.760177,0.566599,0.460832,0.390967,0.257093,1
2.59225,-1.68495,1.69736,1.05929,1.47408,-1.38199,-2.82851,-6.1975,-16.364,6.83228,1.09001,-11.1249,7.50494,-8.7702,2.65012,-1.60871,1.77358,1.00329,1.42833,-1.42078,-2.85378,0,0,0,0,0,0,0,0,0,0,0,0,0,0,0.700015,8.30922e-05,0.564318,-0.382515,5.0504e-05,0.000130394,0.923949,0,0,0,0.683391,-0.772793,1.27528,-4.02115,-0.167658,-2.64986,-3.59907,-0.137279,-1.95626,-0.578622,-0.762372,-0.762222,0.560009,0.457512,0.387866,0.252754,1
2.59233,-1.68515,1.69727,1.05903,1.47379,-1.38228,-2.82912,-6.19011,-16.3741,6.83393,1.08999,-11.1263,7.48952,-8.78379,2.65012,-1.60871,1.77358,1.00329,1.42833,-1.42078,-2.85378,0,0,0,0,0,0,0,0,0,0,0,0,0,0,0.700015,8.30922e-05,0.564318,-0.382515,5.0504e-05,0.000130394,0.923949,0,0,0,0.648086,-0.774277,1.25122,-3.41156,-0.143373,-2.32489,-3.56157,-0.138498,-2.02999,-0.577831,-0.764362,-0.763164,0.557375,0.45457,0.385026,0.246665,1
2.59237,-1.68531,1.69713,1.05848,1.47356,-1.38263,-2.82959,-6.18345,-16.3826,6.83186,1.08984,-11.1253,7.47502,-8.7953,2.65012,-1.60871,1.77358,1.00329,1.42833,-1.42078,-2.85378,0,0,0,0,0,0,0,0,0,0,0,0,0,0,0.700015,8.30922e-05,0.564318,-0.382515,5.0504e-05,0.000130394,0.923949,0,0,0,0.61278,-0.775694,1.2264,-3.8664,-0.155182,-2.71754,-3.62253,-0.141835,-2.1675,-0.577486,-0.765931,-0.764563,0.551843,0.452344,0.381502,0.241943,1
2.59246,-1.68552,1.69706,1.05832,1.47318,-1.38287,-2.83035,-6.19519,-16.3873,6.83296,1.08982,-11.1324,7.47273,-8.80278,2.65012,-1.60871,1.77358,1.00329,1.42833,-1.42078,-2.85378,0,0,0,0,0,0,0,0,0,0,0,0,0,0,0.700015,8.30922e-05,0.564318,-0.382515,5.0504e-05,0.000130394,0.923949,0,0,0,0.577522,-0.777202,1.20041,-3.24813,-0.138956,-2.39502,-3.54765,-0.141259,-2.213,-0.576539,-0.768005,-0.765219,0.550317,0.448535,0.379037,0.23427,1
2.59254,-1.68574,1.69688,1.05779,1.47246,-1.38348,-2.83197,-6.29941,-16.3651,6.82185,1.08948,-11.1595,7.52867,-8.78308,2.65012,-1.60871,1.77358,1.00329,1.42833,-1.42078,-2.85378,0,0,0,0,0,0,0,0,0,0,0,0,0,0,0.700015,8.30922e-05,0.564318,-0.382515,5.0504e-05,0.000130394,0.923949,0,0,0,0.542267,-0.778737,1.1735,-3.56844,-0.155293,-2.7235,-3.55181,-0.144066,-2.3151,-0.575726,-0.770222,-0.767024,0.544963,0.441318,0.372941,0.218158,1
2.59268,-1.68595,1.69673,1.05735,1.47179,-1.38419,-2.83345,-6.36966,-16.3543,6.81559,1.08929,-11.1792,7.56075,-8.77656,2.65012,-1.60871,1.77358,1.00329,1.42833,-1.42078,-2.85378,0,0,0,0,0,0,0,0,0,0,0,0,0,0,0.700015,8.30922e-05,0.564318,-0.382515,5.0504e-05,0.000130394,0.923949,0,0,0,0.507028,-0.780264,1.14562,-3.47139,-0.150451,-2.74581,-3.53573,-0.145343,-2.40124,-0.574394,-0.772384,-0.768553,0.540599,0.434653,0.36585,0.203366,1
2.59282,-1.68616,1.69655,1.05672,1.47104,-1.38492,-2.83513,-6.46596,-16.3366,6.80557,1.08895,-11.2053,7.6095,-8.7618,2.65012,-1.60871,1.77358,1.00329,1.42833,-1.42078,-2.85378,0,0,0,0,0,0,0,0,0,0,0,0,0,0,0.700015,8.30922e-05,0.564318,-0.382515,5.0504e-05,0.000130394,0.923949,0,0,0,0.47184,-0.781806,1.11677,-3.65005,-0.159966,-2.99318,-3.55859,-0.148268,-2.51963,-0.572996,-0.774465,-0.770374,0.534311,0.427142,0.358538,0.186488,1
2.59295,-1.68638,1.69643,1.05642,1.47036,-1.3857,-2.83675,-6.55306,-16.3194,6.79857,1.0888,-11.2282,7.65366,-8.74979,2.65012,-1.60871,1.77358,1.00329,1.42833,-1.42078,-2.85378,0,0,0,0,0,0,0,0,0,0,0,0,0,0,0.700015,8.30922e-05,0.564318,-0.382515,5.0504e-05,0.000130394,0.923949,0,0,0,0.436735,-0.783296,1.08692,-3.27467,-0.138991,-2.78465,-3.50181,-0.146412,-2.57264,-0.571624,-0.776648,-0.771582,0.531259,0.420279,0.350791,0.170355,1
2.59313,-1.68659,1.69621,1.05558,1.46943,-1.38646,-2.83891,-6.699,-16.2888,6.78337,1.08826,-11.268,7.73422,-8.72023,2.65012,-1.60871,1.77358,1.00329,1.42833,-1.42078,-2.85378,0,0,0,0,0,0,0,0,0,0,0,0,0,0,0.700015,8.30922e-05,0.564318,-0.382515,5.0504e-05,0.000130394,0.923949,0,0,0,0.401662,-0.784733,1.05607,-3.70066,-0.151632,-3.25514,-3.54158,-0.147456,-2.70914,-0.569832,-0.778713,-0.773697,0.522903,0.411009,0.34318,0.148711,1
2.59327,-1.68678,1.69602,1.05481,1.46843,-1.38724,-2.84115,-6.87886,-16.2452,6.76401,1.08767,-11.3141,7.83981,-8.67708,2.65012,-1.60871,1.77358,1.00329,1.42833,-1.42078,-2.85378,0,0,0,0,0,0,0,0,0,0,0,0,0,0,0.700015,8.30922e-05,0.564318,-0.382515,5.0504e-05,0.000130394,0.923949,0,0,0,0.366658,-0.786071,1.02437,-3.58883,-0.137184,-3.25007,-3.55103,-0.145402,-2.81732,-0.568476,-0.780673,-0.775593,0.515221,0.401038,0.3354,0.1263,1
2.59332,-1.68696,1.69587,1.05419,1.46772,-1.38801,-2.84357,-7.09451,-16.1841,6.74097,1.08713,-11.3638,7.9735,-8.61905,2.65012,-1.60871,1.77358,1.00329,1.42833,-1.42078,-2.85378,0,0,0,0,0,0,0,0,0,0,0,0,0,0,0.700015,8.30922e-05,0.564318,-0.382515,5.0504e-05,0.000130394,0.923949,0,0,0,0.331822,-0.787432,0.99163,-3.3696,-0.131583,-3.16651,-3.51474,-0.142638,-2.88716,-0.567952,-0.782488,-0.777127,0.509013,0.393873,0.327706,0.10209,1
2.59338,-1.68713,1.69571,1.05336,1.46704,-1.38877,-2.8464,-7.354,-16.1094,6.71286,1.08642,-11.4236,8.1367,-8.54676,2.65012,-1.60871,1.77358,1.00329,1.42833,-1.42078,-2.85378,0,0,0,0,0,0,0,0,0,0,0,0,0,0,0.700015,8.30922e-05,0.564318,-0.382515,5.0504e-05,0.000130394,0.923949,0,0,0,0.296944,-0.788947,0.957958,-3.46491,-0.150542,-3.34506,-3.50478,-0.144219,-2.97874,-0.567359,-0.784132,-0.778773,0.500677,0.387103,0.32004,0.073818,1
2.59346,-1.68728,1.69553,1.0524,1.46626,-1.38956,-2.84941,-7.63934,-16.0277,6.68163,1.08559,-11.4903,8.31711,-8.46597,2.65012,-1.60871,1.77358,1.00329,1.42833,-1.42078,-2.85378,0,0,0,0,0,0,0,0,0,0,0,0,0,0,0.700015,8.30922e-05,0.564318,-0.382515,5.0504e-05,0.000130394,0.923949,0,0,0,0.262093,-0.790546,0.923393,-3.54372,-0.162598,-3.51466,-3.51256,-0.147895,-3.08592,-0.566601,-0.785678,-0.780497,0.491091,0.379289,0.312171,0.0436887,1
2.59355,-1.68746,1.69543,1.05193,1.46569,-1.39027,-2.85241,-7.90595,-15.9492,6.65707,1.08507,-11.5525,8.48732,-8.39146,2.65012,-1.60871,1.77358,1.00329,1.42833,-1.42078,-2.85378,0,0,0,0,0,0,0,0,0,0,0,0,0,0,0.700015,8.30922e-05,0.564318,-0.382515,5.0504e-05,0.000130394,0.923949,0,0,0,0.22737,-0.792188,0.887885,-3.14756,-0.148882,-3.21876,-3.43956,-0.148092,-3.11249,-0.56566,-0.787402,-0.781521,0.486405,0.373582,0.305049,0.0137065,1
2.5936,-1.68761,1.69519,1.05033,1.46467,-1.39121,-2.85646,-8.33047,-15.8241,6.60736,1.0837,-11.6507,8.76101,-8.26436,2.65012,-1.60871,1.77358,1.00329,1.42833,-1.42078,-2.85378,0,0,0,0,0,0,0,0,0,0,0,0,0,0,0.700015,8.30922e-05,0.564318,-0.382515,5.0504e-05,0.000130394,0.923949,0,0,0,0.192854,-0.793634,0.851284,-3.77263,-0.158056,-4.00052,-3.50618,-0.150085,-3.2901,-0.565202,-0.788949,-0.783909,0.47036,0.363391,0.295644,-0.0268275,1
2.59367,-1.68776,1.69503,1.04924,1.4638,-1.39206,-2.85972,-8.66058,-15.7271,6.57054,1.08273,-11.7276,8.97336,-8.16726,2.65012,-1.60871,1.77358,1.00329,1.42833,-1.42078,-2.85378,0,0,0,0,0,0,0,0,0,0,0,0,0,0,0.700015,8.30922e-05,0.564318,-0.382515,5.0504e-05,0.000130394,0.923949,0,0,0,0.158155,-0.795184,0.813823,-3.51662,-0.157022,-3.79653,-3.50827,-0.151472,-3.39138,-0.564487,-0.790448,-0.785538,0.459466,0.354709,0.287209,-0.0593908,1
2.59373,-1.6879,1.69488,1.04813,1.46292,-1.39292,-2.86275,-8.97593,-15.634,6.53413,1.08178,-11.8006,9.17646,-8.07389,2.65012,-1.60871,1.77358,1.00329,1.42833,-1.42078,-2.85378,0,0,0,0,0,0,0,0,0,0,0,0,0,0,0.700015,8.30922e-05,0.564318,-0.382515,5.0504e-05,0.000130394,0.923949,0,0,0,0.12347,-0.796697,0.775468,-3.50492,-0.152902,-3.87576,-3.5076,-0.151758,-3.48826,-0.563887,-0.791874,-0.787072,0.448381,0.34591,0.278572,-0.089661,1
2.59376,-1.68804,1.69471,1.04686,1.46196,-1.39379,-2.86576,-9.3074,-15.5355,6.494,1.08071,-11.8771,9.39099,-7.97378,2.65012,-1.60871,1.77358,1.00329,1.42833,-1.42078,-2.85378,0,0,0,0,0,0,0,0,0,0,0,0,0,0,0.700015,8.30922e-05,0.564318,-0.382515,5.0504e-05,0.000130394,0.923949,0,0,0,0.0888461,-0.798141,0.736182,-3.54195,-0.147703,-4.01886,-3.51447,-0.150947,-3.59438,-0.563524,-0.793259,-0.788692,0.435655,0.336337,0.269861,-0.119799,1
2.59379,-1.68818,1.69458,1.04578,1.46099,-1.39469,-2.86858,-9.62643,-15.4392,6.45571,1.07975,-11.9499,9.5986,-7.87662,2.65012,-1.60871,1.77358,1.00329,1.42833,-1.42078,-2.85378,0,0,0,0,0,0,0,0,0,0,0,0,0,0,0.700015,8.30922e-05,0.564318,-0.382515,5.0504e-05,0.000130394,0.923949,0,0,0,0.0543274,-0.799473,0.695869,-3.38358,-0.13054,-3.95153,-3.48829,-0.146866,-3.66581,-0.56329,-0.794651,-0.790048,0.424893,0.326567,0.260875,-0.147973,1
2.59375,-1.68829,1.69439,1.04413,1.45948,-1.39548,-2.87149,-10.0231,-15.3215,6.40311,1.07823,-12.0435,9.85916,-7.74942,2.65012,-1.60871,1.77358,1.00329,1.42833,-1.42078,-2.85378,0,0,0,0,0,0,0,0,0,0,0,0,0,0,0.700015,8.30922e-05,0.564318,-0.382515,5.0504e-05,0.000130394,0.923949,0,0,0,0.0196943,-0.800894,0.654654,-3.63578,-0.149199,-4.32684,-3.51779,-0.147332,-3.79802,-0.563636,-0.795793,-0.791892,0.408401,0.311466,0.253026,-0.177123,1
2.59374,-1.6884,1.69421,1.04243,1.45789,-1.39623,-2.87419,-10.3995,-15.2116,6.35192,1.07669,-12.1337,10.1057,-7.62884,2.65012,-1.60871,1.77358,1.00329,1.42833,-1.42078,-2.85378,0,0,0,0,0,0,0,0,0,0,0,0,0,0,0.700015,8.30922e-05,0.564318,-0.382515,5.0504e-05,0.000130394,0.923949,0,0,0,-0.0148552,-0.802247,0.612577,-3.65124,-0.143046,-4.44668,-3.54448,-0.146475,-3.92775,-0.563785,-0.796877,-0.793689,0.391348,0.295652,0.245439,-0.204093,1
2.59383,-1.68851,1.6941,1.04138,1.45647,-1.3967,-2.87655,-10.6956,-15.1297,6.31709,1.0756,-12.2104,10.2986,-7.53697,2.65012,-1.60871,1.77358,1.00329,1.42833,-1.42078,-2.85378,0,0,0,0,0,0,0,0,0,0,0,0,0,0,0.700015,8.30922e-05,0.564318,-0.382515,5.0504e-05,0.000130394,0.923949,0,0,0,-0.0494189,-0.80367,0.5695,-3.41365,-0.140524,-4.25453,-3.51831,-0.145285,-3.9931,-0.562822,-0.797988,-0.794803,0.380905,0.28146,0.240737,-0.227642,1
2.59393,-1.68863,1.69403,1.04027,1.45542,-1.39707,-2.87852,-10.9286,-15.0667,6.28838,1.07462,-12.2712,10.4486,-7.46649,2.65012,-1.60871,1.77358,1.00329,1.42833,-1.42078,-2.85378,0,0,0,0,0,0,0,0,0,0,0,0,0,0,0.700015,8.30922e-05,0.564318,-0.382515,5.0504e-05,0.000130394,0.923949,0,0,0,-0.0840015,-0.805095,0.52537,-3.26212,-0.134398,-4.16268,-3.46707,-0.143108,-4.02702,-0.561858,-0.799164,-0.795503,0.369801,0.270959,0.237089,-0.247423,1
