Afshin1997/kuka_rl_ros2/src/catch_and_throw/output_files/tm/nn_ema2.00_jvws1_realball_D24H17M36S38/recorded_data.csv
pure_target_joint_0,pure_target_joint_1,pure_target_joint_2,pure_target_joint_3,pure_target_joint_4,pure_target_joint_5,pure_target_joint_6,target_joint_0,target_joint_1,target_joint_2,target_joint_3,target_joint_4,target_joint_5,target_joint_6,pos_joint_0,pos_joint_1,pos_joint_2,pos_joint_3,pos_joint_4,pos_joint_5,pos_joint_6,vel_joint_0,vel_joint_1,vel_joint_2,vel_joint_3,vel_joint_4,vel_joint_5,vel_joint_6,vel_smooth_joint_0,vel_smooth_joint_1,vel_smooth_joint_2,vel_smooth_joint_3,vel_smooth_joint_4,vel_smooth_joint_5,vel_smooth_joint_6,ee_pos_x,ee_pos_y,ee_pos_z,ee_or_w,ee_or_x,ee_or_y,ee_or_z,ee_vel_x,ee_vel_y,ee_vel_z,ball_pos_x,ball_pos_y,ball_pos_z,ball_raw_vx,ball_raw_vy,ball_raw_vz,ball_ema_vx,ball_ema_vy,ball_ema_vz,action_0,action_1,action_2,action_3,action_4,action_5,action_6,command_published
1.71287,-1.01569,-1.84049,-1.07893,1.99487,1.18843,-0.933664,1.71287,-1.01569,-1.84049,-1.07893,1.99487,1.18843,-0.933664,1.78088,-1.07134,-1.81811,-1.11966,1.93717,1.11684,-0.91627,5.99317e-05,2.39771e-05,2.39771e-05,0,0,0,-3.59547e-05,5.99317e-05,2.39771e-05,2.39771e-05,0,0,0,-3.59547e-05,0.533802,-0.455892,0.691248,0.572998,0.178974,0.151784,0.785241,2.47394e-05,4.25158e-05,2.18347e-05,2.97128,-0.50753,0.436496,-3.39787,-0.0932097,5.41669,-3.39787,-0.0932097,5.41669,-0.6801,0.556494,-0.22383,0.407357,0.57695,0.715943,-0.173939,1
1.71723,-1.01848,-1.83284,-1.07761,1.99945,1.18853,-0.918694,1.71723,-1.01848,-1.83284,-1.07761,1.99945,1.18853,-0.918694,1.78088,-1.07134,-1.81811,-1.11966,1.93717,1.11684,-0.91627,0,0,7.19094e-05,4.79541e-05,0,0,5.99099e-05,0,0,7.19094e-05,4.79541e-05,0,0,5.99099e-05,0.533802,-0.455892,0.691248,0.572998,0.178974,0.151783,0.785241,-1.08953e-05,-3.54948e-06,3.70517e-05,2.93895,-0.508669,0.489873,-3.23305,-0.113904,5.33771,-3.23305,-0.113904,5.33771,-0.636501,0.528572,-0.147374,0.420593,0.622765,0.716922,-0.0242374,1
1.71538,-1.01836,-1.83475,-1.06972,2.00089,1.18736,-0.918394,1.71538,-1.01836,-1.83475,-1.06972,2.00089,1.18736,-0.918394,1.7809,-1.07131,-1.8182,-1.11982,1.93717,1.11684,-0.91627,0.00322383,0.00378711,-0.0225908,-0.0307523,0.000134219,-0.000407457,-8.3887e-05,0.00322383,0.00378711,-0.0225908,-0.0307523,0.000134219,-0.000407457,-8.3887e-05,0.53384,-0.455838,0.691191,0.572952,0.17902,0.151846,0.785252,0.00714818,0.00948511,-0.0132987,2.90631,-0.509694,0.542906,-3.26424,-0.102407,5.30329,-3.26424,-0.102407,5.30329,-0.655143,0.529509,-0.165427,0.500974,0.63715,0.705188,-0.0212386,1
1.71514,-1.01228,-1.83532,-1.06445,2.00125,1.18786,-0.923026,1.71514,-1.01228,-1.83532,-1.06445,2.00125,1.18786,-0.923026,1.78079,-1.07101,-1.81937,-1.11945,1.93813,1.1179,-0.916922,-0.0271689,0.0412268,-0.174902,0.0845029,0.170583,0.18715,-0.107597,-0.0271689,0.0412268,-0.174902,0.0845029,0.170583,0.18715,-0.107597,0.533601,-0.456228,0.691118,0.573546,0.178832,0.151666,0.784896,-0.0457372,-0.0745934,-0.00587234,2.87344,-0.510718,0.595212,-3.28646,-0.102466,5.23067,-3.28646,-0.102466,5.23067,-0.656469,0.587324,-0.15951,0.549958,0.631224,0.699569,-0.0610419,1
1.71324,-1.003,-1.82402,-1.07726,2.00954,1.18811,-0.926715,1.71324,-1.003,-1.82402,-1.07726,2.00954,1.18811,-0.926715,1.78049,-1.07002,-1.82265,-1.11717,1.9441,1.12427,-0.918094,-0.0114812,0.127467,-0.353927,0.267566,0.741564,0.790942,-0.0943302,-0.0114812,0.127467,-0.353927,0.267566,0.741564,0.790942,-0.0943302,0.532062,-0.457997,0.691638,0.575313,0.177014,0.148989,0.784528,-0.148837,-0.173385,0.0656059,2.84041,-0.511211,0.645959,-3.30377,-0.0492513,5.07464,-3.30377,-0.0492513,5.07464,-0.672528,0.670185,-0.013622,0.399015,0.654474,0.638376,-0.0862096,1
1.71229,-0.996402,-1.8134,-1.08367,2.02262,1.19343,-0.936754,1.71229,-0.996402,-1.8134,-1.08367,2.02262,1.19343,-0.936754,1.78075,-1.06795,-1.82568,-1.11335,1.95493,1.13565,-0.918519,0.0218957,0.2229,-0.282403,0.428938,1.17859,1.22071,-0.0329934,0.0218957,0.2229,-0.282403,0.428938,1.17859,1.22071,-0.0329934,0.529427,-0.460018,0.69372,0.577038,0.172858,0.143398,0.785229,-0.231721,-0.197812,0.212678,2.80766,-0.511634,0.695682,-3.2743,-0.0423789,4.9723,-3.2743,-0.0423789,4.9723,-0.684613,0.715459,0.122832,0.296835,0.676866,0.577846,-0.18235,1
1.71192,-0.993735,-1.80674,-1.08992,2.03737,1.20456,-0.938851,1.71192,-0.993735,-1.80674,-1.08992,2.03737,1.20456,-0.938851,1.78074,-1.06615,-1.82898,-1.10784,1.96807,1.14853,-0.918884,0.00445825,0.158507,-0.348881,0.585756,1.32902,1.29689,-0.0443667,0.00445825,0.158507,-0.348881,0.585756,1.32902,1.29689,-0.0443667,0.526027,-0.463178,0.696118,0.579408,0.168195,0.136222,0.785774,-0.275544,-0.304789,0.19604,2.77504,-0.512534,0.744283,-3.26269,-0.0899494,4.86009,-3.26269,-0.0899494,4.86009,-0.688178,0.724159,0.222386,0.17919,0.692985,0.560373,-0.199669,1
1.71263,-0.990766,-1.80686,-1.08347,2.05129,1.21551,-0.94186,1.71263,-0.990766,-1.80686,-1.08347,2.05129,1.21551,-0.94186,1.78125,-1.06433,-1.83268,-1.10128,1.98072,1.16069,-0.919617,0.0599586,0.212641,-0.353448,0.663427,1.23569,1.18085,-0.085941,0.0599586,0.212641,-0.353448,0.663427,1.23569,1.18085,-0.085941,0.522784,-0.466444,0.69856,0.582199,0.163581,0.129405,0.785837,-0.254607,-0.280338,0.234854,2.74224,-0.513526,0.79158,-3.27954,-0.0992358,4.72977,-3.27954,-0.0992358,4.72977,-0.686224,0.735622,0.258259,0.178069,0.705684,0.548187,-0.222426,1
1.71381,-0.987059,-1.81313,-1.06759,2.06201,1.23069,-0.940599,1.71381,-0.987059,-1.81313,-1.06759,2.06201,1.23069,-0.940599,1.78116,-1.06075,-1.83469,-1.09583,1.99198,1.17105,-0.921057,-0.0502271,0.406383,-0.141309,0.488717,1.096,0.977242,-0.173092,-0.0502271,0.406383,-0.141309,0.488717,1.096,0.977242,-0.173092,0.519487,-0.46857,0.702156,0.585037,0.15857,0.123753,0.785667,-0.275191,-0.16694,0.361886,2.70966,-0.514381,0.83776,-3.25816,-0.0854254,4.61801,-3.25816,-0.0854254,4.61801,-0.673524,0.736915,0.215609,0.282429,0.700312,0.596412,-0.195416,1
1.70855,-0.982292,-1.83736,-1.06253,2.07168,1.23904,-0.938511,1.70855,-0.982292,-1.83736,-1.06253,2.07168,1.23904,-0.938511,1.77869,-1.05609,-1.83466,-1.09228,2.00247,1.17915,-0.923806,-0.312029,0.46953,0.0554045,0.31415,1.04024,0.767896,-0.303448,-0.312029,0.46953,0.0554045,0.31415,1.04024,0.767896,-0.303448,0.515533,-0.470484,0.706441,0.588368,0.153866,0.118739,0.784888,-0.358883,-0.181355,0.410443,2.67749,-0.514946,0.883188,-3.21705,-0.056529,4.54276,-3.21705,-0.056529,4.54276,-0.701389,0.738002,-0.0269495,0.297499,0.692053,0.598882,-0.147045,1
1.70548,-0.977832,-1.85223,-1.05854,2.07914,1.2499,-0.939891,1.70548,-0.977832,-1.85223,-1.05854,2.07914,1.2499,-0.939891,1.77416,-1.05175,-1.83251,-1.09024,2.01306,1.18619,-0.927379,-0.498101,0.421499,0.262712,0.186039,1.06893,0.688754,-0.371263,-0.498101,0.421499,0.262712,0.186039,1.06893,0.688754,-0.371263,0.510883,-0.472686,0.710824,0.591847,0.149489,0.113264,0.783927,-0.425018,-0.209294,0.417052,2.64536,-0.515582,0.92813,-3.21259,-0.0636578,4.49422,-3.21259,-0.0636578,4.49422,-0.686886,0.739219,-0.197243,0.316996,0.660833,0.637124,-0.12512,1
1.69971,-0.973325,-1.85622,-1.05587,2.08739,1.2586,-0.947439,1.69971,-0.973325,-1.85622,-1.05587,2.08739,1.2586,-0.947439,1.76802,-1.04763,-1.82965,-1.08876,2.02412,1.19305,-0.931176,-0.639871,0.411373,0.277105,0.148853,1.12204,0.691893,-0.374403,-0.639871,0.411373,0.277105,0.148853,1.12204,0.691893,-0.374403,0.505506,-0.475493,0.715157,0.595642,0.145291,0.107303,0.782679,-0.490764,-0.267541,0.405161,2.61314,-0.516792,0.97222,-3.22251,-0.120908,4.409,-3.22251,-0.120908,4.409,-0.683095,0.743057,-0.265779,0.328878,0.632683,0.655422,-0.162629,1
1.69462,-0.967345,-1.85435,-1.05513,2.09908,1.26453,-0.955149,1.69462,-0.967345,-1.85435,-1.05513,2.09908,1.26453,-0.955149,1.76167,-1.04302,-1.82777,-1.08684,2.03564,1.20072,-0.934408,-0.619954,0.482522,0.140392,0.218539,1.1592,0.788041,-0.299994,-0.619954,0.482522,0.140392,0.218539,1.1592,0.788041,-0.299994,0.499805,-0.478512,0.719547,0.599615,0.140829,0.101338,0.781255,-0.507963,-0.276823,0.417938,2.58076,-0.517852,1.015,-3.23775,-0.106025,4.27765,-3.23775,-0.106025,4.27765,-0.670538,0.75675,-0.26574,0.317085,0.634429,0.638095,-0.207405,1
1.68707,-0.960177,-1.85552,-1.05645,2.11117,1.2676,-0.961139,1.68707,-0.960177,-1.85552,-1.05645,2.11117,1.2676,-0.961139,1.75587,-1.0374,-1.82817,-1.08402,2.04735,1.20953,-0.936709,-0.573696,0.590833,-0.106909,0.31332,1.17013,0.906298,-0.208485,-0.573696,0.590833,-0.106909,0.31332,1.17013,0.906298,-0.208485,0.494062,-0.4815,0.723979,0.603782,0.135972,0.0959424,0.779586,-0.516846,-0.284938,0.422575,2.54801,-0.518441,1.05688,-3.27501,-0.0588953,4.18786,-3.27501,-0.0588953,4.18786,-0.688018,0.772278,-0.273515,0.275666,0.638203,0.580697,-0.244298,1
1.68037,-0.952843,-1.85865,-1.05033,2.12196,1.27468,-0.967578,1.68037,-0.952843,-1.85865,-1.05033,2.12196,1.27468,-0.967578,1.75018,-1.03069,-1.83131,-1.08047,2.05878,1.21934,-0.938525,-0.564923,0.695237,-0.378501,0.364492,1.12962,1.00837,-0.182863,-0.564923,0.695237,-0.378501,0.364492,1.12962,1.00837,-0.182863,0.488176,-0.484586,0.728304,0.608541,0.130838,0.0915603,0.777288,-0.531377,-0.296288,0.407362,2.51548,-0.519359,1.09719,-3.25263,-0.0918567,4.03171,-3.25263,-0.0918567,4.03171,-0.698088,0.778443,-0.273433,0.301352,0.631784,0.553454,-0.290529,1
1.67285,-0.945051,-1.86986,-1.04067,2.13088,1.2833,-0.971549,1.67285,-0.945051,-1.86986,-1.04067,2.13088,1.2833,-0.971549,1.74463,-1.02316,-1.83633,-1.07684,2.06952,1.22995,-0.940742,-0.559639,0.767632,-0.536294,0.355887,1.05491,1.07262,-0.238672,-0.559639,0.767632,-0.536294,0.355887,1.05491,1.07262,-0.238672,0.482297,-0.487426,0.732497,0.613847,0.125386,0.0882356,0.774393,-0.533694,-0.276636,0.396644,2.48282,-0.5201,1.13661,-3.26617,-0.0740409,3.94169,-3.26617,-0.0740409,3.94169,-0.717787,0.781064,-0.33535,0.361682,0.613574,0.533507,-0.308076,1
1.66639,-0.936879,-1.88082,-1.03286,2.13955,1.29532,-0.975568,1.66639,-0.936879,-1.88082,-1.03286,2.13955,1.29532,-0.975568,1.73853,-1.01482,-1.84218,-1.07351,2.07972,1.24057,-0.943833,-0.631087,0.856349,-0.588748,0.320295,1.00715,1.05393,-0.331836,-0.631087,0.856349,-0.588748,0.320295,1.00715,1.05393,-0.331836,0.47621,-0.490096,0.736782,0.619798,0.119796,0.0857546,0.770809,-0.565161,-0.264638,0.420363,2.45047,-0.521153,1.17453,-3.2352,-0.105375,3.79236,-3.2352,-0.105375,3.79236,-0.721388,0.779446,-0.386384,0.406487,0.598355,0.547543,-0.317349,1
1.65905,-0.928565,-1.89107,-1.0252,2.14823,1.30684,-0.979554,1.65905,-0.928565,-1.89107,-1.0252,2.14823,1.30684,-0.979554,1.73145,-1.00614,-1.84782,-1.07057,2.08982,1.25061,-0.947849,-0.736785,0.864594,-0.552376,0.285194,1.0112,0.984817,-0.424843,-0.736785,0.864594,-0.552376,0.285194,1.0112,0.984817,-0.424843,0.469734,-0.492847,0.741207,0.626288,0.1143,0.0835246,0.766631,-0.60871,-0.286092,0.42607,2.41839,-0.522423,1.21166,-3.20756,-0.126916,3.71298,-3.20756,-0.126916,3.71298,-0.724023,0.77572,-0.432496,0.453705,0.584045,0.562283,-0.31705,1
1.65026,-0.920484,-1.90048,-1.01746,2.15546,1.31726,-0.982781,1.65026,-0.920484,-1.90048,-1.01746,2.15546,1.31726,-0.982781,1.72355,-0.997671,-1.85293,-1.06754,2.10006,1.25978,-0.952699,-0.801654,0.846702,-0.501816,0.31658,1.0254,0.899036,-0.501516,-0.801654,0.846702,-0.501816,0.31658,1.0254,0.899036,-0.501516,0.462883,-0.495948,0.745669,0.633258,0.109077,0.0811282,0.761908,-0.643938,-0.315749,0.437754,2.38615,-0.523548,1.24844,-3.22444,-0.112534,3.67764,-3.22444,-0.112534,3.67764,-0.73292,0.771867,-0.475482,0.500812,0.554063,0.574854,-0.300828,1
1.64149,-0.912264,-1.90802,-1.0112,2.16319,1.32486,-0.987685,1.64149,-0.912264,-1.90802,-1.0112,2.16319,1.32486,-0.987685,1.71552,-0.989355,-1.85804,-1.06341,2.11039,1.26852,-0.957978,-0.802278,0.821751,-0.527522,0.443874,1.03518,0.869112,-0.533358,-0.802278,0.821751,-0.527522,0.443874,1.03518,0.869112,-0.533358,0.455717,-0.499405,0.75032,0.640737,0.103787,0.0785621,0.756646,-0.672227,-0.356871,0.448636,2.3537,-0.524469,1.28396,-3.24533,-0.0920892,3.55176,-3.24533,-0.0920892,3.55176,-0.740297,0.770918,-0.499789,0.52211,0.527916,0.563432,-0.297072,1
1.63349,-0.90468,-1.91579,-1.00333,2.17005,1.33341,-0.994931,1.63349,-0.90468,-1.91579,-1.00333,2.17005,1.33341,-0.994931,1.70785,-0.981503,-1.86413,-1.05827,2.12058,1.27717,-0.963319,-0.744299,0.775481,-0.630392,0.537264,1.01039,0.870119,-0.532543,-0.744299,0.775481,-0.630392,0.537264,1.01039,0.870119,-0.532543,0.448531,-0.503211,0.754675,0.648533,0.0986405,0.0760981,0.750922,-0.664123,-0.379109,0.417381,2.32156,-0.525575,1.31805,-3.21381,-0.110567,3.40897,-3.21381,-0.110567,3.40897,-0.743613,0.76823,-0.516552,0.549394,0.49469,0.56243,-0.316117,1
1.62679,-0.89703,-1.92293,-0.995957,2.17853,1.34141,-1.00224,1.62679,-0.89703,-1.92293,-0.995957,2.17853,1.34141,-1.00224,1.7012,-0.973767,-1.87094,-1.05224,2.13039,1.28595,-0.968475,-0.643191,0.76798,-0.702212,0.630308,0.968054,0.878795,-0.508647,-0.643191,0.76798,-0.702212,0.630308,0.968054,0.878795,-0.508647,0.441625,-0.506782,0.758997,0.656242,0.0932964,0.073896,0.745105,-0.637697,-0.359779,0.418539,2.28983,-0.526462,1.35111,-3.17252,-0.0887871,3.3061,-3.17252,-0.0887871,3.3061,-0.744126,0.767368,-0.519948,0.562822,0.481451,0.554685,-0.337656,1
1.61963,-0.889907,-1.93142,-0.987822,2.18659,1.34833,-1.00946,1.61963,-0.889907,-1.93142,-0.987822,2.18659,1.34833,-1.00946,1.6949,-0.966442,-1.87877,-1.04535,2.13976,1.29491,-0.973329,-0.629217,0.720475,-0.801906,0.707161,0.92169,0.900726,-0.480401,-0.629217,0.720475,-0.801906,0.707161,0.92169,0.900726,-0.480401,0.434684,-0.510584,0.763035,0.66411,0.0879447,0.0719409,0.738951,-0.651546,-0.392294,0.386622,2.2579,-0.52725,1.38353,-3.19285,-0.0787199,3.2423,-3.19285,-0.0787199,3.2423,-0.752722,0.765343,-0.526535,0.575252,0.468288,0.534263,-0.361333,1
1.61375,-0.883178,-1.94017,-0.979694,2.19269,1.35867,-1.01639,1.61375,-0.883178,-1.94017,-0.979694,2.19269,1.35867,-1.01639,1.68871,-0.959322,-1.88705,-1.03805,2.14852,1.30399,-0.978104,-0.615849,0.715824,-0.832828,0.729833,0.859453,0.91636,-0.479585,-0.615849,0.715824,-0.832828,0.729833,0.859453,0.91636,-0.479585,0.427678,-0.514358,0.766964,0.672057,0.0824512,0.0703016,0.732529,-0.655469,-0.378703,0.385054,2.22583,-0.528354,1.41466,-3.20747,-0.110435,3.11276,-3.20747,-0.110435,3.11276,-0.749611,0.761442,-0.531259,0.583547,0.441671,0.546766,-0.382877,1
1.60696,-0.875934,-1.94877,-0.972699,2.20099,1.36586,-1.02166,1.60696,-0.875934,-1.94877,-0.972699,2.20099,1.36586,-1.02166,1.68256,-0.952044,-1.89551,-1.03071,2.15671,1.31316,-0.983096,-0.618473,0.727197,-0.853034,0.732686,0.80653,0.914623,-0.507556,-0.618473,0.727197,-0.853034,0.732686,0.80653,0.914623,-0.507556,0.420631,-0.517846,0.770973,0.680063,0.0767182,0.0690658,0.72585,-0.662166,-0.360115,0.390207,2.19395,-0.529032,1.44467,-3.18758,-0.067836,3.00097,-3.18758,-0.067836,3.00097,-0.755918,0.761099,-0.532568,0.580074,0.442807,0.526913,-0.38564,1
1.60053,-0.868862,-1.95766,-0.965259,2.20777,1.37536,-1.02703,1.60053,-0.868862,-1.95766,-0.965259,2.20777,1.37536,-1.02703,1.67603,-0.944803,-1.90418,-1.02322,2.1645,1.32231,-0.988519,-0.66731,0.719539,-0.872126,0.764732,0.774238,0.912573,-0.555602,-0.66731,0.719539,-0.872126,0.764732,0.774238,0.912573,-0.555602,0.413323,-0.521357,0.774976,0.688357,0.0708788,0.0680842,0.718683,-0.700328,-0.375958,0.393283,2.16232,-0.529976,1.47366,-3.16317,-0.0943363,2.89955,-3.16317,-0.0943363,2.89955,-0.754986,0.75941,-0.534835,0.579591,0.432682,0.530462,-0.385134,1
1.59332,-0.861818,-1.96678,-0.956944,2.21338,1.38509,-1.03348,1.59332,-0.861818,-1.96678,-0.956944,2.21338,1.38509,-1.03348,1.66896,-0.937451,-1.91299,-1.01542,2.17213,1.33119,-0.994465,-0.710766,0.742992,-0.877291,0.785873,0.758553,0.882229,-0.609521,-0.710766,0.742992,-0.877291,0.785873,0.758553,0.882229,-0.609521,0.405624,-0.524966,0.779115,0.69705,0.0649672,0.0672835,0.710896,-0.732975,-0.373742,0.41469,2.13073,-0.530982,1.502,-3.159,-0.100672,2.83412,-3.159,-0.100672,2.83412,-0.756383,0.756324,-0.537948,0.584758,0.412438,0.538996,-0.390147,1
1.58731,-0.855245,-1.97505,-0.947731,2.21711,1.3976,-1.04096,1.58731,-0.855245,-1.97505,-0.947731,2.21711,1.3976,-1.04096,1.66211,-0.930017,-1.9215,-1.00771,2.17957,1.33996,-1.00084,-0.677653,0.739601,-0.846299,0.773409,0.739627,0.876548,-0.644815,-0.677653,0.739601,-0.846299,0.773409,0.739627,0.876548,-0.644815,0.401801,-0.526602,0.781252,0.701355,0.0619377,0.0669348,0.706955,-0.722612,-0.347749,0.420534,2.09955,-0.532478,1.52985,-3.11837,-0.14956,2.78461,-3.11837,-0.14956,2.78461,-0.747914,0.747718,-0.535496,0.599748,0.375398,0.576419,-0.401165,1
1.57921,-0.848664,-1.98448,-0.938652,2.22441,1.40456,-1.04785,1.57921,-0.848664,-1.98448,-0.938652,2.22441,1.40456,-1.04785,1.65496,-0.922878,-1.93045,-0.999562,2.18692,1.3486,-1.00737,-0.732362,0.706715,-0.913221,0.830683,0.738649,0.865007,-0.653372,-0.732362,0.706715,-0.913221,0.830683,0.738649,0.865007,-0.653372,0.390088,-0.531601,0.787541,0.714423,0.0528489,0.0659698,0.69459,-0.766641,-0.377581,0.405689,2.06761,-0.53367,1.55641,-3.19431,-0.119174,2.65572,-3.19431,-0.119174,2.65572,-0.75748,0.742141,-0.540281,0.609101,0.374956,0.559565,-0.404863,1
1.57238,-0.841969,-1.9934,-0.929532,2.22797,1.41429,-1.05609,1.57238,-0.841969,-1.9934,-0.929532,2.22797,1.41429,-1.05609,1.64774,-0.91569,-1.93941,-0.991288,2.1942,1.35727,-1.01385,-0.703072,0.723589,-0.877543,0.82221,0.723903,0.870352,-0.648842,-0.703072,0.723589,-0.877543,0.82221,0.723903,0.870352,-0.648842,0.38203,-0.534854,0.79179,0.723131,0.0466526,0.065409,0.686023,-0.756206,-0.330161,0.426909,2.03551,-0.534883,1.58166,-3.20945,-0.121343,2.52542,-3.20945,-0.121343,2.52542,-0.753653,0.737206,-0.539842,0.617564,0.33763,0.570193,-0.42236,1
1.56492,-0.834944,-2.00225,-0.921418,2.23589,1.42116,-1.06243,1.56492,-0.834944,-2.00225,-0.921418,2.23589,1.42116,-1.06243,1.64086,-0.908616,-1.94818,-0.983087,2.20123,1.36608,-1.02035,-0.698626,0.69877,-0.894357,0.837874,0.690539,0.877806,-0.652353,-0.698626,0.69877,-0.894357,0.837874,0.690539,0.877806,-0.652353,0.374108,-0.537722,0.796043,0.731535,0.0402615,0.0649203,0.67751,-0.762321,-0.322981,0.416884,2.00367,-0.535687,1.60587,-3.1841,-0.0804186,2.42116,-3.1841,-0.0804186,2.42116,-0.759436,0.736714,-0.54076,0.616682,0.346645,0.550803,-0.420806,1
1.55728,-0.828511,-2.01184,-0.912261,2.2412,1.43022,-1.06947,1.55728,-0.828511,-2.01184,-0.912261,2.2412,1.43022,-1.06947,1.63335,-0.90182,-1.9575,-0.974548,2.2078,1.375,-1.02692,-0.757997,0.680373,-0.933846,0.857109,0.645879,0.900529,-0.660299,-0.757997,0.680373,-0.933846,0.857109,0.645879,0.900529,-0.660299,0.365738,-0.540852,0.800118,0.740229,0.0338507,0.0647055,0.668377,-0.805343,-0.338206,0.405953,1.97172,-0.536669,1.62902,-3.19494,-0.0981629,2.31508,-3.19494,-0.0981629,2.31508,-0.76066,0.733089,-0.543424,0.622871,0.333953,0.552161,-0.425555,1
1.55,-0.821588,-2.02072,-0.903795,2.24524,1.43925,-1.07684,1.55,-0.821588,-2.02072,-0.903795,2.24524,1.43925,-1.07684,1.62612,-0.894797,-1.96635,-0.96611,2.21392,1.38407,-1.03364,-0.7126,0.704906,-0.873756,0.8396,0.603291,0.915414,-0.677809,-0.7126,0.704906,-0.873756,0.8396,0.603291,0.915414,-0.677809,0.357504,-0.543363,0.804443,0.74862,0.0270276,0.0646937,0.659282,-0.779863,-0.27166,0.433581,1.93986,-0.537477,1.6513,-3.18627,-0.0807881,2.2278,-3.18627,-0.0807881,2.2278,-0.761158,0.732082,-0.54372,0.623156,0.313277,0.551796,-0.431997,1
1.54278,-0.815502,-2.03008,-0.894374,2.24896,1.45038,-1.08373,1.54278,-0.815502,-2.03008,-0.894374,2.24896,1.45038,-1.08373,1.61862,-0.887942,-1.97545,-0.957406,2.21967,1.39328,-1.0406,-0.767848,0.678264,-0.927027,0.872869,0.568277,0.916444,-0.700975,-0.767848,0.678264,-0.927027,0.872869,0.568277,0.916444,-0.700975,0.349026,-0.545865,0.80871,0.757128,0.020064,0.0648789,0.649727,-0.822304,-0.295006,0.418158,1.90842,-0.538851,1.67247,-3.14364,-0.137424,2.11656,-3.14364,-0.137424,2.11656,-0.75839,0.724404,-0.546264,0.630319,0.292919,0.571004,-0.431375,1
1.53517,-0.809278,-2.03917,-0.885179,2.25115,1.46049,-1.09163,1.53517,-0.809278,-2.03917,-0.885179,2.25115,1.46049,-1.09163,1.61098,-0.881111,-1.98468,-0.948745,2.22525,1.40245,-1.04768,-0.756799,0.691123,-0.91056,0.864575,0.552439,0.913388,-0.708908,-0.756799,0.691123,-0.91056,0.864575,0.552439,0.913388,-0.708908,0.340463,-0.548205,0.812945,0.765558,0.0130677,0.0652364,0.639917,-0.817479,-0.259197,0.430659,1.87662,-0.540258,1.6926,-3.1798,-0.140738,2.01318,-3.1798,-0.140738,2.01318,-0.758051,0.718328,-0.544908,0.635659,0.258972,0.580365,-0.439564,1
1.52731,-0.801971,-2.04804,-0.876956,2.25848,1.46817,-1.09873,1.52731,-0.801971,-2.04804,-0.876956,2.25848,1.46817,-1.09873,1.60344,-0.874021,-1.99358,-0.939833,2.23083,1.41152,-1.05481,-0.760645,0.707952,-0.891606,0.897766,0.558855,0.907509,-0.715789,-0.760645,0.707952,-0.891606,0.897766,0.558855,0.907509,-0.715789,0.331849,-0.550141,0.817503,0.77379,0.00576326,0.0656003,0.63001,-0.832999,-0.234644,0.457751,1.84482,-0.541299,1.71151,-3.18067,-0.10401,1.89145,-3.18067,-0.10401,1.89145,-0.76132,0.720495,-0.544579,0.628774,0.276566,0.566517,-0.439217,1
1.51981,-0.795609,-2.05744,-0.867496,2.26243,1.47839,-1.10609,1.51981,-0.795609,-2.05744,-0.867496,2.26243,1.47839,-1.10609,1.59564,-0.867099,-2.00281,-0.930921,2.23622,1.42052,-1.06202,-0.780623,0.68408,-0.929367,0.894027,0.533851,0.90353,-0.721578,-0.780623,0.68408,-0.929367,0.894027,0.533851,0.90353,-0.721578,0.323095,-0.55206,0.821909,0.781996,-0.00145466,0.066155,0.619761,-0.845462,-0.234718,0.437477,1.81337,-0.542693,1.72941,-3.1448,-0.139469,1.78959,-3.1448,-0.139469,1.78959,-0.758339,0.714897,-0.546317,0.634249,0.262081,0.578699,-0.440679,1
1.51185,-0.788515,-2.06668,-0.859123,2.27079,1.4862,-1.11263,1.51185,-0.788515,-2.06668,-0.859123,2.27079,1.4862,-1.11263,1.58788,-0.860238,-2.01203,-0.921709,2.24128,1.42958,-1.06923,-0.772869,0.692037,-0.915478,0.941891,0.496059,0.910289,-0.722333,-0.772869,0.692037,-0.915478,0.941891,0.496059,0.910289,-0.722333,0.314275,-0.553745,0.826389,0.790062,-0.00889797,0.0668592,0.609305,-0.855369,-0.20649,0.461685,1.78237,-0.543895,1.7467,-3.09995,-0.120187,1.72946,-3.09995,-0.120187,1.72946,-0.760313,0.71723,-0.546527,0.62586,0.295151,0.56619,-0.43398,1
1.50414,-0.78159,-2.07574,-0.85006,2.27676,1.49479,-1.11995,1.50414,-0.78159,-2.07574,-0.85006,2.27676,1.49479,-1.11995,1.58027,-0.853342,-2.02112,-0.912546,2.24584,1.43892,-1.07653,-0.757601,0.68227,-0.916976,0.910696,0.446455,0.938919,-0.732291,-0.757601,0.68227,-0.916976,0.910696,0.446455,0.938919,-0.732291,0.305558,-0.555004,0.830908,0.797867,-0.0166329,0.0678115,0.598776,-0.839091,-0.173437,0.448928,1.75139,-0.544981,1.76318,-3.09805,-0.108606,1.6476,-3.09805,-0.108606,1.6476,-0.761359,0.717522,-0.54616,0.62486,0.309185,0.558635,-0.434173,1
1.49621,-0.775501,-2.08528,-0.840561,2.28093,1.50471,-1.12745,1.49621,-0.775501,-2.08528,-0.840561,2.28093,1.50471,-1.12745,1.57249,-0.846767,-2.03054,-0.903212,2.25028,1.44829,-1.08387,-0.785512,0.648979,-0.942658,0.952772,0.448468,0.937504,-0.732962,-0.785512,0.648979,-0.942658,0.952772,0.448468,0.937504,-0.732962,0.296692,-0.556298,0.835242,0.805614,-0.0243192,0.0688593,0.587923,-0.870062,-0.184559,0.439672,1.72016,-0.546148,1.77846,-3.12239,-0.116682,1.52771,-3.12239,-0.116682,1.52771,-0.762733,0.712653,-0.547438,0.626513,0.306579,0.56419,-0.43579,1
1.48857,-0.768955,-2.0942,-0.831648,2.285,1.51436,-1.13523,1.48857,-0.768955,-2.0942,-0.831648,2.285,1.51436,-1.13523,1.5648,-0.840124,-2.03969,-0.893932,2.25477,1.45767,-1.09116,-0.754605,0.669196,-0.905771,0.916389,0.450903,0.939086,-0.728756,-0.754605,0.669196,-0.905771,0.916389,0.450903,0.939086,-0.728756,0.287888,-0.557238,0.83967,0.813042,-0.0321558,0.0698778,0.577102,-0.843052,-0.133176,0.451078,1.68884,-0.547236,1.79242,-3.13236,-0.10882,1.39591,-3.13236,-0.10882,1.39591,-0.762307,0.711697,-0.545105,0.622844,0.302322,0.566872,-0.440661,1
1.48051,-0.761574,-2.10351,-0.823816,2.2937,1.5212,-1.14211,1.48051,-0.761574,-2.10351,-0.823816,2.2937,1.5212,-1.14211,1.55712,-0.833457,-2.04896,-0.884759,2.2596,1.46703,-1.09845,-0.784673,0.661059,-0.941843,0.932998,0.498187,0.930338,-0.728672,-0.784673,0.661059,-0.941843,0.932998,0.498187,0.930338,-0.728672,0.279078,-0.557982,0.844078,0.820238,-0.0399823,0.0708359,0.56621,-0.871153,-0.136301,0.447062,1.6577,-0.547933,1.80545,-3.11409,-0.0696301,1.30315,-3.11409,-0.0696301,1.30315,-0.766095,0.718835,-0.5455,0.609429,0.340999,0.541731,-0.436652,1
1.47286,-0.755446,-2.11274,-0.814145,2.29588,1.53273,-1.15038,1.47286,-0.755446,-2.11274,-0.814145,2.29588,1.53273,-1.15038,1.54916,-0.826878,-2.05825,-0.875556,2.26493,1.4763,-1.10571,-0.784326,0.656457,-0.9141,0.905459,0.540697,0.92473,-0.726683,-0.784326,0.656457,-0.9141,0.905459,0.540697,0.92473,-0.726683,0.27005,-0.55868,0.848467,0.827295,-0.0477699,0.0715863,0.555137,-0.866436,-0.111769,0.445405,1.62654,-0.548948,1.81756,-3.11559,-0.101578,1.21129,-3.11559,-0.101578,1.21129,-0.762967,0.714315,-0.544905,0.614115,0.309463,0.564248,-0.446714,1
1.46559,-0.750009,-2.12201,-0.803995,2.29662,1.54484,-1.1578,1.46559,-0.750009,-2.12201,-0.803995,2.29662,1.54484,-1.1578,1.54148,-0.820237,-2.06734,-0.866576,2.27039,1.48554,-1.113,-0.777914,0.667063,-0.920607,0.912182,0.549479,0.920044,-0.731069,-0.777914,0.667063,-0.920607,0.912182,0.549479,0.920044,-0.731069,0.261249,-0.558996,0.852877,0.83398,-0.0556134,0.0722984,0.544203,-0.865766,-0.0857496,0.454191,1.59577,-0.550561,1.8293,-3.07742,-0.161231,1.17379,-3.07742,-0.161231,1.17379,-0.758929,0.702282,-0.546618,0.625808,0.262268,0.592968,-0.448051,1
1.45696,-0.744245,-2.13151,-0.793871,2.30014,1.55441,-1.16525,1.45696,-0.744245,-2.13151,-0.793871,2.30014,1.55441,-1.16525,1.53324,-0.813559,-2.07681,-0.85724,2.27591,1.49478,-1.12036,-0.826413,0.667902,-0.943245,0.91972,0.552316,0.923963,-0.737924,-0.826413,0.667902,-0.943245,0.91972,0.552316,0.923963,-0.737924,0.252027,-0.559292,0.857344,0.840735,-0.0635642,0.0731433,0.532705,-0.897121,-0.0786375,0.454371,1.56426,-0.552172,1.84006,-3.1508,-0.161117,1.07627,-3.1508,-0.161117,1.07627,-0.762815,0.693142,-0.546985,0.633686,0.242252,0.596267,-0.448918,1
1.44916,-0.736675,-2.14001,-0.786349,2.30827,1.56129,-1.17286,1.44916,-0.736675,-2.14001,-0.786349,2.30827,1.56129,-1.17286,1.52552,-0.806982,-2.08582,-0.84837,2.2815,1.50398,-1.12774,-0.763569,0.651148,-0.895992,0.881312,0.561788,0.913537,-0.737408,-0.763569,0.651148,-0.895992,0.881312,0.561788,0.913537,-0.737408,0.243254,-0.559172,0.861719,0.846975,-0.0714862,0.0738537,0.521602,-0.847709,-0.0395913,0.444897,1.53278,-0.553154,1.84936,-3.14775,-0.0982702,0.929618,-3.14775,-0.0982702,0.929618,-0.763589,0.703068,-0.541879,0.620205,0.267722,0.573119,-0.45126,1
1.44081,-0.729997,-2.14961,-0.777592,2.31532,1.56997,-1.17942,1.44081,-0.729997,-2.14961,-0.777592,2.31532,1.56997,-1.17942,1.51732,-0.800475,-2.09529,-0.839035,2.28699,1.5131,-1.13519,-0.836935,0.655702,-0.958393,0.938343,0.538108,0.918726,-0.748673,-0.836935,0.655702,-0.958393,0.938343,0.538108,0.918726,-0.748673,0.234115,-0.559062,0.866101,0.853281,-0.0794627,0.0747702,0.509908,-0.906098,-0.0433815,0.453273,1.50171,-0.554127,1.85767,-3.10748,-0.0972986,0.83164,-3.10748,-0.0972986,0.83164,-0.765132,0.704785,-0.54316,0.614429,0.283322,0.568753,-0.442252,1
1.43331,-0.724117,-2.15863,-0.767898,2.31963,1.5812,-1.18658,1.43331,-0.724117,-2.15863,-0.767898,2.31963,1.5812,-1.18658,1.50939,-0.793812,-2.10448,-0.829993,2.29171,1.52259,-1.14274,-0.771814,0.665085,-0.900894,0.896268,0.448142,0.956319,-0.75542,-0.771814,0.665085,-0.900894,0.896268,0.448142,0.956319,-0.75542,0.225324,-0.558381,0.870506,0.859184,-0.0877689,0.0760605,0.498312,-0.845124,0.0209227,0.45535,1.47063,-0.555363,1.86496,-3.10754,-0.123519,0.728905,-3.10754,-0.123519,0.728905,-0.760744,0.696953,-0.541497,0.620952,0.279192,0.586128,-0.438374,1
1.42519,-0.7188,-2.16801,-0.758329,2.32557,1.59115,-1.1928,1.42519,-0.7188,-2.16801,-0.758329,2.32557,1.59115,-1.1928,1.5015,-0.787449,-2.11369,-0.820663,2.29584,1.53211,-1.15032,-0.808548,0.624501,-0.938652,0.940054,0.407109,0.956437,-0.758225,-0.808548,0.624501,-0.938652,0.940054,0.407109,0.956437,-0.758225,0.21658,-0.557558,0.874802,0.86489,-0.096161,0.0775865,0.486518,-0.875163,0.0103061,0.438719,1.43951,-0.556602,1.8713,-3.11255,-0.123984,0.633848,-3.11255,-0.123984,0.633848,-0.763085,0.686493,-0.543126,0.623333,0.297288,0.590334,-0.424825,1
1.41756,-0.713843,-2.17744,-0.747455,2.3279,1.60315,-1.20015,1.41756,-0.713843,-2.17744,-0.747455,2.3279,1.60315,-1.20015,1.49333,-0.781118,-2.12316,-0.811369,2.29999,1.54167,-1.15792,-0.807086,0.643964,-0.933678,0.9227,0.420551,0.95718,-0.759927,-0.807086,0.643964,-0.933678,0.9227,0.420551,0.95718,-0.759927,0.207731,-0.55662,0.879017,0.870446,-0.104534,0.0792441,0.474464,-0.866546,0.0433233,0.44629,1.4082,-0.558221,1.87663,-3.13064,-0.161839,0.532913,-3.13064,-0.161839,0.532913,-0.757649,0.672745,-0.542784,0.639144,0.279072,0.614812,-0.422306,1
1.40977,-0.706911,-2.18649,-0.739159,2.33563,1.6121,-1.20731,1.40977,-0.706911,-2.18649,-0.739159,2.33563,1.6121,-1.20731,1.48549,-0.774538,-2.13217,-0.802081,2.3046,1.55119,-1.16543,-0.78664,0.655733,-0.900817,0.928057,0.473475,0.955011,-0.746312,-0.78664,0.655733,-0.900817,0.928057,0.473475,0.955011,-0.746312,0.199081,-0.555212,0.883448,0.875573,-0.113136,0.0806371,0.462677,-0.85562,0.0775592,0.461484,1.37739,-0.559561,1.88084,-3.0808,-0.134015,0.420511,-3.0808,-0.134015,0.420511,-0.757204,0.676269,-0.543219,0.629226,0.310305,0.609145,-0.418842,1
1.40159,-0.702031,-2.19579,-0.729148,2.34094,1.62252,-1.21373,1.40159,-0.702031,-2.19579,-0.729148,2.34094,1.62252,-1.21373,1.47736,-0.768281,-2.14151,-0.792974,2.30959,1.5608,-1.17279,-0.817836,0.615849,-0.940845,0.908439,0.506648,0.962369,-0.733489,-0.817836,0.615849,-0.940845,0.908439,0.506648,0.962369,-0.733489,0.190301,-0.553884,0.887594,0.88052,-0.12154,0.0819493,0.450773,-0.871683,0.065968,0.427927,1.34605,-0.56099,1.88375,-3.13416,-0.142866,0.291562,-3.13416,-0.142866,0.291562,-0.757727,0.662504,-0.542788,0.638265,0.313563,0.617253,-0.4094,1
1.39327,-0.694635,-2.2053,-0.721823,2.34928,1.63041,-1.21972,1.39327,-0.694635,-2.2053,-0.721823,2.34928,1.63041,-1.21972,1.46923,-0.761913,-2.15074,-0.783665,2.31481,1.57042,-1.18001,-0.809471,0.649034,-0.91201,0.944608,0.526303,0.968074,-0.717441,-0.809471,0.649034,-0.91201,0.944608,0.526303,0.968074,-0.717441,0.181492,-0.552256,0.891867,0.885185,-0.130134,0.0831874,0.438853,-0.871727,0.111474,0.461596,1.31546,-0.562096,1.88561,-3.05927,-0.11062,0.185895,-3.05927,-0.11062,0.185895,-0.759613,0.672782,-0.545665,0.618423,0.344696,0.599929,-0.397081,1
1.38573,-0.690661,-2.21492,-0.710113,2.3507,1.64334,-1.2264,1.38573,-0.690661,-2.21492,-0.710113,2.3507,1.64334,-1.2264,1.4612,-0.755427,-2.15983,-0.77446,2.31995,1.58023,-1.18709,-0.804437,0.639494,-0.918865,0.916636,0.511327,0.989406,-0.706284,-0.804437,0.639494,-0.918865,0.916636,0.511327,0.989406,-0.706284,0.172851,-0.550257,0.896165,0.889487,-0.138921,0.0845119,0.427049,-0.855998,0.131504,0.445693,1.28488,-0.563793,1.88745,-3.05793,-0.169683,0.184417,-3.05793,-0.169683,0.184417,-0.754704,0.647658,-0.55086,0.643465,0.307496,0.631147,-0.393091,1
1.37679,-0.684951,-2.22491,-0.702328,2.35929,1.65184,-1.2316,1.37679,-0.684951,-2.22491,-0.702328,2.35929,1.65184,-1.2316,1.45298,-0.749254,-2.16919,-0.764952,2.32518,1.59018,-1.19412,-0.823025,0.611366,-0.933211,0.96787,0.530253,1.00167,-0.701358,-0.823025,0.611366,-0.933211,0.96787,0.530253,1.00167,-0.701358,0.164045,-0.548247,0.900316,0.893637,-0.147743,0.0858502,0.414987,-0.880535,0.136149,0.442514,1.25451,-0.56505,1.88803,-3.03756,-0.12573,0.0579476,-3.03756,-0.12573,0.0579476,-0.761955,0.643027,-0.557156,0.626238,0.341141,0.616534,-0.374785,1
1.36933,-0.680606,-2.23448,-0.691297,2.36184,1.66369,-1.23845,1.36933,-0.680606,-2.23448,-0.691297,2.36184,1.66369,-1.23845,1.44501,-0.743048,-2.17831,-0.755569,2.33057,1.60034,-1.20104,-0.785681,0.62226,-0.907708,0.928465,0.544347,1.02096,-0.68778,-0.785681,0.62226,-0.907708,0.928465,0.544347,1.02096,-0.68778,0.155461,-0.545895,0.904457,0.89739,-0.15674,0.0870856,0.403162,-0.842212,0.17386,0.439625,1.22379,-0.566537,1.8872,-3.0718,-0.14872,-0.0835061,-3.0718,-0.14872,-0.0835061,-0.756824,0.624415,-0.561673,0.642718,0.312689,0.633449,-0.374082,1
1.36032,-0.674512,-2.24502,-0.683928,2.36976,1.67216,-1.24466,1.36032,-0.674512,-2.24502,-0.683928,2.36976,1.67216,-1.24466,1.4369,-0.736805,-2.18768,-0.746019,2.3363,1.61049,-1.20777,-0.825362,0.622021,-0.947532,0.975217,0.582601,1.01497,-0.668808,-0.825362,0.622021,-0.947532,0.975217,0.582601,1.01497,-0.668808,0.146788,-0.543371,0.908609,0.900921,-0.165781,0.088329,0.391223,-0.877097,0.183761,0.447059,1.19308,-0.567383,1.88532,-3.07103,-0.0846028,-0.188112,-3.07103,-0.0846028,-0.188112,-0.765784,0.622933,-0.573365,0.620913,0.334586,0.61671,-0.368951,1
1.35217,-0.670924,-2.25555,-0.673416,2.3755,1.68279,-1.25076,1.35217,-0.670924,-2.25555,-0.673416,2.3755,1.68279,-1.25076,1.42883,-0.730665,-2.19689,-0.736588,2.34205,1.62074,-1.21438,-0.787539,0.606429,-0.9073,0.928705,0.570003,1.02692,-0.657998,-0.787539,0.606429,-0.9073,0.928705,0.570003,1.02692,-0.657998,0.138252,-0.540638,0.912662,0.904128,-0.17487,0.0895558,0.379411,-0.833077,0.208676,0.429118,1.16264,-0.568262,1.88268,-3.04382,-0.0878394,-0.264263,-3.04382,-0.0878394,-0.264263,-0.766651,0.597411,-0.586593,0.631721,0.334462,0.620501,-0.363822,1
1.34437,-0.670095,-2.26592,-0.662216,2.37536,1.69544,-1.25737,1.34437,-0.670095,-2.26592,-0.662216,2.37536,1.69544,-1.25737,1.42087,-0.724723,-2.20625,-0.727191,2.34774,1.63088,-1.22077,-0.815151,0.593234,-0.957072,0.967199,0.57217,1.01702,-0.633825,-0.815151,0.593234,-0.957072,0.967199,0.57217,1.01702,-0.633825,0.129884,-0.537818,0.916556,0.907057,-0.18382,0.0908938,0.367691,-0.855286,0.213589,0.425158,1.13221,-0.569691,1.87939,-3.04248,-0.14289,-0.3281,-3.04248,-0.14289,-0.3281,-0.764958,0.546277,-0.596674,0.649744,0.276221,0.645556,-0.366033,1
1.33601,-0.670262,-2.27616,-0.65136,2.375,1.70701,-1.2646,1.33601,-0.670262,-2.27616,-0.65136,2.375,1.70701,-1.2646,1.41254,-0.718591,-2.21581,-0.717577,2.35336,1.64119,-1.22705,-0.820293,0.618138,-0.943685,0.946921,0.558229,1.029,-0.625712,-0.820293,0.618138,-0.943685,0.946921,0.558229,1.029,-0.625712,0.12137,-0.534697,0.920534,0.909767,-0.192998,0.0924769,0.355703,-0.839847,0.250842,0.431967,1.10156,-0.571266,1.87527,-3.06532,-0.157511,-0.412703,-3.06532,-0.157511,-0.412703,-0.765295,0.483298,-0.603529,0.662175,0.21641,0.658235,-0.37558,1
1.32871,-0.675194,-2.28666,-0.641134,2.36965,1.71814,-1.27126,1.32871,-0.675194,-2.28666,-0.641134,2.36965,1.71814,-1.27126,1.4047,-0.712528,-2.22513,-0.708197,2.3589,1.65135,-1.23326,-0.787094,0.59595,-0.944275,0.953239,0.558567,1.01273,-0.618911,-0.787094,0.59595,-0.944275,0.953239,0.558567,1.01273,-0.618911,0.113322,-0.53134,0.924417,0.912094,-0.202101,0.0940408,0.344087,-0.803623,0.266287,0.426933,1.07068,-0.572833,1.86951,-3.08795,-0.156695,-0.575721,-3.08795,-0.156695,-0.575721,-0.759921,0.373343,-0.61537,0.670622,0.107523,0.66786,-0.379996,1
1.31972,-0.682109,-2.29763,-0.631574,2.36274,1.72819,-1.2768,1.31972,-0.682109,-2.29763,-0.631574,2.36274,1.72819,-1.2768,1.39628,-0.706885,-2.2351,-0.698626,2.36456,1.66167,-1.23944,-0.84832,0.562634,-1.00544,0.950136,0.562095,1.03465,-0.61697,-0.84832,0.562634,-1.00544,0.950136,0.562095,1.03465,-0.61697,0.104938,-0.528138,0.92801,0.914364,-0.211056,0.0957932,0.331992,-0.847441,0.253068,0.392115,1.04003,-0.574251,1.86315,-3.06541,-0.141889,-0.636494,-3.06541,-0.141889,-0.636494,-0.765576,0.247765,-0.625287,0.670519,-0.0182273,0.665198,-0.373626,1
1.31303,-0.688718,-2.30791,-0.621322,2.35274,1.73895,-1.28398,1.31303,-0.688718,-2.30791,-0.621322,2.35274,1.73895,-1.28398,1.3883,-0.700938,-2.24481,-0.6891,2.36952,1.6722,-1.24559,-0.784613,0.602913,-0.96587,0.964888,0.467393,1.06141,-0.617197,-0.784613,0.602913,-0.96587,0.964888,0.467393,1.06141,-0.617197,0.0970584,-0.524401,0.931705,0.91618,-0.220331,0.0979018,0.320132,-0.789724,0.31526,0.41647,1.00952,-0.575562,1.85565,-3.05088,-0.131065,-0.749803,-3.05088,-0.131065,-0.749803,-0.752678,0.122199,-0.63097,0.677787,-0.167824,0.667546,-0.383879,1
1.30654,-0.697629,-2.31822,-0.610897,2.34313,1.75038,-1.29111,1.30654,-0.697629,-2.31822,-0.610897,2.34313,1.75038,-1.29111,1.3801,-0.695399,-2.2549,-0.679246,2.37316,1.68309,-1.25189,-0.833723,0.53186,-1.02881,0.983906,0.315034,1.09078,-0.634802,-0.833723,0.53186,-1.02881,0.983906,0.315034,1.09078,-0.634802,0.0892446,-0.520613,0.935123,0.917789,-0.229691,0.100765,0.307817,-0.805392,0.294451,0.369673,0.978724,-0.576541,1.84689,-3.0794,-0.0978768,-0.875986,-3.0794,-0.0978768,-0.875986,-0.735595,-0.0223053,-0.633174,0.683483,-0.300288,0.672861,-0.392197,1
1.30126,-0.710715,-2.32811,-0.599046,2.33526,1.76265,-1.29731,1.30126,-0.710715,-2.32811,-0.599046,2.33526,1.76265,-1.29731,1.372,-0.690548,-2.26508,-0.669233,2.37446,1.69403,-1.25833,-0.795926,0.475931,-1.01044,1.01327,0.0637546,1.09435,-0.645539,-0.795926,0.475931,-1.01044,1.01327,0.0637546,1.09435,-0.645539,0.0818727,-0.516908,0.938106,0.919137,-0.23884,0.1047,0.295265,-0.756538,0.300307,0.342519,0.947947,-0.577827,1.83719,-3.0777,-0.128597,-0.96935,-3.0777,-0.128597,-0.96935,-0.707423,-0.201666,-0.6303,0.701869,-0.391941,0.686186,-0.389791,1
1.29619,-0.716101,-2.33814,-0.587994,2.33305,1.77414,-1.30243,1.29619,-0.716101,-2.33814,-0.587994,2.33305,1.77414,-1.30243,1.36403,-0.686124,-2.27519,-0.658885,2.37339,1.70495,-1.26474,-0.804051,0.429685,-1.0189,1.03176,-0.168696,1.08509,-0.639116,-0.804051,0.429685,-1.0189,1.03176,-0.168696,1.08509,-0.639116,0.0749535,-0.51312,0.940853,0.920139,-0.24792,0.10973,0.282557,-0.73202,0.298572,0.315069,0.917415,-0.579073,1.82708,-3.05326,-0.124586,-1.0118,-3.05326,-0.124586,-1.0118,-0.678413,-0.299774,-0.629493,0.708906,-0.403317,0.691848,-0.376915,1
1.29321,-0.719565,-2.3493,-0.577693,2.32916,1.78581,-1.30652,1.29321,-0.719565,-2.3493,-0.577693,2.32916,1.78581,-1.30652,1.35588,-0.682051,-2.2855,-0.648127,2.36979,1.71591,-1.27117,-0.814957,0.399701,-1.02572,1.09998,-0.418499,1.09781,-0.64651,-0.814957,0.399701,-1.02572,1.09998,-0.418499,1.09781,-0.64651,0.0683372,-0.509268,0.94337,0.920833,-0.256918,0.116083,0.269415,-0.71757,0.313571,0.307391,0.887136,-0.580243,1.81558,-3.02788,-0.117058,-1.14999,-3.02788,-0.117058,-1.14999,-0.626639,-0.375138,-0.637977,0.704343,-0.406342,0.699071,-0.353465,1
1.29282,-0.72422,-2.36035,-0.568143,2.32529,1.79717,-1.31258,1.29282,-0.72422,-2.36035,-0.568143,2.32529,1.79717,-1.31258,1.34801,-0.678569,-2.29546,-0.63735,2.36402,1.72706,-1.2777,-0.774463,0.323471,-0.990785,1.06522,-0.629148,1.12075,-0.654372,-0.774463,0.323471,-0.990785,1.06522,-0.629148,1.12075,-0.654372,0.0622867,-0.50547,0.945493,0.921114,-0.265774,0.123281,0.256349,-0.658401,0.294412,0.252642,0.856714,-0.581383,1.80265,-3.04213,-0.113958,-1.2926,-3.04213,-0.113958,-1.2926,-0.551919,-0.456506,-0.648885,0.692067,-0.38735,0.701053,-0.348801,1
1.29801,-0.728563,-2.37048,-0.55874,2.3249,1.80893,-1.31832,1.29801,-0.728563,-2.37048,-0.55874,2.3249,1.80893,-1.31832,1.34013,-0.676054,-2.30559,-0.626267,2.35668,1.73859,-1.28422,-0.801175,0.228498,-1.02323,1.12977,-0.756254,1.16165,-0.65092,-0.801175,0.228498,-1.02323,1.12977,-0.756254,1.16165,-0.65092,0.0564032,-0.502017,0.947062,0.921091,-0.274378,0.131179,0.243104,-0.677064,0.264907,0.208831,0.826596,-0.583021,1.78903,-3.01186,-0.1638,-1.36197,-3.01186,-0.1638,-1.36197,-0.421185,-0.525094,-0.648929,0.675273,-0.31779,0.703477,-0.340979,1
1.3033,-0.731451,-2.37882,-0.549252,2.33466,1.81908,-1.32217,1.3033,-0.731451,-2.37882,-0.549252,2.33466,1.81908,-1.32217,1.33221,-0.674411,-2.3156,-0.615203,2.34888,1.75042,-1.2906,-0.771946,0.145186,-0.984146,1.10159,-0.77773,1.19613,-0.631986,-0.771946,0.145186,-0.984146,1.10159,-0.77773,1.19613,-0.631986,0.0505814,-0.498931,0.94812,0.920774,-0.282669,0.139177,0.230006,-0.65112,0.235527,0.157195,0.796588,-0.584738,1.77505,-3.00081,-0.171739,-1.3985,-3.00081,-0.171739,-1.3985,-0.289136,-0.570403,-0.632256,0.659511,-0.142219,0.686651,-0.315681,1
1.30933,-0.73279,-2.38746,-0.540018,2.35479,1.82825,-1.32741,1.30933,-0.73279,-2.38746,-0.540018,2.35479,1.82825,-1.32741,1.32475,-0.673571,-2.32536,-0.60371,2.34141,1.76259,-1.29664,-0.752652,0.057475,-0.988652,1.16308,-0.72571,1.21683,-0.595399,-0.752652,0.057475,-0.988652,1.16308,-0.72571,1.21683,-0.595399,0.0448364,-0.496072,0.948855,0.920099,-0.290919,0.146819,0.217322,-0.663858,0.208922,0.12596,0.766287,-0.586393,1.75961,-3.0301,-0.165457,-1.54341,-3.0301,-0.165457,-1.54341,-0.15417,-0.592184,-0.621015,0.636927,0.133744,0.656581,-0.307698,1
1.30845,-0.734227,-2.39744,-0.530801,2.36947,1.83702,-1.33268,1.30845,-0.734227,-2.39744,-0.530801,2.36947,1.83702,-1.33268,1.31724,-0.673956,-2.33548,-0.592234,2.3348,1.77484,-1.3024,-0.732291,-0.0575829,-1.00448,1.15519,-0.632714,1.23286,-0.57058,-0.732291,-0.0575829,-1.00448,1.15519,-0.632714,1.23286,-0.57058,0.0388678,-0.493914,0.94895,0.919336,-0.298536,0.154067,0.204845,-0.670436,0.15399,0.0638136,0.736633,-0.587891,1.74344,-2.96541,-0.149846,-1.61746,-2.96541,-0.149846,-1.61746,-0.0879291,-0.602715,-0.619585,0.614331,0.346713,0.621725,-0.302854,1
1.29414,-0.734768,-2.40908,-0.523354,2.37145,1.84484,-1.33901,1.29414,-0.734768,-2.40908,-0.523354,2.37145,1.84484,-1.33901,1.31066,-0.675093,-2.34531,-0.580626,2.3298,1.78705,-1.30797,-0.638876,-0.143148,-0.987358,1.13993,-0.433493,1.20886,-0.551609,-0.638876,-0.143148,-0.987358,1.13993,-0.433493,1.20886,-0.551609,0.0330682,-0.49205,0.948785,0.918374,-0.305961,0.160245,0.193127,-0.643705,0.114816,0.0246696,0.706734,-0.588893,1.72598,-2.98982,-0.100213,-1.74544,-2.98982,-0.100213,-1.74544,-0.165232,-0.596754,-0.637679,0.572718,0.416578,0.577819,-0.310429,1
1.28245,-0.739052,-2.41907,-0.51047,2.3603,1.85788,-1.34647,1.28245,-0.739052,-2.41907,-0.51047,2.3603,1.85788,-1.34647,1.30472,-0.677685,-2.35533,-0.56922,2.32812,1.79918,-1.31328,-0.578001,-0.287197,-0.997951,1.1591,-0.0656944,1.20966,-0.524311,-0.578001,-0.287197,-0.997951,1.1591,-0.0656944,1.20966,-0.524311,0.0269635,-0.491041,0.947996,0.917553,-0.312745,0.164605,0.182188,-0.673558,0.0475151,-0.0329311,0.676867,-0.590187,1.7077,-2.98675,-0.129366,-1.82787,-2.98675,-0.129366,-1.82787,-0.222718,-0.61366,-0.637481,0.5875,0.321817,0.58702,-0.331898,1
1.27649,-0.743629,-2.42859,-0.497323,2.3438,1.87241,-1.3533,1.27649,-0.743629,-2.42859,-0.497323,2.3438,1.87241,-1.3533,1.29938,-0.68104,-2.36525,-0.557874,2.33068,1.81089,-1.31839,-0.517995,-0.35588,-0.991995,1.12156,0.36362,1.15522,-0.507101,-0.517995,-0.35588,-0.991995,1.12156,0.36362,1.15522,-0.507101,0.0204724,-0.490444,0.94705,0.916905,-0.319214,0.166732,0.172012,-0.685986,0.00951425,-0.059741,0.646885,-0.591748,1.6885,-2.99825,-0.156134,-1.92069,-2.99825,-0.156134,-1.92069,-0.228915,-0.62588,-0.633403,0.605513,0.13123,0.615225,-0.349052,1
1.27519,-0.748861,-2.43847,-0.484515,2.32298,1.88633,-1.3632,1.27519,-0.748861,-2.43847,-0.484515,2.32298,1.88633,-1.3632,1.2949,-0.685049,-2.37478,-0.546582,2.3375,1.82224,-1.32339,-0.426793,-0.408612,-0.947161,1.14008,0.773606,1.11334,-0.498856,-0.426793,-0.408612,-0.947161,1.14008,0.773606,1.11334,-0.498856,0.0137267,-0.490119,0.946021,0.916412,-0.325586,0.16646,0.162706,-0.687798,-0.0031755,-0.0626932,0.616712,-0.593429,1.66849,-3.01722,-0.168061,-2.00055,-3.01722,-0.168061,-2.00055,-0.197047,-0.63812,-0.636955,0.620674,-0.145163,0.640952,-0.398107,1
1.27234,-0.754765,-2.44858,-0.474445,2.3365,1.89463,-1.36961,1.27234,-0.754765,-2.44858,-0.474445,2.3365,1.89463,-1.36961,1.29104,-0.689776,-2.38458,-0.535776,2.34652,1.83286,-1.32853,-0.371221,-0.501169,-0.990305,1.07501,0.917401,1.05617,-0.521662,-0.371221,-0.501169,-0.990305,1.07501,0.917401,1.05617,-0.521662,0.00702098,-0.490317,0.944655,0.916155,-0.331288,0.16503,0.153865,-0.67097,-0.064225,-0.12286,0.586583,-0.594655,1.64701,-3.01297,-0.122571,-2.14834,-3.01297,-0.122571,-2.14834,-0.186951,-0.649889,-0.640013,0.613309,-0.100233,0.61768,-0.410833,1
1.26096,-0.76262,-2.45992,-0.463372,2.35614,1.902,-1.37783,1.26096,-0.76262,-2.45992,-0.463372,2.35614,1.902,-1.37783,1.28769,-0.695057,-2.39446,-0.52478,2.35372,1.84325,-1.33403,-0.326782,-0.529524,-0.985907,1.10222,0.622141,1.03745,-0.559989,-0.326782,-0.529524,-0.985907,1.10222,0.622141,1.03745,-0.559989,0.000817216,-0.490719,0.942981,0.915754,-0.336707,0.164349,0.144953,-0.615295,-0.065754,-0.139752,0.556453,-0.595843,1.62501,-3.01299,-0.11884,-2.20003,-3.01299,-0.11884,-2.20003,-0.267277,-0.675633,-0.654592,0.614085,0.0241416,0.58745,-0.438046,1
1.25065,-0.774306,-2.47013,-0.454913,2.35336,1.91493,-1.38651,1.25065,-0.774306,-2.47013,-0.454913,2.35336,1.91493,-1.38651,1.2841,-0.700795,-2.4046,-0.513849,2.35641,1.85388,-1.33987,-0.376302,-0.592635,-1.02221,1.10531,0.150871,1.08247,-0.596961,-0.376302,-0.592635,-1.02221,1.10531,0.150871,1.08247,-0.596961,-0.00476694,-0.491316,0.940806,0.915036,-0.341729,0.165991,0.135563,-0.592134,-0.0901224,-0.194027,0.526019,-0.597847,1.60175,-3.04336,-0.200355,-2.32526,-3.04336,-0.200355,-2.32526,-0.33447,-0.735104,-0.655294,0.589354,-0.0305271,0.610424,-0.466365,1
1.24084,-0.783289,-2.47903,-0.44795,2.36733,1.92557,-1.39277,1.24084,-0.783289,-2.47903,-0.44795,2.36733,1.92557,-1.39277,1.28001,-0.707032,-2.41482,-0.502561,2.35441,1.86494,-1.34637,-0.410985,-0.63506,-1.01922,1.1144,-0.304196,1.11446,-0.667778,-0.410985,-0.63506,-1.01922,1.1144,-0.304196,1.11446,-0.667778,-0.00992415,-0.492018,0.938197,0.913934,-0.346575,0.169952,0.125407,-0.559282,-0.101365,-0.231713,0.496455,-0.599104,1.57718,-2.95644,-0.125694,-2.45765,-2.95644,-0.125694,-2.45765,-0.391715,-0.762576,-0.642167,0.546109,0.129165,0.606286,-0.464033,1
1.2344,-0.791,-2.48856,-0.43863,2.36698,1.93987,-1.40152,1.2344,-0.791,-2.48856,-0.43863,2.36698,1.93987,-1.40152,1.27608,-0.713778,-2.42507,-0.491509,2.3507,1.87619,-1.35344,-0.387292,-0.678791,-1.02519,1.1172,-0.341166,1.1206,-0.718508,-0.387292,-0.678791,-1.02519,1.1172,-0.341166,1.1206,-0.718508,-0.0147076,-0.492999,0.935164,0.912661,-0.351114,0.174655,0.115169,-0.544045,-0.117581,-0.257782,0.46666,-0.599688,1.5523,-2.97951,-0.0584126,-2.48734,-2.97951,-0.0584126,-2.48734,-0.416733,-0.772215,-0.634847,0.528786,0.162888,0.636839,-0.480752,1
1.22933,-0.798024,-2.49912,-0.42925,2.35615,1.95192,-1.41122,1.22933,-0.798024,-2.49912,-0.42925,2.35615,1.95192,-1.41122,1.27257,-0.720577,-2.43535,-0.480873,2.34918,1.88722,-1.36087,-0.332487,-0.688511,-1.02878,1.03171,-0.0933259,1.09945,-0.750663,-0.332487,-0.688511,-1.02878,1.03171,-0.0933259,1.09945,-0.750663,-0.0194808,-0.494051,0.932099,0.911441,-0.355562,0.178222,0.105298,-0.523183,-0.134221,-0.276948,0.437155,-0.600423,1.52671,-2.95047,-0.0735462,-2.55988,-2.95047,-0.0735462,-2.55988,-0.432384,-0.77447,-0.6377,0.516238,0.0696883,0.647068,-0.50345,1
1.22459,-0.806558,-2.50975,-0.420796,2.34769,1.96298,-1.42124,1.22459,-0.806558,-2.50975,-0.420796,2.34769,1.96298,-1.42124,1.26952,-0.727632,-2.4457,-0.470617,2.34944,1.89812,-1.36861,-0.300476,-0.711389,-1.03148,1.0354,0.0751861,1.07756,-0.780624,-0.300476,-0.711389,-1.03148,1.0354,0.0751861,1.07756,-0.780624,-0.0242101,-0.495277,0.928883,0.910284,-0.359867,0.180848,0.0957787,-0.523345,-0.139469,-0.282772,0.40691,-0.602056,1.49964,-3.02449,-0.163239,-2.70711,-3.02449,-0.163239,-2.70711,-0.449354,-0.789262,-0.640535,0.498208,-0.0174602,0.648588,-0.526261,1
1.2165,-0.815151,-2.52037,-0.415314,2.3502,1.97262,-1.43115,1.2165,-0.815151,-2.52037,-0.415314,2.3502,1.97262,-1.43115,1.26659,-0.734937,-2.45594,-0.461089,2.3517,1.90877,-1.37649,-0.287005,-0.73217,-1.01952,0.931485,0.274283,1.06626,-0.790068,-0.287005,-0.73217,-1.01952,0.931485,0.274283,1.06626,-0.790068,-0.0290382,-0.496731,0.925484,0.909294,-0.363865,0.182421,0.086661,-0.517452,-0.162495,-0.313036,0.376846,-0.603643,1.471,-3.00646,-0.158709,-2.86355,-3.00646,-0.158709,-2.86355,-0.50094,-0.802143,-0.644353,0.457754,-0.0149932,0.638499,-0.546538,1
1.20989,-0.823078,-2.53085,-0.411534,2.35978,1.98269,-1.43992,1.20989,-0.823078,-2.53085,-0.411534,2.35978,1.98269,-1.43992,1.26347,-0.74207,-2.46601,-0.451773,2.35497,1.91963,-1.38444,-0.327861,-0.713355,-1.00533,0.932516,0.318251,1.08752,-0.798253,-0.327861,-0.713355,-1.00533,0.932516,0.318251,1.08752,-0.798253,-0.03399,-0.498,0.922128,0.908192,-0.368051,0.183563,0.0776509,-0.534807,-0.139144,-0.304267,0.347252,-0.605464,1.44203,-2.95933,-0.18208,-2.89673,-2.95933,-0.18208,-2.89673,-0.535812,-0.810089,-0.648432,0.402388,0.0481192,0.630651,-0.55474,1
1.20122,-0.830931,-2.54172,-0.413645,2.36966,1.99243,-1.44783,1.20122,-0.830931,-2.54172,-0.413645,2.36966,1.99243,-1.44783,1.2599,-0.749442,-2.47592,-0.443078,2.3567,1.93088,-1.39267,-0.3614,-0.747415,-0.988089,0.847733,0.11936,1.13246,-0.832417,-0.3614,-0.747415,-0.988089,0.847733,0.11936,1.13246,-0.832417,-0.0388161,-0.49943,0.918392,0.906932,-0.371983,0.185463,0.0685994,-0.516457,-0.163672,-0.35386,0.318286,-0.607107,1.41202,-2.89658,-0.164354,-3.00108,-2.89658,-0.164354,-3.00108,-0.58678,-0.814887,-0.657999,0.29433,0.129617,0.615584,-0.55159,1
1.19325,-0.838931,-2.55307,-0.432984,2.37315,2.00477,-1.45537,1.19325,-0.838931,-2.55307,-0.432984,2.37315,2.00477,-1.45537,1.25607,-0.756943,-2.48568,-0.434598,2.35658,1.9423,-1.40131,-0.394799,-0.747151,-0.972342,0.855127,-0.0427587,1.13987,-0.872923,-0.394799,-0.747151,-0.972342,0.855127,-0.0427587,1.13987,-0.872923,-0.0434208,-0.500915,0.914431,0.905453,-0.375755,0.188234,0.0594121,-0.512046,-0.154053,-0.35846,0.289139,-0.608725,1.38112,-2.91473,-0.161761,-3.08973,-2.91473,-0.161761,-3.08973,-0.628209,-0.819879,-0.673944,0.0161432,0.165695,0.624692,-0.540611,1
1.18213,-0.847043,-2.56672,-0.46344,2.38446,2.0162,-1.46558,1.18213,-0.847043,-2.56672,-0.46344,2.38446,2.01062,-1.46558,1.25161,-0.764417,-2.49554,-0.426575,2.35605,1.95383,-1.41034,-0.460831,-0.751813,-0.992019,0.77523,-0.0377159,1.1577,-0.91253,-0.460831,-0.751813,-0.992019,0.77523,-0.0377159,1.1577,-0.91253,-0.048158,-0.502408,0.910316,0.903871,-0.379344,0.191352,0.049993,-0.532827,-0.162242,-0.385595,0.259668,-0.610092,1.34915,-2.94713,-0.136781,-3.19697,-2.94713,-0.136781,-3.19697,-0.694786,-0.826265,-0.711791,-0.368644,0.284119,0.623636,-0.552381,1
1.17138,-0.855038,-2.57988,-0.471274,2.39875,2.02515,-1.47835,1.17138,-0.855038,-2.57988,-0.471274,2.39875,2.01062,-1.47835,1.24658,-0.772086,-2.50559,-0.41941,2.35655,1.96513,-1.41962,-0.514914,-0.766877,-1.00692,0.699072,0.0825838,1.12545,-0.929271,-0.514914,-0.766877,-1.00692,0.699072,0.0825838,1.12545,-0.929271,-0.0531971,-0.504132,0.90595,0.90245,-0.382438,0.194114,0.040557,-0.562783,-0.176225,-0.408669,0.230589,-0.611382,1.31641,-2.9079,-0.128949,-3.27467,-2.9079,-0.128949,-3.27467,-0.752079,-0.829518,-0.742869,-0.51864,0.422059,0.600217,-0.587315,1
1.16427,-0.862362,-2.59017,-0.470295,2.40541,2.0337,-1.48743,1.16427,-0.862362,-2.59017,-0.470295,2.40541,2.01062,-1.48743,1.2412,-0.779567,-2.51567,-0.413596,2.35849,1.97624,-1.4289,-0.543748,-0.746492,-1.00955,0.505843,0.232354,1.10633,-0.926024,-0.543748,-0.746492,-1.00955,0.505843,0.232354,1.10633,-0.926024,-0.0583763,-0.505962,0.901443,0.901208,-0.385106,0.196282,0.0314738,-0.56025,-0.195724,-0.441162,0.201366,-0.613046,1.28283,-2.92226,-0.166357,-3.35808,-2.92226,-0.166357,-3.35808,-0.769374,-0.827948,-0.745022,-0.56699,0.469276,0.57463,-0.585292,1
1.15757,-0.86964,-2.60083,-0.46842,2.41222,2.04145,-1.49565,1.15757,-0.86964,-2.60083,-0.46842,2.41222,2.01062,-1.49565,1.23534,-0.787024,-2.52599,-0.411538,2.36194,1.98701,-1.43801,-0.604183,-0.735539,-1.03661,0.10758,0.385807,1.0702,-0.907029,-0.604183,-0.735539,-1.03661,0.10758,0.385807,1.0702,-0.907029,-0.0634954,-0.50857,0.896184,0.900612,-0.386271,0.197851,0.0234003,-0.551874,-0.26387,-0.530245,0.172213,-0.614737,1.24812,-2.91536,-0.169104,-3.47024,-2.91536,-0.169104,-3.47024,-0.777677,-0.826155,-0.748356,-0.568815,0.50282,0.544418,-0.576375,1
1.15097,-0.875496,-2.61171,-0.470279,2.41859,2.04828,-1.50402,1.15097,-0.875496,-2.61171,-0.470279,2.41859,2.01062,-1.50402,1.22884,-0.793578,-2.53648,-0.413601,2.3673,1.99719,-1.44711,-0.668489,-0.624651,-1.05456,-0.305207,0.58775,0.98544,-0.914639,-0.668489,-0.624651,-1.05456,-0.305207,0.58775,0.98544,-0.914639,-0.0685396,-0.511561,0.890585,0.900664,-0.3861,0.198664,0.0162153,-0.536152,-0.286186,-0.563537,0.143178,-0.615795,1.21272,-2.90347,-0.105816,-3.54025,-2.90347,-0.105816,-3.54025,-0.778768,-0.819179,-0.752268,-0.566775,0.512942,0.510916,-0.569047,1
1.14452,-0.881163,-2.62273,-0.477556,2.42807,2.05549,-1.51126,1.14452,-0.881163,-2.62273,-0.477556,2.42807,2.01062,-1.51126,1.22112,-0.799366,-2.54751,-0.419403,2.37489,2.00594,-1.45648,-0.807694,-0.572318,-1.11463,-0.668033,0.813279,0.835269,-0.941004,-0.807694,-0.572318,-1.11463,-0.668033,0.813279,0.835269,-0.941004,-0.0739725,-0.514979,0.884742,0.901559,-0.384216,0.198705,0.00921504,-0.587308,-0.325408,-0.613916,0.113999,-0.616823,1.17604,-2.91786,-0.102872,-3.66807,-2.91786,-0.102872,-3.66807,-0.76598,-0.817974,-0.752165,-0.581528,0.531837,0.495431,-0.54786,1
1.13993,-0.885894,-2.63336,-0.489951,2.43831,2.06078,-1.51993,1.13993,-0.885894,-2.63336,-0.489951,2.43831,2.01062,-1.51993,1.21258,-0.804809,-2.55879,-0.427742,2.38408,2.01279,-1.46607,-0.862533,-0.536509,-1.12915,-0.869004,0.941747,0.629301,-0.964337,-0.862533,-0.536509,-1.12915,-0.869004,0.941747,0.629301,-0.964337,-0.07977,-0.518816,0.878746,0.903249,-0.380692,0.198017,0.00219181,-0.608692,-0.347416,-0.628917,0.0843347,-0.618141,1.13829,-2.96646,-0.131744,-3.77553,-2.96646,-0.131744,-3.77553,-0.726446,-0.810854,-0.745668,-0.622091,0.542268,0.479892,-0.538635,1
1.13755,-0.891526,-2.64333,-0.502093,2.45286,2.0636,-1.52882,1.13755,-0.891526,-2.64333,-0.502093,2.45286,2.01062,-1.52882,1.20388,-0.810541,-2.57022,-0.437039,2.39371,2.01745,-1.47572,-0.869807,-0.591995,-1.1535,-0.940105,0.956799,0.420253,-0.964073,-0.869807,-0.591995,-1.1535,-0.940105,0.956799,0.420253,-0.964073,-0.0857546,-0.52313,0.872603,0.905565,-0.375669,0.196977,-0.00496521,-0.627271,-0.392267,-0.666692,0.0548358,-0.620161,1.09953,-2.94989,-0.201994,-3.87608,-2.94989,-0.201994,-3.87608,-0.663297,-0.809853,-0.731079,-0.650548,0.591501,0.461438,-0.530983,1
1.13158,-0.898091,-2.65374,-0.513907,2.46568,2.06473,-1.53705,1.13158,-0.898091,-2.65374,-0.513907,2.46568,2.01062,-1.53705,1.1955,-0.8168,-2.58181,-0.445967,2.40299,2.02036,-1.48522,-0.824472,-0.633532,-1.15693,-0.864127,0.916398,0.248583,-0.945917,-0.824472,-0.633532,-1.15693,-0.864127,0.916398,0.248583,-0.945917,-0.0917854,-0.52774,0.866391,0.90817,-0.369694,0.195965,-0.0122866,-0.625707,-0.401758,-0.662989,0.0262309,-0.621812,1.05983,-2.86049,-0.165087,-3.96992,-2.86049,-0.165087,-3.96992,-0.63923,-0.812915,-0.71932,-0.679405,0.626924,0.443719,-0.518339,1
1.11865,-0.903138,-2.6647,-0.526301,2.47549,2.0487,-1.54202,1.11865,-0.903138,-2.6647,-0.526301,2.47549,2.01062,-1.54202,1.18779,-0.823573,-2.5933,-0.454466,2.41194,2.0218,-1.49443,-0.755181,-0.698113,-1.15165,-0.853605,0.887234,0.114111,-0.912051,-0.755181,-0.698113,-1.15165,-0.853605,0.887234,0.114111,-0.912051,-0.0976752,-0.532609,0.860106,0.910986,-0.362985,0.194847,-0.0194974,-0.607253,-0.434325,-0.692551,-0.00253688,-0.621973,1.01972,-2.87678,-0.0161707,-4.01016,-2.87678,-0.0161707,-4.01016,-0.691387,-0.795649,-0.714013,-0.718354,0.63545,0.268998,-0.475886,1
1.11157,-0.910519,-2.6733,-0.535079,2.48033,2.04608,-1.54719,1.11157,-0.910519,-2.6733,-0.535079,2.48033,2.01062,-1.54719,1.18023,-0.831139,-2.6049,-0.462935,2.42088,2.02203,-1.5033,-0.760993,-0.766709,-1.15791,-0.837151,0.901672,-0.000515318,-0.881192,-0.760993,-0.766709,-1.15791,-0.837151,0.901672,-0.000515318,-0.881192,-0.103753,-0.537882,0.853457,0.914082,-0.355322,0.193617,-0.0267033,-0.637591,-0.455596,-0.725412,-0.0313408,-0.622915,0.97868,-2.88039,-0.0941455,-4.10449,-2.88039,-0.0941455,-4.10449,-0.686595,-0.793805,-0.684029,-0.721441,0.594556,0.240458,-0.438906,1
1.10694,-0.916679,-2.68142,-0.54331,2.49101,2.03708,-1.55107,1.10694,-0.916679,-2.68142,-0.54331,2.49101,2.01062,-1.55107,1.17285,-0.838729,-2.61627,-0.471662,2.43046,2.02213,-1.51193,-0.734411,-0.773181,-1.14295,-0.912226,0.970037,-0.231625,-0.866157,-0.734411,-0.773181,-1.14295,-0.912226,0.970037,-0.231625,-0.866157,-0.109927,-0.543068,0.846702,0.917193,-0.347529,0.191937,-0.0337747,-0.632404,-0.479034,-0.735466,-0.0604458,-0.62451,0.937289,-2.9105,-0.159484,-4.13903,-2.9105,-0.159484,-4.13903,-0.65906,-0.779506,-0.651479,-0.716481,0.605448,0.14945,-0.391385,1
1.16405,-0.899341,-2.57415,-0.505177,2.51958,2.01699,-1.52073,1.16405,-0.899341,-2.57415,-0.505177,2.51958,2.01062,-1.52073,1.16531,-0.846984,-2.62755,-0.481015,2.44103,2.02265,-1.52037,-0.750219,-0.854221,-1.10995,-0.917116,1.07307,0.00378711,-0.839456,-0.750219,-0.854221,-1.10995,-0.917116,1.07307,0.00378711,-0.839456,-0.116524,-0.548426,0.839336,0.920421,-0.339407,0.189644,-0.0407792,-0.676196,-0.468113,-0.807124,-0.0671554,-0.630636,0.938124,-0.670957,-0.612652,0.0835001,-0.670957,-0.612652,0.0835001,-0.0126086,-0.523574,0.534032,-0.241623,0.785473,-0.0565766,-0.00352508,1
1.14269,-0.904755,-2.60195,-0.456777,2.52885,1.9874,-1.49964,1.14269,-0.904755,-2.60195,-0.456777,2.52885,1.9874,-1.49964,1.15818,-0.85516,-2.63862,-0.490938,2.45165,2.02127,-1.52849,-0.696157,-0.808356,-1.07326,-1.00641,1.08578,-0.185748,-0.797858,-0.696157,-0.808356,-1.07326,-1.00641,1.08578,-0.185748,-0.797858,-0.122949,-0.553977,0.831993,0.923952,-0.330223,0.187086,-0.0475789,-0.63724,-0.470896,-0.796883,-0.0675835,-0.636489,0.948622,-0.0428081,-0.5853,1.04975,-0.0428081,-0.5853,1.04975,-0.154867,-0.495949,0.366745,0.341611,0.771986,-0.338716,0.288528,1
1.13716,-0.930198,-2.61195,-0.486974,2.53482,2.05238,-1.50498,1.13716,-0.930198,-2.61195,-0.486974,2.53482,2.01062,-1.50498,1.15109,-0.863616,-2.64919,-0.501581,2.46213,2.02019,-1.53592,-0.723254,-0.858691,-1.07374,-1.09769,0.996422,-0.100322,-0.730612,-0.723254,-0.858691,-1.07374,-1.09769,0.996422,-0.100322,-0.730612,-0.129438,-0.559571,0.824192,0.927489,-0.320726,0.184375,-0.0538945,-0.654526,-0.479883,-0.873425,-0.0679417,-0.641973,0.957983,-0.0358164,-0.548339,0.936133,-0.0358164,-0.548339,0.936133,-0.139256,-0.665824,0.3724,0.146064,0.726868,0.321911,0.309328,1
1.16235,-0.944184,-2.61019,-0.54307,2.54705,2.05796,-1.56643,1.16235,-0.944184,-2.61019,-0.54307,2.54705,2.01062,-1.56643,1.14379,-0.871649,-2.65911,-0.511919,2.47216,2.0191,-1.54162,-0.727173,-0.773709,-0.92155,-0.990269,1.01809,-0.089836,-0.475953,-0.727173,-0.773709,-0.92155,-0.990269,1.01809,-0.089836,-0.475953,-0.136013,-0.564687,0.816629,0.930798,-0.311377,0.181956,-0.0595951,-0.652613,-0.397888,-0.789181,-0.0682599,-0.647879,0.9664,-0.0318229,-0.590616,0.841689,-0.0318229,-0.590616,0.841689,0.185585,-0.725349,0.489142,-0.311511,0.748892,0.388638,-0.248112,1
1.16312,-0.94394,-2.60986,-0.53065,2.56106,2.06095,-1.5657,1.16312,-0.94394,-2.60986,-0.53065,2.56106,2.01062,-1.5657,1.13699,-0.879122,-2.66433,-0.519597,2.48324,2.01712,-1.54227,-0.673458,-0.763558,-0.383037,-0.677269,1.12033,-0.209837,0.0705169,-0.673458,-0.763558,-0.383037,-0.677269,1.12033,-0.209837,0.0705169,-0.142508,-0.568708,0.810533,0.933987,-0.303438,0.177888,-0.0628385,-0.62528,-0.319495,-0.642718,-0.0691107,-0.654058,0.974,-0.0850797,-0.617969,0.760007,-0.0850797,-0.617969,0.760007,0.261355,-0.648181,0.544687,-0.110523,0.77824,0.438343,-0.234259,1
1.13605,-0.945395,-2.60968,-0.545958,2.57411,2.05918,-1.55366,1.13605,-0.945395,-2.60968,-0.545958,2.57411,2.01062,-1.55366,1.13032,-0.888227,-2.66318,-0.522119,2.49508,2.01452,-1.53821,-0.657243,-0.969632,0.306888,-0.126509,1.22052,-0.253173,0.506106,-0.657243,-0.969632,0.306888,-0.126509,1.22052,-0.253173,0.506106,-0.149612,-0.571942,0.805444,0.937041,-0.297433,0.171396,-0.0641167,-0.666357,-0.269871,-0.549568,-0.0696204,-0.659963,0.9804,-0.0509739,-0.590414,0.639951,-0.0509739,-0.590414,0.639951,0.0573117,-0.571681,0.534977,-0.238393,0.790292,0.446599,-0.154489,1
1.10337,-0.95647,-2.60092,-0.548091,2.58615,2.05234,-1.55338,1.10337,-0.95647,-2.60092,-0.548091,2.58615,2.01062,-1.55338,1.12446,-0.899872,-2.65511,-0.520123,2.50759,2.01217,-1.5327,-0.557891,-1.20495,0.955754,0.288252,1.25933,-0.205726,0.488321,-0.557891,-1.20495,0.955754,0.288252,1.25933,-0.205726,0.488321,-0.157023,-0.574879,0.800599,0.939985,-0.293604,0.161533,-0.0642853,-0.649268,-0.265375,-0.5289,-0.0697688,-0.665421,0.985895,-0.0148416,-0.545883,0.549507,-0.0148416,-0.545883,0.549507,-0.210913,-0.565983,0.541887,-0.27968,0.785595,0.401769,-0.206812,1
1.13884,-0.976426,-2.58352,-0.552574,2.59667,2.05389,-1.55473,1.13884,-0.976426,-2.58352,-0.552574,2.59667,2.01062,-1.55473,1.11944,-0.912853,-2.64335,-0.516616,2.52006,2.01156,-1.53203,-0.488909,-1.29923,1.20503,0.327956,1.25621,-0.0380628,-0.0936231,-0.488909,-1.29923,1.20503,0.327956,1.25621,-0.0380628,-0.0936231,-0.164271,-0.577648,0.795396,0.942469,-0.291788,0.149164,-0.0660435,-0.615507,-0.271443,-0.577354,-0.0700417,-0.671343,0.990376,-0.027287,-0.592124,0.448161,-0.027287,-0.592124,0.448161,0.193993,-0.635739,0.598332,-0.359588,0.766099,0.423246,-0.226999,1
1.11984,-0.983054,-2.58808,-0.556583,2.61029,2.06084,-1.51817,1.11984,-0.983054,-2.58808,-0.556583,2.61029,2.01062,-1.51817,1.11464,-0.924464,-2.63222,-0.514726,2.53315,2.01111,-1.53648,-0.468523,-1.11916,1.06778,0.100047,1.33506,-0.0572501,-0.529236,-0.468523,-1.11916,1.06778,0.100047,1.33506,-0.0572501,-0.529236,-0.171154,-0.580132,0.790397,0.944633,-0.290274,0.136051,-0.0699917,-0.570251,-0.244417,-0.549599,-0.0701699,-0.677015,0.993831,-0.012815,-0.567257,0.345492,-0.012815,-0.567257,0.345492,0.0520084,-0.585899,0.441347,-0.418569,0.771405,0.497277,0.183097,1
1.12114,-1.00036,-2.57447,-0.556555,2.62151,2.0605,-1.52455,1.12114,-1.00036,-2.57447,-0.556555,2.62151,2.01062,-1.52455,1.11041,-0.933751,-2.62346,-0.517,2.54665,2.01112,-1.54211,-0.403998,-0.856738,0.828742,-0.301111,1.36062,0.0156038,-0.551624,-0.403998,-0.856738,0.828742,-0.301111,1.36062,0.0156038,-0.551624,-0.177021,-0.58261,0.785322,0.946777,-0.287928,0.123585,-0.0737467,-0.46085,-0.223491,-0.534877,-0.0705072,-0.682886,0.996597,-0.0337303,-0.587112,0.276554,-0.0337303,-0.587112,0.276554,0.107219,-0.666109,0.489831,-0.395546,0.748601,0.493764,0.175603,1
1.12349,-1.00871,-2.56813,-0.557514,2.63519,2.05963,-1.53582,1.12349,-1.00871,-2.56813,-0.557514,2.63519,2.01062,-1.53582,1.10667,-0.941144,-2.61623,-0.522519,2.56029,2.01131,-1.54695,-0.361321,-0.717513,0.704091,-0.634724,1.36802,0.014693,-0.457713,-0.361321,-0.717513,0.704091,-0.634724,1.36802,0.014693,-0.457713,-0.182001,-0.585078,0.780278,0.948965,-0.284798,0.111829,-0.0764825,-0.381889,-0.237524,-0.561532,-0.0705189,-0.688364,0.998039,-0.00117421,-0.547767,0.144261,-0.00117421,-0.547767,0.144261,0.1682,-0.67564,0.480998,-0.349947,0.749052,0.483153,0.111221,1
1.11541,-1.01341,-2.5598,-0.538724,2.64906,2.06221,-1.55502,1.11541,-1.01341,-2.5598,-0.538724,2.64906,2.01062,-1.55502,1.1037,-0.947873,-2.6095,-0.530098,2.57373,2.01131,-1.54979,-0.271197,-0.663707,0.668764,-0.782252,1.33745,-0.00431422,-0.191468,-0.271197,-0.663707,0.668764,-0.782252,1.33745,-0.00431422,-0.191468,-0.186177,-0.587857,0.774969,0.95134,-0.280778,0.100484,-0.077586,-0.297494,-0.259967,-0.578681,-0.0708209,-0.694355,0.998789,-0.0302017,-0.599074,0.0749767,-0.0302017,-0.599074,0.0749767,0.117149,-0.655376,0.497045,-0.0862614,0.753309,0.509035,-0.0522548,1
1.10196,-1.01622,-2.55447,-0.535349,2.66426,2.0568,-1.5664,1.10196,-1.01622,-2.55447,-0.535349,2.66426,2.01062,-1.5664,1.10178,-0.954476,-2.6031,-0.537972,2.58677,2.01156,-1.54851,-0.169537,-0.661167,0.631722,-0.778861,1.2916,0.0316256,0.218419,-0.169537,-0.661167,0.631722,-0.778861,1.2916,0.0316256,0.218419,-0.189595,-0.590801,0.769523,0.953753,-0.276519,0.089897,-0.076236,-0.228516,-0.272569,-0.587341,-0.0708781,-0.700131,0.998391,-0.00572205,-0.577652,-0.0398517,-0.00572205,-0.577652,-0.0398517,0.00176019,-0.617433,0.486299,0.0262299,0.774874,0.45243,-0.178849,1
1.09909,-1.01793,-2.54557,-0.553574,2.677,2.0523,-1.5609,1.09909,-1.01793,-2.54557,-0.553574,2.677,2.01062,-1.5609,1.10059,-0.961227,-2.59691,-0.544985,2.59937,2.01197,-1.54511,-0.107412,-0.677513,0.619007,-0.675991,1.25112,0.053053,0.341207,-0.107412,-0.677513,0.619007,-0.675991,1.25112,0.053053,0.341207,-0.192607,-0.59374,0.764111,0.956002,-0.272475,0.0798372,-0.0737776,-0.197563,-0.268729,-0.575015,-0.0708959,-0.70572,0.99718,-0.00177622,-0.558889,-0.121081,-0.00177622,-0.558889,-0.121081,-0.0149991,-0.567043,0.513436,-0.085893,0.776298,0.403385,-0.15792,1
1.10142,-1.02391,-2.53945,-0.55705,2.68806,2.06033,-1.55541,1.10142,-1.02391,-2.53945,-0.55705,2.68806,2.01062,-1.55541,1.09992,-0.968161,-2.59043,-0.550256,2.61172,2.01244,-1.54287,-0.0558212,-0.690635,0.66131,-0.456744,1.23155,0.0422434,0.163761,-0.0558212,-0.690635,0.66131,-0.456744,1.23155,0.0422434,0.163761,-0.195442,-0.596474,0.759013,0.957864,-0.26919,0.0696295,-0.0720043,-0.186104,-0.245467,-0.518711,-0.0711019,-0.711609,0.995021,-0.0206053,-0.58887,-0.215846,-0.0206053,-0.58887,-0.215846,0.0149447,-0.557538,0.509874,-0.0679477,0.763422,0.478946,-0.125365,1
1.11236,-1.03182,-2.53549,-0.543969,2.69842,2.06795,-1.54457,1.11236,-1.03182,-2.53549,-0.543969,2.69842,2.01062,-1.54457,1.09965,-0.975599,-2.58362,-0.552468,2.62401,2.01274,-1.54342,-0.0156271,-0.779388,0.6903,-0.148182,1.2355,0.0351849,-0.12063,-0.0156271,-0.779388,0.6903,-0.148182,1.2355,0.0351849,-0.12063,-0.198435,-0.598878,0.754422,0.959183,-0.267001,0.0590142,-0.072075,-0.211085,-0.231985,-0.486055,-0.0711803,-0.717464,0.991802,-0.00783205,-0.585508,-0.321972,-0.00783205,-0.585508,-0.321972,0.127113,-0.562256,0.481278,0.0849927,0.744159,0.552146,-0.0114413,1
1.12019,-1.04498,-2.53316,-0.537948,2.70949,2.07254,-1.53547,1.12019,-1.04498,-2.53316,-0.537948,2.70949,2.01062,-1.53547,1.09999,-0.984396,-2.57663,-0.552659,2.63655,2.01301,-1.54609,0.0583858,-0.912075,0.707976,0.00220504,1.26044,0.0240638,-0.30353,0.0583858,-0.912075,0.707976,0.00220504,1.26044,0.0240638,-0.30353,-0.201555,-0.601495,0.749486,0.960235,-0.265103,0.0477441,-0.0734143,-0.206748,-0.26533,-0.530962,-0.0712307,-0.723267,0.987696,-0.00504255,-0.580311,-0.410551,-0.00504255,-0.580311,-0.410551,0.201976,-0.605841,0.434689,0.147109,0.729433,0.595283,0.106191,1
1.12202,-1.05769,-2.52989,-0.543477,2.72065,2.07256,-1.53767,1.12202,-1.05769,-2.52989,-0.543477,2.72065,2.01062,-1.53767,1.10133,-0.993447,-2.56914,-0.553006,2.64936,2.01317,-1.54926,0.144946,-0.873954,0.75747,-0.0407934,1.28265,0.0100665,-0.302894,0.144946,-0.873954,0.75747,-0.0407934,1.28265,0.0100665,-0.302894,-0.204122,-0.604406,0.744315,0.961243,-0.263014,0.0358553,-0.0745018,-0.137891,-0.275064,-0.520103,-0.0712918,-0.729283,0.982502,-0.00611544,-0.601602,-0.519401,-0.00611544,-0.601602,-0.519401,0.206853,-0.642425,0.39248,0.0952861,0.71295,0.593843,0.115892,1
1.12042,-1.0647,-2.52801,-0.550488,2.73248,2.07233,-1.54745,1.12042,-1.0647,-2.52801,-0.550488,2.73248,2.01062,-1.54745,1.10217,-1.00153,-2.56152,-0.553729,2.66232,2.01331,-1.55121,0.0504884,-0.792043,0.759435,-0.0760022,1.29801,0.0161544,-0.142705,0.0504884,-0.792043,0.759435,-0.0760022,1.29801,0.0161544,-0.142705,-0.206778,-0.60692,0.739579,0.962077,-0.26109,0.0242063,-0.075186,-0.178929,-0.231321,-0.482871,-0.0713338,-0.735208,0.976296,-0.00419021,-0.592536,-0.620586,-0.00419021,-0.592536,-0.620586,0.182566,-0.631639,0.335121,0.0324145,0.701588,0.590161,0.0375969,1
1.11719,-1.06784,-2.52069,-0.557895,2.7423,2.07208,-1.56282,1.11719,-1.06784,-2.52069,-0.557895,2.7423,2.01062,-1.56282,1.10232,-1.00922,-2.55396,-0.553608,2.67504,2.01336,-1.55111,0.0256576,-0.773456,0.754953,0.034334,1.25876,-0.00156991,0.0597041,0.0256576,-0.773456,0.754953,0.034334,1.25876,-0.00156991,0.0597041,-0.209835,-0.609007,0.735253,0.962694,-0.259533,0.0131943,-0.0754218,-0.202087,-0.20434,-0.442685,-0.0714387,-0.741062,0.969205,-0.0104964,-0.585324,-0.709176,-0.0104964,-0.585324,-0.709176,0.148768,-0.586116,0.332717,-0.0428662,0.672591,0.58727,-0.117122,1
1.11687,-1.07329,-2.51088,-0.560627,2.75364,2.0701,-1.5689,1.11687,-1.07329,-2.51088,-0.560627,2.75364,2.01062,-1.5689,1.10326,-1.01753,-2.54679,-0.552732,2.68716,2.01328,-1.54952,0.114626,-0.858614,0.69435,0.0857212,1.19803,-0.0086644,0.183618,0.114626,-0.858614,0.69435,0.0857212,1.19803,-0.0086644,0.183618,-0.212526,-0.611374,0.730653,0.963286,-0.257828,0.00267406,-0.0748171,-0.162918,-0.243752,-0.493717,-0.0714096,-0.747003,0.961098,0.00290871,-0.594163,-0.810629,0.00290871,-0.594163,-0.810629,0.136099,-0.557682,0.359156,-0.0789453,0.664819,0.568236,-0.19382,1
1.11463,-1.08107,-2.50446,-0.560187,2.76456,2.07085,-1.56142,1.11463,-1.08107,-2.50446,-0.560187,2.76456,2.01062,-1.56142,1.10476,-1.0265,-2.54059,-0.55264,2.69881,2.01331,-1.54787,0.155995,-0.887555,0.603775,-0.00452992,1.15525,0.00493738,0.139577,0.155995,-0.887555,0.603775,-0.00452992,1.15525,0.00493738,0.139577,-0.214822,-0.614258,0.725255,0.963993,-0.255334,-0.00742583,-0.0739426,-0.126873,-0.273876,-0.553067,-0.0713953,-0.753075,0.952085,0.00143051,-0.607175,-0.901324,0.00143051,-0.607175,-0.901324,0.0986804,-0.545725,0.361332,-0.0754718,0.657566,0.575444,-0.135545,1
1.11819,-1.08748,-2.50703,-0.562986,2.77096,2.07489,-1.55244,1.11819,-1.08748,-2.50703,-0.562986,2.77096,2.01062,-1.55244,1.10597,-1.03418,-2.53497,-0.552856,2.71016,2.0133,-1.54757,0.102043,-0.735659,0.550555,-0.0308946,1.12833,0.00207323,-0.0196177,0.102043,-0.735659,0.550555,-0.0308946,1.12833,0.00207323,-0.0196177,-0.216983,-0.616709,0.720497,0.964461,-0.253125,-0.0170472,-0.073835,-0.132554,-0.219359,-0.468098,-0.0714751,-0.759032,0.942046,-0.0079751,-0.595725,-1.00393,-0.0079751,-0.595725,-1.00393,0.122185,-0.532915,0.279415,-0.101291,0.608015,0.615861,-0.0486662,1
1.11787,-1.09569,-2.50611,-0.569996,2.77704,2.07563,-1.5428,1.11787,-1.09569,-2.50611,-0.569996,2.77704,2.01062,-1.5428,1.10633,-1.04148,-2.52991,-0.553893,2.72143,2.01329,-1.5491,0.0137336,-0.733729,0.489329,-0.126299,1.12216,-0.00511714,-0.192942,0.0137336,-0.733729,0.489329,-0.126299,1.12216,-0.00511714,-0.192942,-0.219472,-0.619001,0.715665,0.964823,-0.250597,-0.0264946,-0.0749341,-0.176073,-0.213386,-0.503577,-0.0714151,-0.764808,0.931208,0.00600219,-0.577617,-1.08374,0.00600219,-0.577617,-1.08374,0.115421,-0.54208,0.237925,-0.161031,0.556076,0.623395,0.0630107,1
1.12141,-1.10686,-2.50947,-0.580253,2.77529,2.07707,-1.54835,1.12141,-1.10686,-2.50947,-0.580253,2.77529,2.01062,-1.54835,1.10646,-1.04875,-2.5249,-0.555638,2.73254,2.01327,-1.55197,0.0219077,-0.717058,0.511787,-0.187294,1.1049,-0.000527321,-0.300488,0.0219077,-0.717058,0.511787,-0.187294,1.1049,-0.000527321,-0.300488,-0.221958,-0.621347,0.710604,0.965128,-0.247691,-0.0360186,-0.0766754,-0.153278,-0.215818,-0.512731,-0.0715046,-0.770814,0.919149,-0.00895262,-0.600564,-1.20598,-0.00895262,-0.600564,-1.20598,0.149522,-0.5811,0.154245,-0.246151,0.427501,0.637948,0.0361813,1
1.11762,-1.11408,-2.51516,-0.584876,2.77551,2.07753,-1.56562,1.11762,-1.11408,-2.51516,-0.584876,2.77551,2.01062,-1.56562,1.10687,-1.05583,-2.51947,-0.557659,2.7435,2.01332,-1.5542,0.0404118,-0.713966,0.541413,-0.215026,1.09274,0.00619601,-0.179792,0.0404118,-0.713966,0.541413,-0.215026,1.09274,0.00619601,-0.179792,-0.22414,-0.623701,0.705558,0.965369,-0.244788,-0.0455853,-0.0778713,-0.130599,-0.219332,-0.520674,-0.0715458,-0.7769,0.906195,-0.00412464,-0.608623,-1.29536,-0.00412464,-0.608623,-1.29536,0.107536,-0.582533,0.0430841,-0.272168,0.320169,0.642159,-0.114223,1
1.11267,-1.12284,-2.50841,-0.597983,2.77679,2.07683,-1.57756,1.11267,-1.12284,-2.50841,-0.597983,2.77679,2.01062,-1.57756,1.10717,-1.06314,-2.51462,-0.559941,2.75413,2.01329,-1.55465,0.0298055,-0.731643,0.463046,-0.229048,1.05086,-0.00508146,0.00274447,0.0298055,-0.731643,0.463046,-0.229048,1.05086,-0.00508146,0.00274447,-0.226332,-0.626166,0.700206,0.965686,-0.241535,-0.0545608,-0.0783254,-0.135756,-0.224274,-0.545557,-0.0715329,-0.782844,0.892276,0.00128746,-0.594342,-1.39186,0.00128746,-0.594342,-1.39186,0.0549944,-0.59702,0.0620653,-0.380422,0.226549,0.635444,-0.229029,1
1.10204,-1.13126,-2.51475,-0.604214,2.77569,2.0772,-1.58151,1.10204,-1.13126,-2.51475,-0.604214,2.77569,2.01062,-1.58151,1.10763,-1.07033,-2.51084,-0.562517,2.76383,2.01327,-1.55381,0.0509942,-0.712528,0.348138,-0.271821,0.941734,0.000455411,0.096775,0.0509942,-0.712528,0.348138,-0.271821,0.941734,0.000455411,0.096775,-0.228214,-0.628704,0.694751,0.966094,-0.238035,-0.0624547,-0.0781134,-0.104807,-0.229162,-0.556033,-0.0714854,-0.788638,0.87735,0.00475049,-0.579381,-1.49259,0.00475049,-0.579381,-1.49259,-0.0558106,-0.609365,-0.0390699,-0.41697,0.118574,0.639323,-0.277058,1
1.09531,-1.1391,-2.52114,-0.605852,2.75601,2.07939,-1.57673,1.09531,-1.1391,-2.52114,-0.605852,2.75601,2.01062,-1.57673,1.10804,-1.07733,-2.50885,-0.565828,2.77175,2.01332,-1.55346,0.0324781,-0.69388,0.138973,-0.358062,0.738841,0.00118646,-0.00564471,0.0324781,-0.69388,0.138973,-0.358062,0.738841,0.00118646,-0.00564471,-0.229726,-0.631346,0.689097,0.966652,-0.233996,-0.0687427,-0.0781241,-0.0886812,-0.233857,-0.584115,-0.0714528,-0.794584,0.861498,0.00326633,-0.594652,-1.58519,0.00326633,-0.594652,-1.58519,-0.127287,-0.617718,-0.122938,-0.40024,-0.157374,0.660767,-0.232675,1
1.09301,-1.14541,-2.52661,-0.611365,2.73768,2.08145,-1.57438,1.09301,-1.14541,-2.52661,-0.611365,2.73768,2.01062,-1.57438,1.10833,-1.08397,-2.50837,-0.570014,2.77733,2.01327,-1.55471,0.0357019,-0.650172,0.0400643,-0.451049,0.496639,-0.00829329,-0.170396,0.0357019,-0.650172,0.0400643,-0.451049,0.496639,-0.00829329,-0.170396,-0.230789,-0.634067,0.683374,0.967373,-0.229342,-0.0733912,-0.0787682,-0.0427372,-0.236755,-0.586172,-0.0713613,-0.800577,0.844681,0.00914335,-0.599307,-1.68173,0.00914335,-0.599307,-1.68173,-0.153205,-0.614327,-0.182472,-0.413506,-0.396473,0.681809,-0.196715,1
1.09237,-1.15056,-2.53153,-0.621387,2.72564,2.082,-1.57138,1.09237,-1.15056,-2.53153,-0.621387,2.72564,2.01062,-1.57138,1.10871,-1.09033,-2.50825,-0.575347,2.78062,2.01326,-1.55809,0.0302849,-0.634341,-0.012404,-0.560372,0.276699,0.000407479,-0.390683,0.0302849,-0.634341,-0.012404,-0.560372,0.276699,0.000407479,-0.390683,-0.231211,-0.636925,0.677534,0.968214,-0.224122,-0.0770465,-0.0799694,-0.00246047,-0.243609,-0.609472,-0.0714047,-0.806515,0.82673,-0.00433922,-0.593746,-1.79512,-0.00433922,-0.593746,-1.79512,-0.163362,-0.602273,-0.232798,-0.460393,-0.549854,0.687405,-0.132879,1
1.09414,-1.15618,-2.53424,-0.63049,2.72278,2.08263,-1.57483,1.09414,-1.15618,-2.53424,-0.63049,2.72278,2.01062,-1.57483,1.1087,-1.09664,-2.50918,-0.581668,2.78138,2.0133,-1.56291,-0.00894045,-0.624993,-0.116214,-0.64919,-0.0116969,0.00346352,-0.49526,-0.00894045,-0.624993,-0.116214,-0.64919,-0.0116969,0.00346352,-0.49526,-0.23134,-0.639859,0.671433,0.969235,-0.218252,-0.0791637,-0.0817419,0.0148913,-0.242975,-0.633613,-0.0711747,-0.812408,0.808009,0.0230014,-0.589383,-1.87206,0.0230014,-0.589383,-1.87206,-0.145603,-0.595462,-0.250569,-0.488222,-0.586018,0.693285,-0.119179,1
1.09201,-1.16004,-2.53468,-0.638379,2.72099,2.0825,-1.58204,1.09201,-1.16004,-2.53468,-0.638379,2.72099,2.01062,-1.58204,1.10838,-1.10281,-2.51109,-0.588479,2.77831,2.01327,-1.56738,-0.0394531,-0.623207,-0.215913,-0.691099,-0.408049,-0.00258865,-0.421184,-0.0394531,-0.623207,-0.215913,-0.691099,-0.408049,-0.00258865,-0.421184,-0.231011,-0.642816,0.665302,0.970531,-0.211982,-0.0789158,-0.0831029,0.0405711,-0.242112,-0.646468,-0.0706966,-0.817981,0.788181,0.0478148,-0.557292,-1.98283,0.0478148,-0.557292,-1.98283,-0.163684,-0.572232,-0.235883,-0.498995,-0.57323,0.692345,-0.146585,1
1.09298,-1.16573,-2.535,-0.641968,2.71661,2.0835,-1.59204,1.09298,-1.16573,-2.535,-0.641968,2.71661,2.01062,-1.59204,1.10795,-1.10913,-2.51394,-0.595531,2.77117,2.01319,-1.57051,-0.0414185,-0.632963,-0.308577,-0.7065,-0.812282,-0.0126197,-0.272456,-0.0414185,-0.632963,-0.308577,-0.7065,-0.812282,-0.0126197,-0.272456,-0.230124,-0.645879,0.65903,0.972143,-0.205351,-0.0761633,-0.0834778,0.0801627,-0.247235,-0.659737,-0.0704445,-0.823852,0.76769,0.0252068,-0.58707,-2.04909,0.0252068,-0.58707,-2.04909,-0.149691,-0.566061,-0.210589,-0.464375,-0.545656,0.703119,-0.215246,1
1.09149,-1.17399,-2.53733,-0.647253,2.70739,2.08486,-1.59662,1.09149,-1.17399,-2.53733,-0.647253,2.70739,2.01062,-1.59662,1.10747,-1.1155,-2.51753,-0.602756,2.76069,2.01305,-1.57239,-0.0510541,-0.640621,-0.372227,-0.727017,-1.11105,-0.0118287,-0.170839,-0.0510541,-0.640621,-0.372227,-0.727017,-1.11105,-0.0118287,-0.170839,-0.228751,-0.649001,0.652667,0.973987,-0.19846,-0.0713606,-0.0828949,0.106315,-0.247089,-0.674878,-0.0703911,-0.82982,0.746034,0.00534058,-0.596756,-2.16559,0.00534058,-0.596756,-2.16559,-0.159828,-0.584897,-0.198042,-0.444971,-0.532984,0.718132,-0.242363,1
1.08742,-1.182,-2.53896,-0.654867,2.69661,2.08534,-1.59941,1.08742,-1.182,-2.53896,-0.654867,2.69661,2.01062,-1.59941,1.10678,-1.12206,-2.52145,-0.610463,2.74887,2.01292,-1.5739,-0.0740643,-0.662912,-0.392349,-0.784926,-1.1824,-0.01087,-0.154672,-0.0740643,-0.662912,-0.392349,-0.784926,-1.1824,-0.01087,-0.154672,-0.227267,-0.652162,0.645986,0.975904,-0.191211,-0.0658014,-0.0819696,0.106097,-0.246822,-0.713113,-0.0703823,-0.835772,0.723431,0.000882149,-0.595194,-2.26037,0.000882149,-0.595194,-2.26037,-0.193544,-0.599478,-0.175153,-0.444038,-0.522567,0.724192,-0.255006,1
1.0857,-1.18898,-2.54259,-0.662966,2.68576,2.08501,-1.59957,1.0857,-1.18898,-2.54259,-0.662966,2.68576,2.01062,-1.59957,1.10588,-1.12862,-2.5252,-0.618577,2.7377,2.01267,-1.57587,-0.0948769,-0.648452,-0.363258,-0.805885,-1.08425,-0.024675,-0.216957,-0.0948769,-0.648452,-0.363258,-0.805885,-1.08425,-0.024675,-0.216957,-0.225932,-0.655259,0.639127,0.977727,-0.18375,-0.0607138,-0.0812391,0.090061,-0.232443,-0.712404,-0.0702252,-0.841764,0.699954,0.0157058,-0.599211,-2.34769,0.0157058,-0.599211,-2.34769,-0.201746,-0.603595,-0.173876,-0.443892,-0.519395,0.723386,-0.237053,1
1.07978,-1.1948,-2.54579,-0.674842,2.67931,2.08343,-1.59766,1.07978,-1.1948,-2.54579,-0.674842,2.67931,2.01062,-1.59766,1.10463,-1.13507,-2.52849,-0.626485,2.72797,2.01247,-1.57892,-0.136833,-0.652826,-0.322177,-0.79873,-0.937298,-0.023177,-0.333825,-0.136833,-0.652826,-0.322177,-0.79873,-0.937298,-0.023177,-0.333825,-0.225031,-0.658089,0.63235,0.979299,-0.176534,-0.0565814,-0.081289,0.0486411,-0.212418,-0.715787,-0.0695522,-0.846885,0.675076,0.0673056,-0.512177,-2.48774,0.0673056,-0.512177,-2.48774,-0.248471,-0.597284,-0.173066,-0.483575,-0.48658,0.709577,-0.187433,1
1.07713,-1.20459,-2.55095,-0.682713,2.6672,2.08451,-1.60182,1.07713,-1.20459,-2.55095,-0.682713,2.6672,2.01062,-1.60182,1.10311,-1.14208,-2.53143,-0.634436,2.71935,2.01224,-1.58291,-0.154845,-0.719864,-0.284607,-0.793625,-0.848272,-0.0266643,-0.415819,-0.154845,-0.719864,-0.284607,-0.793625,-0.848272,-0.0266643,-0.415819,-0.224512,-0.660903,0.625136,0.980738,-0.169083,-0.0533136,-0.081987,0.0232088,-0.212562,-0.762432,-0.0696106,-0.853034,0.64964,-0.00584722,-0.614905,-2.54362,-0.00584722,-0.614905,-2.54362,-0.259794,-0.62509,-0.195165,-0.482777,-0.521571,0.722744,-0.189103,1
1.07528,-1.21328,-2.55457,-0.689825,2.66011,2.08444,-1.60617,1.07528,-1.21328,-2.55457,-0.689825,2.66011,2.01062,-1.60617,1.10143,-1.14941,-2.53407,-0.641914,2.7111,2.01197,-1.58723,-0.175373,-0.728432,-0.25714,-0.725017,-0.822042,-0.0238121,-0.430607,-0.175373,-0.728432,-0.25714,-0.725017,-0.822042,-0.0238121,-0.430607,-0.224241,-0.663601,0.617819,0.982045,-0.161736,-0.0503997,-0.0829936,-0.0018139,-0.19381,-0.748507,-0.0693732,-0.858964,0.623094,0.0237465,-0.592977,-2.6546,0.0237465,-0.592977,-2.6546,-0.261445,-0.638741,-0.204982,-0.47911,-0.509893,0.724679,-0.189454,1
1.0733,-1.2223,-2.5542,-0.696045,2.65256,2.08486,-1.61328,1.0733,-1.2223,-2.5542,-0.696045,2.65256,2.01062,-1.61328,1.09933,-1.15676,-2.53671,-0.649284,2.70278,2.01186,-1.59111,-0.220996,-0.743484,-0.268956,-0.74829,-0.835329,-0.00378693,-0.36623,-0.220996,-0.743484,-0.268956,-0.74829,-0.835329,-0.00378693,-0.36623,-0.224232,-0.66609,0.610464,0.983275,-0.154523,-0.0473891,-0.0839486,-0.0274515,-0.177776,-0.77101,-0.0691393,-0.865173,0.596063,0.0233889,-0.620878,-2.70315,0.0233889,-0.620878,-2.70315,-0.260276,-0.655415,-0.174926,-0.467608,-0.502191,0.729925,-0.221704,1
1.06963,-1.23014,-2.55333,-0.705119,2.64715,2.08423,-1.61688,1.06963,-1.23014,-2.55333,-0.705119,2.64715,2.01062,-1.61688,1.09696,-1.16425,-2.53948,-0.656965,2.69434,2.01182,-1.59412,-0.236228,-0.746073,-0.281515,-0.768159,-0.846374,-0.00460183,-0.28523,-0.236228,-0.746073,-0.281515,-0.768159,-0.846374,-0.00460183,-0.28523,-0.224343,-0.668495,0.602863,0.984505,-0.147149,-0.0442418,-0.0844915,-0.0324655,-0.167392,-0.783013,-0.0687612,-0.87077,0.567192,0.0378132,-0.559688,-2.88709,0.0378132,-0.559688,-2.88709,-0.273325,-0.658831,-0.138474,-0.481541,-0.471894,0.724031,-0.227675,1
1.06661,-1.23879,-2.55755,-0.711748,2.63597,2.08557,-1.62146,1.06661,-1.23879,-2.55755,-0.711748,2.63597,2.01062,-1.62146,1.09461,-1.17143,-2.54242,-0.664594,2.68568,2.01173,-1.59675,-0.239008,-0.710061,-0.300701,-0.768195,-0.871856,-0.00768172,-0.259944,-0.239008,-0.710061,-0.300701,-0.768195,-0.871856,-0.00768172,-0.259944,-0.224368,-0.67075,0.595445,0.985685,-0.139895,-0.0408564,-0.0847604,-0.0278444,-0.151492,-0.761993,-0.0687241,-0.876786,0.537888,0.00370145,-0.601602,-2.93041,0.00370145,-0.601602,-2.93041,-0.279967,-0.67355,-0.151321,-0.471536,-0.497094,0.738337,-0.247114,1
1.06395,-1.24681,-2.55707,-0.720183,2.6278,2.08593,-1.62435,1.06395,-1.24681,-2.55707,-0.720183,2.6278,2.01062,-1.62435,1.092,-1.17869,-2.5457,-0.67276,2.67682,2.0117,-1.5995,-0.263935,-0.728277,-0.330278,-0.831566,-0.888442,-0.00299599,-0.285374,-0.263935,-0.728277,-0.330278,-0.831566,-0.888442,-0.00299599,-0.285374,-0.224459,-0.672935,0.587737,0.986843,-0.132345,-0.0373035,-0.0850539,-0.0344673,-0.143787,-0.800513,-0.0682717,-0.882562,0.507347,0.0452399,-0.577557,-3.05411,0.0452399,-0.577557,-3.05411,-0.28056,-0.681151,-0.113651,-0.474237,-0.490227,0.742306,-0.248585,1
1.06284,-1.25438,-2.56291,-0.730187,2.61533,2.08619,-1.62613,1.06284,-1.25438,-2.56291,-0.730187,2.61533,2.01062,-1.62613,1.08954,-1.18592,-2.54864,-0.680837,2.66798,2.01161,-1.60275,-0.239691,-0.718318,-0.276458,-0.794907,-0.880025,-0.0138654,-0.33911,-0.239691,-0.718318,-0.276458,-0.794907,-0.880025,-0.0138654,-0.33911,-0.224434,-0.675042,0.580074,0.987905,-0.124865,-0.0339737,-0.0854333,-0.0172288,-0.136328,-0.778583,-0.0680667,-0.88861,0.476023,0.020504,-0.60485,-3.13235,0.020504,-0.60485,-3.13235,-0.266973,-0.684592,-0.142627,-0.493503,-0.526495,0.745791,-0.233723,1
1.0582,-1.26183,-2.56515,-0.739236,2.60758,2.086,-1.62671,1.0582,-1.26183,-2.56515,-0.739236,2.60758,2.01062,-1.62671,1.08696,-1.19324,-2.55109,-0.688787,2.65948,2.01151,-1.60643,-0.269339,-0.747475,-0.245707,-0.804099,-0.840947,-0.00826892,-0.37771,-0.269339,-0.747475,-0.245707,-0.804099,-0.840947,-0.00826892,-0.37771,-0.224524,-0.677022,0.572393,0.988854,-0.117479,-0.0310787,-0.0860277,-0.0374527,-0.124269,-0.801464,-0.0675291,-0.89415,0.443639,0.0537574,-0.55396,-3.23842,0.0537574,-0.55396,-3.23842,-0.287663,-0.685883,-0.140597,-0.504487,-0.519071,0.744944,-0.202844,1
1.05974,-1.27069,-2.56563,-0.748123,2.59715,2.08637,-1.63139,1.05974,-1.27069,-2.56563,-0.748123,2.59715,2.01062,-1.63139,1.08409,-1.201,-2.55337,-0.696987,2.65119,2.01148,-1.61042,-0.285398,-0.778394,-0.215843,-0.812128,-0.830497,-0.00256457,-0.403895,-0.285398,-0.778394,-0.215843,-0.812128,-0.830497,-0.00256457,-0.403895,-0.224811,-0.678931,0.564308,0.989737,-0.109866,-0.0284932,-0.0868272,-0.0450225,-0.114939,-0.824766,-0.0670151,-0.90034,0.410898,0.051403,-0.61909,-3.27411,0.051403,-0.61909,-3.27411,-0.243513,-0.696849,-0.122663,-0.511367,-0.540389,0.748895,-0.209708,1
1.05253,-1.27837,-2.57479,-0.756985,2.58866,2.08615,-1.6327,1.05253,-1.27837,-2.57479,-0.756985,2.58866,2.01062,-1.6327,1.08136,-1.20857,-2.55521,-0.704834,2.64281,2.01134,-1.61441,-0.274516,-0.753143,-0.181509,-0.780946,-0.843958,-0.0145485,-0.394679,-0.274516,-0.753143,-0.181509,-0.780946,-0.843958,-0.0145485,-0.394679,-0.224985,-0.680712,0.556486,0.990534,-0.102519,-0.0260192,-0.0874953,-0.0332912,-0.103658,-0.794305,-0.0669668,-0.905982,0.376492,0.00482798,-0.5642,-3.44054,0.00482798,-0.5642,-3.44054,-0.288318,-0.697979,-0.195758,-0.521507,-0.541486,0.748054,-0.182854,1
1.05296,-1.28728,-2.57168,-0.765839,2.57998,2.08637,-1.63663,1.05296,-1.28728,-2.57168,-0.765839,2.57998,2.01062,-1.63663,1.07845,-1.21641,-2.55733,-0.713007,2.63409,2.01126,-1.61809,-0.295728,-0.792211,-0.219822,-0.837738,-0.882383,-0.00587214,-0.356187,-0.295728,-0.792211,-0.219822,-0.837738,-0.882383,-0.00587214,-0.356187,-0.225186,-0.682434,0.548321,0.991319,-0.0949003,-0.0233485,-0.0879479,-0.0371881,-0.0960609,-0.845912,-0.0663344,-0.911859,0.341179,0.0632405,-0.587636,-3.53131,0.0632405,-0.587636,-3.53131,-0.254911,-0.708725,-0.143437,-0.528317,-0.541081,0.751114,-0.185462,1
1.0512,-1.29538,-2.57404,-0.77298,2.57267,2.08582,-1.64136,1.0512,-1.29538,-2.57404,-0.77298,2.57267,2.01062,-1.64136,1.07558,-1.2242,-2.55957,-0.721253,2.62503,2.01118,-1.62132,-0.281936,-0.766914,-0.218178,-0.817249,-0.913067,-0.0103906,-0.315948,-0.281936,-0.766914,-0.218178,-0.817249,-0.913067,-0.0103906,-0.315948,-0.225273,-0.68406,0.540129,0.992076,-0.0872741,-0.0204807,-0.0880318,-0.022739,-0.0849982,-0.822502,-0.0657452,-0.917602,0.305242,0.0589252,-0.57435,-3.59369,0.0589252,-0.57435,-3.59369,-0.243849,-0.711791,-0.14473,-0.517269,-0.523616,0.746308,-0.200424,1
1.04892,-1.30393,-2.57944,-0.781516,2.56223,2.08627,-1.64337,1.04892,-1.30393,-2.57944,-0.781516,2.56223,2.01062,-1.64337,1.07273,-1.23178,-2.56188,-0.72951,2.61573,2.01107,-1.62434,-0.293058,-0.767812,-0.242471,-0.836975,-0.934141,-0.0101389,-0.295179,-0.293058,-0.767812,-0.242471,-0.836975,-0.934141,-0.0101389,-0.295179,-0.225262,-0.685563,0.532046,0.992782,-0.0797107,-0.0174521,-0.0878898,-0.0240347,-0.0728149,-0.833576,-0.0652299,-0.923486,0.268217,0.0515282,-0.588411,-3.70256,0.0515282,-0.588411,-3.70256,-0.238145,-0.721513,-0.175527,-0.520056,-0.534937,0.752011,-0.190244,1
1.04554,-1.31276,-2.58348,-0.789646,2.55299,2.08646,-1.64434,1.04554,-1.31276,-2.58348,-0.789646,2.55299,2.01062,-1.64434,1.06955,-1.23974,-2.56472,-0.738153,2.60632,2.01103,-1.62713,-0.318081,-0.79618,-0.28981,-0.859566,-0.941255,-0.00468595,-0.276974,-0.318081,-0.79618,-0.28981,-0.859566,-0.941255,-0.00468595,-0.276974,-0.22544,-0.686965,0.523488,0.993456,-0.0717737,-0.0142772,-0.0876932,-0.0402426,-0.0589011,-0.868383,-0.0648433,-0.929409,0.230302,0.0386536,-0.59222,-3.79152,0.0386536,-0.59222,-3.79152,-0.240091,-0.730226,-0.187576,-0.514935,-0.533301,0.75428,-0.172126,1
1.04426,-1.32043,-2.58756,-0.79903,2.54264,2.08616,-1.64542,1.04426,-1.32043,-2.58756,-0.79903,2.54264,2.01062,-1.64542,1.06666,-1.24738,-2.56732,-0.746593,2.59695,2.01087,-1.62992,-0.280582,-0.757386,-0.250908,-0.843075,-0.93345,-0.0199423,-0.282739,-0.280582,-0.757386,-0.250908,-0.843075,-0.93345,-0.0199423,-0.282739,-0.225385,-0.688275,0.515222,0.994058,-0.0640566,-0.0111947,-0.0872927,-0.00826811,-0.0535195,-0.831426,-0.0642673,-0.935165,0.191418,0.0576019,-0.575638,-3.88841,0.0576019,-0.575638,-3.88841,-0.224032,-0.73052,-0.202404,-0.524377,-0.543068,0.752936,-0.154934,1
1.04191,-1.32925,-2.59238,-0.808812,2.53287,2.08616,-1.64496,1.04191,-1.32925,-2.59238,-0.808812,2.53287,2.01062,-1.64496,1.06374,-1.25538,-2.56992,-0.755352,2.58779,2.01075,-1.63287,-0.29863,-0.816829,-0.268777,-0.888604,-0.909616,-0.00906029,-0.296545,-0.29863,-0.816829,-0.268777,-0.888604,-0.909616,-0.00906029,-0.296545,-0.22533,-0.689524,0.506577,0.994604,-0.056082,-0.00836454,-0.0868792,-0.016881,-0.0433055,-0.891487,-0.064065,-0.941101,0.1511,0.0202358,-0.593626,-4.03173,0.0202358,-0.593626,-4.03173,-0.218354,-0.738691,-0.224651,-0.534602,-0.549241,0.754101,-0.120931,1
1.04355,-1.33753,-2.59542,-0.817198,2.5237,2.08613,-1.6455,1.04355,-1.33753,-2.59542,-0.817198,2.5237,2.01062,-1.6455,1.0608,-1.26349,-2.57269,-0.763953,2.57879,2.01058,-1.6358,-0.288084,-0.799859,-0.278988,-0.856354,-0.899568,-0.0200261,-0.289558,-0.288084,-0.799859,-0.278988,-0.856354,-0.899568,-0.0200261,-0.289558,-0.225329,-0.690666,0.497857,0.995077,-0.0480773,-0.00557972,-0.0864861,-0.0133886,-0.0326227,-0.871457,-0.0633547,-0.946999,0.110688,0.0710249,-0.589734,-4.04121,0.0710249,-0.589734,-4.04121,-0.172507,-0.740453,-0.22737,-0.53245,-0.550866,0.755547,-0.0969786,1
