Afshin1997/kuka_rl_ros2/src/catch_and_throw/output_files/tm/nn_ema5.00_jvws3_realball_D22H16M51S28/recorded_data.csv
pure_target_joint_0,pure_target_joint_1,pure_target_joint_2,pure_target_joint_3,pure_target_joint_4,pure_target_joint_5,pure_target_joint_6,target_joint_0,target_joint_1,target_joint_2,target_joint_3,target_joint_4,target_joint_5,target_joint_6,pos_joint_0,pos_joint_1,pos_joint_2,pos_joint_3,pos_joint_4,pos_joint_5,pos_joint_6,vel_joint_0,vel_joint_1,vel_joint_2,vel_joint_3,vel_joint_4,vel_joint_5,vel_joint_6,vel_smooth_joint_0,vel_smooth_joint_1,vel_smooth_joint_2,vel_smooth_joint_3,vel_smooth_joint_4,vel_smooth_joint_5,vel_smooth_joint_6,ee_pos_x,ee_pos_y,ee_pos_z,ee_or_w,ee_or_x,ee_or_y,ee_or_z,ee_vel_x,ee_vel_y,ee_vel_z,ball_pos_x,ball_pos_y,ball_pos_z,ball_raw_vx,ball_raw_vy,ball_raw_vz,ball_ema_vx,ball_ema_vy,ball_ema_vz,action_0,action_1,action_2,action_3,action_4,action_5,action_6,command_published
1.74916,-1.05112,-1.83803,-1.06489,1.9862,1.17486,-0.85231,1.77829,-1.06383,-1.81667,-1.11373,1.94037,1.12046,-0.912341,1.78023,-1.06468,-1.81524,-1.11699,1.93732,1.11684,-0.916344,0,0,0,0,0,0,0,0,0,0,0,0,0,0,0.531055,-0.454491,0.694243,0.574582,0.17524,0.152598,0.784768,0,0,0,2.99844,-0.486971,0.190183,-3.06715,-0.113326,5.0417,-3.14444,-0.0745809,4.82623,-0.310708,0.13559,-0.227899,0.520971,0.488869,0.580258,0.640338,1
1.74274,-1.03982,-1.83408,-1.06726,1.96552,1.18122,-0.856182,1.77012,-1.05973,-1.82212,-1.10086,1.9513,1.13537,-0.896575,1.78023,-1.06468,-1.81524,-1.11699,1.93732,1.11684,-0.916344,0,0,0,0,0,0,0,0,0,0,0,0,0,0,0.531055,-0.454491,0.694243,0.574582,0.17524,0.152598,0.784768,0,0,0,2.96889,-0.488346,0.239856,-2.85484,-0.132793,4.79795,-3.06561,-0.0947654,4.91454,-0.374918,0.248614,-0.18838,0.497324,0.281998,0.643893,0.60162,1
1.74996,-1.03049,-1.82096,-1.07187,1.97538,1.1798,-0.858211,1.75732,-1.05124,-1.82885,-1.0822,1.96508,1.15863,-0.873657,1.77994,-1.06455,-1.81546,-1.11649,1.93778,1.11739,-0.915729,-0.059622,0.0260189,-0.0437294,0.0999717,0.0938116,0.111348,0.122876,-0.019874,0.00867295,-0.0145765,0.0333239,0.0312705,0.0371159,0.0409586,0.530739,-0.454863,0.694411,0.574674,0.175057,0.152246,0.784809,-0.0576684,-0.0713227,0.030612,2.9395,-0.489751,0.288938,-3.01237,-0.14403,5.03175,-3.00089,-0.11681,4.94477,-0.299735,0.340542,-0.0549681,0.446163,0.375924,0.624128,0.575185,1
1.75031,-1.02593,-1.79162,-1.069,1.97452,1.18123,-0.850201,1.74897,-1.041,-1.82796,-1.07104,1.97195,1.17526,-0.859107,1.77822,-1.06371,-1.81664,-1.11373,1.9402,1.12055,-0.912348,-0.293535,0.144407,-0.19868,0.46698,0.402764,0.537389,0.572122,-0.117719,0.0568087,-0.080803,0.188984,0.165525,0.216246,0.231666,0.528936,-0.456877,0.695413,0.575236,0.17393,0.150405,0.785003,-0.28045,-0.326652,0.157898,2.91039,-0.491211,0.336849,-2.8718,-0.143986,4.72607,-2.95411,-0.134889,4.91312,-0.279061,0.377893,0.250134,0.447328,0.343272,0.606803,0.62147,1
1.74844,-1.00171,-1.77405,-1.06162,1.98532,1.18695,-0.8385,1.7481,-1.03117,-1.81504,-1.06892,1.974,1.18065,-0.8541,1.77396,-1.06128,-1.81923,-1.10722,1.94546,1.12832,-0.904359,-0.603493,0.364231,-0.349239,0.907422,0.711592,1.09926,1.11359,-0.318883,0.178219,-0.197216,0.491458,0.402722,0.582666,0.602863,0.524469,-0.461413,0.698122,0.576689,0.170775,0.146332,0.7854,-0.578864,-0.600794,0.368127,2.88072,-0.492829,0.384254,-2.99764,-0.163494,4.78985,-2.93938,-0.145796,4.85134,-0.255189,0.595733,0.451797,0.455962,0.398638,0.586296,0.658584,1
1.73618,-0.989082,-1.7673,-1.06048,2.00011,1.19446,-0.828561,1.7484,-1.01958,-1.7957,-1.06723,1.97847,1.18313,-0.8483,1.76796,-1.05686,-1.82182,-1.09841,1.95207,1.13946,-0.893422,-0.688755,0.575512,-0.222662,0.992937,0.720995,1.29815,1.24465,-0.528594,0.361383,-0.25686,0.789113,0.611783,0.978267,0.976787,0.518,-0.466877,0.702775,0.578696,0.16533,0.141166,0.786034,-0.684751,-0.561854,0.560806,2.85168,-0.493847,0.431162,-2.92646,-0.102644,4.72647,-2.93197,-0.140806,4.77927,-0.317806,0.677804,0.545194,0.379299,0.480344,0.549926,0.648608,1
1.74838,-0.982977,-1.76463,-1.05202,2.00593,1.20895,-0.820495,1.74593,-1.00523,-1.7791,-1.06322,1.98699,1.18833,-0.839047,1.76244,-1.05086,-1.82157,-1.09033,1.95802,1.15044,-0.882926,-0.520247,0.714048,0.237033,0.776397,0.579373,1.09598,1.0456,-0.604165,0.551263,-0.111623,0.892252,0.670653,1.16447,1.13461,0.511515,-0.470501,0.709116,0.580136,0.158315,0.136398,0.787258,-0.579032,-0.253078,0.729757,2.8227,-0.49477,0.476395,-2.91992,-0.0929274,4.55725,-2.92324,-0.126743,4.69227,-0.14065,0.6788,0.569439,0.383054,0.47909,0.58508,0.624317,1
1.76578,-0.977024,-1.76163,-1.03961,2.01079,1.21973,-0.814792,1.74503,-0.992262,-1.76948,-1.05788,1.99694,1.19696,-0.829521,1.75842,-1.0435,-1.81675,-1.084,1.96324,1.15938,-0.873865,-0.363575,0.867597,0.763772,0.608252,0.552578,0.861352,0.927312,-0.524192,0.719052,0.259381,0.792529,0.617648,1.08516,1.07252,0.505874,-0.471265,0.717219,0.58025,0.150235,0.132042,0.789496,-0.489107,0.035373,0.937554,2.79368,-0.495855,0.520875,-2.86901,-0.107274,4.39738,-2.91452,-0.112295,4.60193,0.0735768,0.664725,0.55123,0.443953,0.475522,0.603495,0.590729,1
1.74631,-0.966927,-1.75631,-1.02915,2.01785,1.22695,-0.808741,1.74955,-0.983183,-1.76462,-1.0502,2.00515,1.20777,-0.821476,1.7552,-1.03451,-1.80824,-1.07863,1.96886,1.16691,-0.865197,-0.336251,1.06208,1.05693,0.558959,0.657336,0.776696,0.948535,-0.406691,0.881242,0.685912,0.647869,0.596429,0.911344,0.973817,0.500498,-0.469999,0.727138,0.579246,0.141146,0.127538,0.792645,-0.49642,0.185723,1.12196,2.76449,-0.497219,0.564186,-2.91616,-0.136263,4.32711,-2.90471,-0.107875,4.49578,-0.0889257,0.675876,0.51921,0.494868,0.48986,0.600328,0.564565,1
1.72667,-0.954134,-1.74611,-1.02794,2.03112,1.23345,-0.803977,1.75227,-0.975311,-1.76043,-1.04067,2.01194,1.21812,-0.814889,1.75243,-1.02422,-1.7985,-1.07344,1.97553,1.17431,-0.856322,-0.268767,1.15934,1.05249,0.564542,0.776545,0.821529,0.972147,-0.322864,1.02967,0.95773,0.577251,0.662153,0.819859,0.949331,0.495057,-0.467716,0.738072,0.577596,0.131353,0.122824,0.796269,-0.48987,0.255443,1.16854,2.7353,-0.498631,0.606442,-2.82334,-0.136595,4.08766,-2.90962,-0.120157,4.3835,-0.257607,0.700895,0.523892,0.455054,0.555912,0.591379,0.523452,1
1.73016,-0.943502,-1.73604,-1.02521,2.03979,1.24206,-0.798557,1.74539,-0.965792,-1.75434,-1.03264,2.02003,1.22659,-0.809161,1.75103,-1.01377,-1.78953,-1.06785,1.98286,1.18239,-0.84749,-0.0535927,1.10946,0.903621,0.64021,0.808537,0.920724,0.943593,-0.219537,1.11029,1.00435,0.587904,0.747473,0.83965,0.954758,0.490002,-0.464874,0.748862,0.575497,0.121275,0.118115,0.80009,-0.412786,0.304035,1.10382,2.70621,-0.500082,0.64838,-2.99556,-0.149448,4.31852,-2.91346,-0.134006,4.29537,-0.208735,0.702675,0.534904,0.426447,0.56934,0.596735,0.489334,1
1.74759,-0.934562,-1.72902,-1.01611,2.0429,1.25289,-0.787847,1.7362,-0.954881,-1.74604,-1.02755,2.02944,1.23433,-0.803481,1.75103,-1.00389,-1.78182,-1.06139,1.99022,1.19117,-0.839105,0.0449614,1.03666,0.77583,0.751441,0.788006,0.97739,0.878361,-0.092466,1.10182,0.910646,0.652064,0.791029,0.906548,0.931367,0.485379,-0.461936,0.759042,0.57335,0.111125,0.113516,0.803763,-0.390378,0.281616,1.04117,2.67711,-0.501243,0.688772,-2.80875,-0.11203,3.89869,-2.91407,-0.136393,4.19989,-0.0343222,0.693283,0.528039,0.452769,0.52676,0.617167,0.512576,1
1.75576,-0.924946,-1.72295,-1.00746,2.04483,1.26227,-0.77493,1.73625,-0.944229,-1.73725,-1.02275,2.03734,1.24293,-0.796394,1.75032,-0.994328,-1.77483,-1.05428,1.99762,1.20011,-0.831361,-0.179006,1.03508,0.742916,0.784927,0.812884,0.960406,0.805269,-0.0625457,1.0604,0.807456,0.725526,0.803142,0.95284,0.875741,0.480273,-0.459684,0.768869,0.571922,0.101053,0.108932,0.806739,-0.506109,0.168692,1.02818,2.64669,-0.502955,0.728018,-3.14054,-0.176728,4.051,-2.93795,-0.140843,4.09994,0.0543336,0.693812,0.518729,0.468201,0.472081,0.621639,0.564314,1
1.74768,-0.913991,-1.71581,-1.00323,2.05119,1.26962,-0.764793,1.74397,-0.934331,-1.7295,-1.01616,2.04238,1.25236,-0.786862,1.74751,-0.984564,-1.76775,-1.04737,2.00542,1.20881,-0.824196,-0.410213,1.07667,0.787161,0.71886,0.87128,0.925978,0.751402,-0.181419,1.04947,0.768636,0.751743,0.824056,0.954591,0.811677,0.474154,-0.458213,0.778672,0.571324,0.0911046,0.104271,0.80896,-0.611115,0.114475,1.03842,2.61859,-0.503226,0.766626,-2.87393,-0.0277195,3.94963,-2.92943,-0.120631,4.00007,0.00169391,0.705723,0.519347,0.441364,0.457762,0.608135,0.594028,1
1.73376,-0.903762,-1.70926,-0.997411,2.06186,1.27776,-0.758761,1.74872,-0.924447,-1.72265,-1.00905,2.04668,1.26147,-0.776091,1.74432,-0.974514,-1.76024,-1.04101,2.01344,1.21736,-0.817236,-0.2924,1.09854,0.834046,0.662294,0.867091,0.927554,0.755992,-0.293873,1.07009,0.788041,0.722027,0.850418,0.937979,0.770888,0.467857,-0.456428,0.788505,0.570531,0.0810806,0.099676,0.811163,-0.556394,0.22093,1.0399,2.58866,-0.505274,0.803586,-3.03509,-0.20767,3.7471,-2.93629,-0.123674,3.88267,-0.105533,0.707527,0.509806,0.436008,0.484181,0.603971,0.584752,1
1.73036,-0.895202,-1.70169,-0.990115,2.07334,1.28727,-0.755581,1.74513,-0.914284,-1.7159,-1.00282,2.05313,1.26988,-0.766684,1.74322,-0.96441,-1.75254,-1.03482,2.02099,1.22606,-0.809865,0.0274801,1.09106,0.835598,0.677091,0.776105,0.95403,0.83436,-0.225044,1.08876,0.818935,0.686082,0.838158,0.935854,0.780585,0.462469,-0.453322,0.798257,0.568506,0.07075,0.0954334,0.814056,-0.418739,0.384231,1.02739,2.56129,-0.506157,0.840136,-2.61991,-0.0845024,3.49856,-2.89682,-0.121479,3.78296,-0.128524,0.692077,0.508431,0.447088,0.523553,0.612104,0.542837,1
1.74057,-0.886143,-1.69485,-0.981659,2.07896,1.29824,-0.750422,1.73819,-0.904402,-1.70896,-0.996686,2.06207,1.27841,-0.759963,1.74416,-0.954366,-1.74495,-1.02844,2.02771,1.23491,-0.801691,0.165526,1.08524,0.809171,0.703469,0.688136,0.963298,0.928575,-0.0331314,1.09161,0.826272,0.680951,0.777111,0.948294,0.839642,0.457929,-0.449134,0.807841,0.565321,0.06017,0.0916585,0.817551,-0.364812,0.452649,1.00969,2.53196,-0.507525,0.875523,-2.92406,-0.136444,3.52862,-2.86757,-0.120721,3.6852,-0.0358516,0.682229,0.501046,0.467816,0.512496,0.633252,0.512683,1
1.74831,-0.875251,-1.68795,-0.97269,2.08279,1.3068,-0.739485,1.73597,-0.895005,-1.7019,-0.989556,2.07108,1.28775,-0.754656,1.7449,-0.944325,-1.7376,-1.02199,2.03408,1.24373,-0.79299,0.00838324,1.08966,0.786853,0.695302,0.691047,0.94835,0.954181,0.0671297,1.08866,0.810541,0.691954,0.718429,0.955226,0.905705,0.453252,-0.444948,0.817234,0.561943,0.0496223,0.0881493,0.820967,-0.438836,0.392917,0.991585,2.50197,-0.508954,0.910103,-3.03772,-0.144751,3.50275,-2.89936,-0.137084,3.58891,0.0341032,0.690736,0.496459,0.492972,0.487045,0.630734,0.535047,1
1.74439,-0.86322,-1.6789,-0.969791,2.09019,1.31291,-0.727728,1.73977,-0.885353,-1.69474,-0.981774,2.07815,1.29727,-0.74808,1.7439,-0.934292,-1.73038,-1.01561,2.04085,1.25245,-0.784501,-0.207072,1.08415,0.776864,0.686485,0.769441,0.941636,0.890022,-0.0110544,1.08635,0.790963,0.695085,0.716208,0.951095,0.924259,0.447757,-0.441511,0.826437,0.55918,0.0392604,0.0845493,0.823789,-0.541213,0.299779,0.973414,2.47445,-0.509973,0.94367,-2.74542,-0.101612,3.34893,-2.87716,-0.121946,3.50134,0.0049219,0.71072,0.514853,0.458213,0.493396,0.604575,0.567727,1
1.73447,-0.852664,-1.67212,-0.966355,2.09778,1.32085,-0.718659,1.74341,-0.874802,-1.68728,-0.974901,2.08403,1.30585,-0.738985,1.74194,-0.924377,-1.72322,-1.00915,2.04825,1.26124,-0.776731,-0.216627,1.06536,0.77354,0.710794,0.828133,0.961402,0.800677,-0.138439,1.07972,0.779086,0.697527,0.762873,0.950463,0.881627,0.441727,-0.43856,0.83547,0.556943,0.0289368,0.0806925,0.826115,-0.559882,0.2877,0.958139,2.44651,-0.511368,0.976005,-2.75655,-0.137598,3.1897,-2.87057,-0.128688,3.39884,-0.0746982,0.717122,0.511063,0.427971,0.495328,0.596046,0.580716,1
1.72975,-0.843882,-1.66614,-0.958721,2.1068,1.33082,-0.713398,1.74174,-0.863813,-1.67966,-0.969707,2.09057,1.31357,-0.728923,1.74083,-0.914569,-1.71608,-1.0024,2.05581,1.27022,-0.769464,-0.0385805,1.05968,0.774072,0.748241,0.810279,0.981253,0.7756,-0.154093,1.06973,0.774825,0.715174,0.802618,0.96143,0.822099,0.435911,-0.435262,0.844388,0.554498,0.0184183,0.0767636,0.828432,-0.497155,0.367039,0.952136,2.41727,-0.512881,1.00689,-2.93121,-0.151735,3.09665,-2.84837,-0.131251,3.28639,-0.11083,0.706873,0.49943,0.436812,0.509882,0.606036,0.560658,1
1.73452,-0.835062,-1.66054,-0.951712,2.11238,1.34242,-0.70773,1.73664,-0.853419,-1.67258,-0.964786,2.09811,1.32183,-0.72023,1.74109,-0.904667,-1.70889,-0.9955,2.06304,1.2792,-0.762006,0.0841895,1.08326,0.78365,0.747158,0.761201,0.966276,0.835009,-0.0570059,1.06943,0.777087,0.735398,0.799871,0.969644,0.803762,0.430591,-0.431199,0.853261,0.551329,0.00770286,0.0730613,0.831047,-0.448897,0.448523,0.952984,2.38839,-0.513333,1.03649,-2.84906,-0.0445251,2.91874,-2.84353,-0.11665,3.15987,-0.0656786,0.696053,0.483483,0.437884,0.493343,0.632132,0.542761,1
1.74002,-0.825094,-1.65412,-0.944082,2.11772,1.3513,-0.698556,1.73368,-0.843907,-1.66628,-0.958654,2.10558,1.33139,-0.713264,1.74149,-0.894514,-1.70159,-0.988863,2.07,1.28794,-0.753935,0.00898451,1.11358,0.795345,0.694836,0.746384,0.929562,0.907232,0.0181978,1.08551,0.784356,0.730078,0.772621,0.95903,0.83928,0.425357,-0.426726,0.862075,0.547611,-0.00297842,0.0696857,0.833821,-0.474609,0.458702,0.945661,2.35954,-0.515165,1.06704,-2.91778,-0.185344,3.0908,-2.87954,-0.123494,3.07228,-0.0147116,0.694207,0.474704,0.44781,0.477253,0.63353,0.553791,1
1.73752,-0.813343,-1.64521,-0.941107,2.12629,1.35733,-0.687682,1.73489,-0.834518,-1.6601,-0.951809,2.11228,1.34132,-0.706284,1.74078,-0.884216,-1.69429,-0.982678,2.07699,1.29648,-0.745511,-0.150115,1.11704,0.787309,0.648939,0.766278,0.919594,0.916969,-0.0189803,1.10463,0.788768,0.696978,0.757954,0.938477,0.886403,0.419722,-0.422439,0.870713,0.543902,-0.0134688,0.0665125,0.8364,-0.536695,0.413818,0.921739,2.33069,-0.516174,1.09567,-2.93347,-0.102602,2.91049,-2.89382,-0.11897,2.99482,-0.0326376,0.708732,0.490817,0.415707,0.492987,0.608523,0.578283,1
1.72892,-0.802195,-1.63671,-0.94059,2.13527,1.36351,-0.677915,1.73668,-0.824391,-1.65316,-0.945942,2.11894,1.35007,-0.697769,1.73915,-0.874026,-1.68717,-0.976665,2.08412,1.30513,-0.737275,-0.198427,1.09245,0.757684,0.653258,0.778403,0.952449,0.870897,-0.113186,1.10769,0.780113,0.665678,0.763689,0.933868,0.898366,0.413708,-0.418485,0.879072,0.540474,-0.0238685,0.06339,0.83863,-0.561976,0.387203,0.890248,2.30189,-0.517537,1.12302,-2.85188,-0.134944,2.70798,-2.88474,-0.121531,2.91434,-0.102313,0.718307,0.504629,0.36075,0.511513,0.583819,0.593598,1
1.72531,-0.792648,-1.63032,-0.937862,2.14186,1.3731,-0.670613,1.73504,-0.813558,-1.64534,-0.942181,2.1265,1.35742,-0.688145,1.73779,-0.864046,-1.6803,-0.970508,2.09123,1.3141,-0.729397,-0.105125,1.07105,0.732643,0.678245,0.763212,0.987464,0.838352,-0.151222,1.09351,0.759212,0.660147,0.769298,0.953169,0.875406,0.407733,-0.41449,0.887155,0.537047,-0.0343534,0.0602993,0.840693,-0.531922,0.417927,0.866146,2.27386,-0.51858,1.14933,-2.80155,-0.104206,2.62968,-2.86713,-0.128658,2.81657,-0.124736,0.71398,0.499763,0.326463,0.506283,0.590003,0.587844,1
1.73095,-0.783595,-1.62473,-0.933938,2.14574,1.38411,-0.663359,1.73099,-0.802864,-1.63758,-0.93984,2.13423,1.36489,-0.678912,1.73724,-0.854121,-1.67351,-0.964307,2.09822,1.32316,-0.721538,-0.020175,1.07835,0.738029,0.666109,0.751522,0.97606,0.862137,-0.107909,1.08062,0.742785,0.665871,0.764379,0.971991,0.857129,0.402054,-0.410095,0.89506,0.533188,-0.0449045,0.0573185,0.842858,-0.497253,0.471299,0.855207,2.24553,-0.51947,1.17451,-2.83805,-0.0891951,2.52362,-2.84845,-0.110147,2.68599,-0.0628604,0.70526,0.487729,0.303691,0.475213,0.60955,0.581793,1
1.74155,-0.774657,-1.61793,-0.930948,2.15129,1.39346,-0.654006,1.7294,-0.792941,-1.63068,-0.937334,2.1408,1.37374,-0.670654,1.73683,-0.844031,-1.66654,-0.958524,2.10525,1.33191,-0.713323,-0.064837,1.1053,0.768955,0.592762,0.770458,0.92508,0.913221,-0.0633788,1.0849,0.746542,0.645705,0.761731,0.962868,0.871237,0.396508,-0.405347,0.902853,0.528799,-0.0553083,0.0545036,0.845187,-0.502156,0.497961,0.846291,2.21764,-0.520243,1.19907,-2.75295,-0.0763468,2.42339,-2.8245,-0.100709,2.58292,0.0472367,0.69374,0.486091,0.275758,0.460399,0.615489,0.593168,1
1.74354,-0.764911,-1.60903,-0.932491,2.16234,1.39922,-0.642625,1.73285,-0.783619,-1.6242,-0.934497,2.14654,1.38335,-0.662448,1.7357,-0.833751,-1.65934,-0.953532,2.11246,1.34029,-0.704768,-0.170963,1.1203,0.789325,0.496633,0.789545,0.892109,0.937848,-0.0853248,1.10132,0.765436,0.585168,0.770508,0.931083,0.904402,0.390855,-0.40049,0.910475,0.524101,-0.0654138,0.0518833,0.847554,-0.524742,0.499319,0.823491,2.18854,-0.520114,1.22184,-3.05413,0.013544,2.38983,-2.82911,-0.0681829,2.47382,0.0783584,0.6884,0.503075,0.210405,0.498791,0.58925,0.621431,1
1.71131,-0.754856,-1.60114,-0.934721,2.17607,1.39928,-0.632151,1.73649,-0.774342,-1.61713,-0.932749,2.15363,1.39165,-0.653171,1.73412,-0.823472,-1.65211,-0.949266,2.11964,1.34862,-0.696171,-0.171172,1.10741,0.777388,0.432793,0.767448,0.911134,0.92554,-0.135657,1.111,0.778556,0.507396,0.775817,0.909441,0.925536,0.38521,-0.395526,0.917795,0.519198,-0.0753043,0.0494956,0.84989,-0.50904,0.519858,0.786208,2.16029,-0.520877,1.24424,-2.80591,-0.0757778,2.22513,-2.84122,-0.0523973,2.37146,-0.228131,0.686162,0.509647,0.145448,0.564315,0.506585,0.6402,1
1.71112,-0.742563,-1.59128,-0.941015,2.18642,1.40928,-0.627173,1.73217,-0.764605,-1.60916,-0.933286,2.16348,1.39748,-0.643182,1.73331,-0.813386,-1.64504,-0.945448,2.12652,1.35722,-0.687678,-0.0167126,1.07971,0.755981,0.397207,0.726214,0.947939,0.915122,-0.119616,1.10247,0.774231,0.442211,0.761069,0.917061,0.92617,0.379998,-0.390149,0.924739,0.513803,-0.0851354,0.0473244,0.852361,-0.437744,0.584331,0.746255,2.13168,-0.521806,1.26534,-2.70441,-0.0877641,1.99465,-2.85051,-0.0530565,2.26826,-0.221945,0.708236,0.537633,0.0443291,0.599027,0.520646,0.605046,1
1.73859,-0.733634,-1.58814,-0.935338,2.18186,1.42523,-0.619591,1.72291,-0.754207,-1.60088,-0.93554,2.17404,1.40302,-0.634106,1.73374,-0.803524,-1.63805,-0.942075,2.13328,1.3659,-0.679102,0.099834,1.05852,0.758649,0.338282,0.737894,0.934153,0.940589,-0.0293501,1.08188,0.764006,0.389427,0.743852,0.931076,0.927084,0.375399,-0.384251,0.931325,0.507612,-0.0948183,0.0452353,0.855157,-0.377064,0.637407,0.711735,2.10397,-0.523402,1.28602,-2.83907,-0.163554,2.11939,-2.8419,-0.0800836,2.17417,0.0484609,0.698893,0.499077,0.0673743,0.485705,0.593283,0.595106,1
1.74977,-0.728507,-1.58673,-0.929087,2.18641,1.43721,-0.607249,1.72248,-0.743922,-1.59378,-0.936744,2.18119,1.41189,-0.626243,1.73386,-0.793757,-1.63089,-0.939514,2.14056,1.3741,-0.670218,-0.0611939,1.05744,0.788493,0.225909,0.831258,0.84819,0.980671,0.00730917,1.06522,0.767708,0.320466,0.765122,0.910094,0.94546,0.370915,-0.378351,0.937616,0.500962,-0.103988,0.0430897,0.858118,-0.410643,0.601528,0.683529,2.07559,-0.524066,1.30545,-2.85948,-0.0669491,1.9573,-2.82215,-0.104287,2.09015,0.159157,0.652499,0.441633,0.104276,0.458508,0.631121,0.629689,1
1.70035,-0.717584,-1.57776,-0.930829,2.20664,1.43463,-0.595647,1.73042,-0.734908,-1.58873,-0.934874,2.18533,1.4232,-0.617689,1.73196,-0.783897,-1.62346,-0.938095,2.14868,1.38158,-0.66116,-0.328106,1.07693,0.818917,0.0926723,0.919877,0.777982,0.981349,-0.0964887,1.0643,0.788686,0.218955,0.829676,0.853442,0.967536,0.365997,-0.372926,0.943667,0.494477,-0.112475,0.0409404,0.86091,-0.478931,0.545434,0.659599,2.04723,-0.525266,1.32368,-2.78775,-0.117938,1.79191,-2.82218,-0.110389,1.99001,-0.31614,0.663133,0.457014,0.0726569,0.579623,0.530562,0.655135,1
1.7018,-0.702619,-1.56142,-0.95972,2.22064,1.43462,-0.588318,1.72921,-0.726318,-1.58354,-0.933745,2.19247,1.43166,-0.607496,1.72933,-0.773902,-1.61597,-0.937555,2.15697,1.38902,-0.652284,-0.248542,1.08746,0.804802,0.0294304,0.878582,0.829548,0.944608,-0.212614,1.07394,0.804071,0.116004,0.876572,0.818573,0.968876,0.361047,-0.367428,0.949473,0.48795,-0.12071,0.0390161,0.863604,-0.433691,0.607953,0.632691,2.01987,-0.525375,1.341,-2.77886,-0.0110243,1.75867,-2.80372,-0.0900269,1.88975,-0.275305,0.712829,0.545507,-0.22165,0.636703,0.456004,0.639664,1
1.74857,-0.694327,-1.55733,-0.963086,2.21897,1.45497,-0.581832,1.71847,-0.716123,-1.57529,-0.939914,2.20431,1.43596,-0.597348,1.72861,-0.76402,-1.60891,-0.937038,2.16447,1.39724,-0.643589,0.065904,1.05598,0.731703,0.0785044,0.756542,0.941912,0.939457,-0.170248,1.07345,0.785141,0.066869,0.851667,0.849814,0.955138,0.356819,-0.361166,0.954968,0.480741,-0.129228,0.0374375,0.86648,-0.325896,0.703046,0.597786,1.98907,-0.529391,1.35723,-3.11673,-0.406422,1.643,-2.85532,-0.132868,1.77967,0.199601,0.696923,0.51574,-0.26048,0.545041,0.577361,0.617575,1
1.71771,-0.698246,-1.57718,-0.913145,2.21578,1.47186,-0.571094,1.71712,-0.705632,-1.56705,-0.948513,2.21428,1.4422,-0.588635,1.72893,-0.754449,-1.60239,-0.936251,2.17148,1.4059,-0.634682,0.0098767,1.02037,0.68374,0.0909116,0.761511,0.934626,0.986137,-0.0575873,1.0546,0.740082,0.0662821,0.798878,0.902029,0.956734,0.352963,-0.354753,0.960133,0.473177,-0.137801,0.0360537,0.869376,-0.341874,0.653006,0.56452,1.96037,-0.530524,1.37301,-2.80008,-0.110505,1.53868,-2.88605,-0.170393,1.6866,-0.112252,0.562032,0.252113,0.231065,0.442989,0.659678,0.635885,1
1.67975,-0.676949,-1.5701,-0.922071,2.23593,1.47286,-0.562461,1.72184,-0.697747,-1.56539,-0.94518,2.21888,1.45395,-0.580422,1.72736,-0.744909,-1.59578,-0.936488,2.17925,1.41386,-0.625418,-0.322584,1.04417,0.743298,-0.124273,0.909022,0.801517,1.01818,-0.0822676,1.04017,0.719581,0.0150475,0.809025,0.892685,0.981258,0.348784,-0.34889,0.96501,0.465787,-0.145629,0.0347139,0.872141,-0.403704,0.593334,0.533904,1.9322,-0.530361,1.38615,-2.81163,0.0162815,1.31183,-2.89564,-0.153372,1.56942,-0.476112,0.679606,0.256852,0.144172,0.566858,0.589996,0.629574,1
1.7049,-0.663238,-1.54186,-0.977322,2.24103,1.47931,-0.554815,1.71414,-0.690027,-1.56725,-0.934784,2.2235,1.46603,-0.571679,1.72463,-0.735139,-1.58871,-0.938779,2.18788,1.42108,-0.616124,-0.272597,1.07031,0.785575,-0.353082,0.957588,0.766014,0.997084,-0.195101,1.04495,0.737538,-0.128814,0.87604,0.834052,1.00047,0.344796,-0.342847,0.969563,0.457937,-0.152581,0.0334853,0.875152,-0.326985,0.687918,0.492566,1.90592,-0.530814,1.40021,-2.6815,-0.0462319,1.4348,-2.84775,-0.11847,1.47341,-0.197367,0.719013,0.468475,-0.385426,0.531543,0.582285,0.613089,1
1.75056,-0.664324,-1.53769,-0.979622,2.25524,1.49125,-0.546548,1.70425,-0.679142,-1.56198,-0.939813,2.23232,1.47425,-0.562924,1.72323,-0.725564,-1.58231,-0.941027,2.19607,1.42887,-0.607071,-0.0502358,1.009,0.613836,-0.150641,0.827347,0.909763,0.966639,-0.215139,1.04116,0.714236,-0.209332,0.897986,0.825764,0.993968,0.341341,-0.336475,0.973772,0.449784,-0.15958,0.0324775,0.878165,-0.286383,0.672311,0.46131,1.877,-0.531567,1.41265,-2.95928,-0.0771288,1.27296,-2.78599,-0.0464284,1.38041,0.273305,0.612402,0.446275,-0.38595,0.591693,0.623778,0.605227,1
1.68466,-0.661459,-1.54077,-0.962946,2.26383,1.4953,-0.531669,1.70956,-0.669014,-1.55001,-0.959175,2.24316,1.48122,-0.55423,1.72165,-0.716494,-1.5778,-0.940608,2.20324,1.43784,-0.598174,-0.272609,0.96002,0.382605,0.211268,0.734604,1.0226,0.961057,-0.198481,1.01311,0.594005,-0.0974847,0.839846,0.89946,0.974927,0.33729,-0.331214,0.977823,0.4432,-0.167288,0.0317933,0.880101,-0.434084,0.452092,0.462633,1.84904,-0.532661,1.42429,-2.78679,-0.108974,1.15966,-2.77864,-0.05481,1.29063,-0.369971,0.550349,0.370343,-0.223384,0.605875,0.574662,0.665053,1
1.66554,-0.638289,-1.5386,-0.968824,2.27603,1.50336,-0.524237,1.71293,-0.662498,-1.54158,-0.970606,2.25393,1.48888,-0.544495,1.71801,-0.70732,-1.574,-0.939729,2.21034,1.44709,-0.58932,-0.498837,1.0221,0.435964,-0.00302563,0.797137,0.985335,0.957458,-0.273894,0.99704,0.477468,0.0192006,0.786363,0.972567,0.961718,0.33251,-0.326761,0.981766,0.437826,-0.175048,0.0315236,0.88129,-0.459252,0.468434,0.442369,1.82043,-0.534204,1.43431,-2.75122,-0.148428,0.963984,-2.80412,-0.09534,1.20394,-0.524683,0.690312,0.353998,-0.290944,0.656857,0.562696,0.650829,1
1.70435,-0.635216,-1.52782,-0.970607,2.27327,1.52335,-0.521137,1.69885,-0.654854,-1.53872,-0.969962,2.2639,1.49706,-0.534319,1.71492,-0.697778,-1.56876,-0.942725,2.21823,1.45586,-0.580503,-0.194434,1.04336,0.679908,-0.59667,0.904037,0.919782,0.952973,-0.32196,1.00849,0.499492,-0.129476,0.811926,0.975906,0.957163,0.328872,-0.320835,0.985224,0.430411,-0.181832,0.0313245,0.883574,-0.222037,0.761412,0.358135,1.79238,-0.53514,1.44358,-2.88775,-0.0963159,0.954347,-2.83638,-0.112885,1.08395,-0.105702,0.625616,0.409438,-0.278819,0.550338,0.674899,0.593658,1
1.72828,-0.6407,-1.55914,-0.924972,2.26595,1.53602,-0.515494,1.68926,-0.645091,-1.53767,-0.965734,2.27036,1.50763,-0.526168,1.71392,-0.688624,-1.56215,-0.949143,2.22695,1.46422,-0.571561,-0.0359399,0.947618,0.746029,-0.778497,0.978487,0.894485,0.981708,-0.24307,1.00436,0.620634,-0.459397,0.89322,0.933201,0.964046,0.326777,-0.313573,0.987989,0.420437,-0.187562,0.0306794,0.887194,-0.120858,0.805492,0.285501,1.76243,-0.537531,1.45122,-2.96887,-0.23711,0.75698,-2.85779,-0.144066,0.964193,0.143615,0.47924,0.0301106,0.241713,0.390005,0.717913,0.560669,1
1.73884,-0.620799,-1.56606,-0.956246,2.27053,1.54375,-0.50022,1.70156,-0.638094,-1.54154,-0.957376,2.27137,1.52104,-0.519852,1.71148,-0.680044,-1.55588,-0.955128,2.23613,1.47247,-0.562326,-0.458062,0.913701,0.622604,-0.538033,1.00718,0.89181,1.01586,-0.229479,0.968225,0.682847,-0.637733,0.963234,0.902026,0.983513,0.324226,-0.307383,0.990499,0.41116,-0.192983,0.0298257,0.890402,-0.300329,0.559557,0.29508,1.73479,-0.538727,1.45894,-2.7403,-0.118515,0.765564,-2.86484,-0.154594,0.862069,0.27362,0.592454,-0.101841,-0.0111736,0.344038,0.712831,0.621065,1
1.70636,-0.613868,-1.56638,-1.00806,2.29961,1.54112,-0.491699,1.71965,-0.632526,-1.55221,-0.952133,2.27166,1.53306,-0.512145,1.70643,-0.671405,-1.55085,-0.958684,2.24499,1.48106,-0.553136,-0.622728,0.954433,0.47809,-0.255718,0.920066,0.963538,0.978157,-0.372243,0.938584,0.615574,-0.524083,0.968577,0.916611,0.991908,0.320362,-0.302703,0.993216,0.404172,-0.198915,0.0293707,0.892309,-0.411695,0.450862,0.333287,1.70706,-0.539484,1.46494,-2.82819,-0.0772489,0.611974,-2.84328,-0.141479,0.766153,-0.000673659,0.575364,-0.15528,-0.493791,0.546185,0.600541,0.61437,1
1.65943,-0.607362,-1.57813,-1.01716,2.30764,1.55738,-0.489434,1.72096,-0.624103,-1.56278,-0.966086,2.27915,1.54074,-0.502541,1.70345,-0.662872,-1.54771,-0.959399,2.25234,1.49065,-0.544522,-0.0685863,0.898701,0.223753,0.0733943,0.690221,1.10225,0.894797,-0.383125,0.922278,0.441482,-0.240119,0.872489,0.985867,0.962937,0.316582,-0.298113,0.996008,0.398075,-0.205766,0.0293616,0.893496,-0.294111,0.509127,0.324401,1.6783,-0.541897,1.47101,-2.7903,-0.234106,0.588916,-2.83536,-0.154686,0.685806,-0.440189,0.555094,-0.304172,-0.577589,0.553033,0.667256,0.550875,1
1.71155,-0.60633,-1.57741,-0.994581,2.30201,1.57584,-0.493365,1.70444,-0.61518,-1.56948,-0.991347,2.2924,1.54769,-0.494854,1.70569,-0.654993,-1.5476,-0.958021,2.25778,1.50111,-0.536345,0.50632,0.814911,-0.167134,0.213565,0.503532,1.15886,0.877768,-0.0616646,0.889348,0.178236,0.0104137,0.704606,1.07488,0.916907,0.314271,-0.292993,0.998352,0.391667,-0.21289,0.0298136,0.894643,-0.0988004,0.559275,0.247057,1.65068,-0.543257,1.47562,-2.77741,-0.136763,0.464164,-2.79996,-0.146224,0.608881,0.0586455,0.486627,-0.298043,-0.365605,0.442278,0.747329,0.429805,1
1.73016,-0.61242,-1.60138,-0.927229,2.28999,1.58492,-0.489598,1.69358,-0.609887,-1.57571,-0.999813,2.3008,1.5588,-0.491667,1.70985,-0.647331,-1.55053,-0.958494,2.26286,1.51135,-0.528011,0.403132,0.842529,-0.444208,-0.275379,0.590708,1.06599,0.923823,0.280288,0.852047,-0.129196,0.0038602,0.59482,1.10903,0.898796,0.31362,-0.287564,0.999683,0.384847,-0.21849,0.0311938,0.896204,0.0410366,0.57724,0.100625,1.62477,-0.542312,1.47844,-2.62094,0.0956617,0.285098,-2.76418,-0.109428,0.496957,0.203125,0.349113,-0.508522,0.312646,0.271295,0.73575,0.384126,1
1.68332,-0.612651,-1.61892,-0.969313,2.25315,1.59165,-0.502945,1.70108,-0.608977,-1.58549,-0.982651,2.29721,1.57231,-0.491935,1.71046,-0.639377,-1.55503,-0.964524,2.26951,1.52074,-0.519611,-0.218368,0.877644,-0.523989,-0.972891,0.829998,0.977406,0.897962,0.230361,0.845028,-0.378444,-0.344902,0.641412,1.06742,0.899851,0.313852,-0.282484,0.999707,0.378309,-0.221396,0.0335775,0.898186,0.0534609,0.493229,-0.0564811,1.59682,-0.542104,1.48058,-2.78249,0.020688,0.213145,-2.74011,-0.0565338,0.387244,-0.271369,0.267258,-0.638928,-0.0478932,-0.16361,0.709094,0.16666,1
1.70865,-0.566066,-1.60951,-1.02593,2.31013,1.58504,-0.481308,1.70803,-0.607742,-1.59883,-0.966377,2.28615,1.58262,-0.493348,1.70709,-0.631705,-1.56008,-0.973427,2.27729,1.53009,-0.512104,-0.490065,0.791389,-0.566884,-0.957039,0.852843,1.04134,0.741263,-0.101767,0.837187,-0.511694,-0.735103,0.757849,1.02824,0.854349,0.313871,-0.278578,0.9989,0.373239,-0.222957,0.0361741,0.899819,-0.024117,0.33073,-0.0983953,1.56895,-0.543213,1.48219,-2.91775,-0.116105,0.167992,-2.72557,-0.0147724,0.273187,0.0156018,0.656393,-0.494285,-0.524979,0.32838,0.549509,0.307957,1
1.73688,-0.558203,-1.60413,-1.0372,2.34446,1.58211,-0.462934,1.70648,-0.597149,-1.60867,-0.978767,2.28537,1.58673,-0.4911,1.70441,-0.625381,-1.56601,-0.978272,2.2834,1.5403,-0.506352,-0.12061,0.594987,-0.706327,-0.158832,0.500722,1.16113,0.522914,-0.276348,0.754673,-0.599067,-0.696254,0.727854,1.05996,0.720713,0.31311,-0.276096,0.998274,0.370427,-0.22579,0.0383165,0.900186,-0.098277,0.175802,-0.0161042,1.54069,-0.544616,1.48296,-2.6618,-0.132218,0.0727588,-2.75799,-0.0361931,0.18419,0.324691,0.671781,-0.381205,-0.589262,0.610544,0.418074,0.434182,1
1.65829,-0.629527,-1.64113,-1.03033,2.32842,1.59686,-0.524766,1.70757,-0.58261,-1.61199,-1.0087,2.30435,1.58669,-0.485358,1.70453,-0.620541,-1.57358,-0.977015,2.28562,1.55096,-0.502482,0.126951,0.464238,-0.91572,0.385838,0.0191647,1.14843,0.331299,-0.161241,0.616871,-0.729644,-0.243344,0.457577,1.11697,0.531825,0.311843,-0.274647,0.998136,0.370076,-0.230354,0.0407387,0.899067,-0.11867,0.0763232,0.0260223,1.51337,-0.545613,1.48216,-2.73267,-0.0996488,-0.0796332,-2.78941,-0.091151,0.0982118,-0.462428,-0.0898581,-0.675527,-0.533199,0.427985,0.459051,-0.22284,1
1.64828,-0.64473,-1.65413,-1.02617,2.24471,1.62043,-0.531077,1.70129,-0.586811,-1.61878,-1.02773,2.31992,1.58952,-0.489745,1.70529,-0.615287,-1.58225,-0.975902,2.28565,1.56056,-0.499548,0.0431124,0.657883,-0.958182,-0.103942,-0.0102487,0.949124,0.306423,0.0164845,0.572369,-0.860076,0.0410213,0.169879,1.08623,0.386879,0.311179,-0.272611,0.997944,0.370422,-0.234333,0.0445746,0.897713,-0.000625287,0.255289,-0.0225471,1.48593,-0.546253,1.4808,-2.81421,-0.0657029,-0.140431,-2.77357,-0.106993,0.0039959,-0.570113,-0.294429,-0.718824,-0.502719,-0.409425,0.598617,-0.315292,1
1.68169,-0.578689,-1.66232,-1.01593,2.23024,1.63332,-0.527683,1.68004,-0.608353,-1.63448,-1.02983,2.30422,1.60061,-0.508352,1.70579,-0.607913,-1.59025,-0.981309,2.28848,1.56798,-0.496272,0.0645495,0.917786,-0.788578,-0.99342,0.57556,0.67884,0.395848,0.0782042,0.679969,-0.887493,-0.237175,0.194825,0.925466,0.344523,0.312229,-0.268421,0.997273,0.368257,-0.235602,0.0488091,0.898051,0.205508,0.554153,-0.0994545,1.45859,-0.547248,1.47849,-2.70543,-0.0984566,-0.228004,-2.75483,-0.097084,-0.0955939,-0.240974,0.292245,-0.720711,-0.346174,-0.582379,0.65342,-0.314118,1
1.63479,-0.563391,-1.67154,-1.02929,2.27101,1.60334,-0.526478,1.66383,-0.613927,-1.65089,-1.02554,2.2699,1.6143,-0.524104,1.70533,-0.601385,-1.59745,-0.991995,2.29537,1.57372,-0.493851,-0.146642,0.52865,-0.773493,-1.29624,0.890545,0.573289,0.148941,-0.0129933,0.701439,-0.840084,-0.797867,0.485286,0.733751,0.283737,0.314521,-0.264683,0.995452,0.365002,-0.234043,0.0512675,0.89965,0.25318,0.261035,-0.288898,1.43091,-0.548295,1.47507,-2.69201,-0.101795,-0.333057,-2.74345,-0.0899303,-0.194623,-0.705429,0.379946,-0.740841,-0.372996,-0.24359,0.296228,-0.326262,1
1.63304,-0.536218,-1.67565,-1.05007,2.3236,1.55725,-0.495253,1.65711,-0.591898,-1.66209,-1.02486,2.25602,1.61557,-0.526021,1.70092,-0.600561,-1.60591,-1.00245,2.29992,1.5799,-0.495544,-0.757394,-0.282633,-1.03643,-0.993382,0.155969,0.751111,-0.464586,-0.279829,0.387934,-0.866166,-1.09435,0.540691,0.667747,0.026734,0.316397,-0.265879,0.991612,0.366739,-0.23116,0.0526197,0.89961,0.103062,-0.469573,-0.54454,1.40308,-0.549433,1.47055,-2.81482,-0.115108,-0.456406,-2.75604,-0.0968277,-0.289509,-0.678804,0.643429,-0.697438,-0.47624,0.2368,-0.226515,0.00291025,1
1.62064,-0.551641,-1.68276,-1.02784,2.35007,1.53541,-0.496229,1.64604,-0.564772,-1.66987,-1.03086,2.27726,1.59613,-0.51737,1.69252,-0.603626,-1.61653,-1.00955,2.29587,1.58787,-0.501593,-1.04057,-0.373671,-1.24651,-0.579819,-0.942125,0.95856,-0.816562,-0.648203,-0.0425514,-1.01881,-0.95648,0.0347962,0.760987,-0.377402,0.316989,-0.270552,0.986632,0.374937,-0.229212,0.0564213,0.896493,-0.0458909,-0.614315,-0.54399,1.37497,-0.550565,1.46538,-2.83918,-0.114341,-0.522353,-2.77432,-0.108083,-0.387619,-0.718772,0.519847,-0.662335,-0.182865,0.542005,-0.524553,0.0536365,1
1.60872,-0.555932,-1.69693,-1.00626,2.32728,1.55328,-0.52366,1.6319,-0.550754,-1.6769,-1.03445,2.31147,1.56782,-0.507105,1.68335,-0.603164,-1.62799,-1.01398,2.28638,1.59556,-0.508268,-0.951904,0.408662,-1.23686,-0.394844,-1.10107,0.725886,-0.643942,-0.916624,-0.0825474,-1.17327,-0.656015,-0.629076,0.811852,-0.641697,0.316714,-0.273068,0.983062,0.384746,-0.228888,0.0642654,0.891881,-0.100224,-0.139394,-0.239608,1.3473,-0.551758,1.45901,-2.73523,-0.117892,-0.629517,-2.78522,-0.112891,-0.486391,-0.746331,0.47232,-0.689462,0.0772295,0.408995,-0.422722,-0.153911,1
1.60391,-0.54795,-1.70885,-1.00543,2.29376,1.62711,-0.530113,1.6206,-0.549362,-1.68545,-1.02669,2.32929,1.55532,-0.506851,1.67421,-0.595806,-1.63885,-1.01799,2.28103,1.59824,-0.511973,-1.02204,1.12571,-1.12541,-0.467018,-0.136725,-0.0765963,-0.195773,-1.00484,0.3869,-1.20293,-0.48056,-0.72664,0.53595,-0.552092,0.316239,-0.272034,0.982242,0.392378,-0.227759,0.07339,0.888132,-0.112784,0.163946,0.0508818,1.31935,-0.55318,1.45144,-2.82958,-0.143981,-0.767208,-2.78899,-0.120945,-0.588019,-0.703072,0.478562,-0.699975,0.125574,0.127251,0.288667,-0.181399,1
1.60083,-0.544861,-1.71904,-0.998639,2.27672,1.65422,-0.514481,1.61152,-0.55094,-1.69642,-1.01371,2.32121,1.57383,-0.516066,1.66406,-0.584857,-1.64872,-1.02219,2.28522,1.5933,-0.511927,-1.16643,1.23702,-1.02201,-0.444733,0.952173,-0.924281,0.174883,-1.04679,0.923796,-1.12809,-0.435531,-0.0952076,-0.0916639,-0.22161,0.315763,-0.270646,0.983419,0.398024,-0.223335,0.0800398,0.886167,-0.129749,0.0463018,0.174955,1.29164,-0.554261,1.44342,-2.79569,-0.109053,-0.808531,-2.78497,-0.122702,-0.682104,-0.632293,0.399961,-0.703162,0.23547,-0.0849828,0.609159,-0.0255382,1
1.61451,-0.536093,-1.72826,-1.0423,2.34955,1.64634,-0.505978,1.60605,-0.548663,-1.708,-1.00764,2.30488,1.6109,-0.520965,1.65321,-0.574976,-1.65802,-1.02447,2.29539,1.58416,-0.510521,-1.18275,0.929101,-0.995083,-0.0805512,1.22966,-1.04615,0.133124,-1.12374,1.09728,-1.0475,-0.330767,0.681703,-0.682343,0.0374116,0.314805,-0.271506,0.985291,0.403842,-0.217071,0.083317,0.884788,-0.21702,-0.237722,0.188059,1.26454,-0.555122,1.43422,-2.76402,-0.0878153,-0.938715,-2.76521,-0.116165,-0.779197,-0.387003,0.388826,-0.702354,-0.178267,0.541572,0.621863,0.045434,1
1.61386,-0.538004,-1.73612,-1.05174,2.36898,1.63553,-0.512946,1.60632,-0.543704,-1.71848,-1.01505,2.30811,1.638,-0.516741,1.64257,-0.567957,-1.66748,-1.02311,2.30376,1.57882,-0.510895,-1.12615,0.617283,-1.04966,0.340961,0.632756,-0.181164,-0.187557,-1.15844,0.9278,-1.02225,-0.0614411,0.938197,-0.717199,0.04015,0.31253,-0.274305,0.986866,0.411504,-0.213377,0.0854687,0.881947,-0.36724,-0.388336,0.13534,1.23695,-0.556433,1.42388,-2.69724,-0.128209,-1.01089,-2.75497,-0.112925,-0.874867,-0.287114,0.29953,-0.686349,-0.286284,0.65214,0.567091,-0.0205017,1
1.63869,-0.556143,-1.74722,-1.06173,2.36012,1.64835,-0.522453,1.61177,-0.540757,-1.72789,-1.03265,2.33337,1.64453,-0.512383,1.63293,-0.562784,-1.67746,-1.01951,2.3062,1.5831,-0.513113,-0.975026,0.512213,-1.10764,0.430506,-0.0477499,1.00847,-0.284814,-1.09464,0.686199,-1.05079,0.230305,0.604889,-0.0729477,-0.113082,0.308927,-0.277024,0.987538,0.420023,-0.214917,0.0889428,0.8772,-0.441929,-0.303404,0.0416679,1.20959,-0.557414,1.41271,-2.65752,-0.0952786,-1.08461,-2.7421,-0.10641,-0.96993,0.0576152,0.0664068,-0.697585,-0.422202,0.539223,0.652556,-0.0934004,1
1.57431,-0.585151,-1.76037,-1.05604,2.32461,1.65074,-0.551022,1.61694,-0.545436,-1.73738,-1.04883,2.35337,1.64356,-0.516056,1.62535,-0.55802,-1.68773,-1.01728,2.30632,1.59514,-0.51469,-0.690156,0.519256,-1.1155,0.0811805,0.0648907,1.55451,-0.0743644,-0.930444,0.549584,-1.09093,0.284216,0.216632,0.793941,-0.182245,0.305328,-0.27844,0.98709,0.426502,-0.219697,0.0932127,0.872434,-0.332295,-0.144974,-0.0751407,1.18235,-0.558303,1.40021,-2.73117,-0.0891353,-1.25331,-2.73535,-0.103774,-1.0793,-0.510448,-0.271309,-0.726413,-0.387604,0.182881,0.556034,-0.363318,1
1.5646,-0.603018,-1.76911,-1.07159,2.29692,1.65526,-0.560992,1.61024,-0.560537,-1.74791,-1.05721,2.34885,1.64605,-0.528598,1.62079,-0.553509,-1.69789,-1.01935,2.31071,1.60829,-0.514603,-0.327212,0.462565,-1.08819,-0.482447,0.822096,1.31457,0.0804977,-0.664131,0.498011,-1.10378,0.00974646,0.279746,1.29252,-0.0928936,0.303351,-0.279059,0.98556,0.429381,-0.223372,0.0955397,0.869833,-0.091034,-0.0724718,-0.206244,1.1553,-0.559695,1.38717,-2.74511,-0.141161,-1.32376,-2.73092,-0.110152,-1.17774,-0.561903,-0.495091,-0.712257,-0.522368,-0.137836,0.469723,-0.463898,1
1.55575,-0.601186,-1.77756,-1.07005,2.3325,1.63127,-0.56011,1.58929,-0.580421,-1.75883,-1.06196,2.32983,1.64911,-0.544561,1.61903,-0.550613,-1.70785,-1.02561,2.3202,1.61842,-0.514537,-0.0757673,0.187764,-1.07101,-0.842275,1.20299,0.912046,-0.0550895,-0.364378,0.389862,-1.09157,-0.414514,0.69666,1.26037,-0.0163187,0.303448,-0.280237,0.982914,0.430109,-0.223742,0.0947735,0.869462,0.1044,-0.168165,-0.354851,1.12794,-0.560675,1.37326,-2.75135,-0.0985705,-1.39791,-2.72322,-0.107628,-1.26774,-0.632788,-0.505729,-0.697108,-0.444433,0.12302,0.128553,-0.455725,1
1.56754,-0.574336,-1.78462,-1.08113,2.37745,1.64256,-0.557845,1.56963,-0.593371,-1.76864,-1.0673,2.32172,1.64691,-0.555674,1.61741,-0.551464,-1.71784,-1.03347,2.32891,1.62593,-0.516893,-0.25993,-0.329112,-1.091,-0.861015,0.723206,0.730064,-0.424548,-0.22097,0.107072,-1.0834,-0.728579,0.916098,0.985559,-0.133047,0.304552,-0.283641,0.978887,0.432194,-0.2215,0.0926875,0.869227,0.108655,-0.496797,-0.53017,1.10043,-0.562094,1.3583,-2.76497,-0.142695,-1.5044,-2.72737,-0.117315,-1.35775,-0.498658,-0.22872,-0.667821,-0.476513,0.485359,0.166299,-0.40952,1
1.56613,-0.61379,-1.78648,-1.0081,2.39781,1.64287,-0.568479,1.56272,-0.594717,-1.7767,-1.06846,2.33843,1.64203,-0.559719,1.61216,-0.557088,-1.72804,-1.04093,2.33164,1.6321,-0.522662,-0.829629,-0.846318,-1.11673,-0.762633,-0.065607,0.616918,-0.794305,-0.388442,-0.329222,-1.09291,-0.821974,0.620197,0.753009,-0.424648,0.3052,-0.290487,0.973357,0.438481,-0.217698,0.0915396,0.867158,-0.0328171,-0.921704,-0.6917,1.07289,-0.56322,1.34234,-2.73638,-0.111843,-1.58607,-2.73784,-0.122329,-1.44617,-0.460285,-0.567023,-0.584393,0.328328,0.661661,0.107692,-0.458171,1
1.55269,-0.62051,-1.80392,-1.00764,2.37436,1.67492,-0.579499,1.56313,-0.59559,-1.78356,-1.05491,2.36608,1.64263,-0.56262,1.60266,-0.56569,-1.73827,-1.04771,2.32989,1.63658,-0.530575,-1.19802,-1.00401,-1.10147,-0.710386,-0.296012,0.374516,-0.910351,-0.762528,-0.726479,-1.10307,-0.778011,0.120529,0.573833,-0.709735,0.304906,-0.300006,0.966982,0.448351,-0.212593,0.091531,0.86337,-0.141905,-1.11405,-0.729115,1.04562,-0.563405,1.32437,-2.72425,-0.018501,-1.79484,-2.74391,-0.0996614,-1.56516,-0.499667,-0.548201,-0.65647,0.40074,0.444765,0.383379,-0.489238,1
1.53189,-0.627209,-1.82018,-1.08979,2.34665,1.68733,-0.58903,1.56034,-0.605658,-1.79192,-1.03522,2.37958,1.65286,-0.569337,1.59224,-0.573744,-1.74812,-1.05344,2.33014,1.63876,-0.538311,-1.07055,-0.760729,-1.0366,-0.544582,0.300917,0.118608,-0.776505,-1.03274,-0.870351,-1.08493,-0.672534,-0.020234,0.370014,-0.827054,0.303958,-0.309884,0.961246,0.45867,-0.206861,0.090747,0.859416,-0.181316,-1.00699,-0.574637,1.01835,-0.564409,1.30591,-2.76495,-0.101816,-1.87187,-2.73968,-0.0877953,-1.68634,-0.603435,-0.534652,-0.720656,-0.363441,0.165171,0.485644,-0.507184,1
1.5392,-0.634313,-1.83004,-1.11239,2.36306,1.70021,-0.589887,1.55094,-0.618482,-1.80405,-1.03943,2.37278,1.66957,-0.578423,1.58393,-0.579823,-1.75727,-1.05562,2.33673,1.63978,-0.544825,-0.754494,-0.571906,-0.953369,0.0256624,1.06434,0.103342,-0.645442,-1.00769,-0.77888,-1.03048,-0.409768,0.356414,0.198822,-0.777433,0.302053,-0.319095,0.95739,0.467832,-0.202429,0.0871956,0.855893,-0.292176,-0.927359,-0.327691,0.99107,-0.565387,1.28684,-2.68619,-0.0962959,-1.87775,-2.73252,-0.0777495,-1.79345,-0.44731,-0.544903,-0.727679,-0.567685,0.26327,0.604297,-0.45062,1
1.54353,-0.647938,-1.8318,-1.09247,2.40354,1.6988,-0.593788,1.54179,-0.627767,-1.8172,-1.06996,2.36443,1.68538,-0.585874,1.57761,-0.585838,-1.76601,-1.05239,2.34712,1.64216,-0.5509,-0.626411,-0.71888,-0.939994,0.623018,1.17717,0.388068,-0.668712,-0.817152,-0.683838,-0.976653,0.0346994,0.847475,0.203339,-0.696886,0.298544,-0.328581,0.955009,0.47687,-0.200795,0.0811823,0.851872,-0.457886,-1.03322,-0.229394,0.964277,-0.566139,1.26676,-2.80027,-0.0785317,-2.09798,-2.71781,-0.0781977,-1.88678,-0.340749,-0.620999,-0.657951,-0.400726,0.564145,0.566376,-0.428877,1
1.55859,-0.66216,-1.83798,-1.07198,2.41541,1.70423,-0.606164,1.54051,-0.636821,-1.82688,-1.09268,2.37306,1.69531,-0.591016,1.57127,-0.593425,-1.77522,-1.04817,2.35528,1.64776,-0.557521,-0.737418,-0.908842,-1.04591,0.317087,0.634863,0.791107,-0.758111,-0.706107,-0.733209,-0.979758,0.321922,0.95879,0.427505,-0.690755,0.294351,-0.338634,0.951933,0.48646,-0.20067,0.0755657,0.846982,-0.437269,-1.07696,-0.438215,0.937549,-0.567039,1.24554,-2.57716,-0.0868169,-2.04647,-2.70223,-0.0899744,-1.96807,-0.126742,-0.687355,-0.627678,-0.238126,0.601325,0.564731,-0.486429,1
1.56317,-0.674913,-1.84952,-1.08594,2.40604,1.71398,-0.621713,1.54672,-0.648478,-1.83329,-1.09175,2.39299,1.70074,-0.597355,1.5641,-0.601953,-1.78541,-1.05038,2.35896,1.65637,-0.56459,-0.809331,-0.936304,-1.15317,-0.710198,0.198577,1.05248,-0.772,-0.724386,-0.854675,-1.04636,0.0766356,0.670203,0.743886,-0.732941,0.291597,-0.348117,0.946281,0.495302,-0.199176,0.0723634,0.842478,-0.204307,-0.949733,-0.77875,0.910639,-0.56817,1.22416,-2.68198,-0.112685,-2.1305,-2.68951,-0.091728,-2.04791,-0.0093045,-0.729594,-0.641096,-0.355563,0.470767,0.576129,-0.571223,1
1.51781,-0.68613,-1.86405,-1.11293,2.38875,1.7179,-0.630837,1.55221,-0.661551,-1.84045,-1.08568,2.40516,1.70591,-0.607482,1.55758,-0.610661,-1.79591,-1.05942,2.36184,1.66612,-0.571413,-0.619063,-0.948871,-1.12346,-1.20656,0.40699,1.05877,-0.711029,-0.721937,-0.931339,-1.10751,-0.533222,0.413477,0.967454,-0.747047,0.290807,-0.356615,0.938542,0.502143,-0.195571,0.0698353,0.83948,-0.0362836,-0.846055,-0.920848,0.883259,-0.569472,1.20162,-2.76675,-0.131576,-2.27849,-2.6926,-0.102001,-2.13046,-0.397737,-0.754697,-0.681468,-0.535068,0.269123,0.51784,-0.594241,1
1.49187,-0.695433,-1.87615,-1.13362,2.38393,1.70878,-0.638481,1.545,-0.674126,-1.85083,-1.09258,2.40252,1.71125,-0.619409,1.55369,-0.619866,-1.80567,-1.06871,2.36808,1.67522,-0.577943,-0.253137,-1.03779,-1.00173,-0.835858,0.903579,0.925473,-0.704092,-0.56051,-0.974321,-1.09279,-0.917537,0.503049,1.01224,-0.72904,0.290638,-0.364884,0.930714,0.50748,-0.191651,0.0650158,0.83756,-0.0300185,-0.847131,-0.825134,0.856485,-0.570677,1.17774,-2.67292,-0.120327,-2.38328,-2.69875,-0.115097,-2.21969,-0.618253,-0.755671,-0.704761,-0.649124,0.158514,0.335563,-0.605383,1
1.4912,-0.702361,-1.88671,-1.14299,2.38078,1.71695,-0.640929,1.52355,-0.685168,-1.86323,-1.11067,2.39303,1.71373,-0.629556,1.55256,-0.629983,-1.8146,-1.07431,2.37701,1.68325,-0.585,-0.0126214,-1.14498,-0.937805,-0.412452,1.0212,0.821927,-0.815442,-0.29494,-1.04388,-1.021,-0.818289,0.777257,0.935391,-0.743521,0.290204,-0.373432,0.923697,0.512642,-0.188613,0.0578137,0.835632,-0.0526347,-0.874311,-0.742045,0.829754,-0.571335,1.15268,-2.62597,-0.064638,-2.46174,-2.69744,-0.110995,-2.32134,-0.613583,-0.723781,-0.721084,-0.686832,0.0377742,0.337029,-0.559283,1
1.49298,-0.710096,-1.89387,-1.14655,2.3697,1.73766,-0.640685,1.50271,-0.694473,-1.87521,-1.12862,2.38484,1.71523,-0.636272,1.55135,-0.640862,-1.82352,-1.07859,2.38458,1.69049,-0.593204,-0.230409,-1.20651,-0.990375,-0.507607,0.650645,0.752783,-0.950493,-0.165389,-1.12976,-0.976637,-0.585306,0.858476,0.833395,-0.823342,0.28953,-0.382338,0.916645,0.518792,-0.185491,0.0508288,0.832985,-0.0886652,-0.927217,-0.816805,0.803022,-0.571422,1.12618,-2.61644,-0.00852311,-2.59432,-2.6874,-0.0836825,-2.44905,-0.583704,-0.692336,-0.703539,-0.679638,-0.1488,0.471664,-0.474808,1
1.49323,-0.719695,-1.90361,-1.15513,2.35662,1.75142,-0.649484,1.4936,-0.702632,-1.8855,-1.14042,2.37779,1.7223,-0.64016,1.54626,-0.651986,-1.83316,-1.08533,2.38821,1.69676,-0.60219,-0.823744,-1.20353,-1.09048,-0.91906,0.174939,0.615482,-0.992578,-0.355592,-1.18501,-1.00622,-0.61304,0.615596,0.730064,-0.919504,0.288462,-0.391825,0.908582,0.52666,-0.180635,0.0462664,0.829373,-0.189819,-1.02228,-0.961005,0.775986,-0.572752,1.09914,-2.85016,-0.140175,-2.84989,-2.68009,-0.0730503,-2.56508,-0.530306,-0.677081,-0.70442,-0.697949,-0.315924,0.546574,-0.472941,1
1.48595,-0.732492,-1.91574,-1.16963,2.36025,1.75841,-0.662455,1.49209,-0.711045,-1.89477,-1.14844,2.3695,1.73541,-0.644169,1.53662,-0.662821,-1.84353,-1.09527,2.38832,1.7018,-0.610978,-1.23,-1.14807,-1.14911,-1.20948,-0.126237,0.487287,-0.917417,-0.761385,-1.18604,-1.07666,-0.878716,0.233116,0.618517,-0.953496,0.286816,-0.401767,0.899541,0.535824,-0.173765,0.0442623,0.825069,-0.273858,-1.05387,-1.04155,0.749419,-0.573878,1.07148,-2.55786,-0.108451,-2.66395,-2.67901,-0.0781894,-2.66075,-0.50671,-0.696709,-0.722169,-0.743588,-0.280743,0.566125,-0.51476,1
1.4663,-0.745991,-1.92745,-1.18192,2.37231,1.75044,-0.673792,1.48954,-0.721054,-1.90464,-1.15753,2.36329,1.74751,-0.651512,1.52561,-0.673046,-1.85409,-1.10654,2.38625,1.70669,-0.618745,-1.16106,-1.07317,-1.13943,-1.22901,-0.307005,0.566149,-0.776772,-1.0716,-1.14159,-1.12634,-1.11918,-0.0861011,0.556306,-0.895589,0.284963,-0.411251,0.890199,0.54474,-0.16637,0.0438215,0.820768,-0.262242,-0.950817,-1.03214,0.722741,-0.574744,1.04274,-2.71837,-0.0881918,-2.92776,-2.6763,-0.0927341,-2.74586,-0.593168,-0.729447,-0.733658,-0.753892,-0.139397,0.437508,-0.550469,1
1.44941,-0.756632,-1.93791,-1.19157,2.3659,1.73562,-0.679191,1.48101,-0.732776,-1.91565,-1.16901,2.3633,1.75195,-0.661732,1.51631,-0.682724,-1.86442,-1.11737,2.38258,1.71313,-0.625431,-0.878388,-1.02729,-1.10123,-1.12696,-0.474432,0.808328,-0.679668,-1.08982,-1.08284,-1.12993,-1.18848,-0.302558,0.620588,-0.791286,0.283399,-0.419465,0.881014,0.552272,-0.160104,0.0441925,0.816952,-0.201152,-0.800756,-0.998878,0.695807,-0.575795,1.01279,-2.95743,-0.11543,-3.2889,-2.67675,-0.107377,-2.83178,-0.668927,-0.739083,-0.734923,-0.742017,-0.166788,0.224918,-0.5376,1
1.43988,-0.766294,-1.9468,-1.20046,2.35411,1.73144,-0.683003,1.46702,-0.744902,-1.92686,-1.18075,2.36557,1.7476,-0.671364,1.50905,-0.692289,-1.87454,-1.12757,2.37792,1.7213,-0.63187,-0.707744,-1.04341,-1.09204,-1.08648,-0.530696,0.950609,-0.712464,-0.915731,-1.04796,-1.1109,-1.14748,-0.437378,0.775028,-0.722968,0.282186,-0.426649,0.871887,0.558709,-0.155041,0.0448131,0.81351,-0.165645,-0.732592,-1.00727,0.669231,-0.576833,0.982235,-2.62633,-0.102564,-3.01954,-2.67122,-0.100788,-2.92505,-0.69175,-0.740051,-0.722658,-0.728893,-0.238076,0.101346,-0.511328,1
1.43471,-0.777352,-1.95587,-1.2102,2.35303,1.74414,-0.689962,1.45261,-0.756174,-1.93725,-1.19118,2.3634,1.74024,-0.678421,1.50221,-0.702242,-1.88476,-1.13783,2.37377,1.72941,-0.639007,-0.768887,-1.10755,-1.12062,-1.13102,-0.379879,0.817408,-0.824309,-0.785007,-1.05942,-1.10463,-1.11482,-0.461669,0.858782,-0.738814,0.28095,-0.433893,0.862494,0.56521,-0.149792,0.044896,0.80999,-0.198763,-0.791248,-1.05472,0.642785,-0.577661,0.950481,-2.59659,-0.081287,-3.11764,-2.66778,-0.0965405,-3.02495,-0.675029,-0.751094,-0.711134,-0.723712,-0.207466,0.147286,-0.509555,1
1.42938,-0.789569,-1.96627,-1.2219,2.36751,1.76183,-0.699532,1.44196,-0.766829,-1.94685,-1.20086,2.35876,1.73875,-0.684247,1.49405,-0.712759,-1.89524,-1.14847,2.37115,1.73514,-0.646927,-0.980543,-1.1659,-1.14694,-1.17087,-0.202373,0.45225,-0.88639,-0.819058,-1.10562,-1.11987,-1.12946,-0.370983,0.740089,-0.807721,0.27923,-0.442099,0.852762,0.572653,-0.142948,0.0440562,0.806036,-0.282606,-0.905422,-1.09121,0.616598,-0.577828,0.917295,-2.7071,-0.0173265,-3.43066,-2.65309,-0.0803494,-3.13202,-0.646758,-0.768092,-0.710333,-0.734357,-0.0364118,0.266975,-0.526044,1
1.42339,-0.798094,-1.97745,-1.23527,2.39018,1.77249,-0.7078,1.43488,-0.777643,-1.95643,-1.21109,2.36005,1.74663,-0.691056,1.48418,-0.723601,-1.9058,-1.15922,2.36924,1.73754,-0.654938,-1.14496,-1.1815,-1.14106,-1.15918,-0.211828,0.0979243,-0.851822,-0.964796,-1.15165,-1.13621,-1.15369,-0.264693,0.455861,-0.854174,0.276942,-0.451195,0.842905,0.580938,-0.134246,0.0428402,0.801657,-0.347864,-0.962971,-1.09301,0.590538,-0.578847,0.883865,-2.49234,-0.097452,-3.19729,-2.63171,-0.0710011,-3.22789,-0.60786,-0.744928,-0.71648,-0.760557,0.209464,0.349503,-0.528627,1
1.41951,-0.80513,-1.98799,-1.24752,2.40739,1.77769,-0.713973,1.42925,-0.788164,-1.96661,-1.22258,2.37121,1.75917,-0.699076,1.4736,-0.73447,-1.91619,-1.16976,2.36687,1.73808,-0.662489,-1.14743,-1.17374,-1.11233,-1.12779,-0.294114,0.0244017,-0.78923,-1.09098,-1.17371,-1.13344,-1.15261,-0.236105,0.191525,-0.842481,0.274348,-0.460432,0.833082,0.589277,-0.124691,0.0418211,0.797155,-0.365625,-0.934209,-1.08503,0.563968,-0.58041,0.850121,-2.54709,-0.149775,-3.23478,-2.62772,-0.0834024,-3.30843,-0.540828,-0.706602,-0.718002,-0.777567,0.405163,0.396179,-0.514839,1
1.4118,-0.813649,-1.99733,-1.25799,2.4115,1.77853,-0.720304,1.4239,-0.797398,-1.97718,-1.23485,2.38783,1.76973,-0.706943,1.46354,-0.745303,-1.92635,-1.18015,2.36477,1.73948,-0.669702,-1.03968,-1.17307,-1.09107,-1.12245,-0.171328,0.259449,-0.774585,-1.11069,-1.1761,-1.11482,-1.13647,-0.225757,0.127258,-0.805212,0.271592,-0.469261,0.823216,0.597056,-0.115679,0.0405263,0.79278,-0.3696,-0.875059,-1.09513,0.537254,-0.579984,0.813468,-2.66346,0.042418,-3.65436,-2.63692,-0.0722826,-3.41201,-0.517391,-0.683459,-0.709819,-0.778381,0.467274,0.390505,-0.506022,1
1.39971,-0.827533,-2.00722,-1.26715,2.40489,1.78251,-0.728902,1.41793,-0.805928,-1.98753,-1.2467,2.40146,1.77591,-0.714043,1.45455,-0.756086,-1.93644,-1.19068,2.36514,1.74343,-0.676986,-0.917689,-1.16357,-1.09422,-1.15698,0.22013,0.570863,-0.801253,-1.03493,-1.17013,-1.09921,-1.13574,-0.0817706,0.284905,-0.788356,0.268581,-0.477659,0.813176,0.604213,-0.107896,0.0378261,0.788577,-0.382805,-0.828956,-1.11565,0.5104,-0.581506,0.777433,-2.7505,-0.155866,-3.69084,-2.65681,-0.0849223,-3.50121,-0.54845,-0.714474,-0.707834,-0.764615,0.397447,0.390812,-0.51916,1
1.3876,-0.841644,-2.01778,-1.27672,2.3972,1.78562,-0.73704,1.40992,-0.815768,-1.9975,-1.25741,2.40659,1.77938,-0.721135,1.44656,-0.766596,-1.94661,-1.20161,2.36941,1.74951,-0.684456,-0.821869,-1.11726,-1.10879,-1.20559,0.66783,0.733457,-0.815672,-0.926414,-1.1513,-1.09802,-1.16168,0.238877,0.521256,-0.79717,0.265291,-0.485766,0.803007,0.610932,-0.101044,0.0331586,0.784508,-0.39153,-0.790799,-1.12084,0.483893,-0.582698,0.740187,-2.63289,-0.118374,-3.69955,-2.6686,-0.0879705,-3.60043,-0.589612,-0.750475,-0.711689,-0.751079,0.277843,0.361131,-0.525842,1
1.38028,-0.851989,-2.02792,-1.28712,2.39142,1.79017,-0.741853,1.39973,-0.827718,-2.00748,-1.26727,2.40393,1.78247,-0.728664,1.43922,-0.776637,-1.95687,-1.21285,2.37673,1.75619,-0.69192,-0.772131,-1.06249,-1.11231,-1.22787,0.897291,0.715248,-0.802461,-0.83723,-1.11444,-1.1051,-1.19681,0.595084,0.673189,-0.806462,0.261857,-0.493622,0.792865,0.617372,-0.094433,0.0270899,0.780513,-0.392026,-0.755043,-1.10937,0.457491,-0.583607,0.701741,-2.60213,-0.0896167,-3.78926,-2.66316,-0.0910819,-3.70041,-0.58941,-0.75352,-0.710477,-0.742697,0.146963,0.339754,-0.499331,1
1.37966,-0.862108,-2.0374,-1.29785,2.40449,1.80101,-0.745998,1.38981,-0.840232,-2.01762,-1.27707,2.39903,1.7865,-0.735723,1.43196,-0.786451,-1.96709,-1.22409,2.38453,1.76231,-0.69928,-0.799382,-1.06341,-1.10315,-1.20865,0.800342,0.61904,-0.792755,-0.797794,-1.08105,-1.10808,-1.21404,0.788488,0.689248,-0.803629,0.258329,-0.50128,0.782762,0.62374,-0.0875862,0.0208239,0.77643,-0.409399,-0.739594,-1.10905,0.431792,-0.583825,0.661715,-2.57497,-0.0218459,-4.01039,-2.63833,-0.0978267,-3.79198,-0.522966,-0.756567,-0.703056,-0.737558,0.199626,0.386918,-0.467179,1
1.36988,-0.874554,-2.04714,-1.3084,2.42385,1.79747,-0.756826,1.38252,-0.851814,-2.02766,-1.28728,2.399,1.79172,-0.741813,1.42414,-0.796596,-1.97724,-1.23505,2.39037,1.76763,-0.706631,-0.885629,-1.12884,-1.09674,-1.16871,0.491816,0.538406,-0.799144,-0.819048,-1.08491,-1.10407,-1.20174,0.729816,0.624232,-0.79812,0.254581,-0.508874,0.772521,0.630275,-0.0803696,0.01536,0.772048,-0.450851,-0.745588,-1.13467,0.405516,-0.586414,0.621665,-2.59311,-0.255474,-3.9525,-2.61869,-0.109427,-3.90009,-0.542611,-0.779579,-0.698979,-0.733523,0.334816,0.298407,-0.501952,1
1.359,-0.884489,-2.05722,-1.31951,2.42865,1.79277,-0.76546,1.37658,-0.862809,-2.03748,-1.29784,2.40712,1.79594,-0.748325,1.4157,-0.807339,-1.98737,-1.24569,2.39346,1.77245,-0.71396,-0.939001,-1.19306,-1.09726,-1.13843,0.201782,0.509488,-0.789351,-0.874671,-1.12844,-1.09905,-1.17193,0.49798,0.555645,-0.79375,0.250576,-0.516401,0.762009,0.636946,-0.0728898,0.0109881,0.767376,-0.480685,-0.738116,-1.16468,0.379964,-0.587516,0.58062,-2.45928,-0.106103,-3.95048,-2.59832,-0.124434,-3.99211,-0.567008,-0.7715,-0.698506,-0.738212,0.351825,0.203183,-0.514997,1
1.35046,-0.894477,-2.06636,-1.33002,2.42948,1.79193,-0.771443,1.36904,-0.873761,-2.04723,-1.30856,2.41854,1.79638,-0.756255,1.40724,-0.818441,-1.99749,-1.25615,2.39504,1.77724,-0.721064,-0.896765,-1.21048,-1.0944,-1.12913,0.143836,0.525324,-0.752568,-0.907132,-1.17746,-1.09613,-1.14542,0.279145,0.524406,-0.780354,0.246497,-0.52369,0.751292,0.643418,-0.0653657,0.00716723,0.762685,-0.474588,-0.70253,-1.17731,0.354956,-0.588901,0.539113,-2.63927,-0.146161,-4.3804,-2.56898,-0.142792,-4.06351,-0.567814,-0.760357,-0.688706,-0.738638,0.344385,0.146944,-0.503787,1
1.34221,-0.906004,-2.07529,-1.3396,2.43079,1.78667,-0.777923,1.35983,-0.884448,-2.05688,-1.31926,2.42628,1.79387,-0.76436,1.39932,-0.829589,-2.00755,-1.2666,2.39741,1.78199,-0.727946,-0.825037,-1.20493,-1.08552,-1.13311,0.352249,0.505876,-0.739203,-0.886934,-1.20282,-1.09239,-1.13356,0.232622,0.513563,-0.760374,0.242459,-0.530737,0.740498,0.649543,-0.0578222,0.0028524,0.758118,-0.463793,-0.676236,-1.17992,0.349906,-0.607269,0.504695,-0.532578,-1.93735,-3.6302,-2.14331,-0.493754,-3.96592,-0.571135,-0.764147,-0.677383,-0.730025,0.333818,0.0467965,-0.49977,1
1.33877,-0.919427,-2.08173,-1.34669,2.4395,1.77768,-0.785281,1.35102,-0.895176,-2.06607,-1.32948,2.42987,1.79028,-0.771518,1.39172,-0.840687,-2.01753,-1.2771,2.40191,1.78601,-0.73494,-0.822453,-1.19962,-1.07714,-1.14115,0.602937,0.375981,-0.773136,-0.848085,-1.20501,-1.08568,-1.13446,0.366341,0.46906,-0.754969,0.238333,-0.537788,0.729667,0.655608,-0.0498988,-0.00257314,0.753447,-0.480995,-0.679345,-1.18295,0.345729,-0.629434,0.472249,-0.395964,-2.10124,-3.0759,-1.49631,-1.05793,-3.74756,-0.529465,-0.7874,-0.641998,-0.695897,0.375842,-0.0832995,-0.503407,1
1.3525,-0.928506,-2.08166,-1.33455,2.44642,1.81437,-0.782509,1.34511,-0.90654,-2.07394,-1.3374,2.43348,1.78785,-0.77765,1.38388,-0.851703,-2.02743,-1.28766,2.40781,1.78856,-0.742226,-0.872226,-1.18769,-1.06812,-1.1462,0.669789,0.192416,-0.802806,-0.839905,-1.19741,-1.07693,-1.14015,0.541659,0.358091,-0.771715,0.233999,-0.544948,0.718817,0.661852,-0.0412401,-0.00870568,0.748449,-0.507313,-0.679883,-1.18197,0.342125,-0.651369,0.435168,-0.366319,-2.22956,-3.7691,-0.84904,-1.68238,-3.57768,-0.313752,-0.768027,-0.542293,-0.46885,0.386095,0.258075,-0.40283,1
1.39941,-0.929687,-2.08542,-1.26692,2.45758,1.85653,-0.781611,1.34758,-0.917423,-2.07937,-1.33585,2.43956,1.79492,-0.781654,1.37571,-0.862632,-2.03719,-1.29819,2.4136,1.78952,-0.7496,-0.89553,-1.18039,-1.04751,-1.13494,0.590203,0.0277187,-0.795025,-0.863403,-1.18923,-1.06425,-1.14077,0.620977,0.198705,-0.790323,0.229567,-0.552057,0.707985,0.668122,-0.0318515,-0.014798,0.743223,-0.511727,-0.660768,-1.17607,0.339703,-0.671263,0.396307,-0.238709,-1.96067,-3.82994,-0.38285,-2.08823,-3.55138,0.236999,-0.670549,-0.482338,0.312655,0.439802,0.670101,-0.320113,1
1.39424,-0.940896,-2.10111,-1.26251,2.45475,1.86082,-0.782444,1.36276,-0.9259,-2.08343,-1.31649,2.44702,1.81691,-0.782687,1.3678,-0.873602,-2.04658,-1.30827,2.41877,1.78936,-0.756754,-0.82316,-1.19469,-0.992135,-1.05663,0.533712,-0.054775,-0.757918,-0.863639,-1.18759,-1.03592,-1.11259,0.597902,0.05512,-0.78525,0.225277,-0.558924,0.697268,0.674068,-0.0221724,-0.0206895,0.738046,-0.482053,-0.626819,-1.15387,0.337463,-0.692149,0.358848,-0.22797,-2.12516,-3.81152,-0.309125,-2.11588,-3.67636,0.264404,-0.672942,-0.545275,0.457645,0.35988,0.714644,-0.256899,1
1.36403,-0.958577,-2.11572,-1.32857,2.46418,1.85463,-0.786716,1.38039,-0.933359,-2.09007,-1.29156,2.45337,1.84202,-0.782592,1.36175,-0.88461,-2.05517,-1.31629,2.42387,1.79002,-0.763292,-0.513742,-1.19018,-0.877796,-0.709473,0.568924,0.177784,-0.666011,-0.744144,-1.18842,-0.972479,-0.967015,0.56428,0.0502424,-0.739652,0.221425,-0.565202,0.687223,0.67928,-0.013889,-0.0266598,0.733264,-0.397228,-0.553227,-1.03286,0.335545,-0.711941,0.319128,-0.189248,-1.95274,-3.91878,-0.250319,-2.05794,-3.82562,0.0227951,-0.739671,-0.605451,-0.122779,0.403078,0.646127,-0.234238,1
1.37393,-0.971961,-2.12017,-1.36351,2.47772,1.85221,-0.799017,1.3841,-0.943681,-2.10081,-1.29094,2.45873,1.85476,-0.784344,1.36006,-0.895213,-2.06265,-1.31886,2.42946,1.79478,-0.768656,0.0978597,-1.11306,-0.753718,0.0861869,0.636978,0.802562,-0.508925,-0.413014,-1.16598,-0.87455,-0.559972,0.579871,0.308524,-0.644285,0.218338,-0.57036,0.679092,0.683482,-0.0100575,-0.0326344,0.729169,-0.255938,-0.44496,-0.748066,0.332322,-0.733998,0.280892,-0.328543,-2.24898,-3.8985,-0.237647,-2.05938,-3.8573,0.138655,-0.767482,-0.575182,-0.446427,0.482575,0.57428,-0.303616,1
1.41327,-0.981287,-2.12385,-1.34241,2.478,1.86669,-0.807214,1.37934,-0.957116,-2.11179,-1.3178,2.46566,1.85645,-0.789685,1.36353,-0.905056,-2.06956,-1.31436,2.43541,1.80491,-0.772619,0.611328,-1.02655,-0.743651,0.827059,0.651138,1.34591,-0.361756,0.0651486,-1.10993,-0.791721,0.0679244,0.619013,0.775417,-0.512231,0.216035,-0.574366,0.673368,0.686905,-0.0117876,-0.0381369,0.72565,-0.15335,-0.378093,-0.505103,0.329355,-0.754797,0.240409,-0.295904,-2.07403,-4.03698,-0.258371,-2.0892,-3.89753,0.497324,-0.762301,-0.542908,-0.280463,0.425833,0.617793,-0.345952,1
1.4331,-0.990688,-2.12642,-1.33021,2.47387,1.88144,-0.809622,1.38625,-0.970175,-2.11918,-1.34111,2.47273,1.8588,-0.797618,1.36888,-0.914664,-2.07702,-1.30781,2.44133,1.81738,-0.775715,0.552029,-1.05249,-0.862885,0.611668,0.631271,1.35566,-0.312984,0.420405,-1.06404,-0.786751,0.508305,0.639796,1.16804,-0.394555,0.214076,-0.577926,0.668102,0.68998,-0.0152622,-0.0432114,0.722377,-0.154957,-0.371507,-0.617183,0.326088,-0.776055,0.199619,-0.336659,-2.19048,-4.20305,-0.289397,-2.1067,-3.97176,0.642214,-0.760239,-0.493998,-0.224055,0.325379,0.640601,-0.339072,1
1.4347,-1.00156,-2.13695,-1.34121,2.48195,1.89074,-0.810614,1.40665,-0.981153,-2.12389,-1.34369,2.47628,1.86751,-0.804698,1.37246,-0.924952,-2.08545,-1.30715,2.44732,1.82824,-0.778981,0.24952,-1.16664,-0.955363,-0.386383,0.665027,1.02314,-0.388271,0.470959,-1.0819,-0.853966,0.350781,0.649146,1.24157,-0.354337,0.212503,-0.581507,0.66055,0.692586,-0.0152357,-0.048711,0.719527,-0.116628,-0.332704,-0.979063,0.323324,-0.797174,0.156492,-0.278225,-2.12552,-4.34055,-0.30677,-2.12523,-4.06544,0.622379,-0.766044,-0.514922,-0.340575,0.346233,0.624981,-0.316332,1
1.43736,-1.01283,-2.1475,-1.35933,2.49695,1.89728,-0.811363,1.42511,-0.991268,-2.12934,-1.33991,2.4786,1.87924,-0.808714,1.37548,-0.936074,-2.09405,-1.31375,2.45361,1.83659,-0.783233,0.390989,-1.23694,-0.911318,-0.992415,0.693581,0.805442,-0.521789,0.397513,-1.15202,-0.909856,-0.25571,0.663293,1.06141,-0.407681,0.21242,-0.584635,0.650494,0.694083,-0.0109321,-0.055117,0.717699,0.10612,-0.210339,-1.17262,0.320343,-0.817044,0.111088,-0.281463,-1.8761,-4.28704,-0.299915,-2.08467,-4.23524,0.618806,-0.767536,-0.534455,-0.455802,0.433406,0.606814,-0.2813,1
