Afshin1997/kuka_rl_ros2/src/catch_and_throw/output_files/tm/nn_ema2.00_jvws1_realball_D24H15M28S44/recorded_data.csv
pure_target_joint_0,pure_target_joint_1,pure_target_joint_2,pure_target_joint_3,pure_target_joint_4,pure_target_joint_5,pure_target_joint_6,target_joint_0,target_joint_1,target_joint_2,target_joint_3,target_joint_4,target_joint_5,target_joint_6,pos_joint_0,pos_joint_1,pos_joint_2,pos_joint_3,pos_joint_4,pos_joint_5,pos_joint_6,vel_joint_0,vel_joint_1,vel_joint_2,vel_joint_3,vel_joint_4,vel_joint_5,vel_joint_6,vel_smooth_joint_0,vel_smooth_joint_1,vel_smooth_joint_2,vel_smooth_joint_3,vel_smooth_joint_4,vel_smooth_joint_5,vel_smooth_joint_6,ee_pos_x,ee_pos_y,ee_pos_z,ee_or_w,ee_or_x,ee_or_y,ee_or_z,ee_vel_x,ee_vel_y,ee_vel_z,ball_pos_x,ball_pos_y,ball_pos_z,ball_raw_vx,ball_raw_vy,ball_raw_vz,ball_ema_vx,ball_ema_vy,ball_ema_vz,action_0,action_1,action_2,action_3,action_4,action_5,action_6,command_published
1.70778,-1.00663,-1.78439,-1.16616,2.00939,1.17432,-0.940232,1.70778,-1.00663,-1.78439,-1.16616,2.00939,1.17432,-0.940232,1.78025,-1.06466,-1.81513,-1.1171,1.93728,1.11684,-0.916227,0,0,0,0,0,0,0,0,0,0,0,0,0,0,0.53107,-0.454411,0.694266,0.574478,0.175216,0.152595,0.78485,0,0,0,2.96634,-0.496446,0.261323,-3.49071,0.238338,5.33436,-3.49071,0.238338,5.33436,-0.724668,0.580345,0.307434,-0.490592,0.72109,0.574748,-0.240046,1
1.70855,-1.00584,-1.78244,-1.16813,2.00984,1.17362,-0.939808,1.70855,-1.00584,-1.78244,-1.16813,2.00984,1.17362,-0.939808,1.78025,-1.06466,-1.81513,-1.1171,1.93728,1.11684,-0.916227,0,0,0,0,0,0,0,0,0,0,0,0,0,0,0.53107,-0.454411,0.694266,0.574478,0.175216,0.152595,0.78485,0,0,0,2.93208,-0.493923,0.313606,-3.42586,0.252292,5.22826,-3.42586,0.252292,5.22826,-0.716929,0.588164,0.32692,-0.510318,0.725537,0.567762,-0.23581,1
1.70015,-0.986193,-1.7982,-1.15969,2.0161,1.17687,-0.942232,1.70015,-0.986193,-1.7982,-1.15969,2.0161,1.17687,-0.942232,1.77173,-1.05784,-1.81152,-1.12286,1.94576,1.1236,-0.919048,-1.70298,1.36382,0.722474,-1.1529,1.69457,1.35066,-0.564109,-1.70298,1.36382,0.722474,-1.1529,1.69457,1.35066,-0.564109,0.52608,-0.454537,0.698641,0.576451,0.171209,0.149488,0.784885,-0.915604,-0.0106745,0.829266,2.89748,-0.491069,0.364875,-3.46022,0.285384,5.12687,-3.46022,0.285384,5.12687,-0.715777,0.716469,0.1332,-0.368255,0.7034,0.532701,-0.231849,1
1.68654,-0.973705,-1.79984,-1.16836,2.03042,1.18916,-0.947345,1.68654,-0.973705,-1.79984,-1.16836,2.03042,1.18916,-0.947345,1.75768,-1.04642,-1.80529,-1.13267,1.95989,1.13474,-0.923684,-1.30809,1.08051,0.608456,-0.944231,1.33018,1.03548,-0.429375,-1.30809,1.08051,0.608456,-0.944231,1.33018,1.03548,-0.429375,0.517893,-0.454406,0.705856,0.579519,0.164564,0.144394,0.785001,-0.694923,0.0460591,0.646635,2.86296,-0.488721,0.415176,-3.45223,0.234842,5.0301,-3.45223,0.234842,5.0301,-0.711352,0.72715,0.0544581,-0.356865,0.705366,0.544273,-0.236609,1
1.67235,-0.959128,-1.81711,-1.16422,2.04168,1.18787,-0.955459,1.67235,-0.959128,-1.81711,-1.16422,2.04168,1.18787,-0.955459,1.74582,-1.03514,-1.80209,-1.13953,1.97167,1.14372,-0.927535,-1.21614,1.30328,0.103517,-0.536985,1.18304,0.882746,-0.391373,-1.21614,1.30328,0.103517,-0.536985,1.18304,0.882746,-0.391373,0.510895,-0.454481,0.712285,0.583043,0.158984,0.141141,0.784133,-0.682804,-0.0546223,0.66724,2.82779,-0.48642,0.464293,-3.51672,0.230044,4.91172,-3.51672,0.230044,4.91172,-0.73476,0.760074,-0.150226,-0.246908,0.700126,0.441528,-0.279237,1
1.66122,-0.946322,-1.82082,-1.16091,2.05168,1.1987,-0.959152,1.66122,-0.946322,-1.82082,-1.16091,2.05168,1.1987,-0.959152,1.73412,-1.02284,-1.80142,-1.145,1.98318,1.1525,-0.931387,-1.26703,1.30848,0.0419845,-0.621941,1.25799,0.976406,-0.424935,-1.26703,1.30848,0.0419845,-0.621941,1.25799,0.976406,-0.424935,0.503941,-0.454945,0.718549,0.587482,0.153683,0.138894,0.782276,-0.698171,-0.050714,0.623142,2.79344,-0.484227,0.512212,-3.43485,0.219277,4.79194,-3.43485,0.219277,4.79194,-0.729001,0.765204,-0.193961,-0.159095,0.684993,0.461999,-0.277655,1
1.64639,-0.933146,-1.83784,-1.15369,2.06225,1.19578,-0.959909,1.64639,-0.933146,-1.83784,-1.15369,2.06225,1.19578,-0.959909,1.72193,-1.01026,-1.8031,-1.14968,1.99495,1.16045,-0.93587,-1.32032,1.3616,-0.373056,-0.386982,1.24436,0.730075,-0.521629,-1.32032,1.3616,-0.373056,-0.386982,1.24436,0.730075,-0.521629,0.496925,-0.456269,0.724186,0.592986,0.14933,0.137272,0.779246,-0.716748,-0.220154,0.546966,2.75869,-0.481764,0.559284,-3.47495,0.246346,4.70718,-3.47495,0.246346,4.70718,-0.755373,0.771137,-0.347423,-0.0400276,0.67293,0.353267,-0.24039,1
1.63535,-0.919196,-1.84131,-1.17191,2.0696,1.1996,-0.969592,1.63535,-0.919196,-1.84131,-1.17191,2.0696,1.1996,-0.969592,1.70965,-0.997445,-1.80663,-1.15251,2.00647,1.16779,-0.940637,-1.28972,1.36137,-0.377644,-0.22378,1.20404,0.822961,-0.493042,-1.28972,1.36137,-0.377644,-0.22378,1.20404,0.822961,-0.493042,0.489765,-0.458439,0.72965,0.599611,0.145378,0.136154,0.775109,-0.739369,-0.23751,0.584373,2.72408,-0.479407,0.605141,-3.46193,0.235665,4.58572,-3.46193,0.235665,4.58572,-0.743027,0.782491,-0.346757,-0.193982,0.631327,0.318121,-0.289545,1
1.62237,-0.905952,-1.84572,-1.17273,2.08125,1.19577,-0.972043,1.62237,-0.905952,-1.84572,-1.17273,2.08125,1.19577,-0.972043,1.6972,-0.984588,-1.81177,-1.15352,2.01771,1.17428,-0.944822,-1.35294,1.36985,-0.694229,-0.00443753,1.18602,0.572436,-0.401766,-1.35294,1.36985,-0.694229,-0.00443753,1.18602,0.572436,-0.401766,0.482408,-0.46151,0.734951,0.606976,0.141956,0.135366,0.770133,-0.77073,-0.398872,0.524433,2.68979,-0.477252,0.64975,-3.42815,0.215486,4.46087,-3.42815,0.215486,4.46087,-0.748294,0.786361,-0.339471,-0.192085,0.635423,0.214879,-0.272209,1
1.61032,-0.892483,-1.85867,-1.15733,2.0857,1.21376,-0.980649,1.61032,-0.892483,-1.85867,-1.15733,2.0857,1.21376,-0.980649,1.68466,-0.97157,-1.81795,-1.1557,2.02842,1.17949,-0.949297,-1.31318,1.39475,-0.622189,-0.431694,1.09647,0.53565,-0.540462,-1.31318,1.39475,-0.622189,-0.431694,1.09647,0.53565,-0.540462,0.475512,-0.464281,0.739539,0.614222,0.139566,0.135529,0.764778,-0.671496,-0.199883,0.442473,2.65532,-0.474757,0.693829,-3.44687,0.249583,4.40786,-3.44687,0.249583,4.40786,-0.743394,0.790869,-0.407257,-0.016347,0.572794,0.342714,-0.313526,1
1.59901,-0.878879,-1.86268,-1.15829,2.10162,1.21667,-0.978699,1.59901,-0.878879,-1.86268,-1.15829,2.10162,1.21667,-0.978699,1.67223,-0.958429,-1.82363,-1.15938,2.0389,1.18349,-0.954074,-1.3278,1.39747,-0.588177,-0.355473,1.12779,0.327145,-0.478512,-1.3278,1.39747,-0.588177,-0.355473,1.12779,0.327145,-0.478512,0.46912,-0.466299,0.743832,0.620905,0.137821,0.136157,0.759568,-0.672732,-0.224977,0.462646,2.62077,-0.472308,0.736486,-3.45542,0.244865,4.26579,-3.45542,0.244865,4.26579,-0.732162,0.795499,-0.390505,0.0109108,0.627155,0.331804,-0.246252,1
1.58594,-0.865945,-1.8706,-1.17697,2.10911,1.21373,-0.986729,1.58594,-0.865945,-1.8706,-1.17697,2.10911,1.21373,-0.986729,1.65979,-0.945238,-1.83004,-1.16052,2.04879,1.18832,-0.95906,-1.31719,1.40489,-0.762479,0.084979,0.982966,0.677509,-0.574933,-1.31719,1.40489,-0.762479,0.084979,0.982966,0.677509,-0.574933,0.46213,-0.469007,0.74861,0.628711,0.135229,0.136748,0.753482,-0.781692,-0.343873,0.538615,2.58693,-0.470133,0.778266,-3.3844,0.217488,4.17795,-3.3844,0.217488,4.17795,-0.738448,0.792929,-0.405635,-0.164421,0.603223,0.254063,-0.276694,1
1.57383,-0.852394,-1.87458,-1.17356,2.11902,1.21592,-0.997655,1.57383,-0.852394,-1.87458,-1.17356,2.11902,1.21592,-0.997655,1.64752,-0.93197,-1.83684,-1.15993,2.05883,1.19429,-0.963606,-1.29162,1.41384,-0.688081,0.0437076,1.13951,0.595994,-0.401929,-1.29162,1.41384,-0.688081,0.0437076,1.13951,0.595994,-0.401929,0.454665,-0.472016,0.753841,0.636925,0.131809,0.13696,0.747124,-0.765541,-0.303709,0.555801,2.55253,-0.467803,0.819885,-3.43978,0.232968,4.16186,-3.43978,0.232968,4.16186,-0.736867,0.795763,-0.377346,-0.136258,0.60189,0.21636,-0.340487,1
1.56301,-0.838814,-1.8821,-1.15756,2.12711,1.23481,-1.00133,1.56301,-0.838814,-1.8821,-1.15756,2.12711,1.23481,-1.00133,1.63525,-0.918707,-1.84349,-1.16176,2.06917,1.19889,-0.967888,-1.31315,1.40506,-0.722022,-0.40489,1.06366,0.39499,-0.50174,-1.31315,1.40506,-0.722022,-0.40489,1.06366,0.39499,-0.50174,0.447882,-0.474275,0.758346,0.644095,0.129603,0.137533,0.741235,-0.661862,-0.1864,0.402173,2.51839,-0.465735,0.859523,-3.41434,0.206828,3.96379,-3.41434,0.206828,3.96379,-0.722431,0.798927,-0.386059,0.0420036,0.579379,0.359204,-0.334449,1
1.55052,-0.825562,-1.89157,-1.15086,2.14163,1.23669,-0.999314,1.55052,-0.825562,-1.89157,-1.15086,2.14163,1.23669,-0.999314,1.62292,-0.905444,-1.84995,-1.16472,2.07917,1.20243,-0.97334,-1.30732,1.41273,-0.655746,-0.235195,1.06107,0.359299,-0.647521,-1.30732,1.41273,-0.655746,-0.235195,1.06107,0.359299,-0.647521,0.44148,-0.476118,0.762483,0.651276,0.127998,0.138601,0.735014,-0.690943,-0.203572,0.470499,2.48395,-0.463306,0.898794,-3.44384,0.242892,3.92717,-3.44384,0.242892,3.92717,-0.723962,0.798816,-0.416185,0.138654,0.624543,0.342564,-0.259738,1
1.53719,-0.812528,-1.89851,-1.1654,2.14932,1.23406,-1.01074,1.53719,-0.812528,-1.89851,-1.1654,2.14932,1.23406,-1.01074,1.61079,-0.892114,-1.85628,-1.1648,2.08894,1.20764,-0.979151,-1.27245,1.41938,-0.687365,0.192724,1.0166,0.723735,-0.590735,-1.27245,1.41938,-0.687365,0.192724,1.0166,0.723735,-0.590735,0.434279,-0.478324,0.767614,0.65945,0.12473,0.139153,0.728152,-0.800397,-0.26875,0.599843,2.44966,-0.460957,0.936662,-3.42839,0.234953,3.78678,-3.42839,0.234953,3.78678,-0.735963,0.79586,-0.42225,-0.00605199,0.603826,0.264266,-0.315887,1
1.52489,-0.798932,-1.9022,-1.16505,2.15948,1.22814,-1.01918,1.52489,-0.798932,-1.9022,-1.16505,2.15948,1.22814,-1.01918,1.59875,-0.878767,-1.86311,-1.16241,2.09909,1.21387,-0.98382,-1.28437,1.41685,-0.758042,0.307611,1.13285,0.607717,-0.412601,-1.28437,1.41685,-0.758042,0.307611,1.13285,0.607717,-0.412601,0.426368,-0.481067,0.7734,0.667998,0.120569,0.139087,0.721039,-0.828647,-0.321503,0.610116,2.41527,-0.458552,0.973795,-3.43928,0.240481,3.71335,-3.43928,0.240481,3.71335,-0.738593,0.798344,-0.390936,-0.0263701,0.60393,0.142763,-0.353549,1
1.51418,-0.78528,-1.90933,-1.15301,2.16743,1.24616,-1.02383,1.51418,-0.78528,-1.90933,-1.15301,2.16743,1.24616,-1.02383,1.58652,-0.865466,-1.87022,-1.16156,2.1094,1.21861,-0.98859,-1.31355,1.40977,-0.753384,-0.102251,1.06306,0.411583,-0.589847,-1.31355,1.40977,-0.753384,-0.102251,1.06306,0.411583,-0.589847,0.418899,-0.483552,0.778535,0.6761,0.117606,0.139409,0.713879,-0.733327,-0.218569,0.477209,2.38097,-0.456259,1.00968,-3.43032,0.229329,3.58876,-3.43032,0.229329,3.58876,-0.723393,0.801861,-0.391089,0.0855279,0.580354,0.275488,-0.352433,1
1.50281,-0.771907,-1.91804,-1.13847,2.18189,1.25511,-1.02156,1.50281,-0.771907,-1.91804,-1.13847,2.18189,1.25511,-1.02156,1.57416,-0.852159,-1.87691,-1.16237,2.11942,1.22133,-0.99448,-1.31204,1.41744,-0.673494,-0.0712535,1.06668,0.181449,-0.657626,-1.31204,1.41744,-0.673494,-0.0712535,1.06668,0.181449,-0.657626,0.412042,-0.485543,0.783181,0.683966,0.115777,0.140308,0.70647,-0.716264,-0.203309,0.504751,2.34625,-0.453988,1.04455,-3.47188,0.227073,3.48713,-3.47188,0.227073,3.48713,-0.713505,0.802514,-0.411308,0.238968,0.624629,0.337814,-0.270798,1
1.4882,-0.759011,-1.92792,-1.13569,2.18988,1.25537,-1.03305,1.4882,-0.759011,-1.92792,-1.13569,2.18988,1.25537,-1.03305,1.56201,-0.838781,-1.88334,-1.16155,2.12922,1.22495,-1.00049,-1.27363,1.42474,-0.692009,0.227365,1.01772,0.564615,-0.621628,-1.27363,1.42474,-0.692009,0.227365,1.01772,0.564615,-0.621628,0.40476,-0.487484,0.788479,0.69222,0.112883,0.140952,0.698728,-0.801501,-0.213498,0.606157,2.31185,-0.452,1.07824,-3.43947,0.198814,3.36841,-3.43947,0.198814,3.36841,-0.738078,0.797703,-0.445804,0.258561,0.606664,0.304125,-0.325621,1
1.47542,-0.745752,-1.93288,-1.13845,2.19964,1.24718,-1.04125,1.47542,-0.745752,-1.93288,-1.13845,2.19964,1.24718,-1.04125,1.55009,-0.825375,-1.89011,-1.15795,2.13937,1.2307,-1.00539,-1.25904,1.42387,-0.743712,0.5187,1.13222,0.650195,-0.430709,-1.25904,1.42387,-0.743712,0.5187,1.13222,0.650195,-0.430709,0.396574,-0.489705,0.794684,0.700834,0.108338,0.140831,0.690841,-0.880111,-0.270856,0.688492,2.27778,-0.449476,1.11091,-3.40753,0.252327,3.26674,-3.40753,0.252327,3.26674,-0.746714,0.796238,-0.427621,0.195039,0.602729,0.16486,-0.358675,1
1.46303,-0.732368,-1.94179,-1.12239,2.20775,1.2594,-1.04671,1.46303,-0.732368,-1.94179,-1.12239,2.20775,1.2594,-1.04671,1.53792,-0.812033,-1.89745,-1.15332,2.14971,1.23613,-1.01031,-1.32394,1.41193,-0.811386,0.469316,1.0697,0.512332,-0.605487,-1.32394,1.41193,-0.811386,0.469316,1.0697,0.512332,-0.605487,0.387987,-0.492255,0.801033,0.709838,0.103794,0.140608,0.682339,-0.890032,-0.285415,0.644582,2.24359,-0.447544,1.1424,-3.41849,0.193217,3.14943,-3.41849,0.193217,3.14943,-0.748891,0.796645,-0.443414,0.309234,0.580328,0.232747,-0.363965,1
1.45072,-0.718949,-1.95027,-1.1099,2.22113,1.26648,-1.04568,1.45072,-0.718949,-1.95027,-1.1099,2.22113,1.26648,-1.04568,1.52542,-0.798746,-1.90477,-1.14974,2.15975,1.23942,-1.01631,-1.33138,1.4112,-0.748319,0.300746,1.0624,0.206676,-0.664298,-1.33138,1.4112,-0.748319,0.300746,1.0624,0.206676,-0.664298,0.379785,-0.494653,0.806935,0.718867,0.100429,0.140929,0.673263,-0.824865,-0.234811,0.600965,2.20931,-0.44515,1.17327,-3.42805,0.23945,3.08661,-3.42805,0.23945,3.08661,-0.746938,0.797972,-0.454961,0.398379,0.613874,0.270547,-0.293756,1
1.43723,-0.70629,-1.95846,-1.10678,2.22989,1.26909,-1.05673,1.43723,-0.70629,-1.95846,-1.10678,2.22989,1.26909,-1.05673,1.5129,-0.785451,-1.91204,-1.14536,2.16952,1.24257,-1.02247,-1.32811,1.41355,-0.79236,0.611512,1.01785,0.448114,-0.645591,-1.32811,1.41355,-0.79236,0.611512,1.01785,0.448114,-0.645591,0.371371,-0.496943,0.813131,0.728058,0.0967509,0.14127,0.663787,-0.923033,-0.258762,0.698314,2.17557,-0.443104,1.2026,-3.37467,0.204539,2.93301,-3.37467,0.204539,2.93301,-0.756724,0.791612,-0.464185,0.385754,0.603685,0.265147,-0.342662,1
1.42466,-0.692947,-1.96542,-1.10098,2.23834,1.27074,-1.06464,1.42466,-0.692947,-1.96542,-1.10098,2.23834,1.27074,-1.06464,1.50042,-0.772133,-1.91962,-1.13881,2.17955,1.24713,-1.02771,-1.32347,1.41623,-0.816295,0.769743,1.10729,0.515234,-0.478641,-1.32347,1.41623,-0.816295,0.769743,1.10729,0.515234,-0.478641,0.362156,-0.499312,0.820059,0.737455,0.0918175,0.141098,0.65408,-0.977137,-0.264465,0.752645,2.14181,-0.441208,1.23171,-3.37543,0.189674,2.91156,-3.37543,0.189674,2.91156,-0.757684,0.791857,-0.45804,0.378334,0.587902,0.23617,-0.369275,1
1.41117,-0.68001,-1.97596,-1.08671,2.24706,1.27916,-1.06946,1.41117,-0.68001,-1.97596,-1.08671,2.24706,1.27916,-1.06946,1.48784,-0.758881,-1.92736,-1.13205,2.18978,1.25171,-1.03298,-1.34784,1.40045,-0.828111,0.672849,1.06819,0.462661,-0.632439,-1.34784,1.40045,-0.828111,0.672849,1.06819,0.462661,-0.632439,0.352763,-0.501542,0.827023,0.74681,0.0867844,0.140833,0.644134,-0.963182,-0.234492,0.711747,2.10755,-0.439289,1.2598,-3.42591,0.191835,2.80837,-3.42591,0.191835,2.80837,-0.766695,0.788706,-0.486017,0.45342,0.572774,0.274474,-0.364814,1
1.39854,-0.666783,-1.98446,-1.07986,2.25787,1.28238,-1.07386,1.39854,-0.666783,-1.98446,-1.07986,2.25787,1.28238,-1.07386,1.47517,-0.74568,-1.93506,-1.12578,2.19964,1.25575,-1.03917,-1.34518,1.40423,-0.808573,0.660436,1.03047,0.399235,-0.67827,-1.34518,1.40423,-0.808573,0.660436,1.03047,0.399235,-0.67827,0.343527,-0.503441,0.833808,0.756178,0.081969,0.140887,0.63374,-0.951677,-0.195498,0.715113,2.07378,-0.437133,1.2865,-3.37706,0.215572,2.67078,-3.37706,0.215572,2.67078,-0.766347,0.788973,-0.494072,0.459211,0.582249,0.266327,-0.346965,1
1.38514,-0.653705,-1.99334,-1.07281,2.26545,1.28136,-1.08154,1.38514,-0.653705,-1.99334,-1.07281,2.26545,1.28136,-1.08154,1.46241,-0.732495,-1.94301,-1.11862,2.20923,1.26006,-1.04537,-1.36442,1.39763,-0.877414,0.849679,1.00732,0.508728,-0.641701,-1.36442,1.39763,-0.877414,0.849679,1.00732,0.508728,-0.641701,0.333961,-0.5052,0.840847,0.765678,0.0766836,0.140998,0.622877,-1.02552,-0.207757,0.763059,2.03965,-0.434885,1.31256,-3.41313,0.224862,2.60593,-3.41313,0.224862,2.60593,-0.772685,0.787901,-0.503251,0.458015,0.562246,0.213049,-0.361719,1
1.3723,-0.640423,-2.00237,-1.06353,2.27328,1.28493,-1.08776,1.3723,-0.640423,-2.00237,-1.06353,2.27328,1.28493,-1.08776,1.44959,-0.719332,-1.9513,-1.11075,2.21887,1.26466,-1.05121,-1.35962,1.39933,-0.883145,0.822715,1.03861,0.47194,-0.603093,-1.35962,1.39933,-0.883145,0.822715,1.03861,0.47194,-0.603093,0.324088,-0.506809,0.848073,0.775121,0.0710408,0.14104,0.611758,-1.01816,-0.173276,0.757564,2.00533,-0.432736,1.33729,-3.43206,0.214928,2.47229,-3.43206,0.214928,2.47229,-0.77296,0.789081,-0.510668,0.472251,0.544112,0.202726,-0.36546,1
1.35904,-0.627263,-2.0114,-1.05349,2.28247,1.28877,-1.09189,1.35904,-0.627263,-2.0114,-1.05349,2.28247,1.28877,-1.09189,1.43673,-0.706171,-1.95968,-1.10309,2.22839,1.26846,-1.05713,-1.37358,1.39712,-0.89631,0.806248,0.987089,0.343522,-0.650096,-1.37358,1.39712,-0.89631,0.806248,0.987089,0.343522,-0.650096,0.314334,-0.508163,0.855209,0.78436,0.0657497,0.141275,0.600415,-1.00862,-0.151631,0.747344,1.9711,-0.430413,1.36128,-3.42276,0.232211,2.39954,-3.42276,0.232211,2.39954,-0.77687,0.789081,-0.517243,0.495993,0.540866,0.203116,-0.347674,1
1.34613,-0.614241,-2.02118,-1.04453,2.28964,1.29616,-1.09904,1.34613,-0.614241,-2.02118,-1.04453,2.28964,1.29616,-1.09904,1.42381,-0.693005,-1.96818,-1.0953,2.2375,1.27174,-1.06326,-1.37164,1.4002,-0.910233,0.84614,0.952626,0.351483,-0.652493,-1.37164,1.4002,-0.910233,0.84614,0.952626,0.351483,-0.652493,0.304606,-0.509248,0.86236,0.793528,0.0605422,0.141779,0.588682,-1.01787,-0.118787,0.761913,1.93647,-0.42844,1.38412,-3.46341,0.197336,2.28405,-3.46341,0.197336,2.28405,-0.776797,0.787646,-0.529985,0.5077,0.521372,0.244236,-0.357798,1
1.33378,-0.601043,-2.02986,-1.03762,2.29912,1.30185,-1.10515,1.33378,-0.601043,-2.02986,-1.03762,2.29912,1.30185,-1.10515,1.41086,-0.679828,-1.97681,-1.08709,2.2465,1.27511,-1.06916,-1.37981,1.39975,-0.921238,0.894816,0.957963,0.363955,-0.605293,-1.37981,1.39975,-0.921238,0.894816,0.957963,0.363955,-0.605293,0.294738,-0.510026,0.869662,0.802536,0.0550617,0.142329,0.576756,-1.03745,-0.0915686,0.779807,1.90223,-0.426765,1.40551,-3.42425,0.167495,2.13859,-3.42425,0.167495,2.13859,-0.770715,0.787849,-0.530495,0.49472,0.526184,0.267437,-0.359831,1
1.32025,-0.588112,-2.03933,-1.02908,2.30655,1.30379,-1.11178,1.32025,-0.588112,-2.03933,-1.02908,2.30655,1.30379,-1.11178,1.39788,-0.66667,-1.98561,-1.07861,2.2553,1.279,-1.07503,-1.37803,1.39616,-0.947302,0.907425,0.91454,0.457003,-0.639276,-1.37803,1.39616,-0.947302,0.907425,0.91454,0.457003,-0.639276,0.284736,-0.510437,0.877041,0.811397,0.0491547,0.142966,0.564606,-1.04547,-0.0504425,0.780187,1.86767,-0.424775,1.42597,-3.45591,0.199002,2.04577,-3.45591,0.199002,2.04577,-0.776264,0.785579,-0.537187,0.495296,0.512574,0.247895,-0.367455,1
1.30743,-0.574822,-2.04801,-1.02207,2.31534,1.30565,-1.11735,1.30743,-0.574822,-2.04801,-1.02207,2.31534,1.30565,-1.11735,1.38498,-0.653522,-1.9945,-1.07026,2.26401,1.28346,-1.08106,-1.36329,1.39747,-0.941597,0.869085,0.934902,0.489651,-0.64143,-1.36329,1.39747,-0.941597,0.869085,0.934902,0.489651,-0.64143,0.274783,-0.510385,0.884379,0.820017,0.0428964,0.14369,0.552345,-1.0285,-0.00167614,0.772813,1.83388,-0.422686,1.44554,-3.37852,0.20892,1.95699,-3.37852,0.20892,1.95699,-0.77551,0.787003,-0.535184,0.481883,0.513359,0.221888,-0.362921,1
1.2944,-0.561711,-2.0576,-1.01256,2.32264,1.31131,-1.12308,1.2944,-0.561711,-2.0576,-1.01256,2.32264,1.31131,-1.12308,1.37206,-0.640394,-2.00343,-1.06204,2.27265,1.28776,-1.08717,-1.37984,1.39229,-0.955924,0.877653,0.90296,0.426876,-0.655379,-1.37984,1.39229,-0.955924,0.877653,0.90296,0.426876,-0.655379,0.264919,-0.509994,0.891665,0.8284,0.0366598,0.144518,0.539929,-1.02977,0.0211574,0.770783,1.79982,-0.420633,1.46437,-3.40575,0.205255,1.88327,-3.40575,0.205255,1.88327,-0.77669,0.786831,-0.5417,0.49481,0.499881,0.235515,-0.359177,1
1.28196,-0.548374,-2.06598,-1.00608,2.33267,1.31557,-1.12778,1.28196,-0.548374,-2.06598,-1.00608,2.33267,1.31557,-1.12778,1.3591,-0.627268,-2.01239,-1.05392,2.28118,1.29152,-1.09326,-1.37595,1.39666,-0.948652,0.848221,0.909768,0.376262,-0.641422,-1.37595,1.39666,-0.948652,0.848221,0.909768,0.376262,-0.641422,0.255175,-0.509311,0.898906,0.836539,0.0306151,0.145478,0.527354,-1.01036,0.0595987,0.765851,1.76603,-0.418537,1.48166,-3.37912,0.20968,1.72914,-3.37912,0.20968,1.72914,-0.771319,0.788941,-0.535932,0.478455,0.514889,0.240473,-0.345181,1
1.26911,-0.535238,-2.07474,-1.00041,2.34155,1.31717,-1.13383,1.26911,-0.535238,-2.07474,-1.00041,2.34155,1.31717,-1.13383,1.34614,-0.614126,-2.0214,-1.04576,2.28959,1.29531,-1.09927,-1.37787,1.39583,-0.96409,0.88423,0.879906,0.425993,-0.634267,-1.37787,1.39583,-0.96409,0.88423,0.879906,0.425993,-0.634267,0.245491,-0.508248,0.906168,0.844416,0.0244348,0.14654,0.514676,-1.0178,0.0980446,0.775967,1.7331,-0.416405,1.49834,-3.29348,0.213155,1.66793,-3.29348,0.213155,1.66793,-0.77027,0.788883,-0.533451,0.453505,0.519511,0.21854,-0.345612,1
1.25663,-0.52262,-2.08601,-0.987521,2.34651,1.33433,-1.14179,1.25663,-0.52262,-2.08601,-0.987521,2.34651,1.33433,-1.14179,1.33323,-0.600965,-2.03039,-1.03765,2.29808,1.29935,-1.10509,-1.36523,1.40052,-0.947874,0.840881,0.921079,0.431894,-0.604405,-1.36523,1.40052,-0.947874,0.840881,0.921079,0.431894,-0.604405,0.235897,-0.506761,0.913432,0.851959,0.0180475,0.147608,0.502047,-0.993652,0.143861,0.768712,1.69851,-0.415314,1.51453,-3.45838,0.109068,1.61963,-3.45838,0.109068,1.61963,-0.765964,0.783452,-0.556222,0.501319,0.484238,0.349818,-0.367057,1
1.24372,-0.509002,-2.092,-0.984894,2.36235,1.32882,-1.14246,1.24372,-0.509002,-2.092,-0.984894,2.36235,1.32882,-1.14246,1.32038,-0.587788,-2.03929,-1.03,2.30678,1.30313,-1.11082,-1.36536,1.39943,-0.944035,0.788099,0.92593,0.373889,-0.612764,-1.36536,1.39943,-0.944035,0.788099,0.92593,0.373889,-0.612764,0.226562,-0.504923,0.920568,0.859127,0.0118399,0.148669,0.489548,-0.966817,0.174446,0.750958,1.66506,-0.412807,1.52912,-3.3453,0.250751,1.45814,-3.3453,0.250751,1.45814,-0.766559,0.787861,-0.527036,0.451084,0.555708,0.256938,-0.316439,1
1.22981,-0.496596,-2.10405,-0.976444,2.36492,1.33306,-1.15188,1.22981,-0.496596,-2.10405,-0.976444,2.36492,1.33306,-1.15188,1.30757,-0.574682,-2.04846,-1.02194,2.31505,1.30825,-1.11684,-1.35652,1.38643,-1.00008,0.916638,0.837688,0.694627,-0.664411,-1.35652,1.38643,-1.00008,0.916638,0.837688,0.694627,-0.664411,0.217123,-0.502592,0.927748,0.866175,0.00475444,0.149922,0.476699,-1.00914,0.232409,0.777679,1.63146,-0.41036,1.54333,-3.36027,0.244656,1.42121,-3.36027,0.244656,1.42121,-0.777678,0.780861,-0.555879,0.454983,0.498693,0.248124,-0.350376,1
1.21838,-0.482813,-2.11244,-0.966355,2.37516,1.34179,-1.15641,1.21838,-0.482813,-2.11244,-0.966355,2.37516,1.34179,-1.15641,1.29479,-0.561565,-2.05747,-1.01402,2.32387,1.31337,-1.12244,-1.35986,1.39978,-0.919491,0.775617,1.02467,0.411415,-0.53316,-1.35986,1.39978,-0.919491,0.775617,1.02467,0.411415,-0.53316,0.207797,-0.499895,0.934925,0.872805,-0.00236984,0.150957,0.464131,-0.948197,0.251794,0.754095,1.59719,-0.408506,1.55611,-3.42658,0.185421,1.27797,-3.42658,0.185421,1.27797,-0.764101,0.787527,-0.549709,0.476641,0.512927,0.2842,-0.339697,1
1.20503,-0.470191,-2.12212,-0.959575,2.38405,1.34814,-1.16096,1.20503,-0.470191,-2.12212,-0.959575,2.38405,1.34814,-1.16096,1.28186,-0.548481,-2.06652,-1.00658,2.33268,1.31729,-1.12798,-1.38617,1.38172,-0.999288,0.802649,0.858465,0.420084,-0.636591,-1.38617,1.38172,-0.999288,0.802649,0.858465,0.420084,-0.636591,0.198757,-0.497102,0.941891,0.879172,-0.00877306,0.152121,0.451484,-0.955136,0.263956,0.73523,1.56312,-0.406783,1.56783,-3.40704,0.172335,1.17234,-3.40704,0.172335,1.17234,-0.768315,0.782897,-0.556003,0.470088,0.513725,0.308552,-0.329861,1
1.19232,-0.457648,-2.13263,-0.950394,2.39204,1.3578,-1.1677,1.19232,-0.457648,-2.13263,-0.950394,2.39204,1.3578,-1.1677,1.269,-0.535384,-2.07581,-0.998731,2.34102,1.3218,-1.1338,-1.3481,1.4,-0.975493,0.862191,0.909295,0.53232,-0.602229,-1.3481,1.4,-0.975493,0.862191,0.909295,0.53232,-0.602229,0.189755,-0.493852,0.948924,0.885398,-0.0157239,0.153557,0.438455,-0.943747,0.334511,0.768096,1.52858,-0.405306,1.57909,-3.45389,0.147697,1.12559,-3.45389,0.147697,1.12559,-0.766835,0.777363,-0.56821,0.483373,0.510265,0.359989,-0.339049,1
1.17993,-0.44453,-2.14165,-0.945474,2.40225,1.36254,-1.17154,1.17993,-0.44453,-2.14165,-0.945474,2.40225,1.36254,-1.17154,1.25623,-0.522272,-2.08505,-0.990773,2.34961,1.32697,-1.13933,-1.36369,1.38695,-0.987274,0.830815,0.917162,0.563825,-0.575991,-1.36369,1.38695,-0.987274,0.830815,0.917162,0.563825,-0.575991,0.180837,-0.490125,0.955992,0.891255,-0.0231298,0.154904,0.425599,-0.935026,0.359477,0.747848,1.49452,-0.403713,1.58857,-3.40627,0.159243,0.947785,-3.40627,0.159243,0.947785,-0.763055,0.777419,-0.565984,0.452991,0.52631,0.355684,-0.322051,1
1.16721,-0.431893,-2.15196,-0.938958,2.40987,1.36997,-1.17689,1.16721,-0.431893,-2.15196,-0.938958,2.40987,1.36997,-1.17689,1.24341,-0.509278,-2.09449,-0.982793,2.35817,1.33279,-1.14491,-1.36071,1.37493,-1.01583,0.862803,0.902019,0.666098,-0.606949,-1.36071,1.37493,-1.01583,0.862803,0.902019,0.666098,-0.606949,0.171956,-0.486071,0.962946,0.896863,-0.0308732,0.156326,0.412609,-0.936595,0.397182,0.745658,1.46039,-0.402269,1.59685,-3.41345,0.144452,0.828779,-3.41345,0.144452,0.828779,-0.762071,0.773847,-0.57476,0.43835,0.51697,0.371858,-0.319828,1
1.15472,-0.41852,-2.16075,-0.935325,2.42094,1.36999,-1.1804,1.15472,-0.41852,-2.16075,-0.935325,2.42094,1.36999,-1.1804,1.23066,-0.496316,-2.10398,-0.975049,2.36686,1.33888,-1.1504,-1.35087,1.37907,-1.00305,0.787581,0.942262,0.630092,-0.562874,-1.35087,1.37907,-1.00305,0.787581,0.942262,0.630092,-0.562874,0.163292,-0.481682,0.96976,0.902131,-0.038719,0.157775,0.399708,-0.894689,0.427176,0.722029,1.4268,-0.400137,1.60435,-3.35822,0.213197,0.749457,-3.35822,0.213197,0.749457,-0.75939,0.777959,-0.567675,0.397237,0.540759,0.311131,-0.299944,1
1.14214,-0.405561,-2.1707,-0.929528,2.42872,1.37551,-1.18528,1.14214,-0.405561,-2.1707,-0.929528,2.42872,1.37551,-1.18528,1.21794,-0.483376,-2.11353,-0.967741,2.37558,1.34498,-1.15571,-1.35098,1.37094,-1.0235,0.766457,0.912934,0.665432,-0.564161,-1.35098,1.37094,-1.0235,0.766457,0.912934,0.665432,-0.564161,0.154933,-0.477024,0.976364,0.907037,-0.0464551,0.159324,0.386964,-0.875301,0.454939,0.703577,1.39311,-0.398081,1.61132,-3.36933,0.205576,0.696766,-3.36933,0.205576,0.696766,-0.757979,0.778149,-0.571717,0.382136,0.531313,0.30528,-0.295749,1
1.13044,-0.392153,-2.17952,-0.925203,2.44026,1.3783,-1.18807,1.13044,-0.392153,-2.17952,-0.925203,2.44026,1.3783,-1.18807,1.20525,-0.470417,-2.12306,-0.960948,2.38447,1.35051,-1.1608,-1.34566,1.38196,-1.00363,0.682305,0.971145,0.518631,-0.521714,-1.34566,1.38196,-1.00363,0.682305,0.971145,0.518631,-0.521714,0.146934,-0.472195,0.982773,0.911612,-0.0537729,0.160913,0.374404,-0.826947,0.469853,0.682517,1.35927,-0.396159,1.61674,-3.3838,0.192171,0.542188,-3.3838,0.192171,0.542188,-0.748058,0.782639,-0.564627,0.357449,0.557942,0.277848,-0.272617,1
1.11875,-0.379331,-2.18906,-0.924728,2.45138,1.38434,-1.19114,1.11875,-0.379331,-2.18906,-0.924728,2.45138,1.38434,-1.19114,1.19259,-0.457415,-2.13257,-0.954599,2.39345,1.35547,-1.16571,-1.34351,1.38081,-1.0154,0.667617,0.939105,0.533689,-0.521108,-1.34351,1.38081,-1.0154,0.667617,0.939105,0.533689,-0.521108,0.139293,-0.467184,0.989021,0.91588,-0.0607137,0.162563,0.36201,-0.803245,0.498209,0.67029,1.32629,-0.39436,1.62181,-3.29833,0.179982,0.507116,-3.29833,0.179982,0.507116,-0.738484,0.78084,-0.56491,0.298707,0.579266,0.288699,-0.254238,1
1.10753,-0.365786,-2.19815,-0.917232,2.46179,1.38718,-1.19477,1.10753,-0.365786,-2.19815,-0.917232,2.46179,1.38718,-1.19477,1.18006,-0.444369,-2.14204,-0.948545,2.40261,1.36023,-1.17037,-1.32122,1.39047,-0.9982,0.621579,1.00273,0.481115,-0.471284,-1.32122,1.39047,-0.9982,0.621579,1.00273,0.481115,-0.471284,0.131979,-0.461923,0.995157,0.919822,-0.0675234,0.16422,0.349857,-0.761902,0.524504,0.659955,1.29201,-0.392772,1.62569,-3.42766,0.158763,0.388682,-3.42766,0.158763,0.388682,-0.725268,0.785834,-0.561102,0.313124,0.59182,0.269461,-0.244017,1
1.09431,-0.352698,-2.20754,-0.914547,2.47222,1.38546,-1.19756,1.09431,-0.352698,-2.20754,-0.914547,2.47222,1.38546,-1.19756,1.16771,-0.431312,-2.15145,-0.943326,2.41224,1.36494,-1.17464,-1.30387,1.38422,-1.00145,0.495242,1.0421,0.51668,-0.439179,-1.30387,1.38422,-1.00145,0.495242,1.0421,0.51668,-0.439179,0.1251,-0.456517,1.001,0.923381,-0.0740307,0.16577,0.338243,-0.713016,0.533911,0.610893,1.25817,-0.390404,1.62889,-3.38413,0.236797,0.319088,-3.38413,0.236797,0.319088,-0.733986,0.786141,-0.560906,0.28779,0.599767,0.205232,-0.229218,1
1.08412,-0.339632,-2.21773,-0.917152,2.48326,1.38841,-1.19929,1.08412,-0.339632,-2.21773,-0.917152,2.48326,1.38841,-1.19929,1.15556,-0.418223,-2.16084,-0.938331,2.42212,1.36956,-1.17872,-1.27897,1.39634,-0.993564,0.561841,1.05629,0.46906,-0.427426,-1.27897,1.39634,-0.993564,0.561841,1.05629,0.46906,-0.427426,0.118541,-0.450876,1.00674,0.92665,-0.0804924,0.167278,0.326893,-0.692892,0.573993,0.63593,1.22504,-0.388496,1.63069,-3.31341,0.190812,0.180089,-3.31341,0.190812,0.180089,-0.714457,0.785905,-0.568957,0.21179,0.611418,0.188507,-0.205757,1
1.07236,-0.326163,-2.22716,-0.906412,2.4932,1.39023,-1.20265,1.07236,-0.326163,-2.22716,-0.906412,2.4932,1.39023,-1.20265,1.14338,-0.405086,-2.17019,-0.933349,2.43212,1.37326,-1.1826,-1.30676,1.39503,-0.994513,0.500675,1.06774,0.324963,-0.398576,-1.30676,1.39503,-0.994513,0.500675,1.06774,0.324963,-0.398576,0.112215,-0.44512,1.01249,0.929747,-0.0865679,0.168776,0.315582,-0.668633,0.567578,0.613847,1.191,-0.386828,1.63178,-3.40402,0.166762,0.108945,-3.40402,0.166762,0.108945,-0.710232,0.789232,-0.569641,0.269366,0.610801,0.169749,-0.200532,1
1.06055,-0.312939,-2.23611,-0.904591,2.50409,1.39094,-1.20726,1.06055,-0.312939,-2.23611,-0.904591,2.50409,1.39094,-1.20726,1.13133,-0.391962,-2.17965,-0.929496,2.44229,1.3763,-1.18611,-1.2573,1.39351,-1.01404,0.328698,1.09112,0.32247,-0.351046,-1.2573,1.39351,-1.01404,0.328698,1.09112,0.32247,-0.351046,0.106387,-0.439486,1.01782,0.93258,-0.0918632,0.170319,0.304709,-0.59674,0.559279,0.55028,1.15747,-0.385217,1.63184,-3.35237,0.161093,0.00607967,-3.35237,0.161093,0.00607967,-0.707861,0.79023,-0.564534,0.249045,0.617988,0.146382,-0.211539,1
1.04897,-0.300265,-2.24806,-0.901148,2.51377,1.39064,-1.20999,1.04897,-0.300265,-2.24806,-0.901148,2.51377,1.39064,-1.20999,1.11951,-0.378804,-2.18918,-0.925503,2.45252,1.3792,-1.18942,-1.25543,1.4018,-1.01123,0.508386,1.08332,0.293884,-0.352272,-1.25543,1.4018,-1.01123,0.508386,1.08332,0.293884,-0.352272,0.100807,-0.433615,1.02316,0.935196,-0.0972086,0.171878,0.293967,-0.610699,0.61505,0.609337,1.12369,-0.383385,1.63075,-3.37799,0.183222,-0.10891,-3.37799,0.183222,-0.10891,-0.70534,0.785397,-0.588793,0.243549,0.612518,0.114436,-0.205644,1
1.03778,-0.287231,-2.25812,-0.89661,2.52386,1.39451,-1.21216,1.03778,-0.287231,-2.25812,-0.89661,2.52386,1.39451,-1.21216,1.10769,-0.365606,-2.19863,-0.921066,2.4628,1.38172,-1.19289,-1.2554,1.40247,-0.997823,0.438719,1.0995,0.245551,-0.382796,-1.2554,1.40247,-0.997823,0.438719,1.0995,0.245551,-0.382796,0.0953594,-0.42746,1.02863,0.93769,-0.102679,0.173405,0.283063,-0.573547,0.620305,0.584723,1.08994,-0.381787,1.62837,-3.37552,0.159794,-0.237525,-3.37552,0.159794,-0.237525,-0.699078,0.783749,-0.59484,0.244565,0.610619,0.127839,-0.192678,1
1.02623,-0.274109,-2.26819,-0.893953,2.53408,1.39025,-1.21662,1.02623,-0.274109,-2.26819,-0.893953,2.53408,1.39025,-1.21662,1.0959,-0.352467,-2.20833,-0.917018,2.47307,1.38373,-1.19639,-1.24968,1.3901,-1.05809,0.422581,1.08388,0.184137,-0.362059,-1.24968,1.3901,-1.05809,0.422581,1.08388,0.184137,-0.362059,0.0901657,-0.421354,1.0339,0.940065,-0.107727,0.17499,0.272122,-0.560491,0.613126,0.565708,1.05601,-0.380209,1.62509,-3.39285,0.157797,-0.3281,-3.39285,0.157797,-0.3281,-0.696676,0.783582,-0.598627,0.230641,0.610093,0.065216,-0.202282,1
1.01455,-0.261472,-2.27971,-0.890259,2.54322,1.39092,-1.22074,1.01455,-0.261472,-2.27971,-0.890259,2.54322,1.39092,-1.22074,1.08421,-0.339388,-2.2183,-0.912974,2.48326,1.38571,-1.19965,-1.23623,1.3889,-1.06036,0.435761,1.08119,0.234228,-0.333013,-1.23623,1.3889,-1.06036,0.435761,1.08119,0.234228,-0.333013,0.0851512,-0.415139,1.03907,0.942254,-0.112737,0.17668,0.261213,-0.539192,0.642054,0.562952,1.02222,-0.378624,1.6208,-3.37926,0.158557,-0.428796,-3.37926,0.158557,-0.428796,-0.696586,0.779162,-0.614143,0.227153,0.599604,0.0521522,-0.210918,1
1.00351,-0.248507,-2.28929,-0.893202,2.55609,1.37996,-1.21942,1.00351,-0.248507,-2.28929,-0.893202,2.55609,1.37996,-1.21942,1.07258,-0.326309,-2.22829,-0.909042,2.49344,1.38715,-1.20294,-1.23416,1.39005,-1.0625,0.401798,1.08218,0.0823529,-0.364155,-1.23416,1.39005,-1.0625,0.401798,1.08218,0.0823529,-0.364155,0.0804008,-0.408845,1.04416,0.944308,-0.117505,0.178381,0.250311,-0.50833,0.636521,0.552227,0.98907,-0.3767,1.61549,-3.31481,0.19238,-0.530982,-3.31481,0.19238,-0.530982,-0.690738,0.778023,-0.609975,0.158397,0.62646,-0.0719191,-0.164822,1
0.991177,-0.235253,-2.30062,-0.886058,2.56353,1.37533,-1.22203,0.991177,-0.235253,-2.30062,-0.886058,2.56353,1.37533,-1.22203,1.06096,-0.313278,-2.23847,-0.90527,2.5035,1.38792,-1.20645,-1.23586,1.3796,-1.09831,0.399767,1.05763,0.0800552,-0.380594,-1.23586,1.3796,-1.09831,0.399767,1.05763,0.0800552,-0.380594,0.0758661,-0.40258,1.04915,0.946294,-0.121897,0.180136,0.239207,-0.496874,0.642821,0.539509,0.955432,-0.374861,1.6094,-3.3638,0.183833,-0.609004,-3.3638,0.183833,-0.609004,-0.697778,0.780244,-0.621477,0.192128,0.600226,-0.125906,-0.155754,1
0.983177,-0.222096,-2.30864,-0.887365,2.57893,1.36614,-1.21852,0.983177,-0.222096,-2.30864,-0.887365,2.57893,1.36614,-1.21852,1.04939,-0.300295,-2.24872,-0.902296,2.5138,1.3873,-1.20946,-1.22196,1.37913,-1.08039,0.242159,1.12608,-0.195268,-0.265399,-1.22196,1.37913,-1.08039,0.242159,1.12608,-0.195268,-0.265399,0.0716639,-0.396618,1.0539,0.948191,-0.125263,0.181773,0.228477,-0.444209,0.592867,0.498345,0.922313,-0.373224,1.60219,-3.31187,0.163752,-0.720978,-3.31187,0.163752,-0.720978,-0.662148,0.781987,-0.599234,0.149312,0.651254,-0.2116,-0.0906071,1
0.971967,-0.208839,-2.31962,-0.888634,2.58875,1.35725,-1.21948,0.971967,-0.208839,-2.31962,-0.888634,2.58875,1.35725,-1.21948,1.03779,-0.287282,-2.25902,-0.899445,2.52403,1.38513,-1.21197,-1.24141,1.38554,-1.10767,0.356505,1.05184,-0.261005,-0.267868,-1.24141,1.38554,-1.10767,0.356505,1.05184,-0.261005,-0.267868,0.0676943,-0.39077,1.05864,0.95003,-0.12784,0.183407,0.21786,-0.44684,0.628417,0.530441,0.88907,-0.371567,1.59438,-3.32425,0.165713,-0.781059,-3.32425,0.165713,-0.781059,-0.658271,0.78443,-0.605987,0.108112,0.647213,-0.278832,-0.0751153,1
0.962014,-0.195767,-2.32781,-0.875606,2.60275,1.34472,-1.21619,0.962014,-0.195767,-2.32781,-0.875606,2.60275,1.34472,-1.21619,1.02654,-0.274227,-2.26917,-0.896637,2.53458,1.38188,-1.21378,-1.15482,1.38827,-1.05122,0.24693,1.18109,-0.419302,-0.126166,-1.15482,1.38827,-1.05122,0.24693,1.18109,-0.419302,-0.126166,0.0640595,-0.384879,1.06343,0.951716,-0.129966,0.184828,0.20781,-0.376034,0.611835,0.507196,0.855248,-0.369403,1.58558,-3.38228,0.216427,-0.879967,-3.38228,0.216427,-0.879967,-0.645283,0.784608,-0.586387,0.210314,0.68174,-0.371647,-0.0240454,1
0.951995,-0.182412,-2.33624,-0.873353,2.61489,1.33743,-1.21222,0.951995,-0.182412,-2.33624,-0.873353,2.61489,1.33743,-1.21222,1.01563,-0.261138,-2.27919,-0.894735,2.54554,1.37735,-1.21494,-1.16284,1.39274,-1.07675,0.162487,1.1507,-0.535476,-0.120844,-1.16284,1.39274,-1.07675,0.162487,1.1507,-0.535476,-0.120844,0.0608574,-0.379253,1.068,0.953317,-0.131156,0.185994,0.198471,-0.349733,0.588443,0.479306,0.822185,-0.36736,1.57573,-3.30626,0.204208,-0.985253,-3.30626,0.204208,-0.985253,-0.636379,0.787267,-0.57056,0.21382,0.693464,-0.399235,0.027234,1
0.943956,-0.170728,-2.34871,-0.860363,2.62767,1.33182,-1.21279,0.943956,-0.170728,-2.34871,-0.860363,2.62767,1.33182,-1.21279,1.0048,-0.248034,-2.28909,-0.891855,2.55674,1.37143,-1.21556,-1.13953,1.39189,-1.03089,0.432716,1.22516,-0.711488,-0.0166981,-1.13953,1.39189,-1.03089,0.432716,1.22516,-0.711488,-0.0166981,0.0577071,-0.373387,1.07292,0.954867,-0.132189,0.186916,0.189254,-0.357698,0.661732,0.572161,0.788688,-0.366075,1.56509,-3.34966,0.128552,-1.06387,-3.34966,0.128552,-1.06387,-0.608481,0.77306,-0.59617,0.314921,0.709267,-0.396086,0.0276591,1
0.933835,-0.158797,-2.36007,-0.854971,2.63996,1.32521,-1.2142,0.933835,-0.158797,-2.36007,-0.854971,2.63996,1.32521,-1.2142,0.994162,-0.234903,-2.29865,-0.887996,2.56835,1.36467,-1.21523,-1.12292,1.39787,-1.0012,0.389938,1.2394,-0.725344,0.0802287,-1.12292,1.39787,-1.0012,0.389938,1.2394,-0.725344,0.0802287,0.0546873,-0.367126,1.07819,0.956256,-0.133361,0.187554,0.180591,-0.318805,0.672345,0.557836,0.755049,-0.364747,1.55317,-3.36398,0.132766,-1.19245,-3.36398,0.132766,-1.19245,-0.603264,0.761061,-0.614185,0.330249,0.716092,-0.394608,0.0103198,1
0.92304,-0.148719,-2.37378,-0.849382,2.65149,1.31985,-1.21437,0.92304,-0.148719,-2.37378,-0.849382,2.65149,1.31985,-1.21437,0.98389,-0.221919,-2.30843,-0.88323,2.58014,1.35798,-1.21463,-1.06345,1.36324,-1.07271,0.608977,1.26566,-0.696625,0.048987,-1.06345,1.36324,-1.07271,0.608977,1.26566,-0.696625,0.048987,0.0517252,-0.360509,1.08363,0.957498,-0.135004,0.188059,0.17206,-0.336818,0.72809,0.605575,0.721742,-0.363012,1.5411,-3.3307,0.173539,-1.20726,-3.3307,0.173539,-1.20726,-0.608503,0.731998,-0.65347,0.338488,0.713434,-0.381364,0.00264817,1
0.914214,-0.137804,-2.38508,-0.844692,2.66366,1.3161,-1.2119,0.914214,-0.137804,-2.38508,-0.844692,2.66366,1.3161,-1.2119,0.973867,-0.209194,-2.31867,-0.877538,2.5921,1.35142,-1.21439,-1.06607,1.34208,-1.1023,0.600985,1.27442,-0.698067,0.00509833,-1.06607,1.34208,-1.1023,0.600985,1.27442,-0.698067,0.00509833,0.0486989,-0.35361,1.08919,0.958675,-0.137121,0.188422,0.16321,-0.331629,0.728155,0.589614,0.687891,-0.361631,1.52691,-3.38508,0.138122,-1.41877,-3.38508,0.138122,-1.41877,-0.596536,0.713898,-0.664055,0.328461,0.715627,-0.353203,0.0248801,1
0.904494,-0.127147,-2.39781,-0.844266,2.67476,1.31049,-1.21247,0.904494,-0.127147,-2.39781,-0.844266,2.67476,1.31049,-1.21247,0.963744,-0.196862,-2.32944,-0.87189,2.60404,1.34499,-1.21437,-1.08397,1.28205,-1.18067,0.599402,1.26351,-0.669602,1.47752e-05,-1.08397,1.28205,-1.18067,0.599402,1.26351,-0.669602,1.47752e-05,0.0455665,-0.34684,1.09453,0.95983,-0.139163,0.18874,0.154066,-0.35828,0.704805,0.561125,0.653901,-0.360435,1.51179,-3.39903,0.119579,-1.51178,-3.39903,0.119579,-1.51178,-0.5925,0.697145,-0.683722,0.276233,0.707172,-0.345021,0.0189484,1
0.895224,-0.117212,-2.4104,-0.847912,2.68613,1.30156,-1.21295,0.895224,-0.117212,-2.4104,-0.847912,2.68613,1.30156,-1.21295,0.953703,-0.18493,-2.34058,-0.86636,2.61597,1.33899,-1.21408,-1.05161,1.25499,-1.18514,0.577015,1.27017,-0.60957,0.0579394,-1.05161,1.25499,-1.18514,0.577015,1.27017,-0.60957,0.0579394,0.0424236,-0.340153,1.09965,0.960875,-0.141228,0.189038,0.145046,-0.336491,0.708058,0.539005,0.620457,-0.35892,1.49568,-3.34433,0.151536,-1.61072,-3.34433,0.151536,-1.61072,-0.584785,0.677187,-0.698222,0.184479,0.701682,-0.374282,0.0113325,1
0.885748,-0.106839,-2.42179,-0.849549,2.69824,1.2927,-1.20831,0.885748,-0.106839,-2.42179,-0.849549,2.69824,1.2927,-1.20831,0.943826,-0.173254,-2.35192,-0.861517,2.62782,1.33327,-1.21366,-1.04743,1.22783,-1.22225,0.459389,1.24996,-0.60657,0.0317122,-1.04743,1.22783,-1.22225,0.459389,1.24996,-0.60657,0.0317122,0.0394506,-0.333664,1.10441,0.961829,-0.143074,0.18934,0.136255,-0.322577,0.668579,0.489344,0.587438,-0.357179,1.47844,-3.30193,0.174028,-1.72445,-3.30193,0.174028,-1.72445,-0.580774,0.664143,-0.698704,0.119676,0.704211,-0.405648,0.0535592,1
0.875431,-0.0945407,-2.43208,-0.848254,2.71071,1.28478,-1.19958,0.875431,-0.0945407,-2.43208,-0.848254,2.71071,1.28478,-1.19958,0.934036,-0.161888,-2.36355,-0.85813,2.63954,1.32718,-1.21346,-1.03353,1.18968,-1.24759,0.272085,1.24078,-0.68219,0.0136082,-1.03353,1.18968,-1.24759,0.272085,1.24078,-0.68219,0.0136082,0.0366246,-0.327815,1.10865,0.962842,-0.144015,0.189566,0.127517,-0.307506,0.590065,0.422383,0.554546,-0.355419,1.46063,-3.2892,0.175983,-1.78056,-3.2892,0.175983,-1.78056,-0.586055,0.673468,-0.685366,0.0987511,0.711678,-0.423972,0.138792,1
0.867054,-0.0842855,-2.44398,-0.85792,2.72221,1.27453,-1.19607,0.867054,-0.0842855,-2.44398,-0.85792,2.72221,1.27453,-1.19607,0.924338,-0.150786,-2.37525,-0.856062,2.65127,1.32047,-1.2128,-1.0276,1.17027,-1.23926,0.173421,1.25083,-0.739481,0.119568,-1.0276,1.17027,-1.23926,0.173421,1.25083,-0.739481,0.119568,0.0339312,-0.32257,1.11246,0.963895,-0.143991,0.189633,0.119217,-0.292592,0.554065,0.38884,0.521741,-0.353802,1.44162,-3.28053,0.161773,-1.90133,-3.28053,0.161773,-1.90133,-0.572842,0.66501,-0.68727,-0.0185805,0.709389,-0.459382,0.167238,1
0.861161,-0.0763316,-2.45714,-0.851255,2.73272,1.26816,-1.20049,0.861161,-0.0763316,-2.45714,-0.851255,2.73272,1.26816,-1.20049,0.914589,-0.13962,-2.38675,-0.854469,2.66312,1.3134,-1.21078,-1.04276,1.20043,-1.20712,0.165492,1.2671,-0.762024,0.298302,-1.04276,1.20043,-1.20712,0.165492,1.2671,-0.762024,0.298302,0.0314285,-0.317367,1.11616,0.964845,-0.143583,0.189663,0.11174,-0.264666,0.581414,0.393839,0.488973,-0.352422,1.42214,-3.27675,0.137955,-1.948,-3.27675,0.137955,-1.948,-0.534285,0.632887,-0.703853,0.0321463,0.695949,-0.452378,0.10287,1
0.851315,-0.0657424,-2.46726,-0.868551,2.74477,1.25701,-1.19244,0.851315,-0.0657424,-2.46726,-0.868551,2.74477,1.25701,-1.19244,0.904943,-0.128444,-2.39818,-0.85423,2.675,1.30586,-1.20789,-1.00897,1.17589,-1.21957,-0.0982544,1.25708,-0.834312,0.314629,-1.00897,1.17589,-1.21957,-0.0982544,1.25708,-0.834312,0.314629,0.0291611,-0.312607,1.11948,0.9658,-0.142343,0.189608,0.104963,-0.242178,0.480129,0.311533,0.455776,-0.350335,1.40171,-3.31967,0.208703,-2.04297,-3.31967,0.208703,-2.04297,-0.536282,0.627013,-0.690833,-0.143213,0.697715,-0.488543,0.154487,1
0.842342,-0.0588571,-2.48028,-0.868006,2.75493,1.25378,-1.19328,0.842342,-0.0588571,-2.48028,-0.868006,2.75493,1.25378,-1.19328,0.89587,-0.117741,-2.40986,-0.854263,2.68668,1.29818,-1.2058,-0.924262,1.1027,-1.25912,0.0801171,1.22602,-0.799525,0.141218,-0.924262,1.1027,-1.25912,0.0801171,1.22602,-0.799525,0.141218,0.0269123,-0.30817,1.1226,0.9668,-0.140901,0.189331,0.0979734,-0.253651,0.51024,0.338942,0.422303,-0.348996,1.38027,-3.34734,0.133872,-2.14403,-3.34734,0.133872,-2.14403,-0.535279,0.588843,-0.704281,-0.137425,0.682565,-0.44405,0.12513,1
0.834995,-0.049614,-2.49083,-0.884103,2.76791,1.24257,-1.19241,0.834995,-0.049614,-2.49083,-0.884103,2.76791,1.24257,-1.19241,0.887035,-0.107337,-2.4215,-0.85563,2.69828,1.29023,-1.20368,-0.951195,1.10763,-1.21848,-0.344085,1.23809,-0.884713,0.299181,-0.951195,1.10763,-1.21848,-0.344085,1.23809,-0.884713,0.299181,0.0247211,-0.304359,1.12528,0.967871,-0.138693,0.188828,0.0912848,-0.230824,0.369483,0.222748,0.389291,-0.347559,1.35823,-3.30125,0.143704,-2.20402,-3.30125,0.143704,-2.20402,-0.520401,0.577233,-0.693221,-0.284725,0.696343,-0.476648,0.112623,1
0.827658,-0.0504141,-2.50519,-0.896104,2.77625,1.24614,-1.21081,0.827658,-0.0504141,-2.50519,-0.896104,2.77625,1.24614,-1.21081,0.87808,-0.0973274,-2.43316,-0.858424,2.70976,1.2825,-1.20129,-0.951664,1.02443,-1.25497,-0.255146,1.20303,-0.764917,0.213233,-0.951664,1.02443,-1.25497,-0.255146,1.20303,-0.764917,0.213233,0.0223958,-0.301216,1.12745,0.968995,-0.135805,0.188168,0.0848413,-0.273411,0.371867,0.219807,0.35576,-0.346814,1.33444,-3.35301,0.0745595,-2.37882,-3.35301,0.0745595,-2.37882,-0.504218,0.469133,-0.720321,-0.376802,0.664968,-0.363607,-0.0952244,1
0.81785,-0.0424509,-2.5142,-0.908046,2.7896,1.23417,-1.20764,0.81785,-0.0424509,-2.5142,-0.908046,2.7896,1.23417,-1.20764,0.869311,-0.0877317,-2.44482,-0.862435,2.72127,1.27483,-1.19942,-0.913806,1.01504,-1.22513,-0.576987,1.24191,-0.859187,0.186474,-0.913806,1.01504,-1.22513,-0.576987,1.24191,-0.859187,0.186474,0.0199408,-0.298693,1.12919,0.970207,-0.132369,0.187167,0.0783912,-0.258139,0.254698,0.131569,0.322548,-0.345297,1.3103,-3.32119,0.151625,-2.41364,-3.32119,0.151625,-2.41364,-0.514615,0.452808,-0.693808,-0.456105,0.683249,-0.406681,-0.0822157,1
0.801477,-0.0584072,-2.52729,-0.926941,2.79633,1.24401,-1.2088,0.801477,-0.0584072,-2.52729,-0.926941,2.79633,1.24401,-1.2088,0.860858,-0.0793941,-2.45668,-0.868638,2.73257,1.26812,-1.20003,-0.884099,0.771711,-1.29163,-0.7314,1.16322,-0.585109,-0.287138,-0.884099,0.771711,-1.29163,-0.7314,1.16322,-0.585109,-0.287138,0.0169379,-0.297556,1.12999,0.971635,-0.128187,0.185587,0.0710634,-0.374163,0.0973428,0.0148585,0.289202,-0.344022,1.28473,-3.33461,0.127551,-2.55748,-3.33461,0.127551,-2.55748,-0.593815,0.209869,-0.706075,-0.583029,0.637551,-0.241051,-0.0876643,1
0.792368,-0.0411885,-2.53731,-0.931453,2.7998,1.26156,-1.22482,0.792368,-0.0411885,-2.53731,-0.931453,2.7998,1.26156,-1.22482,0.852362,-0.0720481,-2.46847,-0.876117,2.7438,1.26185,-1.20204,-0.91903,0.788145,-1.2177,-0.850234,1.21956,-0.737185,-0.14903,-0.91903,0.788145,-1.2177,-0.850234,1.21956,-0.737185,-0.14903,0.0133791,-0.297343,1.1302,0.973188,-0.123464,0.183485,0.0632028,-0.374489,0.0618819,-0.00589277,0.255164,-0.343446,1.25803,-3.40382,0.0576466,-2.66955,-3.40382,0.0576466,-2.66955,-0.599935,0.308596,-0.688419,-0.553363,0.559939,-0.0028486,-0.227767,1
0.777559,-0.0916044,-2.54774,-0.950698,2.80194,1.30188,-1.22455,0.777559,-0.0916044,-2.54774,-0.950698,2.80194,1.30188,-1.22455,0.842804,-0.0673761,-2.48012,-0.8854,2.75472,1.25688,-1.20342,-1.1005,0.238834,-1.25599,-1.10621,1.10786,-0.342734,-0.143272,-1.1005,0.238834,-1.25599,-1.10621,1.10786,-0.342734,-0.143272,0.0081054,-0.299121,1.12925,0.974936,-0.117457,0.180646,0.0554159,-0.706743,-0.280659,-0.230161,0.222278,-0.341991,1.23019,-3.2886,0.145468,-2.78426,-3.2886,0.145468,-2.78426,-0.652445,-0.242283,-0.676144,-0.652987,0.472173,0.44997,-0.211382,1
0.764766,-0.0904054,-2.55763,-0.960767,2.76513,1.31891,-1.20052,0.764766,-0.0904054,-2.55763,-0.960767,2.76513,1.31891,-1.20052,0.832592,-0.063369,-2.49174,-0.895119,2.76433,1.2561,-1.20649,-1.07112,0.590646,-1.2137,-0.967549,0.944342,0.145561,-0.488109,-1.07112,0.590646,-1.2137,-0.967549,0.944342,0.145561,-0.488109,0.00248578,-0.300719,1.12772,0.976322,-0.112976,0.178536,0.0464481,-0.489457,0.0312879,-0.13182,0.189829,-0.339941,1.20121,-3.24494,0.204995,-2.89783,-3.24494,0.204995,-2.89783,-0.678266,-0.270364,-0.658909,-0.656479,0.00797938,0.628127,0.0596489,1
0.747772,-0.131769,-2.57419,-0.972489,2.75386,1.31846,-1.20013,0.747772,-0.131769,-2.57419,-0.972489,2.75386,1.31846,-1.20013,0.821955,-0.0643867,-2.50304,-0.905417,2.77243,1.26204,-1.21051,-1.1822,-0.724784,-1.19023,-1.20579,0.785846,1.06078,-0.373923,-1.1822,-0.724784,-1.19023,-1.20579,0.785846,1.06078,-0.373923,-0.00553488,-0.304284,1.12448,0.977538,-0.109566,0.176164,0.0371513,-1.15898,-0.647038,-0.563468,0.157196,-0.338315,1.17161,-3.26324,0.162572,-2.9606,-3.26324,0.162572,-2.9606,-0.741823,-0.673823,-0.711442,-0.670713,-0.185723,0.564153,0.103809,1
0.734778,-0.146134,-2.5875,-0.979553,2.73846,1.32975,-1.21114,0.734778,-0.146134,-2.5875,-0.979553,2.73846,1.32975,-1.21114,0.810631,-0.0702663,-2.51409,-0.916616,2.77463,1.27286,-1.21079,-1.22141,-0.536309,-1.15936,-1.17574,-0.253014,1.22643,0.273516,-1.22141,-0.536309,-1.15936,-1.17574,-0.253014,1.22643,0.273516,-0.0154179,-0.31024,1.11931,0.978428,-0.105253,0.175449,0.0286179,-0.963289,-0.521341,-0.556952,0.124976,-0.336554,1.14094,-3.22199,0.176066,-3.0666,-3.22199,0.176066,-3.0666,-0.758526,-0.758676,-0.734049,-0.629369,-0.361684,0.568952,-0.00344002,1
0.715617,-0.157383,-2.59981,-0.97511,2.74792,1.32827,-1.19138,0.715617,-0.157383,-2.59981,-0.97511,2.74792,1.32827,-1.19138,0.798489,-0.0795814,-2.52567,-0.92776,2.77121,1.28299,-1.20848,-1.3506,-1.38977,-1.2921,-1.19114,-0.461997,0.94454,0.222237,-1.3506,-1.38977,-1.2921,-1.19114,-0.461997,0.94454,0.222237,-0.0269174,-0.318177,1.113,0.979271,-0.0983706,0.175984,0.0195371,-1.48335,-0.975284,-0.797277,0.100025,-0.332606,1.12555,-2.49512,0.394875,-1.53885,-2.49512,0.394875,-1.53885,-0.828723,-0.778012,-0.741408,-0.473498,-0.232846,0.452825,0.170978,1
0.707446,-0.139909,-2.59361,-0.882928,2.8304,1.32679,-1.18389,0.707446,-0.139909,-2.59361,-0.882928,2.8304,1.32679,-1.18389,0.785744,-0.0928132,-2.53796,-0.938484,2.76556,1.29216,-1.20792,-1.35722,-1.41995,-1.31907,-1.09369,-0.721569,1.001,-0.0856065,-1.35722,-1.41995,-1.31907,-1.09369,-0.721569,1.001,-0.0856065,-0.0408237,-0.327967,1.10557,0.98029,-0.0895493,0.175895,0.00857861,-1.49479,-0.911113,-0.814608,0.089585,-0.321389,1.14579,-1.04403,1.12163,2.02378,-1.04403,1.12163,2.02378,-0.782975,-0.470956,-0.556452,0.555559,0.648426,0.346316,0.240329,1
0.69005,-0.154562,-2.62126,-0.891274,2.82045,1.29075,-1.18786,0.69005,-0.154562,-2.62126,-0.891274,2.82045,1.29075,-1.18786,0.772219,-0.105929,-2.55037,-0.947046,2.76068,1.3003,-1.20631,-1.50733,-1.37022,-1.31664,-0.747336,-0.339699,0.744827,0.397708,-1.50733,-1.37022,-1.31664,-0.747336,-0.339699,0.744827,0.397708,-0.0552121,-0.336514,1.09863,0.981115,-0.0811722,0.175554,-0.00232936,-1.57266,-0.726078,-0.696498,0.0789073,-0.310101,1.16489,-1.06778,1.12888,1.90989,-1.06778,1.12888,1.90989,-0.821687,-0.486329,-0.708931,0.557727,0.597725,-0.0955671,0.184539,1
0.673718,-0.121635,-2.63542,-0.873938,2.81968,1.26661,-1.234,0.673718,-0.121635,-2.63542,-0.873938,2.81968,1.26661,-1.234,0.758738,-0.115258,-2.56057,-0.942422,2.76755,1.30632,-1.20213,-1.36593,-0.65647,-0.87971,1.58435,1.67385,0.545327,0.485704,-1.36593,-0.65647,-0.87971,1.58435,1.67385,0.545327,0.485704,-0.0680665,-0.337576,1.09724,0.981626,-0.0811267,0.172405,-0.0102175,-1.1334,0.449109,0.317856,0.0684161,-0.29852,1.18371,-1.04911,1.1581,1.8816,-1.04911,1.1581,1.8816,-0.850205,-0.0637729,-0.74847,0.684843,0.521373,-0.397022,-0.318727,1
0.664772,-0.102734,-2.64434,-0.869544,2.84951,1.26664,-1.22072,0.664772,-0.102734,-2.64434,-0.869544,2.84842,1.26664,-1.22072,0.745348,-0.122432,-2.57113,-0.930243,2.78028,1.30661,-1.19856,-1.47262,-0.855634,-1.33495,1.03776,1.0697,-0.422455,0.285011,-1.47262,-0.855634,-1.33495,1.03776,1.0697,-0.422455,0.285011,-0.0804036,-0.335027,1.09916,0.982143,-0.0837691,0.167426,-0.0186347,-1.39758,0.0952753,0.0823596,0.0578574,-0.287174,1.20091,-1.05587,1.1346,1.72093,-1.05587,1.1346,1.72093,-0.805765,0.196988,-0.732076,0.606988,0.692256,-0.399741,-0.221568,1
0.66016,-0.0972446,-2.64883,-0.894442,2.86891,1.26576,-1.17854,0.66016,-0.0972446,-2.64883,-0.894442,2.84842,1.26576,-1.17854,0.731197,-0.12567,-2.58388,-0.919586,2.78908,1.30027,-1.20162,-1.5307,0.107465,-1.37248,1.21562,0.815101,-0.896151,-0.862459,-1.5307,0.107465,-1.37248,1.21562,0.815101,-0.896151,-0.862459,-0.0911751,-0.331852,1.10178,0.982329,-0.0836921,0.164157,-0.0328211,-0.88081,0.591158,0.434249,0.0474495,-0.27541,1.21741,-1.04079,1.17639,1.64903,-1.04079,1.17639,1.64903,-0.71037,0.284258,-0.64945,0.251441,0.798353,-0.345073,0.230768,1
0.644651,-0.0775163,-2.66559,-0.893302,2.87756,1.25351,-1.18157,0.644651,-0.0775163,-2.66559,-0.893302,2.84842,1.25351,-1.18157,0.717432,-0.122557,-2.59633,-0.908972,2.79922,1.29283,-1.20722,-1.40235,0.5279,-1.27845,1.04999,1.31003,-0.697405,-0.359491,-1.40235,0.5279,-1.27845,1.04999,1.31003,-0.697405,-0.359491,-0.0981731,-0.32529,1.10631,0.981844,-0.0858296,0.162269,-0.0477945,-0.609149,0.79616,0.51625,0.0368835,-0.263368,1.23269,-1.05661,1.20418,1.52869,-1.05661,1.20418,1.52869,-0.727812,0.450405,-0.692568,0.156706,0.783386,-0.393149,0.256519,1
0.629571,-0.0606497,-2.68014,-0.874607,2.88305,1.23252,-1.17098,0.629571,-0.0606497,-2.68014,-0.874607,2.84842,1.23252,-1.17098,0.705241,-0.117527,-2.60748,-0.903176,2.8101,1.28693,-1.20525,-1.20053,0.540125,-1.10117,0.232607,1.02026,-0.56377,0.711285,-1.20053,0.540125,-1.10117,0.232607,1.02026,-0.56377,0.711285,-0.103416,-0.319174,1.1099,0.98153,-0.0869364,0.160627,-0.0569132,-0.499775,0.525264,0.25847,0.0264583,-0.252017,1.2467,-1.04252,1.13505,1.40034,-1.04252,1.13505,1.40034,-0.756702,0.568772,-0.726599,0.285697,0.729495,-0.544047,0.342671,1
0.62188,-0.0469544,-2.68868,-0.887603,2.89277,1.22636,-1.16319,0.62188,-0.0469544,-2.68868,-0.887603,2.84842,1.22636,-1.16319,0.693447,-0.110722,-2.61859,-0.90111,2.81858,1.28081,-1.1997,-1.29947,0.884289,-1.25147,0.207946,0.794575,-0.726922,0.482792,-1.29947,0.884289,-1.25147,0.207946,0.794575,-0.726922,0.482792,-0.107376,-0.31362,1.11282,0.981211,-0.0862169,0.160214,-0.0642146,-0.351046,0.680675,0.350275,0.0163841,-0.240676,1.25943,-1.00742,1.13418,1.27369,-1.00742,1.13418,1.27369,-0.715671,0.63768,-0.700817,0.135076,0.741943,-0.544502,0.365106,1
0.620474,-0.0337393,-2.69543,-0.894066,2.90187,1.21607,-1.1516,0.620474,-0.0337393,-2.69543,-0.894066,2.84842,1.21607,-1.1516,0.680882,-0.101395,-2.6307,-0.897186,2.82518,1.2723,-1.19444,-1.36641,1.08507,-1.31658,0.601306,0.618816,-1.05932,0.624766,-1.36641,1.08507,-1.31658,0.601306,0.618816,-1.05932,0.624766,-0.109845,-0.306418,1.117,0.980441,-0.0857359,0.161323,-0.0732142,-0.209639,0.876345,0.531744,0.00752194,-0.229603,1.27119,-0.88622,1.10722,1.17528,-0.88622,1.10722,1.17528,-0.604074,0.67656,-0.647365,0.0311995,0.766957,-0.562373,0.428431,1
0.603808,-0.0218776,-2.70926,-0.900113,2.90361,1.20399,-1.14665,0.603808,-0.0218776,-2.70926,-0.900113,2.84842,1.20399,-1.14665,0.668628,-0.0907732,-2.64264,-0.893719,2.83032,1.26278,-1.18834,-1.24491,1.16691,-1.22601,0.162874,0.481934,-0.969944,0.669782,-1.24491,1.16691,-1.22601,0.162874,0.481934,-0.969944,0.669782,-0.111102,-0.29896,1.12138,0.979531,-0.0847957,0.163169,-0.0818869,-0.10801,0.762386,0.41437,-0.00393163,-0.219152,1.28264,-1.14536,1.04517,1.14501,-1.14536,1.04517,1.14501,-0.648201,0.688955,-0.666231,-0.0639383,0.73296,-0.587891,0.416916,1
0.592849,-0.0114651,-2.71802,-0.886239,2.90721,1.19261,-1.14051,0.592849,-0.0114651,-2.71802,-0.886239,2.84842,1.19261,-1.14051,0.658122,-0.0795277,-2.65362,-0.893125,2.83432,1.25351,-1.18141,-1.00253,1.2193,-1.11361,-0.0250572,0.375313,-0.997199,0.793884,-1.00253,1.2193,-1.11361,-0.0250572,0.375313,-0.997199,0.793884,-0.111247,-0.292465,1.12503,0.978762,-0.0828716,0.16512,-0.0888436,0.0272361,0.682966,0.369108,-0.0144101,-0.208582,1.29326,-1.04785,1.05697,1.06238,-1.04785,1.05697,1.06238,-0.652734,0.680626,-0.64402,0.0688667,0.728839,-0.609083,0.409068,1
0.581328,-5.04628e-05,-2.72862,-0.888982,2.9109,1.18362,-1.13397,0.581328,-5.04628e-05,-2.72862,-0.888982,2.84842,1.18362,-1.13397,0.647836,-0.0680055,-2.66449,-0.894044,2.83744,1.24381,-1.17424,-1.17243,1.22834,-1.19219,-0.161602,0.292294,-1.0604,0.734699,-1.17243,1.22834,-1.19219,-0.161602,0.292294,-1.0604,0.734699,-0.111143,-0.286496,1.12828,0.978026,-0.0800407,0.167067,-0.0956425,-0.0389102,0.663967,0.326605,-0.0243934,-0.19684,1.3023,-0.998324,1.17421,0.904405,-0.998324,1.17421,0.904405,-0.665083,0.679551,-0.641343,0.050623,0.73464,-0.601877,0.40263,1
0.573493,0.0117341,-2.73864,-0.892158,2.91413,1.17298,-1.12399,0.573493,0.0117341,-2.73864,-0.892158,2.84842,1.17298,-1.12399,0.636809,-0.0565786,-2.67542,-0.893756,2.83987,1.23367,-1.16741,-1.17063,1.20133,-1.13426,0.200182,0.227639,-1.09339,0.716475,-1.17063,1.20133,-1.13426,0.200182,0.227639,-1.09339,0.716475,-0.110952,-0.280141,1.1318,0.977083,-0.0774131,0.169253,-0.103289,0.0344242,0.75743,0.42044,-0.0336795,-0.185576,1.31088,-0.928611,1.12641,0.857639,-0.928611,1.12641,0.857639,-0.633163,0.683127,-0.63219,0.0159792,0.742647,-0.606883,0.434213,1
0.559559,0.0224171,-2.75083,-0.8918,2.9156,1.16318,-1.11916,0.559559,0.0224171,-2.75083,-0.8918,2.84842,1.16318,-1.11916,0.625732,-0.0452583,-2.68609,-0.892416,2.84176,1.22353,-1.16069,-1.18243,1.20384,-1.13264,0.0914408,0.177285,-1.0626,0.711515,-1.18243,1.20384,-1.13264,0.0914408,0.177285,-1.0626,0.711515,-0.110373,-0.273494,1.13552,0.975978,-0.0752009,0.171667,-0.111091,0.0417285,0.728089,0.381785,-0.0435976,-0.173853,1.3186,-0.991815,1.17232,0.771928,-0.991815,1.17232,0.771928,-0.661725,0.676753,-0.647442,0.00615997,0.738382,-0.603498,0.415347,1
0.548597,0.0336543,-2.76094,-0.885924,2.91639,1.15244,-1.11265,0.548597,0.0336543,-2.76094,-0.885924,2.84842,1.15244,-1.11265,0.614989,-0.0338736,-2.69668,-0.892029,2.84323,1.21345,-1.15361,-1.105,1.21449,-1.1175,-0.00343266,0.13807,-1.07775,0.78872,-1.105,1.21449,-1.1175,-0.00343266,0.13807,-1.07775,0.78872,-0.109603,-0.267201,1.13893,0.974888,-0.0725608,0.173992,-0.118557,0.0768177,0.689924,0.351856,-0.0544264,-0.162369,1.32558,-1.08288,1.14831,0.698256,-1.08288,1.14831,0.698256,-0.66392,0.675279,-0.642663,0.0610534,0.731616,-0.610048,0.409544,1
0.53834,0.0450092,-2.77182,-0.889349,2.91779,1.14252,-1.1055,0.53834,0.0450092,-2.77182,-0.889349,2.84842,1.14252,-1.1055,0.604173,-0.0225299,-2.70739,-0.892016,2.84438,1.20335,-1.14649,-1.18802,1.1969,-1.15685,0.00575334,0.107529,-1.06964,0.727826,-1.18802,1.1969,-1.15685,0.00575334,0.107529,-1.06964,0.727826,-0.108808,-0.261048,1.14217,0.973738,-0.0696786,0.176236,-0.126176,0.0543346,0.700791,0.343745,-0.0648641,-0.151045,1.33115,-1.04377,1.13249,0.556731,-1.04377,1.13249,0.556731,-0.658323,0.675392,-0.644254,0.026667,0.734106,-0.608305,0.409909,1
0.53039,0.0568385,-2.78165,-0.895,2.91914,1.13214,-1.09677,0.53039,0.0568385,-2.78165,-0.895,2.84842,1.13214,-1.09677,0.593016,-0.0112673,-2.71819,-0.891277,2.84527,1.1932,-1.13968,-1.18285,1.19622,-1.13849,0.14256,0.0837436,-1.08526,0.719649,-1.18285,1.19622,-1.13849,0.14256,0.0837436,-1.08526,0.719649,-0.107861,-0.254642,1.14553,0.972415,-0.0670566,0.178554,-0.134278,0.104114,0.739175,0.376829,-0.0747794,-0.140494,1.33573,-0.991529,1.05505,0.458062,-0.991529,1.05505,0.458062,-0.626264,0.681058,-0.634575,-0.0372255,0.738658,-0.610554,0.429044,1
0.516313,0.0671427,-2.793,-0.890236,2.91964,1.12213,-1.09209,0.516313,0.0671427,-2.793,-0.890236,2.84842,1.12213,-1.09209,0.581985,3.58135e-06,-2.72892,-0.890496,2.84597,1.18302,-1.13286,-1.16223,1.19846,-1.14221,0.0305368,0.0652196,-1.07855,0.728633,-1.16223,1.19846,-1.14221,0.0305368,0.0652196,-1.07855,0.728633,-0.106679,-0.248244,1.14885,0.971023,-0.0644583,0.180819,-0.142352,0.107827,0.704039,0.339785,-0.0850046,-0.129058,1.33979,-1.02252,1.14358,0.405967,-1.02252,1.14358,0.405967,-0.656722,0.671391,-0.640733,0.00259853,0.736698,-0.60889,0.407657,1
0.505011,0.0776244,-2.80317,-0.883877,2.91978,1.11142,-1.087,0.505011,0.0776244,-2.80317,-0.883877,2.84842,1.11142,-1.087,0.571397,0.0113488,-2.73957,-0.890906,2.84651,1.17284,-1.12578,-1.09198,1.21135,-1.12054,-0.109018,0.0507931,-1.0837,0.772457,-1.09198,1.21135,-1.12054,-0.109018,0.0507931,-1.0837,0.772457,-0.105424,-0.242277,1.15182,0.969696,-0.0613923,0.182787,-0.15003,0.126132,0.655222,0.298916,-0.0955193,-0.117388,1.34233,-1.05147,1.16704,0.253892,-1.05147,1.16704,0.253892,-0.663863,0.662756,-0.635985,0.0702929,0.732733,-0.614231,0.387869,1
0.495195,0.0885561,-2.8143,-0.886368,2.92082,1.1013,-1.08009,0.495195,0.0885561,-2.8143,-0.886368,2.84842,1.1013,-1.08009,0.560672,0.0226218,-2.75021,-0.891252,2.84693,1.16266,-1.11882,-1.18124,1.18555,-1.13942,0.0270556,0.0395577,-1.07934,0.711574,-1.18124,1.18555,-1.13942,0.0270556,0.0395577,-1.07934,0.711574,-0.104097,-0.236301,1.15473,0.968284,-0.0583539,0.184651,-0.157879,0.128642,0.700229,0.324614,-0.105512,-0.105569,1.34304,-0.999284,1.18188,0.0714183,-0.999284,1.18188,0.0714183,-0.654774,0.659342,-0.640962,0.0488355,0.738894,-0.613602,0.387291,1
0.487098,0.100217,-2.82397,-0.893794,2.92164,1.09128,-1.0715,0.487098,0.100217,-2.82397,-0.893794,2.84842,1.09128,-1.0715,0.549532,0.0337015,-2.76087,-0.89028,2.84726,1.15244,-1.11231,-1.18556,1.16963,-1.12633,0.170509,0.0308076,-1.09232,0.673995,-1.18556,1.16963,-1.12633,0.170509,0.0308076,-1.09232,0.673995,-0.10254,-0.229923,1.1579,0.966648,-0.0558478,0.186622,-0.166267,0.170297,0.73441,0.354294,-0.115515,-0.0947135,1.34321,-1.00029,1.08556,0.0163913,-1.00029,1.08556,0.0163913,-0.624342,0.66516,-0.631029,-0.0351388,0.743846,-0.611563,0.408047,1
0.473687,0.110305,-2.8354,-0.889057,2.92151,1.08095,-1.06665,0.473687,0.110305,-2.8354,-0.889057,2.84842,1.08095,-1.06665,0.53853,0.0447017,-2.77153,-0.889156,2.84751,1.14217,-1.1059,-1.15399,1.1678,-1.13897,0.0742412,0.023993,-1.08843,0.687261,-1.15399,1.1678,-1.13897,0.0742412,0.023993,-1.08843,0.687261,-0.100808,-0.223548,1.16104,0.964939,-0.0534234,0.188486,-0.174674,0.169885,0.702789,0.321831,-0.12592,-0.0832008,1.34328,-1.04046,1.15127,0.00727177,-1.04046,1.15127,0.00727177,-0.648432,0.656032,-0.638638,0.000994631,0.739942,-0.61224,0.392485,1
0.464471,0.12145,-2.84513,-0.88555,2.92116,1.07022,-1.06116,0.464471,0.12145,-2.84513,-0.88555,2.84842,1.07022,-1.06116,0.527993,0.0557725,-2.78213,-0.889412,2.84771,1.13196,-1.09918,-1.08901,1.18353,-1.11419,-0.116679,0.0186857,-1.08315,0.736999,-1.08901,1.18353,-1.11419,-0.116679,0.0186857,-1.08315,0.736999,-0.0991164,-0.217648,1.16378,0.963332,-0.0505017,0.189966,-0.18263,0.170596,0.641738,0.268695,-0.136214,-0.0728453,1.34191,-1.02941,1.03555,-0.137186,-1.02941,1.03555,-0.137186,-0.635222,0.656779,-0.629981,0.0386206,0.734479,-0.617359,0.380224,1
0.456616,0.132724,-2.85519,-0.892767,2.92202,1.06013,-1.05324,0.456616,0.132724,-2.84842,-0.892767,2.84842,1.06013,-1.05324,0.517371,0.066789,-2.79273,-0.889825,2.84787,1.12174,-1.09249,-1.16332,1.15884,-1.13629,0.0204502,0.0145532,-1.08636,0.688085,-1.16332,1.15884,-1.13629,0.0204502,0.0145532,-1.08636,0.688085,-0.0973935,-0.211806,1.16642,0.961667,-0.0475447,0.191277,-0.190654,0.181909,0.68419,0.294422,-0.146053,-0.0628914,1.33964,-0.983948,0.995381,-0.227082,-0.983948,0.995381,-0.227082,-0.607558,0.65935,-0.624601,-0.0294216,0.741473,-0.616131,0.392422,1
0.44282,0.141741,-2.86701,-0.890827,2.92215,1.05023,-1.04872,0.44282,0.141741,-2.84842,-0.890827,2.84842,1.05023,-1.04872,0.506626,0.0777243,-2.80331,-0.889243,2.84799,1.11146,-1.08613,-1.12259,1.16444,-1.11364,0.0983402,0.011334,-1.09824,0.664941,-1.12259,1.16444,-1.11364,0.0983402,0.011334,-1.09824,0.664941,-0.0953407,-0.205672,1.16925,0.959829,-0.0450382,0.192655,-0.198956,0.236036,0.698947,0.309981,-0.157144,-0.0511715,1.33609,-1.10907,1.17199,-0.354481,-1.10907,1.17199,-0.354481,-0.638051,0.640168,-0.636999,-0.0158453,0.741625,-0.61227,0.374013,1
0.433653,0.149981,-2.87586,-0.880015,2.923,1.04005,-1.04579,0.433653,0.149981,-2.84842,-0.880015,2.84842,1.04005,-1.04579,0.496378,0.0887212,-2.81295,-0.889274,2.84808,1.10115,-1.07967,-1.05889,1.17181,-0.944572,-0.0930177,0.00882694,-1.0924,0.703804,-1.05889,1.17181,-0.944572,-0.0930177,0.00882694,-1.0924,0.703804,-0.0929609,-0.199907,1.17187,0.958125,-0.0424402,0.193784,-0.206503,0.257679,0.610414,0.254312,-0.166257,-0.0399057,1.33143,-0.911283,1.12659,-0.466311,-0.911283,1.12659,-0.466311,-0.627249,0.612594,-0.629108,0.0925909,0.749197,-0.611058,0.338797,1
0.4221,0.158925,-2.88537,-0.877194,2.92373,1.02979,-1.03888,0.4221,0.158925,-2.84842,-0.877194,2.84842,1.02979,-1.03888,0.485962,0.0995141,-2.82079,-0.889819,2.84816,1.09092,-1.0733,-1.14886,1.12452,-0.735633,-0.0268609,0.00687442,-1.08339,0.654342,-1.14886,1.12452,-0.735633,-0.0268609,0.00687442,-1.08339,0.654342,-0.0903703,-0.19466,1.17425,0.956581,-0.0397444,0.194645,-0.213277,0.287451,0.582298,0.253405,-0.176556,-0.0287499,1.32637,-1.0299,1.11557,-0.505853,-1.0299,1.11557,-0.505853,-0.638619,0.594106,-0.645737,0.126248,0.755707,-0.611257,0.344193,1
0.41058,0.165652,-2.89225,-0.872671,2.92468,1.01972,-1.0333,0.41058,0.165652,-2.84842,-0.872671,2.84842,1.01972,-1.0333,0.475342,0.109823,-2.8269,-0.888771,2.84821,1.08072,-1.06752,-1.11018,1.06941,-0.572912,0.233188,0.00535381,-1.08314,0.578489,-1.11018,1.06941,-0.572912,0.233188,0.00535381,-1.08314,0.578489,-0.0871574,-0.189408,1.17685,0.955008,-0.0377651,0.195675,-0.219648,0.381482,0.595585,0.299653,-0.186873,-0.0166819,1.32061,-1.03173,1.2068,-0.576115,-1.03173,1.2068,-0.576115,-0.647621,0.558288,-0.653437,0.160999,0.764652,-0.610014,0.342134,1
0.400624,0.17339,-2.89766,-0.868655,2.92501,1.00951,-1.02828,0.400624,0.17339,-2.84842,-0.868655,2.84842,1.00951,-1.02828,0.464763,0.119757,-2.83166,-0.886503,2.84826,1.07052,-1.0619,-1.13613,1.04306,-0.446184,0.247903,0.00416955,-1.0846,0.61308,-1.13613,1.04306,-0.446184,0.247903,0.00416955,-1.0846,0.61308,-0.0833897,-0.184217,1.17959,0.95347,-0.0363002,0.196838,-0.22546,0.405373,0.561843,0.289475,-0.197423,-0.00536928,1.31342,-1.05499,1.13126,-0.718606,-1.05499,1.13126,-0.718606,-0.64139,0.536333,-0.660007,0.178479,0.767523,-0.610091,0.336157,1
