Afshin1997/kuka_rl_ros2/src/catch_and_throw/output_files/tm/nn_ema7.00_jvws1_realball_D22H14M18S53/recorded_data.csv
pure_target_joint_0,pure_target_joint_1,pure_target_joint_2,pure_target_joint_3,pure_target_joint_4,pure_target_joint_5,pure_target_joint_6,target_joint_0,target_joint_1,target_joint_2,target_joint_3,target_joint_4,target_joint_5,target_joint_6,pos_joint_0,pos_joint_1,pos_joint_2,pos_joint_3,pos_joint_4,pos_joint_5,pos_joint_6,vel_joint_0,vel_joint_1,vel_joint_2,vel_joint_3,vel_joint_4,vel_joint_5,vel_joint_6,vel_smooth_joint_0,vel_smooth_joint_1,vel_smooth_joint_2,vel_smooth_joint_3,vel_smooth_joint_4,vel_smooth_joint_5,vel_smooth_joint_6,ee_pos_x,ee_pos_y,ee_pos_z,ee_or_w,ee_or_x,ee_or_y,ee_or_z,ee_vel_x,ee_vel_y,ee_vel_z,ball_pos_x,ball_pos_y,ball_pos_z,ball_raw_vx,ball_raw_vy,ball_raw_vz,ball_ema_vx,ball_ema_vy,ball_ema_vz,action_0,action_1,action_2,action_3,action_4,action_5,action_6,command_published
1.81422,-1.02798,-1.83575,-1.05699,1.89631,1.18939,-0.85303,1.78077,-1.06408,-1.8154,-1.11599,1.93664,1.11802,-0.91538,1.78024,-1.06466,-1.81507,-1.11692,1.93728,1.11688,-0.91637,0,0,0,0,0,0,0,0,0,0,0,0,0,0,0.531026,-0.454464,0.694335,0.574598,0.175136,0.152562,0.784786,0,0,0,2.97348,-0.461093,0.279182,-2.85634,-0.0939552,6.35515,-3.12893,-0.228209,6.04967,0.339797,0.366792,-0.206775,0.599355,-0.409679,0.725071,0.633397,1
1.81216,-1.02476,-1.82997,-1.05818,1.89693,1.18944,-0.852289,1.78393,-1.06059,-1.81725,-1.11039,1.9328,1.12481,-0.90943,1.78024,-1.06466,-1.81507,-1.11692,1.93728,1.11688,-0.91637,-6.15249e-07,1.6253e-06,-2.9396e-07,-1.48034e-06,-1.42707e-06,5.94507e-07,1.47492e-07,-6.15249e-07,1.6253e-06,-2.9396e-07,-1.48034e-06,-1.42707e-06,5.94507e-07,1.47492e-07,0.531026,-0.454464,0.694335,0.574598,0.175136,0.152562,0.784786,-1.53387e-07,8.34157e-07,4.39073e-07,2.94465,-0.462392,0.341307,-2.83481,-0.1277,6.10932,-3.00024,-0.168945,6.18308,0.319174,0.399001,-0.148914,0.587459,-0.403415,0.725532,0.640807,1
1.81332,-1.021,-1.8224,-1.0588,1.9002,1.18936,-0.851478,1.79171,-1.05164,-1.82143,-1.09646,1.92331,1.14181,-0.894503,1.78032,-1.06457,-1.81512,-1.11678,1.93718,1.11706,-0.916218,0.0163023,0.0175997,-0.00991949,0.0287539,-0.0196566,0.0347875,0.0303875,0.0163023,0.0175997,-0.00991949,0.0287539,-0.0196566,0.0347875,0.0303875,0.531015,-0.454428,0.694411,0.574588,0.175004,0.152595,0.784817,-0.000833955,0.00527219,0.014475,2.91647,-0.462705,0.404429,-2.79749,-0.0311257,6.26541,-2.90912,-0.118532,6.24147,0.329933,0.435681,-0.0727723,0.579832,-0.369812,0.723062,0.647399,1
1.79364,-1.00917,-1.82005,-1.05325,1.90565,1.18876,-0.849698,1.80165,-1.03888,-1.82579,-1.07798,1.91105,1.16446,-0.874432,1.78093,-1.0639,-1.81548,-1.11569,1.93644,1.11837,-0.915067,0.108497,0.11973,-0.0638495,0.192549,-0.131704,0.233652,0.204445,0.108497,0.11973,-0.0638495,0.192549,-0.131704,0.233652,0.204445,0.530926,-0.454153,0.694991,0.574513,0.173996,0.152845,0.785046,-0.00629602,0.036233,0.0989056,2.8876,-0.464342,0.465056,-2.89564,-0.164148,6.08222,-2.87511,-0.0978649,6.24193,0.127003,0.547296,-0.0456978,0.624432,-0.307899,0.703885,0.653688,1
1.74792,-0.997665,-1.80767,-1.04602,1.93236,1.18687,-0.848074,1.80668,-1.02711,-1.82664,-1.06382,1.90333,1.18137,-0.858973,1.78298,-1.06158,-1.81663,-1.11205,1.93395,1.12281,-0.911177,0.31688,0.360808,-0.174263,0.565541,-0.385807,0.689276,0.604806,0.31688,0.360808,-0.174263,0.565541,-0.385807,0.689276,0.604806,0.530607,-0.453195,0.696992,0.574241,0.170564,0.153685,0.785834,-0.0217867,0.112509,0.300254,2.85959,-0.465259,0.523901,-2.85932,-0.093577,6.00565,-2.85912,-0.0999012,6.19138,-0.350554,0.639198,0.0895202,0.660298,-0.0158718,0.640609,0.631037,1
1.7398,-0.990934,-1.79327,-1.03947,1.95769,1.19309,-0.84419,1.80072,-1.01779,-1.82293,-1.05659,1.90484,1.18793,-0.851977,1.78698,-1.05681,-1.81866,-1.10479,1.92905,1.13167,-0.903369,0.532129,0.650122,-0.258721,0.972609,-0.653006,1.18941,1.04961,0.532129,0.650122,-0.258721,0.972609,-0.653006,1.18941,1.04961,0.52988,-0.451186,0.701157,0.573631,0.16358,0.155348,0.787436,-0.051287,0.20875,0.546758,2.831,-0.465889,0.58257,-2.45851,-0.0542026,5.04488,-2.84745,-0.0980833,6.11605,-0.471812,0.658726,0.253834,0.65326,0.286404,0.614209,0.591795,1
1.74178,-0.983833,-1.79319,-1.02861,1.95425,1.20701,-0.84031,1.78374,-1.00889,-1.81595,-1.0517,1.91531,1.18922,-0.849366,1.79191,-1.04992,-1.82081,-1.09502,1.92276,1.14356,-0.892793,0.535764,0.827291,-0.211537,1.13176,-0.704718,1.37128,1.22672,0.535764,0.827291,-0.211537,1.13176,-0.704718,1.37128,1.22672,0.528561,-0.448423,0.70721,0.572796,0.153911,0.157481,0.789567,-0.112928,0.242857,0.70535,2.80275,-0.467107,0.639542,-3.26398,-0.140703,6.58364,-2.84417,-0.0985231,6.011,-0.501317,0.660852,0.276234,0.664122,0.314858,0.63449,0.524836,1
1.74243,-0.976396,-1.79076,-1.01856,1.95583,1.21695,-0.83214,1.76321,-0.999765,-1.80731,-1.04551,1.93089,1.1914,-0.846952,1.79518,-1.04202,-1.82189,-1.08506,1.91749,1.15529,-0.882132,0.200862,0.879067,-0.0374478,1.03281,-0.458802,1.18411,1.09376,0.200862,0.879067,-0.0374478,1.03281,-0.458802,1.18411,1.09376,0.526214,-0.446088,0.714238,0.572395,0.143839,0.159138,0.791423,-0.255011,0.132343,0.764914,2.77408,-0.468386,0.695139,-2.89445,-0.129187,5.61345,-2.84193,-0.101184,5.89014,-0.527494,0.656259,0.311293,0.665003,0.383433,0.616634,0.499924,1
1.73673,-0.966168,-1.79276,-1.01078,1.9554,1.22467,-0.822242,1.74856,-0.991277,-1.79935,-1.03764,1.94496,1.19716,-0.843348,1.79415,-1.03379,-1.82111,-1.07624,1.91551,1.16474,-0.873183,-0.3776,0.902866,0.187428,0.890211,-0.00732921,0.888042,0.863876,-0.3776,0.902866,0.187428,0.890211,-0.00732921,0.888042,0.863876,0.522076,-0.44564,0.72177,0.573372,0.134988,0.159242,0.792253,-0.495517,-0.1108,0.816048,2.74553,-0.46934,0.751234,-3.0036,-0.100349,5.90006,-2.84535,-0.106573,5.77223,-0.574163,0.676192,0.283497,0.654667,0.398965,0.599313,0.509418,1
1.72639,-0.953919,-1.7897,-1.00669,1.9592,1.22851,-0.811714,1.74214,-0.983323,-1.79432,-1.0288,1.9528,1.2059,-0.838038,1.78804,-1.02533,-1.81832,-1.06833,1.91784,1.17201,-0.866061,-0.900886,0.927237,0.399555,0.828012,0.473109,0.703256,0.693112,-0.900886,0.927237,0.399555,0.828012,0.473109,0.703256,0.693112,0.51569,-0.447655,0.729896,0.576097,0.127436,0.157146,0.791946,-0.739985,-0.346333,0.8877,2.7164,-0.470406,0.804698,-2.91391,-0.106601,5.34929,-2.85226,-0.10304,5.66486,-0.616563,0.714104,0.286201,0.616473,0.413572,0.56494,0.543477,1
1.71483,-0.943843,-1.7873,-1.00161,1.96498,1.23346,-0.804448,1.73885,-0.974821,-1.79215,-1.0201,1.95563,1.21507,-0.830766,1.77875,-1.01678,-1.81398,-1.06066,1.9237,1.17839,-0.860091,-1.0951,0.925014,0.530571,0.834657,0.771103,0.680712,0.607288,-1.0951,0.925014,0.530571,0.834657,0.771103,0.680712,0.607288,0.507636,-0.451263,0.73859,0.579924,0.120392,0.153124,0.791041,-0.856041,-0.430669,0.934498,2.68885,-0.470571,0.857723,-2.77585,-0.0166412,5.34252,-2.85218,-0.097153,5.56218,-0.639253,0.729359,0.266838,0.590488,0.412802,0.550603,0.556431,1
1.70695,-0.935412,-1.78245,-0.993222,1.9711,1.24188,-0.799053,1.73365,-0.965164,-1.79095,-1.01263,1.95746,1.2227,-0.8221,1.76921,-1.00833,-1.80906,-1.05278,1.93093,1.18506,-0.85453,-0.981823,0.906985,0.534542,0.869544,0.79325,0.75594,0.598179,-0.981823,0.906985,0.534542,0.869544,0.79325,0.75594,0.598179,0.499163,-0.454944,0.747487,0.583811,0.113098,0.148323,0.790173,-0.829367,-0.367887,0.93257,2.6608,-0.471766,0.909466,-2.77268,-0.118114,5.1143,-2.84308,-0.0949221,5.45217,-0.622646,0.729174,0.266077,0.595544,0.401686,0.568256,0.554772,1
1.70044,-0.927606,-1.77722,-0.983755,1.97744,1.25031,-0.793633,1.72562,-0.954857,-1.78914,-1.00629,1.96067,1.22894,-0.813371,1.76103,-0.999936,-1.80455,-1.04464,1.93756,1.19237,-0.848739,-0.804657,0.910927,0.449853,0.890157,0.655147,0.823155,0.651897,-0.804657,0.910927,0.449853,0.890157,0.655147,0.823155,0.651897,0.491143,-0.457778,0.756223,0.587152,0.105331,0.143954,0.789579,-0.757559,-0.265503,0.90553,2.63261,-0.472859,0.960472,-2.86633,-0.111142,5.18513,-2.83457,-0.0901686,5.34976,-0.605933,0.723297,0.273293,0.6089,0.398745,0.579438,0.551058,1
1.69455,-0.919285,-1.77163,-0.975046,1.98349,1.2582,-0.787595,1.71651,-0.944924,-1.7861,-0.999868,1.96548,1.23516,-0.80571,1.75394,-0.991334,-1.80085,-1.03654,1.94297,1.19998,-0.842314,-0.736262,0.949224,0.359015,0.867294,0.525857,0.824358,0.733157,-0.736262,0.949224,0.359015,0.867294,0.525857,0.824358,0.733157,0.48364,-0.459743,0.764699,0.589924,0.0973408,0.140557,0.78915,-0.72033,-0.196422,0.883123,2.60171,-0.474393,1.00931,-3.12262,-0.15506,4.93646,-2.85202,-0.0943546,5.23486,-0.593977,0.720486,0.292178,0.614944,0.405247,0.582276,0.547186,1
1.68807,-0.910116,-1.76717,-0.967156,1.98915,1.26533,-0.781093,1.7081,-0.935867,-1.78195,-0.992394,1.97123,1.24226,-0.799241,1.74696,-0.982333,-1.79777,-1.02879,1.94757,1.20738,-0.835244,-0.773991,0.996608,0.313014,0.816071,0.4753,0.782232,0.793361,-0.773991,0.996608,0.313014,0.816071,0.4753,0.782232,0.793361,0.476306,-0.46121,0.773,0.592356,0.0894435,0.137996,0.788715,-0.726943,-0.16679,0.874075,2.57605,-0.475554,1.05855,-2.60493,-0.117894,4.99878,-2.83593,-0.103238,5.12117,-0.588865,0.722173,0.305905,0.616327,0.415832,0.57951,0.541502,1
1.68113,-0.900395,-1.76284,-0.960308,1.99377,1.27181,-0.773304,1.70088,-0.927354,-1.77711,-0.984042,1.97727,1.25001,-0.793291,1.73951,-0.973019,-1.79485,-1.02143,1.95202,1.21444,-0.827867,-0.834299,1.01906,0.317408,0.781909,0.488058,0.751253,0.80367,-0.834299,1.01906,0.317408,0.781909,0.488058,0.751253,0.80367,0.468847,-0.462483,0.781237,0.594675,0.0817011,0.135828,0.788186,-0.752082,-0.157402,0.87352,2.54684,-0.476463,1.10781,-3.00906,-0.0935704,5.07464,-2.83347,-0.109879,5.03869,-0.583802,0.726244,0.320132,0.611174,0.417469,0.57361,0.545634,1
1.67397,-0.890478,-1.75835,-0.953988,1.99836,1.27796,-0.765032,1.69431,-0.918761,-1.77212,-0.975646,1.98314,1.25769,-0.787131,1.7317,-0.963665,-1.79174,-1.01417,1.95672,1.22141,-0.820593,-0.856054,1.00832,0.35497,0.789794,0.526512,0.756338,0.774495,-0.856054,1.00832,0.35497,0.789794,0.526512,0.756338,0.774495,0.461175,-0.463673,0.789479,0.597001,0.073935,0.133634,0.787569,-0.772884,-0.149196,0.876938,2.5199,-0.476388,1.15427,-2.54587,0.00700927,4.39057,-2.82616,-0.10551,4.94434,-0.577307,0.731872,0.333803,0.601794,0.416395,0.565538,0.555616,1
1.66693,-0.88075,-1.75322,-0.947579,2.00361,1.28415,-0.757216,1.68776,-0.909722,-1.76734,-0.967823,1.98862,1.26488,-0.780369,1.7239,-0.954478,-1.78822,-1.00671,1.96176,1.22851,-0.813627,-0.83516,0.983882,0.402931,0.822346,0.562647,0.779969,0.73765,-0.83516,0.983882,0.402931,0.822346,0.562647,0.779969,0.73765,0.453346,-0.464738,0.797758,0.599316,0.0659439,0.131201,0.78693,-0.781074,-0.131022,0.882044,2.49213,-0.476998,1.20042,-2.64469,-0.0580165,4.39502,-2.80813,-0.0886577,4.85343,-0.569722,0.737282,0.349996,0.591344,0.418468,0.556453,0.56411,1
1.6603,-0.87139,-1.74838,-0.940385,2.00906,1.29108,-0.750196,1.68098,-0.90025,-1.76273,-0.960675,1.9937,1.27158,-0.772979,1.71637,-0.94547,-1.7843,-0.998998,1.96706,1.23578,-0.806917,-0.800032,0.968822,0.441785,0.847021,0.583458,0.794757,0.717682,-0.800032,0.968822,0.441785,0.847021,0.583458,0.794757,0.717682,0.445459,-0.465575,0.806074,0.601522,0.0576757,0.128557,0.786332,-0.779308,-0.10162,0.886066,2.46355,-0.478307,1.24553,-2.84122,-0.130137,4.48381,-2.79457,-0.0799524,4.76112,-0.560643,0.740799,0.35927,0.586126,0.420045,0.552951,0.567211,1
1.65398,-0.862084,-1.74299,-0.933124,2.01531,1.29791,-0.74351,1.67405,-0.89058,-1.75806,-0.953929,1.99869,1.27802,-0.76527,1.70911,-0.936511,-1.78012,-0.991177,1.97246,1.2431,-0.80027,-0.774233,0.971734,0.46349,0.847114,0.586068,0.790215,0.721884,-0.774233,0.971734,0.46349,0.847114,0.586068,0.790215,0.721884,0.437594,-0.466091,0.814401,0.60352,0.0492197,0.125881,0.785809,-0.772991,-0.0651155,0.886914,2.43632,-0.478247,1.28882,-2.57285,0.00570062,4.09114,-2.771,-0.0628586,4.66106,-0.551328,0.744273,0.371232,0.580532,0.428542,0.548098,0.567607,1
1.64773,-0.852891,-1.7388,-0.925237,2.02063,1.30535,-0.736805,1.66717,-0.880951,-1.75322,-0.94719,2.00387,1.28449,-0.75768,1.70202,-0.927463,-1.77579,-0.98346,1.97782,1.2503,-0.793494,-0.763027,0.987094,0.473749,0.826465,0.576188,0.771817,0.744155,-0.763027,0.987094,0.473749,0.826465,0.576188,0.771817,0.744155,0.429793,-0.466239,0.822704,0.605244,0.0406988,0.123354,0.785371,-0.765772,-0.026097,0.884815,2.40714,-0.480461,1.33149,-3.012,-0.228535,4.40415,-2.80042,-0.0721608,4.54318,-0.542857,0.74572,0.36987,0.582223,0.428134,0.550528,0.566892,1
1.64133,-0.843601,-1.73412,-0.917695,2.02667,1.31241,-0.729917,1.6605,-0.871477,-1.74829,-0.940181,2.00937,1.2912,-0.750454,1.69499,-0.918265,-1.77137,-0.975965,1.98309,1.25732,-0.786495,-0.759638,1.00419,0.482682,0.799318,0.565797,0.750758,0.76991,-0.759638,1.00419,0.482682,0.799318,0.565797,0.750758,0.76991,0.422062,-0.466014,0.830962,0.606672,0.0321849,0.121058,0.785021,-0.759443,0.0115044,0.881238,2.37962,-0.480486,1.37337,-2.81439,-0.00262327,4.28134,-2.79647,-0.0766563,4.42678,-0.536579,0.746631,0.372509,0.582707,0.435791,0.550944,0.565785,1
1.63463,-0.834209,-1.73002,-0.910316,2.03175,1.31941,-0.722533,1.65403,-0.862136,-1.74344,-0.932856,2.01505,1.29815,-0.743524,1.688,-0.908939,-1.76685,-0.968684,1.9883,1.26418,-0.779313,-0.755377,1.01518,0.494382,0.779667,0.564621,0.73677,0.784709,-0.755377,1.01518,0.494382,0.779667,0.564621,0.73677,0.784709,0.41439,-0.465448,0.839166,0.60783,0.0236791,0.118961,0.784749,-0.754858,0.0446101,0.877121,2.35133,-0.481552,1.41313,-2.88978,-0.108902,4.06333,-2.81124,-0.0879356,4.31581,-0.533673,0.747295,0.368349,0.583686,0.434489,0.552339,0.567806,1
1.62818,-0.824612,-1.72491,-0.903591,2.03728,1.3258,-0.714917,1.64764,-0.852845,-1.73877,-0.92535,2.02075,1.30523,-0.736656,1.68107,-0.899551,-1.76223,-0.961515,1.99356,1.27097,-0.772072,-0.746013,1.01832,0.505709,0.773853,0.573306,0.733713,0.784144,-0.746013,1.01832,0.505709,0.773853,0.573306,0.733713,0.784144,0.406752,-0.464592,0.847313,0.608776,0.0151384,0.116976,0.784525,-0.752105,0.0720067,0.872308,2.3245,-0.481853,1.45327,-2.63404,-0.0295525,3.93974,-2.80018,-0.0832017,4.20824,-0.528927,0.749383,0.373194,0.579245,0.43715,0.548309,0.571544,1
1.62183,-0.815,-1.71997,-0.896941,2.0423,1.33215,-0.707098,1.6412,-0.843517,-1.73423,-0.917888,2.02634,1.31227,-0.729629,1.67425,-0.890159,-1.75754,-0.954343,1.99891,1.27777,-0.76488,-0.733205,1.01647,0.511416,0.779416,0.58543,0.739139,0.774625,-0.733205,1.01647,0.511416,0.779416,0.58543,0.739139,0.774625,0.399129,-0.463499,0.855395,0.609574,0.0065197,0.115043,0.78431,-0.750826,0.0943346,0.866063,2.29642,-0.482732,1.49191,-2.79102,-0.0873305,3.84076,-2.78878,-0.0770688,4.10605,-0.524144,0.751588,0.375661,0.574025,0.433831,0.543828,0.577821,1
1.61547,-0.805416,-1.71483,-0.890158,2.04731,1.33833,-0.699466,1.63472,-0.834097,-1.72963,-0.910655,2.03179,1.31911,-0.722337,1.66754,-0.880789,-1.75282,-0.9471,2.00436,1.28463,-0.757772,-0.721697,1.01361,0.509774,0.788931,0.594432,0.747149,0.765927,-0.721697,1.01361,0.509774,0.788931,0.594432,0.747149,0.765927,0.391507,-0.462207,0.863395,0.610266,-0.00219017,0.113154,0.78407,-0.750524,0.113376,0.857997,2.2693,-0.483237,1.52966,-2.74619,-0.051214,3.82273,-2.77728,-0.0745782,4.01168,-0.520613,0.753722,0.379936,0.569415,0.429497,0.536986,0.583059,1
1.60849,-0.795775,-1.70965,-0.883489,2.05268,1.34394,-0.691954,1.62824,-0.824581,-1.72485,-0.903695,2.03709,1.32568,-0.71481,1.66091,-0.871435,-1.74814,-0.939789,2.00987,1.29155,-0.750708,-0.714691,1.01268,0.504761,0.794424,0.597631,0.751482,0.764577,-0.714691,1.01268,0.504761,0.794424,0.597631,0.751482,0.764577,0.383887,-0.460732,0.871299,0.610858,-0.010971,0.111344,0.783795,-0.750122,0.13198,0.848676,2.24154,-0.483986,1.56632,-2.73632,-0.0738198,3.61351,-2.75845,-0.0616414,3.91384,-0.524138,0.756606,0.384952,0.563003,0.428119,0.523903,0.58753,1
1.60172,-0.786293,-1.70524,-0.876347,2.05702,1.35029,-0.684331,1.62177,-0.815004,-1.71989,-0.896905,2.04227,1.332,-0.70717,1.65433,-0.862075,-1.74349,-0.93247,2.01537,1.29847,-0.743613,-0.711213,1.01484,0.502795,0.791288,0.595371,0.748358,0.771744,-0.711213,1.01484,0.502795,0.791288,0.595371,0.748358,0.771744,0.376283,-0.45906,0.879099,0.611322,-0.0197849,0.109657,0.783499,-0.747867,0.153259,0.839259,2.21403,-0.485163,1.6026,-2.82333,-0.120729,3.72336,-2.75549,-0.0724358,3.82307,-0.526051,0.75782,0.382475,0.561234,0.416475,0.518132,0.592817,1
1.59449,-0.776752,-1.70088,-0.869375,2.06208,1.3562,-0.676803,1.6152,-0.805412,-1.71488,-0.890139,2.04735,1.33813,-0.69953,1.64777,-0.852683,-1.73883,-0.925218,2.02084,1.30533,-0.736426,-0.708438,1.01933,0.507082,0.780649,0.589235,0.737918,0.784041,-0.708438,1.01933,0.507082,0.780649,0.589235,0.737918,0.784041,0.368721,-0.457164,0.8868,0.611612,-0.0285969,0.108124,0.783213,-0.742923,0.178097,0.83051,2.18573,-0.485985,1.6373,-2.79139,-0.0810858,3.42222,-2.75937,-0.0756132,3.73411,-0.532838,0.759313,0.379481,0.558433,0.412374,0.508714,0.596239,1
1.58768,-0.767296,-1.697,-0.862257,2.06683,1.363,-0.66919,1.60846,-0.795837,-1.71002,-0.883298,2.05233,1.34417,-0.691931,1.64124,-0.843247,-1.7341,-0.918074,2.02624,1.31207,-0.729126,-0.706382,1.02442,0.515581,0.767847,0.581294,0.722831,0.796373,-0.706382,1.02442,0.515581,0.767847,0.581294,0.722831,0.796373,0.361218,-0.455022,0.894405,0.611705,-0.0373838,0.10676,0.782957,-0.736844,0.203883,0.82231,2.15816,-0.48717,1.67056,-2.75221,-0.118317,3.32067,-2.77023,-0.0870777,3.62705,-0.535608,0.75951,0.371056,0.558176,0.405854,0.509363,0.599356,1
1.58012,-0.757741,-1.69325,-0.855336,2.07226,1.36906,-0.661629,1.60156,-0.786294,-1.70542,-0.876354,2.05721,1.35027,-0.684354,1.63472,-0.833768,-1.72931,-0.911035,2.03156,1.31866,-0.721729,-0.707789,1.02853,0.523054,0.757908,0.572654,0.706151,0.80519,-0.707789,1.02853,0.523054,0.757908,0.572654,0.706151,0.80519,0.353774,-0.452649,0.901917,0.611617,-0.0461318,0.105565,0.782721,-0.732337,0.22675,0.813884,2.12996,-0.488173,1.70305,-2.85634,-0.101625,3.29103,-2.77669,-0.0935299,3.52215,-0.545962,0.760273,0.360592,0.556994,0.406952,0.503993,0.600999,1
1.57237,-0.748181,-1.68942,-0.848586,2.07765,1.37492,-0.653915,1.59454,-0.776775,-1.70114,-0.869347,2.06209,1.35648,-0.676777,1.62815,-0.82426,-1.72447,-0.904061,2.0368,1.32511,-0.71427,-0.714054,1.03095,0.524288,0.75311,0.563082,0.691585,0.810274,-0.714054,1.03095,0.524288,0.75311,0.563082,0.691585,0.810274,0.346369,-0.45008,0.909329,0.611398,-0.0548326,0.104542,0.782468,-0.730716,0.244678,0.804231,2.10286,-0.4886,1.73549,-2.69162,-0.0423622,3.22167,-2.77983,-0.0945291,3.42466,-0.557787,0.760787,0.350513,0.554758,0.408432,0.49813,0.603551,1
1.564,-0.738548,-1.68623,-0.841982,2.08297,1.38002,-0.646098,1.58734,-0.767258,-1.69712,-0.862357,2.06711,1.36272,-0.669185,1.62151,-0.814738,-1.71967,-0.89711,2.04195,1.33145,-0.706774,-0.723451,1.03172,0.51675,0.752837,0.553243,0.682682,0.813215,-0.723451,1.03172,0.51675,0.752837,0.553243,0.682682,0.813215,0.33898,-0.447359,0.916626,0.611104,-0.0634852,0.103699,0.782156,-0.731274,0.258225,0.792719,2.07441,-0.489581,1.76489,-2.84111,-0.098044,2.93617,-2.78386,-0.092314,3.31149,-0.575091,0.761898,0.334363,0.551272,0.410198,0.485691,0.606758,1
1.55547,-0.72883,-1.68283,-0.835919,2.08868,1.38437,-0.63815,1.57986,-0.757717,-1.69331,-0.855465,2.07232,1.36878,-0.661548,1.61478,-0.805214,-1.71497,-0.89015,2.04703,1.33774,-0.699256,-0.734107,1.03152,0.501771,0.754551,0.546421,0.679879,0.81531,-0.734107,1.03152,0.501771,0.754551,0.546421,0.679879,0.81531,0.331595,-0.444519,0.923792,0.61077,-0.0720933,0.103038,0.781758,-0.732817,0.269,0.779553,2.04732,-0.489417,1.79545,-2.71756,0.0164928,3.06507,-2.77883,-0.0763804,3.20948,-0.59309,0.763836,0.321369,0.542311,0.416488,0.466337,0.611053,1
1.5472,-0.719048,-1.67976,-0.83004,2.09393,1.38833,-0.629957,1.57203,-0.748133,-1.68969,-0.848749,2.07766,1.37443,-0.653828,1.60794,-0.795691,-1.71043,-0.88318,2.05207,1.34401,-0.691718,-0.746951,1.03131,0.482879,0.755282,0.545705,0.678814,0.81732,-0.746951,1.03131,0.482879,0.755282,0.545705,0.678814,0.81732,0.324206,-0.44158,0.930817,0.610414,-0.080653,0.102552,0.781264,-0.734937,0.277998,0.765498,2.0197,-0.489763,1.82265,-2.7181,-0.0340876,2.67683,-2.769,-0.0615656,3.09877,-0.607363,0.766434,0.306758,0.531399,0.41864,0.443226,0.61761,1
1.53909,-0.709377,-1.67775,-0.823393,2.09907,1.39271,-0.621721,1.56388,-0.738493,-1.68627,-0.842268,2.08308,1.37953,-0.64599,1.60095,-0.786166,-1.70607,-0.87622,2.05713,1.35024,-0.684158,-0.764785,1.03188,0.462945,0.752793,0.550784,0.672423,0.820111,-0.764785,1.03188,0.462945,0.752793,0.550784,0.672423,0.820111,0.31681,-0.43856,0.937696,0.610044,-0.0891386,0.102227,0.780673,-0.737672,0.285355,0.751203,1.99195,-0.491446,1.84978,-2.77012,-0.168028,2.70898,-2.76672,-0.0600947,2.98859,-0.618604,0.767892,0.283206,0.528265,0.419357,0.424694,0.624368,1
1.53089,-0.699827,-1.6762,-0.816482,2.10445,1.39766,-0.613581,1.55558,-0.728804,-1.68311,-0.835975,2.0885,1.38414,-0.638014,1.59377,-0.776631,-1.7019,-0.869305,2.06226,1.35636,-0.676564,-0.788588,1.03364,0.442889,0.74559,0.558801,0.655127,0.82464,-0.788588,1.03364,0.442889,0.74559,0.558801,0.655127,0.82464,0.309407,-0.435477,0.94443,0.609669,-0.0974972,0.102058,0.779989,-0.740227,0.29141,0.736832,1.96441,-0.492867,1.87703,-2.83574,-0.146309,2.80589,-2.76135,-0.0712765,2.88675,-0.62879,0.768033,0.257033,0.528228,0.421961,0.412996,0.629832,1
1.52244,-0.690311,-1.67487,-0.809505,2.11009,1.40293,-0.605395,1.54729,-0.719106,-1.68036,-0.829678,2.09386,1.38854,-0.629916,1.58636,-0.767072,-1.69791,-0.862483,2.06746,1.36227,-0.668916,-0.815247,1.03662,0.422395,0.733244,0.566815,0.626008,0.831534,-0.815247,1.03662,0.422395,0.733244,0.566815,0.626008,0.831534,0.302015,-0.432338,0.951018,0.609292,-0.105662,0.102056,0.77922,-0.740647,0.297406,0.722293,1.93728,-0.493762,1.90373,-2.7802,-0.0917134,2.73622,-2.75755,-0.0860321,2.79773,-0.639166,0.767611,0.230483,0.529786,0.426317,0.406597,0.635211,1
1.51366,-0.680715,-1.67381,-0.802705,2.11627,1.40783,-0.597429,1.53903,-0.70945,-1.67813,-0.823171,2.0992,1.39306,-0.621755,1.57871,-0.757484,-1.69413,-0.855787,2.07272,1.36787,-0.661192,-0.838961,1.04025,0.399659,0.718586,0.572484,0.590266,0.840729,-0.838961,1.04025,0.399659,0.718586,0.572484,0.590266,0.840729,0.294666,-0.429141,0.957461,0.608908,-0.113578,0.102237,0.778382,-0.737402,0.304423,0.707521,1.9096,-0.494845,1.9275,-2.58322,-0.10105,2.21812,-2.74927,-0.0985197,2.71,-0.650471,0.767689,0.203202,0.530823,0.435487,0.399612,0.637639,1
1.50493,-0.671068,-1.67306,-0.796097,2.12246,1.41268,-0.589416,1.53072,-0.699849,-1.67641,-0.816431,2.10467,1.39784,-0.613597,1.57088,-0.747865,-1.69058,-0.849204,2.07801,1.37316,-0.653379,-0.8557,1.04312,0.370883,0.708244,0.574745,0.558066,0.851038,-0.8557,1.04312,0.370883,0.708244,0.574745,0.558066,0.851038,0.287391,-0.42588,0.963757,0.608513,-0.121232,0.10262,0.777486,-0.731527,0.311647,0.692434,1.88173,-0.496163,1.94967,-2.93028,-0.138606,2.331,-2.75577,-0.116852,2.59401,-0.659459,0.767972,0.17524,0.531075,0.444431,0.395186,0.63963,1
1.49563,-0.66122,-1.67252,-0.789943,2.12935,1.41537,-0.581295,1.52225,-0.69027,-1.67507,-0.809607,2.11039,1.40276,-0.605486,1.56293,-0.73823,-1.68734,-0.84267,2.08333,1.37821,-0.645475,-0.86656,1.04391,0.333962,0.707259,0.575831,0.538527,0.860366,-0.86656,1.04391,0.333962,0.707259,0.575831,0.538527,0.860366,0.280195,-0.422559,0.969903,0.60812,-0.128657,0.103211,0.776521,-0.726213,0.31714,0.677027,1.85333,-0.496236,1.97298,-2.77699,-0.00714467,2.27888,-2.76553,-0.110109,2.50441,-0.673,0.770103,0.148218,0.527275,0.460263,0.371604,0.641798,1
1.48659,-0.651333,-1.67151,-0.78426,2.13593,1.41801,-0.572946,1.51357,-0.680656,-1.67401,-0.80288,2.11643,1.40749,-0.597416,1.55488,-0.728598,-1.68447,-0.836108,2.08867,1.38315,-0.637499,-0.876139,1.04281,0.292134,0.713733,0.580428,0.532743,0.86697,-0.876139,1.04281,0.292134,0.713733,0.580428,0.532743,0.86697,0.273059,-0.419196,0.975897,0.607757,-0.135913,0.104,0.775463,-0.723715,0.32039,0.661613,1.82601,-0.497441,1.99481,-2.73755,-0.120725,2.18819,-2.76976,-0.0968686,2.40331,-0.682834,0.772655,0.129628,0.518483,0.472647,0.348534,0.645526,1
1.47759,-0.641454,-1.67127,-0.778302,2.14226,1.42059,-0.564611,1.5047,-0.670961,-1.67315,-0.796391,2.12275,1.41165,-0.589334,1.54673,-0.718978,-1.68198,-0.829483,2.09408,1.38807,-0.629478,-0.887934,1.04132,0.250574,0.720962,0.591617,0.532899,0.870266,-0.887934,1.04132,0.250574,0.720962,0.591617,0.532899,0.870266,0.265955,-0.415803,0.981742,0.607443,-0.143046,0.104957,0.774296,-0.723356,0.322727,0.646655,1.7986,-0.498485,2.01422,-2.73001,-0.103954,1.93349,-2.77224,-0.0914318,2.28291,-0.691357,0.77524,0.1071,0.511806,0.481838,0.32519,0.648674,1
1.46871,-0.631654,-1.6714,-0.772284,2.14862,1.42352,-0.556331,1.49569,-0.661178,-1.67243,-0.790188,2.12926,1.41507,-0.581176,1.53846,-0.709364,-1.67986,-0.822816,2.09963,1.39296,-0.621438,-0.902691,1.04134,0.21215,0.72313,0.609274,0.527012,0.871346,-0.902691,1.04134,0.21215,0.72313,0.609274,0.527012,0.871346,0.258876,-0.412384,0.987444,0.607183,-0.150055,0.106057,0.773023,-0.722505,0.325693,0.632524,1.77139,-0.499182,2.03568,-2.76152,-0.0707075,2.17701,-2.76929,-0.0886257,2.19443,-0.697475,0.777104,0.0845494,0.505317,0.489901,0.305558,0.651073,1
1.46006,-0.621944,-1.67139,-0.766138,2.15471,1.42735,-0.548176,1.48665,-0.65134,-1.67186,-0.784187,2.13579,1.418,-0.572931,1.53004,-0.699738,-1.67807,-0.816168,2.10536,1.39772,-0.613388,-0.919276,1.04382,0.178304,0.71739,0.630828,0.505158,0.872497,-0.919276,1.04382,0.178304,0.71739,0.630828,0.505158,0.872497,0.251842,-0.408931,0.993016,0.606967,-0.156888,0.10728,0.771666,-0.718583,0.330294,0.619548,1.74378,-0.500838,2.05314,-2.69248,-0.161537,1.70298,-2.76029,-0.0937977,2.10784,-0.699848,0.777941,0.0667902,0.500302,0.493421,0.296302,0.652116,1
1.45148,-0.612237,-1.67038,-0.760454,2.16164,1.43076,-0.539969,1.47769,-0.641503,-1.6715,-0.778238,2.14222,1.42085,-0.56465,1.52147,-0.690079,-1.67656,-0.80961,2.11129,1.40219,-0.605317,-0.935302,1.04832,0.149916,0.704488,0.651829,0.467157,0.875661,-0.935302,1.04832,0.149916,0.704488,0.651829,0.467157,0.875661,0.244891,-0.405429,0.99847,0.606774,-0.163469,0.108623,0.770262,-0.710436,0.337198,0.607791,1.71652,-0.501066,2.07036,-2.76235,-0.0231471,1.74427,-2.74776,-0.0916149,2.01165,-0.699977,0.778423,0.0618748,0.491555,0.503454,0.285622,0.653481,1
1.44319,-0.602646,-1.67064,-0.754725,2.16842,1.43657,-0.531938,1.46885,-0.631708,-1.67129,-0.772269,2.1486,1.42397,-0.556393,1.51278,-0.680376,-1.6753,-0.803183,2.11739,1.40629,-0.597208,-0.947646,1.05323,0.125018,0.689032,0.667367,0.424599,0.880603,-0.947646,1.05323,0.125018,0.689032,0.667367,0.424599,0.880603,0.23806,-0.401861,1.00382,0.606582,-0.169757,0.110092,0.768844,-0.69884,0.346319,0.596671,1.68843,-0.503153,2.08753,-2.76776,-0.205575,1.69195,-2.74474,-0.108402,1.90594,-0.695898,0.777301,0.046633,0.484577,0.510369,0.30277,0.652702,1
1.43462,-0.593075,-1.67061,-0.748869,2.17659,1.44063,-0.523882,1.46015,-0.621973,-1.67106,-0.76633,2.15507,1.42754,-0.54819,1.504,-0.670635,-1.67427,-0.796885,2.12359,1.41005,-0.589055,-0.954309,1.05672,0.100622,0.676385,0.675696,0.391821,0.885256,-0.954309,1.05672,0.100622,0.676385,0.675696,0.391821,0.885256,0.231371,-0.398207,1.00906,0.606374,-0.175771,0.1117,0.767423,-0.685843,0.356848,0.585432,1.66084,-0.504287,2.10085,-2.74613,-0.112964,1.32647,-2.75261,-0.113426,1.78358,-0.693802,0.775599,0.0366664,0.480157,0.529997,0.305813,0.651733,1
1.42599,-0.583418,-1.67015,-0.74364,2.18393,1.44396,-0.515819,1.45159,-0.612294,-1.6708,-0.760483,2.16183,1.43162,-0.540044,1.49518,-0.660873,-1.67345,-0.790683,2.12985,1.41359,-0.580869,-0.955207,1.0579,0.0785812,0.667916,0.679966,0.376479,0.887832,-0.955207,1.0579,0.0785812,0.667916,0.679966,0.376479,0.887832,0.224823,-0.394451,1.01419,0.606138,-0.181583,0.113453,0.765998,-0.67307,0.368703,0.573965,1.63514,-0.504337,2.11698,-2.65011,-0.00511943,1.6626,-2.73868,-0.10744,1.68926,-0.691949,0.77455,0.0330544,0.470425,0.540845,0.303659,0.650508,1
1.4174,-0.573708,-1.67049,-0.737966,2.19132,1.4469,-0.50776,1.44309,-0.602658,-1.6706,-0.754739,2.16896,1.43594,-0.531947,1.48638,-0.651111,-1.6728,-0.784551,2.13616,1.41708,-0.572672,-0.951356,1.05695,0.0631835,0.66094,0.686079,0.379478,0.888032,-0.951356,1.05695,0.0631835,0.66094,0.686079,0.379478,0.888032,0.218403,-0.390575,1.01921,0.605848,-0.187291,0.11533,0.764571,-0.660921,0.382426,0.562381,1.60753,-0.505297,2.12992,-2.74246,-0.095368,1.28518,-2.73048,-0.102024,1.57458,-0.689794,0.774034,0.0231138,0.465851,0.55165,0.298206,0.649115,1
1.4091,-0.563946,-1.67423,-0.732891,2.19743,1.45105,-0.499806,1.43457,-0.593032,-1.67054,-0.7491,2.17636,1.44008,-0.52388,1.47763,-0.641366,-1.67227,-0.778489,2.14256,1.42067,-0.564481,-0.944629,1.05451,0.0532303,0.653123,0.699104,0.39695,0.886421,-0.944629,1.05451,0.0532303,0.653123,0.699104,0.39695,0.886421,0.212099,-0.386564,1.02412,0.605468,-0.192985,0.117293,0.763157,-0.64936,0.397152,0.550374,1.57986,-0.50694,2.14343,-2.90676,-0.172658,1.41939,-2.72507,-0.0998378,1.49795,-0.685359,0.774195,-0.0195547,0.455972,0.548759,0.303737,0.646757,1
1.40104,-0.554368,-1.67588,-0.728668,2.20422,1.45619,-0.491836,1.42603,-0.583379,-1.67086,-0.743596,2.18373,1.44382,-0.515832,1.46894,-0.631646,-1.67182,-0.772503,2.14912,1.42444,-0.556311,-0.937953,1.05145,0.0442721,0.644351,0.719952,0.417367,0.883767,-0.937953,1.05145,0.0442721,0.644351,0.719952,0.417367,0.883767,0.205899,-0.38242,1.02891,0.604973,-0.198706,0.119301,0.761768,-0.638325,0.410845,0.538081,1.55575,-0.507017,2.15517,-2.29565,-0.0073301,1.11817,-2.6884,-0.0944244,1.41181,-0.67907,0.772774,-0.0405572,0.43835,0.550997,0.317495,0.644751,1
1.39188,-0.544626,-1.68097,-0.724435,2.21142,1.45738,-0.483809,1.41755,-0.573696,-1.67197,-0.738308,2.19081,1.44747,-0.507807,1.46031,-0.621951,-1.67147,-0.766602,2.15588,1.42833,-0.548166,-0.933623,1.04898,0.0335854,0.63482,0.742987,0.425899,0.880918,-0.933623,1.04898,0.0335854,0.63482,0.742987,0.425899,0.880918,0.199804,-0.378161,1.03357,0.60437,-0.20443,0.121336,0.76041,-0.626834,0.422528,0.526254,1.52651,-0.506521,2.16602,-2.57523,0.0437159,0.955482,-2.68293,-0.0648873,1.32344,-0.684239,0.773245,-0.0949858,0.421668,0.555431,0.290479,0.643569,1
1.38401,-0.535278,-1.68574,-0.720834,2.21803,1.46395,-0.476168,1.40913,-0.564011,-1.67411,-0.733367,2.19763,1.45125,-0.49981,1.4517,-0.612271,-1.67126,-0.760796,2.16281,1.43224,-0.540046,-0.930941,1.04795,0.0144086,0.623838,0.758445,0.420239,0.878274,-0.930941,1.04795,0.0144086,0.623838,0.758445,0.420239,0.878274,0.193834,-0.373806,1.03812,0.603692,-0.210081,0.12342,0.759071,-0.612901,0.432209,0.514134,1.49865,-0.507641,2.17614,-3.34455,-0.134478,1.21525,-2.69865,-0.0576773,1.2472,-0.676908,0.76993,-0.144889,0.399614,0.552174,0.317165,0.63878,1
1.37489,-0.526147,-1.69344,-0.713568,2.22523,1.47035,-0.468606,1.4007,-0.554366,-1.67729,-0.728801,2.20441,1.45515,-0.491858,1.44312,-0.602595,-1.67131,-0.755108,2.16983,1.43608,-0.53195,-0.927514,1.04819,-0.0237877,0.609381,0.760895,0.412978,0.875724,-0.927514,1.04819,-0.0237877,0.609381,0.760895,0.412978,0.875724,0.188032,-0.369375,1.04254,0.60299,-0.215578,0.125632,0.757724,-0.594829,0.43953,0.499094,1.47172,-0.509175,2.18457,-2.62085,-0.149228,0.820294,-2.71917,-0.0670761,1.13511,-0.682366,0.764476,-0.221296,0.415399,0.554052,0.342708,0.633445,1
1.36594,-0.517028,-1.69902,-0.711027,2.2336,1.47493,-0.460729,1.3922,-0.54482,-1.68155,-0.724359,2.2113,1.45938,-0.483988,1.43458,-0.592916,-1.67183,-0.749587,2.17682,1.43989,-0.523879,-0.923126,1.04843,-0.0828528,0.588329,0.754774,0.41198,0.872988,-0.923126,1.04843,-0.0828528,0.588329,0.754774,0.41198,0.872988,0.182445,-0.36489,1.0468,0.602312,-0.22086,0.128063,0.756334,-0.572595,0.443653,0.479721,1.44776,-0.508605,2.19112,-2.55879,0.0608538,0.699309,-2.68813,-0.0536229,1.02453,-0.686395,0.75888,-0.271954,0.385603,0.567803,0.350397,0.631498,1
1.35701,-0.507444,-1.70454,-0.708993,2.2405,1.47858,-0.452646,1.38359,-0.535421,-1.68686,-0.719793,2.21836,1.46424,-0.47621,1.42607,-0.583242,-1.67296,-0.744288,2.18376,1.44371,-0.515835,-0.920304,1.04735,-0.156922,0.56175,0.748982,0.415013,0.869677,-0.920304,1.04735,-0.156922,0.56175,0.748982,0.415013,0.869677,0.177107,-0.360386,1.05086,0.6017,-0.225877,0.130769,0.754875,-0.548755,0.443349,0.457135,1.42005,-0.510576,2.20088,-2.73657,-0.194657,0.96359,-2.67924,-0.059763,0.93856,-0.690659,0.757972,-0.315813,0.352957,0.567344,0.348679,0.631897,1
1.34798,-0.497837,-1.71067,-0.707878,2.24746,1.48171,-0.444469,1.37483,-0.526128,-1.69281,-0.715412,2.22566,1.46944,-0.468447,1.41758,-0.573591,-1.67484,-0.739216,2.19067,1.4476,-0.50783,-0.920485,1.04354,-0.243273,0.538891,0.748061,0.427079,0.864806,-0.920485,1.04354,-0.243273,0.538891,0.748061,0.427079,0.864806,0.172009,-0.355907,1.05471,0.601199,-0.230617,0.133758,0.753315,-0.52847,0.437612,0.43313,1.39227,-0.509772,2.2064,-2.59522,0.0750398,0.51599,-2.69363,-0.0619194,0.851311,-0.695999,0.75754,-0.358292,0.313387,0.56787,0.341103,0.633615,1
1.33965,-0.488395,-1.71601,-0.709626,2.25453,1.48513,-0.436484,1.36595,-0.516815,-1.69884,-0.711958,2.23308,1.4742,-0.460585,1.40906,-0.563992,-1.67756,-0.734304,2.19761,1.45169,-0.499878,-0.92384,1.03633,-0.337409,0.526308,0.752971,0.455424,0.858459,-0.92384,1.03633,-0.337409,0.526308,0.752971,0.455424,0.858459,0.167098,-0.351498,1.05832,0.600857,-0.235128,0.137019,0.751606,-0.515299,0.427416,0.409096,1.36441,-0.511001,2.20854,-3.02742,-0.133448,0.232708,-2.68119,-0.0682256,0.729925,-0.694065,0.755975,-0.384459,0.24678,0.569227,0.334487,0.63394,1
1.33165,-0.479038,-1.72156,-0.713348,2.2631,1.4878,-0.429039,1.35706,-0.507397,-1.70469,-0.709949,2.2404,1.47822,-0.452604,1.4005,-0.554466,-1.68111,-0.729518,2.20461,1.45604,-0.491977,-0.930785,1.02789,-0.424428,0.511628,0.763612,0.485846,0.853455,-0.930785,1.02789,-0.424428,0.511628,0.763612,0.485846,0.853455,0.162329,-0.347178,1.06172,0.600682,-0.239456,0.140521,0.74973,-0.504285,0.416741,0.385891,1.34061,-0.511841,2.20871,-2.20169,-0.0777191,0.0157512,-2.65801,-0.0622123,0.57474,-0.68849,0.754283,-0.404453,0.161697,0.584868,0.31762,0.629383,1
1.32398,-0.469524,-1.72718,-0.720376,2.2712,1.49109,-0.421796,1.34834,-0.497912,-1.7104,-0.709641,2.24768,1.48168,-0.444614,1.39186,-0.545004,-1.68535,-0.724989,2.21172,1.46057,-0.4841,-0.939748,1.02245,-0.48918,0.47267,0.774809,0.494476,0.852901,-0.939748,1.02245,-0.48918,0.47267,0.774809,0.494476,0.852901,0.157737,-0.342933,1.06491,0.600615,-0.24355,0.144232,0.747758,-0.484476,0.410536,0.3634,1.31226,-0.51242,2.216,-2.97059,-0.0606822,0.763184,-2.67265,-0.0594062,0.489724,-0.678729,0.754792,-0.418296,0.046126,0.594844,0.305182,0.623038,1
1.31665,-0.46044,-1.73488,-0.722933,2.27965,1.49722,-0.415166,1.33994,-0.488442,-1.71606,-0.711267,2.25519,1.48493,-0.436794,1.38315,-0.535567,-1.69007,-0.720987,2.2189,1.46505,-0.476209,-0.94628,1.02176,-0.530212,0.400337,0.780006,0.477491,0.8562,-0.94628,1.02176,-0.530212,0.400337,0.780006,0.477491,0.8562,0.153437,-0.338722,1.06789,0.600548,-0.247274,0.148133,0.745824,-0.44964,0.41042,0.340372,1.28469,-0.513929,2.21634,-2.71139,-0.148354,0.0337883,-2.7017,-0.0776014,0.386471,-0.664969,0.751274,-0.448013,-0.0194619,0.607583,0.321648,0.610428,1
1.30962,-0.451703,-1.74289,-0.726006,2.28806,1.5043,-0.408957,1.3319,-0.479037,-1.72187,-0.714638,2.26311,1.48837,-0.429287,1.37441,-0.526126,-1.6951,-0.717811,2.22611,1.46932,-0.468291,-0.945719,1.02333,-0.555253,0.296326,0.782266,0.448594,0.858782,-0.945719,1.02333,-0.555253,0.296326,0.782266,0.448594,0.858782,0.149571,-0.334511,1.07066,0.600373,-0.250495,0.15221,0.744068,-0.399968,0.413563,0.314401,1.25844,-0.514347,2.21684,-2.69073,-0.0428525,0.0508877,-2.68627,-0.0751563,0.268621,-0.647921,0.744227,-0.477966,-0.0819531,0.619543,0.349835,0.593346,1
1.30288,-0.443132,-1.75101,-0.719563,2.29495,1.51386,-0.403047,1.32423,-0.469753,-1.72821,-0.71864,2.2713,1.49264,-0.422174,1.36573,-0.516674,-1.7003,-0.715744,2.23338,1.47332,-0.460379,-0.935676,1.02401,-0.571519,0.162409,0.79133,0.421132,0.855447,-0.935676,1.02401,-0.571519,0.162409,0.79133,0.421132,0.855447,0.146265,-0.330297,1.07317,0.599993,-0.253127,0.156419,0.742609,-0.337528,0.416001,0.283151,1.23004,-0.516316,2.21905,-2.78958,-0.193455,0.216974,-2.69481,-0.101463,0.221975,-0.628568,0.735426,-0.507036,-0.038181,0.615713,0.405355,0.573324,1
1.29489,-0.434767,-1.75901,-0.712209,2.30234,1.52043,-0.396574,1.31686,-0.460678,-1.7353,-0.721464,2.27949,1.49829,-0.415472,1.35719,-0.507228,-1.70566,-0.714993,2.24078,1.47714,-0.452541,-0.917046,1.02251,-0.587907,0.0128513,0.810115,0.40745,0.843443,-0.917046,1.02251,-0.587907,0.0128513,0.810115,0.40745,0.843443,0.143596,-0.326106,1.0754,0.599349,-0.255152,0.160693,0.741523,-0.269268,0.415095,0.247245,1.20432,-0.515175,2.2146,-2.56267,0.113652,-0.44311,-2.69715,-0.0835729,0.141694,-0.622981,0.724603,-0.533509,0.0278353,0.615591,0.432861,0.559669,1
1.28671,-0.42617,-1.76786,-0.716055,2.30937,1.52301,-0.390515,1.30964,-0.451853,-1.74301,-0.721601,2.28741,1.50519,-0.409095,1.34884,-0.497811,-1.71123,-0.715507,2.24836,1.48098,-0.444857,-0.89275,1.01769,-0.615795,-0.11366,0.831905,0.423102,0.822743,-0.89275,1.01769,-0.615795,-0.11366,0.831905,0.423102,0.822743,0.14153,-0.321971,1.07732,0.59846,-0.256668,0.16499,0.740773,-0.210934,0.409743,0.211835,1.17736,-0.515989,2.21313,-2.64179,-0.0796874,-0.143616,-2.7152,-0.0726487,0.0470383,-0.621363,0.716408,-0.566307,-0.00548408,0.610064,0.420302,0.54342,1
1.28157,-0.417479,-1.77563,-0.73376,2.31709,1.52548,-0.385416,1.30236,-0.443224,-1.75106,-0.719571,2.29496,1.51228,-0.402894,1.34073,-0.488464,-1.71713,-0.716828,2.25612,1.48515,-0.437398,-0.866093,1.0079,-0.658983,-0.168146,0.847479,0.47657,0.795349,-0.866093,1.0079,-0.658983,-0.168146,0.847479,0.47657,0.795349,0.13987,-0.317916,1.07896,0.597449,-0.257946,0.169305,0.740172,-0.181406,0.401226,0.185591,1.14841,-0.52016,2.21036,-2.9182,-0.420314,-0.279324,-2.71544,-0.100598,-0.091282,-0.591594,0.709852,-0.585003,-0.169312,0.609699,0.40329,0.519825,1
1.2778,-0.409474,-1.78404,-0.745084,2.32618,1.52958,-0.38183,1.29505,-0.434686,-1.75927,-0.718829,2.30232,1.51823,-0.396846,1.33286,-0.479233,-1.72346,-0.718164,2.26396,1.48994,-0.430204,-0.842156,0.993155,-0.709001,-0.124691,0.850388,0.55319,0.765675,-0.842156,0.993155,-0.709001,-0.124691,0.850388,0.55319,0.765675,0.138289,-0.313931,1.08043,0.596504,-0.259359,0.173651,0.739433,-0.190001,0.392898,0.176153,1.12221,-0.520781,2.20128,-2.29891,-0.0545606,-0.797008,-2.71498,-0.113775,-0.228749,-0.550595,0.697592,-0.605762,-0.269209,0.622208,0.396404,0.483736,1
1.27219,-0.402192,-1.79287,-0.747782,2.33399,1.53716,-0.378392,1.28823,-0.426197,-1.76755,-0.723005,2.30981,1.52267,-0.391199,1.32516,-0.470147,-1.73024,-0.718826,2.27177,1.49535,-0.423268,-0.827021,0.976567,-0.75522,-0.0270108,0.841243,0.614159,0.739048,-0.827021,0.976567,-0.75522,-0.0270108,0.841243,0.614159,0.739048,0.136513,-0.309998,1.08186,0.59579,-0.261146,0.178047,0.738333,-0.21953,0.38565,0.179374,1.09711,-0.520707,2.19921,-2.90832,0.0085659,-0.240011,-2.69848,-0.11785,-0.330934,-0.529664,0.679554,-0.626311,-0.289561,0.622272,0.418082,0.44876,1
1.26505,-0.394694,-1.801,-0.748037,2.3421,1.54194,-0.373675,1.28234,-0.417872,-1.77585,-0.73156,2.31766,1.52656,-0.38625,1.31757,-0.461204,-1.7374,-0.718924,2.27947,1.50106,-0.416564,-0.816997,0.961913,-0.793191,0.0034255,0.828695,0.622883,0.715241,-0.816997,0.961913,-0.793191,0.0034255,0.828695,0.622883,0.715241,0.134596,-0.306135,1.08326,0.595327,-0.263128,0.182499,0.736915,-0.222998,0.374941,0.173871,1.06956,-0.520814,2.19271,-2.93392,-0.0113313,-0.691507,-2.68218,-0.104822,-0.434395,-0.525244,0.665107,-0.635923,-0.291134,0.626251,0.408764,0.428887,1
1.25863,-0.386101,-1.8085,-0.752416,2.3499,1.54535,-0.368151,1.27698,-0.409853,-1.7842,-0.740219,2.3258,1.53104,-0.381931,1.31014,-0.452384,-1.74487,-0.719538,2.2871,1.50661,-0.410108,-0.794682,0.94987,-0.822419,-0.125759,0.823789,0.582517,0.685865,-0.794682,0.94987,-0.822419,-0.125759,0.823789,0.582517,0.685865,0.132988,-0.302428,1.08448,0.594935,-0.264722,0.186973,0.735538,-0.163926,0.355707,0.140055,1.04522,-0.519411,2.18404,-2.37899,0.137131,-0.847867,-2.65784,-0.0818006,-0.513109,-0.515082,0.662828,-0.636311,-0.328783,0.628049,0.387386,0.419571,1
1.25268,-0.376774,-1.81532,-0.760295,2.35827,1.54616,-0.361165,1.27136,-0.402043,-1.79251,-0.746029,2.33396,1.53609,-0.377711,1.30303,-0.443683,-1.75257,-0.721834,2.29474,1.51176,-0.403988,-0.750517,0.936229,-0.844295,-0.35279,0.831349,0.536785,0.643403,-0.750517,0.936229,-0.844295,-0.35279,0.831349,0.536785,0.643403,0.132158,-0.29898,1.08532,0.594388,-0.265439,0.191377,0.734588,-0.066618,0.329245,0.0861848,1.01729,-0.521209,2.17681,-2.73126,-0.175851,-0.706365,-2.64013,-0.0507023,-0.607726,-0.503409,0.669085,-0.62745,-0.384613,0.635288,0.343996,0.428227,1
1.24832,-0.368064,-1.82233,-0.768536,2.36783,1.54342,-0.355647,1.26525,-0.394083,-1.80054,-0.749973,2.34206,1.54062,-0.37298,1.29634,-0.435135,-1.76045,-0.72592,2.30249,1.51664,-0.398297,-0.702304,0.917064,-0.861427,-0.518647,0.845551,0.522238,0.593635,-0.702304,0.917064,-0.861427,-0.518647,0.845551,0.522238,0.593635,0.132124,-0.295828,1.08576,0.593643,-0.265334,0.195611,0.734113,0.00423241,0.30288,0.0417723,0.991121,-0.523066,2.16549,-2.67731,-0.189954,-1.1589,-2.61993,-0.0295614,-0.709699,-0.480183,0.67071,-0.61871,-0.426157,0.653392,0.2678,0.426498,1
1.24514,-0.360839,-1.83036,-0.774509,2.37654,1.54526,-0.353081,1.25914,-0.385717,-1.80813,-0.754544,2.35027,1.54354,-0.367575,1.28999,-0.42677,-1.76846,-0.730865,2.31035,1.5215,-0.39301,-0.675614,0.896898,-0.872454,-0.550037,0.856613,0.529369,0.554933,-0.675614,0.896898,-0.872454,-0.550037,0.856613,0.529369,0.554933,0.132467,-0.292913,1.08595,0.592857,-0.264866,0.199641,0.733833,0.0184796,0.283952,0.0249355,0.962823,-0.525829,2.15446,-2.78438,-0.271852,-1.08494,-2.65146,-0.0723345,-0.799252,-0.448457,0.659308,-0.618936,-0.436432,0.661925,0.237596,0.399287,1
1.23793,-0.353951,-1.83903,-0.778148,2.38504,1.54887,-0.350561,1.25358,-0.377145,-1.81545,-0.760647,2.35878,1.54475,-0.362028,1.28377,-0.418538,-1.77651,-0.735769,2.31829,1.52633,-0.387947,-0.671697,0.887078,-0.871589,-0.515216,0.86246,0.518274,0.542907,-0.671697,0.887078,-0.871589,-0.515216,0.86246,0.518274,0.542907,0.132803,-0.290132,1.08608,0.592171,-0.264372,0.203508,0.733502,0.0060698,0.275512,0.0279473,0.937471,-0.52509,2.14576,-2.44974,0.0713605,-0.841189,-2.6661,-0.0958311,-0.912181,-0.458407,0.645876,-0.625168,-0.423787,0.667543,0.225368,0.373856,1
1.23089,-0.346515,-1.84748,-0.779245,2.39275,1.55949,-0.347315,1.24858,-0.368859,-1.8229,-0.767241,2.36755,1.54541,-0.357186,1.27758,-0.410322,-1.78449,-0.740497,2.32629,1.53083,-0.382874,-0.669096,0.892483,-0.857543,-0.509506,0.86993,0.46112,0.554965,-0.669096,0.892483,-0.857543,-0.509506,0.86993,0.46112,0.554965,0.133103,-0.287403,1.08626,0.591551,-0.263788,0.20725,0.733165,0.00933547,0.274353,0.0334403,0.910378,-0.52625,2.13676,-2.79125,-0.119462,-0.926936,-2.66974,-0.115306,-0.952809,-0.466909,0.638069,-0.629943,-0.387474,0.664616,0.286596,0.355591,1
1.22677,-0.33976,-1.85585,-0.782614,2.40101,1.57097,-0.344053,1.24349,-0.361134,-1.83076,-0.772855,2.37626,1.5475,-0.353404,1.2715,-0.402031,-1.79231,-0.745416,2.33439,1.53462,-0.377686,-0.649941,0.902679,-0.839203,-0.552462,0.884791,0.367453,0.567966,-0.649941,0.902679,-0.839203,-0.552462,0.884791,0.367453,0.567966,0.133564,-0.284718,1.08647,0.590883,-0.262843,0.210827,0.733023,0.0367934,0.271871,0.0325373,0.885257,-0.524687,2.1168,-2.49398,0.155128,-1.98173,-2.66916,-0.0997663,-1.07702,-0.447283,0.622714,-0.635307,-0.371983,0.666221,0.363537,0.336323,1
1.22731,-0.333461,-1.86414,-0.788364,2.40944,1.57931,-0.343157,1.23796,-0.353852,-1.83901,-0.77695,2.3847,1.55251,-0.350308,1.26565,-0.393705,-1.80002,-0.750746,2.34265,1.53759,-0.372504,-0.619295,0.901215,-0.829917,-0.59834,0.903126,0.283679,0.555626,-0.619295,0.901215,-0.829917,-0.59834,0.903126,0.283679,0.555626,0.13429,-0.282135,1.08669,0.59016,-0.261425,0.214153,0.733148,0.0646432,0.260856,0.0263137,0.858641,-0.526341,2.10278,-2.66853,-0.165833,-1.40541,-2.64326,-0.0680702,-1.20423,-0.383415,0.602437,-0.641204,-0.376181,0.667852,0.417192,0.293469,1
1.23028,-0.327868,-1.87232,-0.793376,2.41709,1.58546,-0.345505,1.23284,-0.346839,-1.84741,-0.780242,2.39291,1.56037,-0.347564,1.26003,-0.385476,-1.80771,-0.756284,2.35105,1.54013,-0.367581,-0.599961,0.882901,-0.836081,-0.601058,0.91461,0.267204,0.514232,-0.599961,0.882901,-0.836081,-0.601058,0.91461,0.267204,0.514232,0.135144,-0.279714,1.08686,0.58952,-0.259757,0.217213,0.733356,0.0664405,0.243242,0.0191071,0.831991,-0.529273,2.09303,-2.71736,-0.298945,-0.994344,-2.63559,-0.0687276,-1.24893,-0.297567,0.576077,-0.646123,-0.370926,0.660474,0.453287,0.220766,1
1.22169,-0.322935,-1.88145,-0.802732,2.4251,1.58361,-0.350912,1.22945,-0.340149,-1.8558,-0.78395,2.40105,1.56932,-0.345602,1.25449,-0.377458,-1.81551,-0.76161,2.35949,1.54299,-0.363087,-0.599627,0.856229,-0.852407,-0.556424,0.914429,0.345304,0.463518,-0.599627,0.856229,-0.852407,-0.556424,0.914429,0.345304,0.463518,0.13586,-0.277439,1.08696,0.589093,-0.258289,0.22012,0.733351,0.0395238,0.228581,0.012878,0.807708,-0.524325,2.07164,-2.33942,0.476696,-2.06065,-2.60015,-0.0140914,-1.38537,-0.328073,0.545231,-0.659372,-0.411222,0.656098,0.406259,0.121751,1
1.20803,-0.322242,-1.89093,-0.806834,2.43128,1.58483,-0.363752,1.22755,-0.334008,-1.8642,-0.788812,2.40912,1.57695,-0.345472,1.24902,-0.36969,-1.82346,-0.766464,2.3679,1.54689,-0.359043,-0.586994,0.828827,-0.868742,-0.499754,0.907396,0.488862,0.416362,-0.586994,0.828827,-0.868742,-0.499754,0.907396,0.488862,0.416362,0.136279,-0.275228,1.08696,0.58885,-0.257428,0.223016,0.732974,0.0087402,0.222946,0.00482804,0.778989,-0.531785,2.05507,-3.06316,-0.79572,-1.76669,-2.62161,-0.0743589,-1.52162,-0.40987,0.474476,-0.674642,-0.403699,0.633792,0.379323,-0.0470871,1
1.20171,-0.328648,-1.90018,-0.808908,2.4369,1.59125,-0.371053,1.22472,-0.328914,-1.87279,-0.794669,2.41693,1.58185,-0.348224,1.24391,-0.362185,-1.83154,-0.770939,2.37624,1.55209,-0.355488,-0.524758,0.799286,-0.87996,-0.471941,0.900088,0.624977,0.358575,-0.524758,0.799286,-0.87996,-0.471941,0.900088,0.624977,0.358575,0.136497,-0.273019,1.08683,0.588633,-0.257289,0.225906,0.732311,0.00225855,0.22094,-0.00895814,0.753041,-0.531639,2.03947,-2.59374,0.0145969,-1.55945,-2.62672,-0.10124,-1.59444,-0.422053,0.335367,-0.686389,-0.379698,0.606657,0.391632,-0.155647,1
1.20316,-0.340332,-1.90883,-0.806288,2.44092,1.60226,-0.378332,1.21894,-0.325986,-1.88169,-0.800474,2.42418,1.58474,-0.354136,1.23952,-0.354996,-1.8397,-0.775373,2.38451,1.55814,-0.352666,-0.434128,0.761243,-0.888444,-0.487443,0.892611,0.682258,0.260938,-0.434128,0.761243,-0.888444,-0.487443,0.892611,0.682258,0.260938,0.136743,-0.270879,1.08653,0.588411,-0.257618,0.228624,0.73153,0.0205298,0.206752,-0.0284404,0.727582,-0.531242,2.01825,-2.39429,0.0373553,-1.99604,-2.63296,-0.117041,-1.64361,-0.363649,0.146635,-0.691237,-0.309148,0.564083,0.441135,-0.256661,1
1.19997,-0.360723,-1.91729,-0.802253,2.44749,1.6119,-0.383044,1.21155,-0.326906,-1.8908,-0.804686,2.43063,1.58808,-0.36209,1.23569,-0.348264,-1.84797,-0.780082,2.39269,1.56423,-0.351049,-0.39811,0.701874,-0.900307,-0.529084,0.879253,0.639281,0.102471,-0.39811,0.701874,-0.900307,-0.529084,0.879253,0.639281,0.102471,0.137112,-0.269059,1.08604,0.588521,-0.257933,0.230953,0.730599,0.0314369,0.158863,-0.0516717,0.7008,-0.531871,1.99998,-2.75028,-0.0646128,-1.87631,-2.63217,-0.0994312,-1.75046,-0.357226,-0.124586,-0.693257,-0.22171,0.548094,0.476732,-0.319955,1
1.19715,-0.364309,-1.92499,-0.786308,2.45484,1.62,-0.385564,1.20562,-0.332902,-1.89984,-0.806009,2.43638,1.5939,-0.370111,1.2317,-0.34233,-1.85637,-0.785108,2.40067,1.56967,-0.351156,-0.462512,0.592807,-0.918418,-0.557334,0.852713,0.546595,-0.108111,-0.462512,0.592807,-0.918418,-0.557334,0.852713,0.546595,-0.108111,0.137397,-0.267981,1.08536,0.589596,-0.257822,0.232711,0.729212,-0.000268099,0.0604447,-0.0800037,0.673876,-0.534043,1.97667,-2.68579,-0.216706,-2.32508,-2.64132,-0.103072,-1.89008,-0.345478,-0.219795,-0.686203,-0.0120047,0.54166,0.503365,-0.344081,1
1.19172,-0.362674,-1.93341,-0.779294,2.46355,1.62546,-0.387694,1.20208,-0.343002,-1.90858,-0.803657,2.44203,1.60204,-0.376759,1.22695,-0.337838,-1.86495,-0.79011,2.40833,1.57445,-0.353222,-0.558293,0.396519,-0.93776,-0.528664,0.80916,0.494241,-0.321649,-0.558293,0.396519,-0.93776,-0.528664,0.80916,0.494241,-0.321649,0.137179,-0.268122,1.08441,0.592105,-0.257255,0.233728,0.727051,-0.0817211,-0.0888585,-0.118051,0.647519,-0.535825,1.95389,-2.63073,-0.177846,-2.27386,-2.65369,-0.140178,-1.9627,-0.35229,-0.24836,-0.684667,0.108162,0.552206,0.510045,-0.344724,1
1.18863,-0.370862,-1.94141,-0.789635,2.47485,1.62867,-0.39465,1.19939,-0.353518,-1.91698,-0.797808,2.44836,1.61071,-0.381722,1.22167,-0.33566,-1.87366,-0.794445,2.41553,1.57921,-0.356967,-0.582379,0.100029,-0.949416,-0.41944,0.756299,0.532996,-0.476762,-0.582379,0.100029,-0.949416,-0.41944,0.756299,0.532996,-0.476762,0.136042,-0.269865,1.08311,0.595977,-0.256626,0.233789,0.724084,-0.196624,-0.272326,-0.16629,0.62248,-0.535416,1.93362,-2.45135,0.0400121,-1.98408,-2.62242,-0.0788161,-2.0611,-0.330439,-0.352024,-0.677523,0.0481021,0.593209,0.494665,-0.376828,1
1.18196,-0.382552,-1.94857,-0.785199,2.48152,1.62924,-0.4043,1.19614,-0.36118,-1.92517,-0.790922,2.45587,1.61823,-0.385712,1.21658,-0.336428,-1.88242,-0.797362,2.42231,1.58462,-0.361713,-0.52599,-0.238438,-0.948636,-0.22833,0.71518,0.631687,-0.54573,-0.52599,-0.238438,-0.948636,-0.22833,0.71518,0.631687,-0.54573,0.133705,-0.273314,1.08141,0.600748,-0.256478,0.232725,0.720528,-0.327776,-0.450358,-0.208927,0.597285,-0.535708,1.91082,-2.54989,-0.0294802,-2.30754,-2.60984,-0.0875362,-2.1475,-0.34614,-0.461237,-0.661508,0.121629,0.592063,0.446162,-0.425867,1
1.17786,-0.391937,-1.9555,-0.777914,2.48945,1.6294,-0.411062,1.19209,-0.366765,-1.93318,-0.786468,2.46439,1.62372,-0.390165,1.21205,-0.339906,-1.89113,-0.798249,2.42887,1.59089,-0.36674,-0.459218,-0.493703,-0.937843,0.0159923,0.706916,0.718978,-0.543402,-0.459218,-0.493703,-0.937843,0.0159923,0.706916,0.718978,-0.543402,0.130093,-0.278084,1.07949,0.605956,-0.2572,0.230642,0.716568,-0.452878,-0.560644,-0.219227,0.570837,-0.536783,1.88365,-2.39822,-0.0974807,-2.46426,-2.60237,-0.0916783,-2.23276,-0.341924,-0.520308,-0.643733,0.203348,0.605788,0.385083,-0.44322,1
1.17686,-0.398599,-1.9623,-0.770392,2.50006,1.6253,-0.416508,1.18757,-0.373319,-1.94095,-0.784657,2.47322,1.62699,-0.396128,1.20797,-0.344941,-1.89971,-0.797067,2.43555,1.59766,-0.3716,-0.429085,-0.589007,-0.92317,0.222863,0.736959,0.745843,-0.511884,-0.429085,-0.589007,-0.92317,0.222863,0.736959,0.745843,-0.511884,0.125449,-0.283403,1.07761,0.611303,-0.258824,0.22794,0.712294,-0.537245,-0.578665,-0.196726,0.545456,-0.536982,1.85735,-2.79905,-0.0219811,-2.89939,-2.57981,-0.0739102,-2.34638,-0.311032,-0.53658,-0.625891,0.266742,0.645079,0.27641,-0.449082,1
1.1746,-0.405104,-1.97038,-0.769502,2.50952,1.62469,-0.421212,1.18312,-0.38172,-1.94836,-0.782362,2.48189,1.62821,-0.403182,1.20399,-0.350401,-1.90816,-0.794641,2.44262,1.60434,-0.376284,-0.431731,-0.593528,-0.907709,0.296447,0.789654,0.702941,-0.50348,-0.431731,-0.593528,-0.907709,0.296447,0.789654,0.702941,-0.50348,0.120255,-0.288725,1.07591,0.616679,-0.260931,0.224924,0.707835,-0.567318,-0.565949,-0.179159,0.519646,-0.538033,1.8314,-2.60203,-0.105995,-2.61638,-2.56592,-0.0558943,-2.42444,-0.293936,-0.547023,-0.622187,0.251385,0.669065,0.203552,-0.449278,1
1.16247,-0.412127,-1.97979,-0.776189,2.51697,1.63413,-0.424451,1.17927,-0.390416,-1.95558,-0.778163,2.49061,1.6279,-0.410011,1.19992,-0.356046,-1.91645,-0.792046,2.45014,1.61033,-0.381134,-0.447988,-0.626542,-0.88877,0.268014,0.837166,0.604338,-0.543886,-0.447988,-0.626542,-0.88877,0.268014,0.837166,0.604338,-0.543886,0.114885,-0.294149,1.07425,0.622189,-0.262898,0.221518,0.703345,-0.575208,-0.591992,-0.189374,0.493528,-0.53983,1.80316,-2.73579,-0.188222,-2.95844,-2.56954,-0.0661578,-2.53606,-0.374579,-0.560808,-0.633403,0.158575,0.668259,0.237996,-0.433164,1
1.15265,-0.41335,-1.98933,-0.794662,2.52332,1.65059,-0.426703,1.1755,-0.398123,-1.96305,-0.774558,2.49961,1.62776,-0.415752,1.19574,-0.362232,-1.92453,-0.789599,2.45802,1.61524,-0.386467,-0.457649,-0.706876,-0.864356,0.262533,0.865912,0.470259,-0.606299,-0.457649,-0.706876,-0.864356,0.262533,0.865912,0.470259,-0.606299,0.109377,-0.300003,1.07251,0.62803,-0.264382,0.217486,0.698842,-0.596076,-0.64536,-0.204634,0.467435,-0.53975,1.77432,-2.53024,0.00776816,-2.79664,-2.58514,-0.0803488,-2.66243,-0.430863,-0.511179,-0.648006,-0.0506226,0.653079,0.353461,-0.402358,1
1.14473,-0.414771,-1.99885,-0.804019,2.52987,1.66223,-0.428174,1.17018,-0.404563,-1.97118,-0.77521,2.50834,1.63057,-0.420276,1.19157,-0.369091,-1.93239,-0.786903,2.46612,1.61887,-0.392254,-0.446267,-0.773495,-0.841106,0.317018,0.888398,0.327732,-0.644091,-0.446267,-0.773495,-0.841106,0.317018,0.888398,0.327732,-0.644091,0.103639,-0.306301,1.07077,0.634235,-0.265431,0.212786,0.694273,-0.623386,-0.678422,-0.202924,0.441764,-0.540926,1.74473,-2.45814,-0.112552,-2.83346,-2.59034,-0.0872765,-2.75404,-0.468458,-0.456793,-0.664556,-0.17116,0.637501,0.433648,-0.359198,1
1.14209,-0.41644,-2.00767,-0.808254,2.53648,1.67005,-0.430693,1.16262,-0.409499,-1.98002,-0.781545,2.51621,1.63807,-0.423712,1.18751,-0.376319,-1.94011,-0.783872,2.47445,1.62141,-0.398169,-0.435468,-0.790886,-0.832008,0.337852,0.912636,0.230515,-0.637795,-0.435468,-0.790886,-0.832008,0.337852,0.912636,0.230515,-0.637795,0.0977331,-0.312802,1.06906,0.640605,-0.266161,0.20764,0.689688,-0.632407,-0.683833,-0.201435,0.416077,-0.541778,1.71318,-2.63068,-0.0872744,-3.23098,-2.58527,-0.0878189,-2.83476,-0.454138,-0.401205,-0.675609,-0.243819,0.620353,0.486384,-0.325241,1
1.13873,-0.426512,-2.01602,-0.816443,2.54347,1.67459,-0.438558,1.15432,-0.412888,-1.98926,-0.791402,2.52326,1.64884,-0.426405,1.18329,-0.383489,-1.94786,-0.781332,2.48292,1.62364,-0.403848,-0.475311,-0.764418,-0.845701,0.222066,0.922148,0.251439,-0.595914,-0.475311,-0.764418,-0.845701,0.222066,0.922148,0.251439,-0.595914,0.0918868,-0.319332,1.06722,0.646888,-0.266534,0.202454,0.685207,-0.615041,-0.681542,-0.231621,0.390177,-0.542454,1.6819,-2.54841,-0.0665632,-3.07816,-2.58836,-0.089289,-2.93305,-0.445509,-0.430233,-0.681582,-0.351111,0.605505,0.509509,-0.347108,1
1.1298,-0.44388,-2.02452,-0.830262,2.54875,1.6783,-0.449333,1.1473,-0.415986,-1.99846,-0.801245,2.52993,1.65952,-0.429266,1.17841,-0.39022,-1.95583,-0.780569,2.49133,1.62676,-0.409032,-0.572825,-0.699302,-0.877562,-0.0353943,0.902412,0.410321,-0.532491,-0.572825,-0.699302,-0.877562,-0.0353943,0.902412,0.410321,-0.532491,0.0863585,-0.325807,1.06493,0.652886,-0.266464,0.197732,0.68091,-0.57411,-0.673086,-0.296451,0.363687,-0.543166,1.64889,-2.71014,-0.0728243,-3.37679,-2.59263,-0.0809776,-3.04002,-0.486097,-0.536595,-0.686874,-0.496934,0.574147,0.515457,-0.403013,1
1.1176,-0.457433,-2.03294,-0.84026,2.553,1.67924,-0.457562,1.1417,-0.421265,-2.00738,-0.809969,2.53644,1.66781,-0.433642,1.17266,-0.396205,-1.9641,-0.782359,2.49947,1.63162,-0.413607,-0.665146,-0.605129,-0.912488,-0.328016,0.863016,0.624602,-0.464229,-0.665146,-0.605129,-0.912488,-0.328016,0.863016,0.624602,-0.464229,0.0813442,-0.33209,1.062,0.65845,-0.265984,0.193848,0.676845,-0.517069,-0.646557,-0.364951,0.338201,-0.544745,1.6148,-2.52077,-0.15615,-3.37194,-2.58951,-0.0825145,-3.13847,-0.550629,-0.612276,-0.688357,-0.579006,0.535322,0.476236,-0.439548,1
1.10693,-0.467053,-2.04176,-0.847845,2.55603,1.67961,-0.464837,1.13573,-0.430448,-2.01602,-0.818981,2.54257,1.67338,-0.440274,1.16638,-0.40141,-1.97265,-0.786433,2.50724,1.63814,-0.417674,-0.69219,-0.528701,-0.936402,-0.537255,0.823125,0.775699,-0.420474,-0.69219,-0.528701,-0.936402,-0.537255,0.823125,0.775699,-0.420474,0.0768882,-0.338082,1.05854,0.663544,-0.265224,0.190769,0.673033,-0.462715,-0.616301,-0.412165,0.313315,-0.545234,1.58012,-2.55163,-0.0501144,-3.55532,-2.57812,-0.090989,-3.23834,-0.594488,-0.656427,-0.691097,-0.614115,0.487976,0.414708,-0.471627,1
1.09855,-0.475362,-2.05086,-0.855786,2.55993,1.68166,-0.471293,1.12779,-0.442623,-2.02455,-0.82894,2.54792,1.6768,-0.448455,1.16011,-0.406352,-1.98134,-0.791971,2.51467,1.64547,-0.421632,-0.668092,-0.540938,-0.944686,-0.652825,0.789725,0.810336,-0.435641,-0.668092,-0.540938,-0.944686,-0.652825,0.789725,0.810336,-0.435641,0.0728265,-0.344016,1.05467,0.668379,-0.264179,0.188006,0.669427,-0.434385,-0.630462,-0.453507,0.288607,-0.545292,1.54461,-2.41661,-0.00570721,-3.47322,-2.56061,-0.0796463,-3.33414,-0.615603,-0.690096,-0.69522,-0.638145,0.452637,0.361875,-0.496609,1
1.09146,-0.483925,-2.06016,-0.865162,2.56298,1.68829,-0.47651,1.11813,-0.455067,-2.03316,-0.838806,2.55237,1.6789,-0.45672,1.15398,-0.411989,-1.99004,-0.798457,2.52178,1.65266,-0.426054,-0.661941,-0.669543,-0.942097,-0.744484,0.754058,0.751473,-0.51578,-0.661941,-0.669543,-0.942097,-0.744484,0.754058,0.751473,-0.51578,0.0688363,-0.350509,1.05034,0.673405,-0.262567,0.18488,0.665886,-0.446299,-0.719955,-0.518895,0.264502,-0.544997,1.50932,-2.31559,0.028388,-3.38995,-2.52942,-0.0621383,-3.41038,-0.625124,-0.719357,-0.7012,-0.667056,0.411952,0.356282,-0.504559,1
1.086,-0.493238,-2.06915,-0.875225,2.56458,1.69833,-0.481822,1.10833,-0.465931,-2.04196,-0.847841,2.55614,1.68091,-0.46414,1.14758,-0.419091,-1.99872,-0.805804,2.52849,1.65906,-0.431341,-0.7181,-0.853576,-0.936977,-0.839244,0.704615,0.643635,-0.620773,-0.7181,-0.853576,-0.936977,-0.839244,0.704615,0.643635,-0.620773,0.0645759,-0.358117,1.04538,0.679082,-0.260005,0.180963,0.662192,-0.494246,-0.849046,-0.60267,0.239307,-0.547124,1.47195,-2.5463,-0.215039,-3.7768,-2.50205,-0.0650627,-3.49696,-0.615866,-0.741474,-0.704297,-0.69421,0.360871,0.392698,-0.504813,1
1.07937,-0.503278,-2.07821,-0.885707,2.56312,1.70932,-0.489072,1.09965,-0.475361,-2.05096,-0.856558,2.55939,1.68445,-0.470637,1.14049,-0.427672,-2.00736,-0.813877,2.53468,1.66441,-0.437461,-0.811109,-0.993691,-0.935724,-0.904263,0.641457,0.525455,-0.698584,-0.811109,-0.993691,-0.935724,-0.904263,0.641457,0.525455,-0.698584,0.0598497,-0.366849,1.0398,0.685585,-0.256353,0.176323,0.658154,-0.553928,-0.945544,-0.669103,0.214154,-0.548368,1.43354,-2.59938,-0.128503,-3.96989,-2.48286,-0.0718781,-3.58053,-0.611194,-0.75606,-0.708523,-0.718306,0.2844,0.449109,-0.516112,1
1.07187,-0.513307,-2.08755,-0.896218,2.56147,1.71547,-0.498644,1.09226,-0.484378,-2.06006,-0.865722,2.56182,1.69053,-0.476665,1.13265,-0.437105,-2.01602,-0.82233,2.54028,1.66883,-0.44406,-0.881935,-1.04554,-0.940704,-0.925287,0.575436,0.438291,-0.728357,-0.881935,-1.04554,-0.940704,-0.925287,0.575436,0.438291,-0.728357,0.0546968,-0.376197,1.03382,0.692717,-0.251846,0.171369,0.653719,-0.596754,-0.974632,-0.701054,0.189367,-0.549244,1.39436,-2.49752,-0.0883214,-3.9475,-2.47901,-0.0771356,-3.66837,-0.60776,-0.762022,-0.71524,-0.738873,0.211937,0.466445,-0.545842,1
1.06387,-0.523062,-2.09667,-0.906238,2.55905,1.71869,-0.507173,1.08556,-0.493671,-2.06918,-0.875526,2.56292,1.69862,-0.482997,1.12442,-0.446724,-2.02476,-0.8309,2.54527,1.67279,-0.450749,-0.898413,-1.03869,-0.950299,-0.93064,0.512151,0.422728,-0.721351,-0.898413,-1.03869,-0.950299,-0.93064,0.512151,0.422728,-0.721351,0.0493224,-0.385594,1.02764,0.70008,-0.246905,0.166511,0.648999,-0.61059,-0.955609,-0.71525,0.164119,-0.549374,1.35446,-2.64353,-0.0135736,-4.17758,-2.4872,-0.0846292,-3.76169,-0.605573,-0.763384,-0.719088,-0.753384,0.137814,0.458913,-0.564236,1
1.0548,-0.532999,-2.10528,-0.914898,2.56352,1.71789,-0.514004,1.07876,-0.503344,-2.07831,-0.885701,2.56264,1.70679,-0.490247,1.11627,-0.456226,-2.03358,-0.83958,2.54965,1.67703,-0.457312,-0.870626,-1.02113,-0.960322,-0.948194,0.441572,0.489602,-0.701962,-0.870626,-1.02113,-0.960322,-0.948194,0.441572,0.489602,-0.701962,0.0439438,-0.394732,1.02129,0.707313,-0.241912,0.161992,0.644162,-0.602284,-0.921725,-0.734285,0.138666,-0.55022,1.31356,-2.45934,-0.0817222,-3.95155,-2.50188,-0.0916349,-3.85877,-0.614644,-0.767731,-0.717028,-0.753176,0.138739,0.408577,-0.566916,1
1.04613,-0.542881,-2.11362,-0.923285,2.57365,1.71228,-0.520497,1.07138,-0.513211,-2.08741,-0.895824,2.56199,1.71293,-0.498258,1.10843,-0.465633,-2.04249,-0.848495,2.55327,1.6821,-0.46377,-0.829648,-1.01697,-0.968155,-0.980419,0.349977,0.599261,-0.697378,-0.829648,-1.01697,-0.968155,-0.980419,0.349977,0.599261,-0.697378,0.0386868,-0.403554,1.01468,0.714266,-0.237062,0.157915,0.639288,-0.586239,-0.892127,-0.764349,0.113326,-0.550504,1.2703,-2.51213,-0.0281859,-4.28942,-2.5173,-0.0847123,-3.97475,-0.62307,-0.772483,-0.711373,-0.747893,0.203801,0.301817,-0.567265,1
1.03798,-0.552586,-2.12221,-0.931992,2.57873,1.70836,-0.526561,1.06335,-0.523103,-2.09638,-0.90551,2.56281,1.71579,-0.506234,1.10091,-0.475066,-2.05145,-0.85772,2.55596,1.68804,-0.470333,-0.803177,-1.02569,-0.974046,-1.01492,0.242264,0.680291,-0.7223,-0.803177,-1.02569,-0.974046,-1.01492,0.242264,0.680291,-0.7223,0.0335668,-0.412129,1.00776,0.721017,-0.232305,0.154282,0.634323,-0.57497,-0.872467,-0.79754,0.0875397,-0.55095,1.22721,-2.53125,-0.0438059,-4.22979,-2.52735,-0.0597362,-4.07685,-0.629212,-0.775202,-0.707598,-0.742721,0.227662,0.203194,-0.562275,1
1.0302,-0.562256,-2.13112,-0.940992,2.57817,1.71039,-0.532155,1.05492,-0.532969,-2.10512,-0.914637,2.5663,1.71539,-0.513556,1.0935,-0.484596,-2.06046,-0.867206,2.55775,1.6943,-0.477208,-0.802145,-1.03787,-0.977484,-1.03802,0.153642,0.675783,-0.763503,-0.802145,-1.03787,-0.977484,-1.03802,0.153642,0.675783,-0.763503,0.028509,-0.420568,1.00056,0.727758,-0.227411,0.150953,0.629179,-0.576532,-0.862121,-0.822887,0.0616638,-0.552029,1.18299,-2.60196,-0.108441,-4.44656,-2.54257,-0.0554468,-4.17902,-0.632928,-0.776598,-0.706523,-0.737868,0.204127,0.160961,-0.549463,1
1.02393,-0.571845,-2.14019,-0.95048,2.58067,1.71689,-0.538723,1.04648,-0.542789,-2.11374,-0.923424,2.57144,1.71322,-0.520183,1.08599,-0.494226,-2.06948,-0.876805,2.55908,1.70002,-0.4844,-0.821337,-1.04741,-0.975606,-1.04118,0.135315,0.572025,-0.791955,-0.821337,-1.04741,-0.975606,-1.04118,0.135315,0.572025,-0.791955,0.0233704,-0.428974,0.993208,0.734637,-0.222127,0.147612,0.623842,-0.594975,-0.858859,-0.834208,0.0370721,-0.553187,1.13787,-2.44484,-0.115185,-4.48524,-2.54616,-0.0638183,-4.28134,-0.620671,-0.776191,-0.707109,-0.736749,0.215879,0.168719,-0.543237,1
1.01916,-0.581256,-2.14921,-0.960404,2.58839,1.72435,-0.546212,1.03844,-0.552534,-2.12241,-0.932233,2.576,1.71186,-0.526418,1.07828,-0.503927,-2.07845,-0.886343,2.56067,1.70443,-0.491713,-0.847446,-1.05341,-0.967585,-1.02625,0.20419,0.397675,-0.792268,-0.847446,-1.05341,-0.967585,-1.02625,0.20419,0.397675,-0.792268,0.0179894,-0.437431,0.985835,0.741686,-0.216309,0.143841,0.618403,-0.627115,-0.859794,-0.833398,0.0129523,-0.553734,1.09175,-2.41653,-0.0547485,-4.62126,-2.52983,-0.0733542,-4.38158,-0.591231,-0.773291,-0.707633,-0.740612,0.277125,0.199237,-0.544993,1
1.01442,-0.59017,-2.15807,-0.970445,2.59748,1.73031,-0.553661,1.03115,-0.562181,-2.13123,-0.941319,2.57949,1.71335,-0.532661,1.07036,-0.513667,-2.08733,-0.895712,2.56306,1.7072,-0.498922,-0.866322,-1.05628,-0.957855,-1.00512,0.303999,0.218355,-0.771171,-0.866322,-1.05628,-0.957855,-1.00512,0.303999,0.218355,-0.771171,0.0122819,-0.445961,0.978514,0.748844,-0.209955,0.139383,0.612963,-0.660158,-0.858886,-0.82935,-0.0109724,-0.555082,1.0447,-2.40423,-0.13544,-4.72774,-2.50047,-0.0831506,-4.47511,-0.55945,-0.765033,-0.70739,-0.747327,0.344206,0.231086,-0.547385,1
1.00814,-0.59899,-2.16662,-0.980234,2.6048,1.73253,-0.560218,1.02481,-0.571687,-2.14017,-0.950761,2.58355,1.71775,-0.53925,1.06236,-0.523418,-2.09615,-0.90492,2.56613,1.7087,-0.505906,-0.867572,-1.05607,-0.952465,-0.990666,0.357991,0.114627,-0.743981,-0.867572,-1.05607,-0.952465,-0.990666,0.357991,0.114627,-0.743981,0.00630373,-0.454493,0.971214,0.755993,-0.203207,0.134354,0.607562,-0.680398,-0.848147,-0.832009,-0.035599,-0.558046,0.996609,-2.51546,-0.302824,-4.91215,-2.47326,-0.116408,-4.56185,-0.542165,-0.755722,-0.704754,-0.753134,0.386658,0.238282,-0.543116,1
1.00094,-0.608585,-2.17493,-0.98937,2.6102,1.73234,-0.566245,1.01918,-0.581,-2.14909,-0.960479,2.58948,1.72333,-0.546204,1.05446,-0.533152,-2.10495,-0.914057,2.56947,1.70982,-0.512679,-0.845383,-1.0529,-0.953361,-0.988809,0.363555,0.12798,-0.724756,-0.845383,-1.0529,-0.953361,-0.988809,0.363555,0.12798,-0.724756,0.000195347,-0.462885,0.963833,0.762982,-0.196358,0.129107,0.602191,-0.684265,-0.824473,-0.845145,-0.0594996,-0.555208,0.94815,-2.4937,0.296096,-5.05599,-2.44174,-0.0953687,-4.65391,-0.535183,-0.754324,-0.699791,-0.753123,0.407346,0.225196,-0.535665,1
0.993449,-0.618737,-2.18322,-0.998052,2.61384,1.72955,-0.572646,1.0136,-0.590167,-2.15787,-0.97026,2.59663,1.72804,-0.553192,1.04688,-0.542841,-2.11377,-0.923235,2.57293,1.7115,-0.519355,-0.800536,-1.04631,-0.957479,-0.998411,0.385175,0.226598,-0.721634,-0.800536,-1.04631,-0.957479,-0.998411,0.385175,0.226598,-0.721634,-0.00592762,-0.471009,0.956276,0.769689,-0.18977,0.123842,0.59685,-0.677486,-0.792539,-0.864626,-0.0808223,-0.557134,0.899738,-2.09852,-0.189493,-4.76465,-2.38983,-0.0845347,-4.72973,-0.534281,-0.758963,-0.694497,-0.748171,0.409034,0.180531,-0.532908,1
0.986551,-0.628891,-2.19168,-1.00681,2.61724,1.72971,-0.578851,1.00749,-0.599403,-2.16647,-0.979842,2.60348,1.73063,-0.559901,1.03976,-0.552447,-2.12262,-0.932529,2.57685,1.71413,-0.526062,-0.746471,-1.03564,-0.960006,-1.01378,0.457976,0.333857,-0.730571,-0.746471,-1.03564,-0.960006,-1.01378,0.457976,0.333857,-0.730571,-0.0120252,-0.478814,0.948519,0.776068,-0.183677,0.118472,0.591563,-0.668155,-0.759938,-0.883056,-0.106778,-0.556633,0.848297,-2.47181,0.047658,-4.89883,-2.38438,-0.0616606,-4.81889,-0.532052,-0.764433,-0.690544,-0.742798,0.403845,0.155827,-0.527894,1
0.980552,-0.638639,-2.20018,-1.01587,2.62245,1.73164,-0.584905,1.00075,-0.608935,-2.17491,-0.989085,2.6091,1.73116,-0.566313,1.03307,-0.561948,-2.13147,-0.941954,2.58153,1.71746,-0.532844,-0.70599,-1.02356,-0.957653,-1.02674,0.547866,0.383873,-0.738064,-0.70599,-1.02356,-0.957653,-1.02674,0.547866,0.383873,-0.738064,-0.0181184,-0.486333,0.9406,0.782165,-0.178036,0.112821,0.586337,-0.663611,-0.73241,-0.895725,-0.131105,-0.558171,0.797233,-2.47479,-0.156442,-5.19478,-2.3893,-0.055368,-4.90434,-0.525156,-0.766903,-0.687117,-0.739114,0.409201,0.141802,-0.520603,1
0.975281,-0.647824,-2.20872,-1.02539,2.62944,1.7356,-0.590542,0.9938,-0.61876,-2.1833,-0.998065,2.61373,1.73082,-0.572567,1.02661,-0.571365,-2.14028,-0.951449,2.58686,1.72086,-0.539642,-0.693631,-1.01702,-0.950005,-1.02993,0.602632,0.354532,-0.734849,-0.693631,-1.01702,-0.950005,-1.02993,0.602632,0.354532,-0.734849,-0.0242613,-0.493646,0.932581,0.788091,-0.172555,0.106835,0.58114,-0.668529,-0.712934,-0.903269,-0.157819,-0.557747,0.744358,-2.71178,0.0430002,-5.36729,-2.42439,-0.0345443,-4.99868,-0.513301,-0.76459,-0.684393,-0.739398,0.425791,0.147383,-0.509001,1
0.969997,-0.656759,-2.21716,-1.03513,2.63683,1.73891,-0.596116,0.987133,-0.628635,-2.19172,-1.00701,2.61826,1.73111,-0.578708,1.02016,-0.580777,-2.149,-0.960916,2.59244,1.72371,-0.546369,-0.703838,-1.0214,-0.939854,-1.02177,0.604642,0.270252,-0.723423,-0.703838,-1.0214,-0.939854,-1.02177,0.604642,0.270252,-0.723423,-0.0305112,-0.500844,0.924496,0.793951,-0.166896,0.10059,0.575907,-0.68176,-0.7008,-0.909719,-0.180502,-0.559584,0.691352,-2.22958,-0.180508,-5.21011,-2.4344,-0.0383164,-5.09236,-0.501594,-0.759827,-0.68162,-0.74209,0.443905,0.151973,-0.497466,1
0.964482,-0.665813,-2.22553,-1.04474,2.64335,1.74065,-0.602013,0.981009,-0.638295,-2.20019,-1.01615,2.62354,1.73275,-0.584685,1.01359,-0.590267,-2.15763,-0.97028,2.59787,1.72577,-0.552983,-0.717795,-1.03353,-0.931073,-1.00783,0.575263,0.183362,-0.71038,-0.717795,-1.03353,-0.931073,-1.00783,0.575263,0.183362,-0.71038,-0.0368942,-0.507974,0.916339,0.799794,-0.160881,0.0941993,0.570591,-0.696579,-0.690707,-0.918459,-0.204433,-0.559188,0.636481,-2.41148,0.0398572,-5.52926,-2.44715,-0.0641244,-5.199,-0.491067,-0.755464,-0.679006,-0.744561,0.454839,0.148849,-0.490305,1
0.958059,-0.675199,-2.23389,-1.05404,2.64912,1.74178,-0.607561,0.975337,-0.64765,-2.20867,-1.02553,2.62976,1.73537,-0.590493,1.00696,-0.59986,-2.1662,-0.97953,2.60306,1.72725,-0.559477,-0.719033,-1.04376,-0.925813,-0.996902,0.551217,0.140206,-0.697573,-0.719033,-1.04376,-0.925813,-0.996902,0.551217,0.140206,-0.697573,-0.0433878,-0.515012,0.908084,0.805583,-0.154578,0.0877418,0.565193,-0.705682,-0.675886,-0.929845,-0.230305,-0.559786,0.581465,-2.55553,-0.0590236,-5.43434,-2.47556,-0.0517121,-5.30118,-0.488962,-0.753393,-0.676907,-0.745141,0.460585,0.145382,-0.480836,1
0.951283,-0.68492,-2.24219,-1.06315,2.65444,1.74217,-0.613403,0.969779,-0.656822,-2.21711,-1.03506,2.6364,1.73804,-0.596214,1.0004,-0.6095,-2.17473,-0.988723,2.60818,1.72859,-0.565846,-0.703219,-1.04449,-0.923442,-0.994775,0.557216,0.150827,-0.683332,-0.703219,-1.04449,-0.923442,-0.994775,0.557216,0.150827,-0.683332,-0.0499361,-0.521884,0.899709,0.811233,-0.148214,0.0812354,0.559763,-0.70609,-0.653446,-0.941921,-0.255433,-0.559265,0.525598,-2.47786,0.0513873,-5.50895,-2.46779,-0.0448755,-5.38396,-0.491135,-0.754202,-0.674522,-0.744281,0.462584,0.135789,-0.475564,1
0.944549,-0.694686,-2.2505,-1.07226,2.65981,1.74266,-0.619326,0.963984,-0.666022,-2.22551,-1.04456,2.64284,1.74007,-0.601927,0.99403,-0.619098,-2.18325,-0.997937,2.61349,1.73017,-0.572078,-0.678057,-1.03566,-0.921941,-1.00091,0.590094,0.188426,-0.667965,-0.678057,-1.03566,-0.921941,-1.00091,0.590094,0.188426,-0.667965,-0.0564837,-0.52852,0.89121,0.81667,-0.14199,0.0746529,0.554361,-0.70026,-0.626031,-0.9527,-0.278488,-0.560775,0.468551,-2.37651,-0.155718,-5.88057,-2.45421,-0.0394621,-5.47661,-0.49481,-0.755872,-0.672512,-0.743198,0.46325,0.124836,-0.472476,1
0.938201,-0.704307,-2.25874,-1.08147,2.66593,1.74268,-0.62517,0.957788,-0.675403,-2.23386,-1.05391,2.64882,1.74134,-0.607669,0.987878,-0.6286,-2.19175,-1.00722,2.61912,1.73206,-0.578176,-0.656486,-1.02369,-0.919841,-1.00974,0.626755,0.216896,-0.654283,-0.656486,-1.02369,-0.919841,-1.00974,0.626755,0.216896,-0.654283,-0.0630072,-0.534896,0.882603,0.821882,-0.135956,0.0679648,0.549005,-0.694184,-0.598695,-0.961801,-0.300355,-0.560613,0.410239,-2.124,0.0157415,-5.6639,-2.4092,-0.0394881,-5.56729,-0.496771,-0.757074,-0.66989,-0.742471,0.46814,0.106225,-0.469933,1
0.932445,-0.71374,-2.26689,-1.0908,2.67258,1.74289,-0.630837,0.951302,-0.684967,-2.24218,-1.06314,2.6545,1.74206,-0.613459,0.981858,-0.638012,-2.20023,-1.01657,2.62501,1.73406,-0.584167,-0.648342,-1.016,-0.916849,-1.01512,0.646882,0.217809,-0.644222,-0.648342,-1.016,-0.916849,-1.01512,0.646882,0.217809,-0.644222,-0.0695287,-0.541037,0.8739,0.826917,-0.13002,0.0611694,0.543656,-0.693881,-0.574822,-0.970364,-0.320528,-0.564151,0.351503,-2.11792,-0.371458,-6.16659,-2.35751,-0.0626504,-5.66052,-0.494128,-0.757279,-0.666616,-0.742254,0.475682,0.088297,-0.466702,1
0.926748,-0.723084,-2.275,-1.10015,2.67929,1.74374,-0.636062,0.944804,-0.694604,-2.25046,-1.07232,2.66023,1.74247,-0.619274,0.97584,-0.647392,-2.20868,-1.02594,2.63098,1.73596,-0.590083,-0.654804,-1.01602,-0.913403,-1.0146,0.64711,0.195122,-0.637914,-0.654804,-1.01602,-0.913403,-1.0146,0.64711,0.195122,-0.637914,-0.0761032,-0.546984,0.8651,0.831839,-0.124049,0.0542873,0.538246,-0.701527,-0.554628,-0.979757,-0.345621,-0.562837,0.292343,-2.54341,0.133198,-5.99651,-2.31761,-0.075095,-5.74177,-0.490915,-0.756916,-0.663194,-0.742081,0.483113,0.0777861,-0.459795,1
0.920636,-0.732479,-2.28311,-1.10947,2.68596,1.74495,-0.641019,0.938528,-0.704191,-2.25869,-1.08154,2.66628,1.7428,-0.625019,0.969727,-0.656801,-2.21709,-1.03529,2.63691,1.7376,-0.595957,-0.668333,-1.02167,-0.909872,-1.01022,0.638027,0.161945,-0.634873,-0.668333,-1.02167,-0.909872,-1.01022,0.638027,0.161945,-0.634873,-0.0827816,-0.552767,0.856197,0.836695,-0.117951,0.0473325,0.532719,-0.713784,-0.536417,-0.9903,-0.368736,-0.564133,0.231169,-2.21288,-0.124069,-5.85631,-2.27753,-0.0841541,-5.8373,-0.490908,-0.756784,-0.660227,-0.741827,0.490552,0.0735056,-0.450626,1
0.914568,-0.741833,-2.29136,-1.1188,2.69231,1.74607,-0.646224,0.932501,-0.713678,-2.26686,-1.09082,2.67268,1.74325,-0.630577,0.963507,-0.666265,-2.22547,-1.04459,2.64278,1.73893,-0.601811,-0.67838,-1.02796,-0.906178,-1.0058,0.633129,0.12875,-0.633452,-0.67838,-1.02796,-0.906178,-1.0058,0.633129,0.12875,-0.633452,-0.0895754,-0.558396,0.847184,0.841492,-0.111708,0.0402945,0.527058,-0.72444,-0.518353,-1.0011,-0.391924,-0.564921,0.173112,-2.31788,-0.0787642,-5.80331,-2.2687,-0.0925332,-5.89328,-0.489386,-0.755683,-0.658911,-0.742126,0.495321,0.0714856,-0.444129,1
0.908584,-0.751136,-2.29974,-1.12817,2.69847,1.74762,-0.651657,0.926577,-0.723088,-2.27501,-1.10014,2.67924,1.74399,-0.635913,0.957242,-0.67577,-2.23382,-1.05387,2.64865,1.73998,-0.607643,-0.678757,-1.03089,-0.901929,-1.00375,0.639435,0.102157,-0.630235,-0.678757,-1.03089,-0.901929,-1.00375,0.639435,0.102157,-0.630235,-0.0964528,-0.563866,0.838062,0.846202,-0.10535,0.0331461,0.521291,-0.729236,-0.499169,-1.01106,-0.417714,-0.564232,0.110501,-2.69426,0.0719696,-6.54085,-2.31795,-0.0677441,-5.95977,-0.486571,-0.753666,-0.659171,-0.743045,0.498156,0.0763626,-0.440135,1
