Afshin1997/kuka_rl_ros2/src/catch_and_throw/output_files/tm/nn_ema1.00_jvws1_simball_D11H11M37S03/recorded_data.csv
pure_target_joint_0,pure_target_joint_1,pure_target_joint_2,pure_target_joint_3,pure_target_joint_4,pure_target_joint_5,pure_target_joint_6,target_joint_0,target_joint_1,target_joint_2,target_joint_3,target_joint_4,target_joint_5,target_joint_6,pos_joint_0,pos_joint_1,pos_joint_2,pos_joint_3,pos_joint_4,pos_joint_5,pos_joint_6,vel_joint_0,vel_joint_1,vel_joint_2,vel_joint_3,vel_joint_4,vel_joint_5,vel_joint_6,vel_smooth_joint_0,vel_smooth_joint_1,vel_smooth_joint_2,vel_smooth_joint_3,vel_smooth_joint_4,vel_smooth_joint_5,vel_smooth_joint_6,ee_pos_x,ee_pos_y,ee_pos_z,ee_or_w,ee_or_x,ee_or_y,ee_or_z,ee_vel_x,ee_vel_y,ee_vel_z,ball_pos_x,ball_pos_y,ball_pos_z,ball_raw_vx,ball_raw_vy,ball_raw_vz,ball_ema_vx,ball_ema_vy,ball_ema_vz,action_0,action_1,action_2,action_3,action_4,action_5,action_6,command_published
1.8477,-1.10392,-1.76372,-1.10875,1.88227,1.17525,-0.90985,1.8477,-1.10392,-1.76372,-1.10875,1.88227,1.17525,-0.90985,1.7818,-1.07682,-1.82223,-1.12313,1.93563,1.11127,-0.916323,0,0,2.39541e-05,-2.39541e-05,-3.83266e-05,1.19989e-05,0,0,0,2.39541e-05,-2.39541e-05,-3.83266e-05,1.19989e-05,0,0.539818,-0.456666,0.691735,0.571277,0.185166,0.153272,0.78477,2.62359e-06,1.76909e-05,2.75083e-06,0.412769,0.209917,0.0737401,-0.000837066,-0.00180361,-0.00359517,-0.000837066,-0.00180361,-0.00359517,0.65899,-0.270985,0.58514,0.143847,-0.533629,0.639881,0.0647257,1
1.8477,-1.10392,-1.76372,-1.10875,1.88227,1.17525,-0.90985,1.8477,-1.10392,-1.76372,-1.10875,1.88227,1.17525,-0.90985,1.7818,-1.07682,-1.82223,-1.12313,1.93563,1.11127,-0.916323,0,0,2.39541e-05,-2.39541e-05,-3.83266e-05,1.19989e-05,0,0,0,2.39541e-05,-2.39541e-05,-3.83266e-05,1.19989e-05,0,0.539818,-0.456666,0.691735,0.571277,0.185166,0.153272,0.78477,2.62359e-06,1.76909e-05,2.75083e-06,0.412769,0.209917,0.0737401,-0.000837066,-0.00180361,-0.00359517,-0.000837066,-0.00180361,-0.00359517,0.65899,-0.270985,0.58514,0.143847,-0.533629,0.639881,0.0647257,1
1.8477,-1.10392,-1.76372,-1.10875,1.88227,1.17525,-0.90985,1.8477,-1.10392,-1.76372,-1.10875,1.88227,1.17525,-0.90985,1.7818,-1.07682,-1.82223,-1.12313,1.93563,1.11127,-0.916323,0,0,2.39541e-05,-2.39541e-05,-3.83266e-05,1.19989e-05,0,0,0,2.39541e-05,-2.39541e-05,-3.83266e-05,1.19989e-05,0,0.539818,-0.456666,0.691735,0.571277,0.185166,0.153272,0.78477,2.62359e-06,1.76909e-05,2.75083e-06,0.412769,0.209917,0.0737401,-0.000837066,-0.00180361,-0.00359517,-0.000837066,-0.00180361,-0.00359517,0.65899,-0.270985,0.58514,0.143847,-0.533629,0.639881,0.0647257,1
1.8479,-1.10084,-1.76258,-1.10333,1.88468,1.17511,-0.907687,1.8479,-1.10084,-1.76258,-1.10333,1.88468,1.17511,-0.907687,1.7818,-1.07682,-1.82223,-1.12313,1.93563,1.11127,-0.916323,1.19773e-05,5.98867e-06,0,0,0,1.19882e-05,-1.79769e-05,1.19773e-05,5.98867e-06,0,0,0,1.19882e-05,-1.79769e-05,0.539818,-0.456666,0.691735,0.571277,0.185166,0.153272,0.78477,0,0,0,0.41277,0.209919,0.0737401,0.00208083,-0.0085314,0.0042657,0.00208083,-0.0085314,0.0042657,0.660965,-0.240143,0.596478,0.198073,-0.50949,0.638461,0.0863596,1
1.84809,-1.09941,-1.76197,-1.1001,1.88883,1.17496,-0.903779,1.84809,-1.09941,-1.76197,-1.1001,1.88883,1.17496,-0.903779,1.7818,-1.07682,-1.82223,-1.12313,1.93563,1.11127,-0.916323,0,1.1977e-05,2.39541e-05,0,-1.91982e-05,0,0,0,1.1977e-05,2.39541e-05,0,-1.91982e-05,0,0,0.539817,-0.456666,0.691736,0.571277,0.185166,0.153271,0.78477,-1.20321e-06,1.01019e-05,1.48523e-05,0.412768,0.209928,0.0737329,-0.000309686,0.0018399,-0.00145734,-0.000309686,0.0018399,-0.00145734,0.662846,-0.225877,0.602584,0.230355,-0.468061,0.636974,0.125439,1
1.84804,-1.09247,-1.76158,-1.09303,1.89848,1.17436,-0.898054,1.84804,-1.09247,-1.76158,-1.09303,1.89848,1.17436,-0.898054,1.7818,-1.07682,-1.82223,-1.12313,1.93563,1.11127,-0.916323,0,0,0,0,1.91982e-05,0,0,0,0,0,0,1.91982e-05,0,0,0.539817,-0.456666,0.691736,0.571277,0.185166,0.153271,0.78477,-6.29067e-07,-2.03627e-06,3.98041e-07,0.412758,0.209927,0.0737438,-0.00289607,0.000930438,-0.00143571,-0.00289607,0.000930438,-0.00143571,0.662421,-0.156467,0.606508,0.301019,-0.371535,0.630941,0.182686,1
1.84984,-1.08948,-1.76342,-1.08748,1.8979,1.17537,-0.904537,1.84984,-1.08948,-1.76342,-1.08748,1.8979,1.17537,-0.904537,1.7818,-1.07682,-1.82223,-1.12313,1.93563,1.11127,-0.916323,1.19989e-05,0,0,2.39541e-05,0,3.5953e-05,-3.5953e-05,1.19989e-05,0,0,2.39541e-05,0,3.5953e-05,-3.5953e-05,0.539817,-0.456666,0.691736,0.571277,0.185165,0.153271,0.78477,-1.98979e-06,-8.78636e-07,7.63904e-06,0.412756,0.20993,0.0737355,-0.00239701,0.00129169,-0.000841845,-0.00239701,0.00129169,-0.000841845,0.680387,-0.126628,0.588148,0.356528,-0.377295,0.641061,0.117859,1
1.85077,-1.08434,-1.76465,-1.08229,1.89906,1.17565,-0.904404,1.85077,-1.08434,-1.76465,-1.08229,1.89906,1.17565,-0.904404,1.7818,-1.07682,-1.82223,-1.12313,1.93563,1.11127,-0.916323,3.59547e-05,3.59547e-05,2.39771e-05,0,-1.91991e-05,4.79541e-05,2.39771e-05,3.59547e-05,3.59547e-05,2.39771e-05,0,-1.91991e-05,4.79541e-05,2.39771e-05,0.539817,-0.456666,0.691736,0.571277,0.185165,0.153271,0.78477,8.69198e-06,3.78134e-05,3.07803e-05,0.412764,0.209923,0.0737372,0.00110321,-3.53243e-05,-0.00285855,0.00110321,-3.53243e-05,-0.00285855,0.689687,-0.0751988,0.575863,0.408391,-0.365751,0.643793,0.119191,1
1.85142,-1.08241,-1.76594,-1.08036,1.89944,1.17648,-0.905004,1.85142,-1.08241,-1.76594,-1.08036,1.89944,1.17648,-0.905004,1.7818,-1.07682,-1.82223,-1.12313,1.93563,1.11127,-0.916323,2.39771e-05,2.39771e-05,2.39771e-05,0,3.83633e-05,0,0,2.39771e-05,2.39771e-05,2.39771e-05,0,3.83633e-05,0,0,0.539817,-0.456666,0.691736,0.571277,0.185165,0.153271,0.78477,7.13189e-06,1.99127e-05,2.27236e-05,0.412766,0.209921,0.0737313,-0.00400007,-0.000400007,-0.00122184,-0.00400007,-0.000400007,-0.00122184,0.696203,-0.0558816,0.562946,0.427759,-0.361899,0.652116,0.113191,1
1.85197,-1.07234,-1.7666,-1.07627,1.90598,1.17746,-0.906351,1.85197,-1.07234,-1.7666,-1.07627,1.90598,1.17746,-0.906351,1.7818,-1.07682,-1.82223,-1.12313,1.93563,1.11127,-0.916323,-1.19776e-05,1.19776e-05,0,0,0,0,1.19776e-05,-1.19776e-05,1.19776e-05,0,0,0,0,1.19776e-05,0.539817,-0.456666,0.691736,0.571277,0.185165,0.153271,0.78477,-6.25141e-06,-2.60307e-06,6.65795e-06,0.412769,0.20993,0.0737355,0.0027463,0.00364183,-0.00511945,0.0027463,0.00364183,-0.00511945,0.701716,0.0447769,0.556308,0.468667,-0.296503,0.66196,0.0997145,1
1.85223,-1.06258,-1.76755,-1.07353,1.91051,1.17864,-0.910429,1.85223,-1.06258,-1.76755,-1.07353,1.91051,1.17864,-0.910429,1.7818,-1.07682,-1.82223,-1.12313,1.93563,1.11127,-0.916323,0,3.59547e-05,0,5.99099e-05,3.83284e-05,2.39552e-05,-1.19776e-05,0,3.59547e-05,0,5.99099e-05,3.83284e-05,2.39552e-05,-1.19776e-05,0.539817,-0.456666,0.691736,0.571277,0.185165,0.153271,0.78477,-1.53254e-05,-1.38596e-05,3.63195e-05,0.412767,0.209922,0.0737183,0.000675401,-0.00188492,-0.00385254,0.000675401,-0.00188492,-0.00385254,0.704323,0.142425,0.546864,0.496072,-0.251166,0.673727,0.0589359,1
1.8524,-1.0604,-1.76709,-1.07395,1.90901,1.1796,-0.913664,1.8524,-1.0604,-1.76709,-1.07395,1.90901,1.1796,-0.913664,1.7818,-1.07682,-1.82223,-1.12313,1.93563,1.11127,-0.916323,-3.59547e-05,1.19776e-05,0,0,0,0,3.59547e-05,-3.59547e-05,1.19776e-05,0,0,0,0,3.59547e-05,0.539817,-0.456666,0.691736,0.571277,0.185165,0.153271,0.78477,-1.7238e-05,-1.49458e-05,6.65795e-06,0.412777,0.209926,0.0737369,0.00299867,-0.000205858,-2.74478e-05,0.00299867,-0.000205858,-2.74478e-05,0.706032,0.164256,0.551444,0.491815,-0.266252,0.68332,0.0265904,1
1.85208,-1.05392,-1.76704,-1.07175,1.9176,1.18051,-0.917855,1.85208,-1.05392,-1.76704,-1.07175,1.9176,1.18051,-0.917855,1.7818,-1.07682,-1.82223,-1.12313,1.93563,1.11127,-0.916323,-1.19994e-05,0,2.39771e-05,1.19776e-05,-1.91991e-05,0,3.59547e-05,-1.19994e-05,0,2.39771e-05,1.19776e-05,-1.91991e-05,0,3.59547e-05,0.539817,-0.456666,0.691736,0.571277,0.185165,0.153271,0.78477,-7.78984e-06,-3.93637e-06,1.10499e-05,0.412775,0.209938,0.0737402,0.00140774,0.00218737,-0.00137618,0.00140774,0.00218737,-0.00137618,0.702786,0.229033,0.551918,0.513867,-0.180281,0.692421,-0.0153177,1
1.85252,-1.04774,-1.76645,-1.07283,1.91507,1.18156,-0.921543,1.85252,-1.04774,-1.76645,-1.07283,1.91507,1.18156,-0.921543,1.7818,-1.07682,-1.82223,-1.12313,1.93563,1.11127,-0.916323,0,-2.39771e-05,2.39771e-05,-2.39771e-05,1.91642e-05,0,3.59547e-05,0,-2.39771e-05,2.39771e-05,-2.39771e-05,1.91642e-05,0,3.59547e-05,0.539817,-0.456666,0.691736,0.571277,0.185165,0.153271,0.78477,3.53375e-06,3.95601e-06,-1.00312e-05,0.412771,0.209918,0.073749,0.00226072,-0.00253075,0.0039751,0.00226072,-0.00253075,0.0039751,0.707162,0.290838,0.557826,0.503052,-0.20559,0.702952,-0.0522023,1
1.85173,-1.03811,-1.76377,-1.07304,1.9254,1.18271,-0.92608,1.85173,-1.03811,-1.76377,-1.07304,1.9254,1.18271,-0.92608,1.7818,-1.07682,-1.82223,-1.12313,1.93563,1.11127,-0.916323,0,-2.39771e-05,0,1.19994e-05,3.83633e-05,3.59547e-05,0,0,-2.39771e-05,0,1.19994e-05,3.83633e-05,3.59547e-05,0,0.539817,-0.456666,0.691736,0.571277,0.185165,0.153271,0.78477,-5.37044e-06,-1.39613e-05,-7.73621e-06,0.412766,0.209923,0.0737346,-0.0008381,-0.00113334,-0.00353653,-0.0008381,-0.00113334,-0.00353653,0.699278,0.3871,0.584613,0.500972,-0.102345,0.714427,-0.0975667,1
1.85139,-1.03355,-1.76287,-1.07277,1.93629,1.18372,-0.929139,1.85139,-1.03355,-1.76287,-1.07277,1.93629,1.18372,-0.929139,1.7818,-1.07682,-1.82223,-1.12313,1.93563,1.11127,-0.916323,0,2.39771e-05,0,-1.19776e-05,-1.91642e-05,0,-1.19776e-05,0,2.39771e-05,0,-1.19776e-05,-1.91642e-05,0,-1.19776e-05,0.539817,-0.456666,0.691736,0.571277,0.185165,0.153271,0.78477,9.50776e-07,1.34671e-05,1.00829e-05,0.412764,0.209916,0.0737327,-0.00253798,-0.0015146,-0.00182161,-0.00253798,-0.0015146,-0.00182161,0.695865,0.432753,0.593621,0.503625,0.00663389,0.724558,-0.12816,1
1.85105,-1.02994,-1.76238,-1.072,1.94343,1.1848,-0.932715,1.85105,-1.02994,-1.76238,-1.072,1.94343,1.1848,-0.932715,1.7818,-1.07682,-1.82223,-1.12313,1.93563,1.11127,-0.916323,-2.39552e-05,0,0,0,-1.91642e-05,0,0,-2.39552e-05,0,0,0,-1.91642e-05,0,0,0.539817,-0.456666,0.691736,0.571277,0.185165,0.153271,0.78477,-1.03487e-05,-1.02989e-05,-3.97318e-07,0.412766,0.209928,0.073731,-0.000735213,0.00065644,-5.90796e-05,-0.000735213,0.00065644,-5.90796e-05,0.692444,0.468838,0.598516,0.511341,0.0779377,0.735279,-0.163919,1
1.85063,-1.02687,-1.76199,-1.07132,1.94774,1.18578,-0.93663,1.85063,-1.02687,-1.76199,-1.07132,1.94774,1.18578,-0.93663,1.7818,-1.07682,-1.82223,-1.12313,1.93563,1.11127,-0.916323,-2.39552e-05,0,2.39771e-05,2.39771e-05,1.91991e-05,1.19776e-05,3.59547e-05,-2.39552e-05,0,2.39771e-05,2.39771e-05,1.91991e-05,1.19776e-05,3.59547e-05,0.539817,-0.456666,0.691736,0.571277,0.185165,0.153271,0.78477,-1.76417e-05,-1.79577e-05,1.53464e-05,0.412767,0.209925,0.0737364,-0.00129343,-0.0008404,-0.000807572,-0.00129343,-0.0008404,-0.000807572,0.688322,0.499524,0.602412,0.518093,0.121046,0.745127,-0.203068,1
1.8501,-1.02428,-1.76134,-1.0716,1.95408,1.18651,-0.939203,1.8501,-1.02428,-1.76134,-1.0716,1.95408,1.18651,-0.939203,1.7818,-1.07682,-1.82223,-1.12313,1.93563,1.11127,-0.916323,0,0,0,1.19776e-05,1.91642e-05,-2.39771e-05,0,0,0,0,1.19776e-05,1.91642e-05,-2.39771e-05,0,0.539817,-0.456666,0.691736,0.571277,0.185165,0.153271,0.78477,4.72226e-08,-7.36889e-06,1.94901e-06,0.412767,0.209925,0.0737394,-0.00107431,0.000895257,0.000830799,-0.00107431,0.000895257,0.000830799,0.682968,0.525444,0.608917,0.515373,0.184451,0.752403,-0.228797,1
1.84949,-1.02228,-1.76037,-1.0726,1.96428,1.18715,-0.942556,1.84949,-1.02228,-1.76037,-1.0726,1.96428,1.18715,-0.942556,1.7818,-1.07682,-1.82223,-1.12313,1.93563,1.11127,-0.916323,2.39759e-05,0,0,0,0,0,-3.5953e-05,2.39759e-05,0,0,0,0,0,-3.5953e-05,0.539817,-0.456666,0.691736,0.571277,0.185165,0.153271,0.78477,1.09866e-05,1.23427e-05,3.30872e-24,0.41275,0.209925,0.073745,-0.00271347,0.000219825,0.00195782,-0.00271347,0.000219825,0.00195782,0.676873,0.545405,0.618588,0.505319,0.286452,0.758796,-0.262325,1
1.84908,-1.02162,-1.76101,-1.07257,1.96509,1.18794,-0.946376,1.84908,-1.02162,-1.76101,-1.07257,1.96509,1.18794,-0.946376,1.7818,-1.07682,-1.82223,-1.12313,1.93563,1.11127,-0.916323,-2.39541e-05,0,-2.39759e-05,-1.1977e-05,-3.83615e-05,0,-5.99289e-05,-2.39541e-05,0,-2.39759e-05,-1.1977e-05,-3.83615e-05,0,-5.99289e-05,0.539817,-0.456666,0.691736,0.571277,0.185165,0.153271,0.78477,-6.79903e-06,-8.46692e-06,-1.22433e-05,0.412759,0.209933,0.0737428,-0.00106107,0.000644223,0.00197057,-0.00106107,0.000644223,0.00197057,0.672793,0.552062,0.61221,0.505647,0.294609,0.766691,-0.300532,1
1.84844,-1.0208,-1.76082,-1.07291,1.96842,1.18852,-0.947886,1.84844,-1.0208,-1.76082,-1.07291,1.96842,1.18852,-0.947886,1.7818,-1.07682,-1.82223,-1.12313,1.93563,1.11127,-0.916323,-3.5953e-05,0,0,-2.39759e-05,0,0,0,-3.5953e-05,0,0,-2.39759e-05,0,0,0,0.539817,-0.456666,0.691736,0.571277,0.185165,0.153271,0.78477,-1.27707e-05,-9.89508e-06,-5.70071e-06,0.41277,0.209923,0.0737289,0.00151653,-0.000726671,-6.31888e-05,0.00151653,-0.000726671,-6.31888e-05,0.666411,0.560198,0.614126,0.502246,0.32791,0.772523,-0.315633,1
1.8481,-1.01986,-1.76037,-1.07298,1.97235,1.18891,-0.947646,1.8481,-1.01986,-1.76037,-1.07298,1.97235,1.18891,-0.947646,1.7818,-1.07682,-1.82223,-1.12313,1.93563,1.11127,-0.916323,3.5953e-05,-2.39541e-05,0,0,0,0,-3.5953e-05,3.5953e-05,-2.39541e-05,0,0,0,0,-3.5953e-05,0.539817,-0.456666,0.691736,0.571277,0.185165,0.153271,0.78477,1.80011e-05,1.13831e-05,-1.33159e-05,0.412772,0.209931,0.0737315,-7.92343e-05,0.00193464,-0.000581052,-7.92343e-05,0.00193464,-0.000581052,0.662968,0.569591,0.618632,0.501539,0.367166,0.776393,-0.313227,1
1.8478,-1.01923,-1.75998,-1.07312,1.97513,1.18927,-0.947688,1.8478,-1.01923,-1.75998,-1.07312,1.97513,1.18927,-0.947688,1.7818,-1.07682,-1.82223,-1.12313,1.93563,1.11127,-0.916323,0,0,2.39759e-05,-3.5953e-05,5.75247e-05,0,2.39759e-05,0,0,2.39759e-05,-3.5953e-05,5.75247e-05,0,2.39759e-05,0.539817,-0.456666,0.691736,0.571277,0.185165,0.153271,0.78477,2.59961e-06,1.13217e-05,1.24438e-06,0.412781,0.209926,0.07374,0.00314116,-0.0010152,0.00106895,0.00314116,-0.0010152,0.00106895,0.659996,0.575867,0.622507,0.500157,0.394972,0.779982,-0.31365,1
1.84758,-1.019,-1.75998,-1.07318,1.97633,1.18955,-0.947984,1.84758,-1.019,-1.75998,-1.07318,1.97633,1.18955,-0.947984,1.7818,-1.07682,-1.82223,-1.12313,1.93563,1.11127,-0.916323,0,0,0,0,0,3.5953e-05,0,0,0,0,0,0,3.5953e-05,0,0.539817,-0.456666,0.691736,0.571277,0.185164,0.153271,0.78477,-3.78723e-06,1.5499e-06,1.94351e-06,0.412766,0.209927,0.073734,-0.0019163,0.000211927,-0.000364157,-0.0019163,0.000211927,-0.000364157,0.65781,0.578263,0.622506,0.499574,0.406959,0.782849,-0.316612,1
1.84703,-1.0187,-1.76007,-1.07201,1.97699,1.18993,-0.947822,1.84703,-1.0187,-1.76007,-1.07201,1.97699,1.18993,-0.947822,1.7818,-1.07682,-1.82223,-1.12313,1.93563,1.11127,-0.916323,1.1977e-05,0,1.1977e-05,0,1.91982e-05,0,0,1.1977e-05,0,1.1977e-05,0,1.91982e-05,0,0,0.539817,-0.456666,0.691736,0.571277,0.185164,0.153271,0.78477,4.32465e-06,6.38093e-06,4.69421e-06,0.412769,0.209932,0.0737375,0.00104187,0.00254505,0.000903792,0.00104187,0.00254505,0.000903792,0.652289,0.581263,0.621644,0.511243,0.413548,0.786584,-0.31499,1
1.84615,-1.01851,-1.75965,-1.07046,1.97939,1.19027,-0.947773,1.84615,-1.01851,-1.75965,-1.07046,1.97939,1.19027,-0.947773,1.7818,-1.07682,-1.82223,-1.12313,1.93563,1.11127,-0.916323,0,-2.39541e-05,1.1977e-05,-3.5953e-05,-3.83615e-05,0,0,0,-2.39541e-05,1.1977e-05,-3.5953e-05,-3.83615e-05,0,0,0.539817,-0.456666,0.691736,0.571277,0.185165,0.153271,0.78477,7.80327e-06,1.21111e-05,-1.83636e-05,0.412769,0.209933,0.0737418,0.000788188,0.000272341,0.00176862,0.000788188,0.000272341,0.00176862,0.643499,0.583069,0.625784,0.526711,0.437617,0.789976,-0.3145,1
1.84529,-1.01849,-1.75903,-1.0694,1.98278,1.19052,-0.947756,1.84529,-1.01849,-1.75903,-1.0694,1.98278,1.19052,-0.947756,1.7818,-1.07682,-1.82223,-1.12313,1.93563,1.11127,-0.916323,2.39541e-05,0,0,-3.5953e-05,-3.83615e-05,2.39759e-05,0,2.39541e-05,0,0,-3.5953e-05,-3.83615e-05,2.39759e-05,0,0.539817,-0.456666,0.691736,0.571277,0.185164,0.153271,0.78477,1.52627e-05,3.03499e-05,-8.04777e-06,0.412769,0.209926,0.0737392,-0.00107235,0.00186796,-0.00323434,-0.00107235,0.00186796,-0.00323434,0.634867,0.583266,0.631993,0.537378,0.471446,0.792497,-0.314325,1
1.84418,-1.0192,-1.7591,-1.06795,1.98487,1.19081,-0.947166,1.84418,-1.0192,-1.7591,-1.06795,1.98487,1.19081,-0.947166,1.7818,-1.07682,-1.82223,-1.12313,1.93563,1.11127,-0.916323,-1.1977e-05,0,0,-1.1977e-05,1.91982e-05,-1.1977e-05,-2.39759e-05,-1.1977e-05,0,0,-1.1977e-05,1.91982e-05,-1.1977e-05,-2.39759e-05,0.539817,-0.456666,0.691736,0.571277,0.185164,0.153271,0.78477,-3.00529e-06,-4.41558e-06,-3.09716e-06,0.412772,0.209926,0.0737384,-0.00192376,-0.000619789,0.000193181,-0.00192376,-0.000619789,0.000193181,0.623768,0.57618,0.631315,0.551839,0.492373,0.795376,-0.308433,1
1.84073,-1.01972,-1.75969,-1.06607,1.98845,1.1911,-0.944919,1.84073,-1.01972,-1.75969,-1.06607,1.98845,1.1911,-0.944919,1.7818,-1.07682,-1.82223,-1.12313,1.93563,1.11127,-0.916323,0,0,0,-2.39759e-05,-3.83615e-05,1.1977e-05,2.39759e-05,0,0,0,-2.39759e-05,-3.83615e-05,1.1977e-05,2.39759e-05,0.539817,-0.456666,0.691736,0.571277,0.185164,0.153271,0.78477,3.69959e-06,1.31985e-05,-5.84863e-06,0.412778,0.209918,0.0737401,0.00101913,-0.000680453,-0.00113719,0.00101913,-0.000680453,-0.00113719,0.589285,0.570996,0.625456,0.570642,0.528208,0.798349,-0.285955,1
1.83899,-1.02133,-1.76092,-1.06414,1.98792,1.19135,-0.942583,1.83899,-1.02133,-1.76092,-1.06414,1.98792,1.19135,-0.942583,1.7818,-1.07682,-1.82223,-1.12313,1.93563,1.11127,-0.916323,0,2.39759e-05,0,3.5953e-05,-1.91633e-05,3.5953e-05,0,0,2.39759e-05,0,3.5953e-05,-1.91633e-05,3.5953e-05,0,0.539817,-0.456666,0.691736,0.571277,0.185164,0.153271,0.78477,-1.02416e-05,-2.20178e-06,2.34227e-05,0.41276,0.209926,0.0737438,-0.00291321,0.000902924,0.000800706,-0.00291321,0.000902924,0.000800706,0.571849,0.554946,0.61311,0.589922,0.522915,0.800773,-0.262597,1
1.83719,-1.02094,-1.76076,-1.06338,1.98927,1.19133,-0.940952,1.83719,-1.02094,-1.76076,-1.06338,1.98927,1.19133,-0.940952,1.7818,-1.07682,-1.82223,-1.12313,1.93563,1.11127,-0.916323,0,0,2.39759e-05,0,0,3.5953e-05,3.5953e-05,0,0,2.39759e-05,0,0,3.5953e-05,3.5953e-05,0.539817,-0.456666,0.691736,0.571277,0.185164,0.153271,0.78477,-4.85739e-06,6.05696e-06,1.05437e-05,0.412782,0.209929,0.0737395,0.0028842,-0.000141846,0.00312061,0.0028842,-0.000141846,0.00312061,0.553917,0.558859,0.614742,0.597501,0.536357,0.800621,-0.24629,1
1.83204,-1.02097,-1.76061,-1.06177,1.99137,1.19134,-0.938535,1.83204,-1.02097,-1.76061,-1.06177,1.99137,1.19134,-0.938535,1.7818,-1.07682,-1.82223,-1.12313,1.93563,1.11127,-0.916323,0,0,2.39771e-05,-3.59547e-05,0,-2.39771e-05,-3.59547e-05,0,0,2.39771e-05,-3.59547e-05,0,-2.39771e-05,-3.59547e-05,0.539817,-0.456666,0.691736,0.571277,0.185164,0.153271,0.78477,7.0101e-06,1.63895e-05,-1.24437e-06,0.412765,0.209927,0.0737412,-0.0017283,4.18138e-05,0.00292697,-0.0017283,4.18138e-05,0.00292697,0.502434,0.558549,0.616172,0.613616,0.557434,0.800737,-0.222122,1
1.82762,-1.02093,-1.75998,-1.06111,1.99343,1.19131,-0.935891,1.82762,-1.02093,-1.75998,-1.06111,1.99343,1.19131,-0.935891,1.7818,-1.07682,-1.82223,-1.12313,1.93563,1.11127,-0.916323,-1.19994e-05,0,2.39552e-05,-1.19776e-05,0,-3.59547e-05,0,-1.19994e-05,0,2.39552e-05,-1.19776e-05,0,-3.59547e-05,0,0.539817,-0.456666,0.691736,0.571277,0.185164,0.153271,0.78477,-9.2983e-07,1.07885e-06,3.80108e-06,0.412778,0.209932,0.0737314,0.00311559,-0.000708936,-0.00488792,0.00311559,-0.000708936,-0.00488792,0.458214,0.55896,0.622477,0.620203,0.578007,0.800431,-0.195679,1
1.82199,-1.02095,-1.75995,-1.05985,1.99435,1.19128,-0.934028,1.82199,-1.02095,-1.75995,-1.05985,1.99435,1.19128,-0.934028,1.7818,-1.07682,-1.82223,-1.12313,1.93563,1.11127,-0.916323,-2.39771e-05,0,0,0,0,-2.39771e-05,0,-2.39771e-05,0,0,0,0,-2.39771e-05,0,0.539817,-0.456666,0.691736,0.571277,0.185164,0.153271,0.78477,-8.46103e-06,-1.33763e-05,-1.29606e-06,0.412766,0.20993,0.0737351,0.00123499,-0.000696661,-0.0011611,0.00123499,-0.000696661,-0.0011611,0.401916,0.558714,0.622813,0.632875,0.587231,0.800063,-0.177048,1
1.81475,-1.02094,-1.75924,-1.05919,1.99579,1.19116,-0.93211,1.81475,-1.02094,-1.75924,-1.05919,1.99579,1.19116,-0.93211,1.7818,-1.07682,-1.82223,-1.12313,1.93563,1.11127,-0.916323,1.19994e-05,0,0,1.19776e-05,0,2.39771e-05,0,1.19994e-05,0,0,1.19776e-05,0,2.39771e-05,0,0.539817,-0.456666,0.691736,0.571277,0.185164,0.153271,0.78477,1.12228e-06,2.90779e-06,4.14383e-06,0.412768,0.209932,0.0737436,0.00305472,0.0032201,0.00322983,0.00305472,0.0032201,0.00322983,0.329476,0.558848,0.629896,0.63939,0.601577,0.798956,-0.157872,1
1.80895,-1.02143,-1.75948,-1.05823,1.99605,1.19115,-0.930264,1.80895,-1.02143,-1.75948,-1.05823,1.99605,1.19115,-0.930264,1.7818,-1.07682,-1.82223,-1.12313,1.93563,1.11127,-0.916323,2.39771e-05,-2.39771e-05,2.39552e-05,0,0,0,-5.99317e-05,2.39771e-05,-2.39771e-05,2.39552e-05,0,0,0,-5.99317e-05,0.539817,-0.456666,0.691736,0.571277,0.185164,0.153271,0.78477,1.1445e-05,9.71383e-06,-4.73568e-06,0.41277,0.209929,0.073736,-0.00327237,-0.000248067,0.00380017,-0.00327237,-0.000248067,0.00380017,0.271513,0.553918,0.627561,0.649049,0.604166,0.798826,-0.139404,1
1.80011,-1.0214,-1.75892,-1.05795,1.99726,1.19103,-0.929568,1.80011,-1.0214,-1.75892,-1.05795,1.99726,1.19103,-0.929568,1.7818,-1.07682,-1.82223,-1.12313,1.93563,1.11127,-0.916323,4.79323e-05,3.59547e-05,2.39552e-05,0,-1.91642e-05,0,0,4.79323e-05,3.59547e-05,2.39552e-05,0,-1.91642e-05,0,0,0.539817,-0.456666,0.691736,0.571277,0.185164,0.153271,0.78477,1.92312e-05,4.19042e-05,2.8181e-05,0.412771,0.209927,0.0737349,-0.00331675,-0.00250531,0.0027386,-0.00331675,-0.00250531,0.0027386,0.18308,0.554161,0.633067,0.65185,0.616263,0.797586,-0.132453,1
1.79403,-1.02226,-1.75891,-1.05766,1.99784,1.19101,-0.928362,1.79403,-1.02226,-1.75891,-1.05766,1.99784,1.19101,-0.928362,1.7818,-1.07682,-1.82223,-1.12313,1.93563,1.11127,-0.916323,0,-1.19776e-05,2.39771e-05,-3.59547e-05,1.91642e-05,0,0,0,-1.19776e-05,2.39771e-05,-3.59547e-05,1.91642e-05,0,0,0.539817,-0.456666,0.691736,0.571277,0.185164,0.153271,0.78477,4.61969e-06,1.18279e-05,-6.20893e-06,0.412766,0.209933,0.0737214,-0.00457096,0.00209687,-0.0050924,-0.00457096,0.00209687,-0.0050924,0.122261,0.545616,0.633197,0.654746,0.62208,0.797369,-0.120388,1
1.78265,-1.02299,-1.75936,-1.05694,1.99835,1.19101,-0.926973,1.78265,-1.02299,-1.75936,-1.05694,1.99835,1.19101,-0.926973,1.7818,-1.07682,-1.82223,-1.12313,1.93563,1.11127,-0.916323,-2.39771e-05,-3.59547e-05,0,-1.19776e-05,1.91991e-05,3.59547e-05,-3.59547e-05,-2.39771e-05,-3.59547e-05,0,-1.19776e-05,1.91991e-05,3.59547e-05,-3.59547e-05,0.539817,-0.456666,0.691736,0.571277,0.185164,0.153271,0.78477,-1.12618e-05,-1.92208e-05,-2.04922e-05,0.412764,0.209929,0.0737379,-0.00121419,-0.00189095,0.000965379,-0.00121419,-0.00189095,0.000965379,0.00851225,0.538359,0.628748,0.661988,0.627175,0.797414,-0.106499,1
1.77586,-1.02388,-1.75942,-1.05677,1.99878,1.19101,-0.926006,1.77586,-1.02388,-1.75942,-1.05677,1.99878,1.19101,-0.926006,1.7818,-1.07682,-1.82223,-1.12313,1.93563,1.11127,-0.916323,-1.19994e-05,0,0,0,3.83633e-05,3.59547e-05,0,-1.19994e-05,0,0,0,3.83633e-05,3.59547e-05,0,0.539817,-0.456666,0.691736,0.571277,0.185164,0.153271,0.78477,-1.05425e-05,-8.69591e-06,2.73887e-06,0.412761,0.209933,0.0737483,-8.08422e-05,0.000617865,0.00329143,-8.08422e-05,0.000617865,0.00329143,-0.0593924,0.529386,0.62812,0.663626,0.631484,0.79742,-0.0968343,1
1.76621,-1.02341,-1.75828,-1.05713,2.0002,1.19085,-0.925589,1.76621,-1.02341,-1.75828,-1.05713,2.0002,1.19085,-0.925589,1.7818,-1.07682,-1.82223,-1.12313,1.93563,1.11127,-0.916323,0,-1.19776e-05,-2.39771e-05,0,1.91642e-05,3.59547e-05,0,0,-1.19776e-05,-2.39771e-05,0,1.91642e-05,3.59547e-05,0,0.539817,-0.456666,0.691736,0.571277,0.185164,0.153271,0.78477,-2.58188e-06,-8.5524e-06,-1.29173e-05,0.41278,0.209925,0.0737377,0.00346894,-0.00235354,0.00331951,0.00346894,-0.00235354,0.00331951,-0.155945,0.534065,0.639561,0.660005,0.645645,0.795798,-0.0926569,1
1.75989,-1.02419,-1.75846,-1.05674,2.00048,1.19085,-0.92382,1.75989,-1.02419,-1.75846,-1.05674,2.00048,1.19085,-0.92382,1.7818,-1.07682,-1.82223,-1.12313,1.93563,1.11127,-0.916323,-1.19776e-05,0,0,-3.59547e-05,-3.83633e-05,-1.19776e-05,0,-1.19776e-05,0,0,-3.59547e-05,-3.83633e-05,-1.19776e-05,0,0.539817,-0.456666,0.691736,0.571277,0.185164,0.153271,0.78477,2.58501e-06,1.03029e-05,-9.99127e-06,0.412774,0.209937,0.0737263,-0.00310594,0.00290472,-0.0014343,-0.00310594,0.00290472,-0.0014343,-0.219135,0.526315,0.637709,0.663934,0.648494,0.795816,-0.0749712,1
1.75266,-1.02467,-1.75855,-1.05626,2.00087,1.19081,-0.921905,1.75266,-1.02467,-1.75855,-1.05626,2.00087,1.19081,-0.921905,1.7818,-1.07682,-1.82223,-1.12313,1.93563,1.11127,-0.916323,1.19776e-05,2.39552e-05,2.39771e-05,3.59547e-05,0,0,0,1.19776e-05,2.39552e-05,2.39771e-05,3.59547e-05,0,0,0,0.539817,-0.456666,0.691736,0.571277,0.185164,0.153271,0.78477,-2.66275e-06,4.88204e-06,3.04645e-05,0.412764,0.209932,0.0737408,-0.00269547,-0.00160173,0.0045512,-0.00269547,-0.00160173,0.0045512,-0.291389,0.521551,0.636814,0.668786,0.652376,0.795364,-0.055821,1
1.75009,-1.02518,-1.75823,-1.05629,2.00131,1.19076,-0.920537,1.75009,-1.02518,-1.75823,-1.05629,2.00131,1.19076,-0.920537,1.7818,-1.07682,-1.82223,-1.12313,1.93563,1.11127,-0.916323,2.39759e-05,1.19989e-05,0,0,0,0,0,2.39759e-05,1.19989e-05,0,0,0,0,0,0.539817,-0.456666,0.691736,0.571277,0.185164,0.153271,0.78477,1.02221e-05,1.59118e-05,6.67007e-06,0.41277,0.209935,0.0737268,-0.0016433,0.00249343,-0.00267647,-0.0016433,0.00249343,-0.00267647,-0.31715,0.516414,0.640004,0.668478,0.656771,0.79487,-0.042141,1
1.74718,-1.02599,-1.75838,-1.05598,2.00134,1.19075,-0.918238,1.74718,-1.02599,-1.75838,-1.05598,2.00134,1.19075,-0.918238,1.7818,-1.07682,-1.82223,-1.12313,1.93563,1.11127,-0.916323,1.19989e-05,2.39759e-05,-1.19989e-05,2.39759e-05,0,-3.5953e-05,-3.5953e-05,1.19989e-05,2.39759e-05,-1.19989e-05,2.39759e-05,0,-3.5953e-05,-3.5953e-05,0.539817,-0.456666,0.691736,0.571277,0.185164,0.153271,0.78477,4.58927e-06,8.89975e-07,1.27812e-05,0.41277,0.209923,0.0737318,0.00240586,-0.00149347,-0.000366995,0.00240586,-0.00149347,-0.000366995,-0.346245,0.508317,0.638558,0.671497,0.657056,0.794856,-0.0191492,1
1.75004,-1.02939,-1.75968,-1.05561,2.00019,1.19099,-0.916048,1.75004,-1.02939,-1.75968,-1.05561,2.00019,1.19099,-0.916048,1.7818,-1.07682,-1.82223,-1.12313,1.93563,1.11127,-0.916323,1.1977e-05,0,-1.1977e-05,0,-3.83615e-05,2.39759e-05,-8.3883e-05,1.1977e-05,0,-1.1977e-05,0,-3.83615e-05,2.39759e-05,-8.3883e-05,0.539817,-0.456665,0.691736,0.571277,0.185164,0.153271,0.78477,4.7543e-06,9.01668e-06,-3.79547e-06,0.412779,0.20993,0.0737397,-0.000898001,-0.000364813,0.0024246,-0.000898001,-0.000364813,0.0024246,-0.317578,0.474325,0.62548,0.675257,0.645545,0.797205,0.0027522,1
1.74198,-1.02687,-1.75796,-1.05584,2.00182,1.19065,-0.914345,1.74198,-1.02687,-1.75796,-1.05584,2.00182,1.19065,-0.914345,1.7818,-1.07682,-1.82223,-1.12313,1.93563,1.11127,-0.916323,0,0,0,-1.1977e-05,3.83615e-05,2.39759e-05,0,0,0,0,-1.1977e-05,3.83615e-05,2.39759e-05,0,0.539817,-0.456666,0.691736,0.571277,0.185164,0.153271,0.78477,-1.93214e-06,1.26747e-06,-7.56336e-07,0.41277,0.209934,0.0737338,0.00152287,0.00272936,-0.00244517,0.00152287,0.00272936,-0.00244517,-0.398191,0.499551,0.642727,0.672919,0.66192,0.793814,0.0197831,1
1.74005,-1.02834,-1.75831,-1.05549,2.00159,1.19065,-0.912106,1.74005,-1.02834,-1.75831,-1.05549,2.00159,1.19065,-0.912106,1.7818,-1.07682,-1.82223,-1.12313,1.93563,1.11127,-0.916323,-2.39759e-05,0,1.1977e-05,-1.1977e-05,1.91633e-05,0,-2.39759e-05,-2.39759e-05,0,1.1977e-05,-1.1977e-05,1.91633e-05,0,-2.39759e-05,0.539817,-0.456666,0.691736,0.571277,0.185164,0.153271,0.78477,-1.02987e-05,-7.82104e-06,1.84573e-06,0.412771,0.209926,0.0737436,0.00494846,-0.00269014,0.00343124,0.00494846,-0.00269014,0.00343124,-0.417528,0.484857,0.639223,0.676411,0.659535,0.793859,0.0421708,1
1.73759,-1.0284,-1.75765,-1.05568,2.00217,1.19052,-0.911002,1.73759,-1.0284,-1.75765,-1.05568,2.00217,1.19052,-0.911002,1.7818,-1.07682,-1.82223,-1.12313,1.93563,1.11127,-0.916323,0,1.1977e-05,1.1977e-05,0,3.83615e-05,0,3.5953e-05,0,1.1977e-05,1.1977e-05,0,3.83615e-05,0,3.5953e-05,0.539817,-0.456666,0.691737,0.571277,0.185164,0.153271,0.78477,-2.55469e-06,1.74529e-06,1.17495e-05,0.412777,0.20994,0.0737327,0.00130758,0.00432775,-0.000937293,0.00130758,0.00432775,-0.000937293,-0.442094,0.48423,0.645841,0.674539,0.665342,0.792492,0.053208,1
1.73598,-1.02918,-1.75737,-1.05567,2.00237,1.19044,-0.909848,1.73598,-1.02918,-1.75737,-1.05567,2.00237,1.19044,-0.909848,1.7818,-1.07682,-1.82223,-1.12313,1.93563,1.11127,-0.916323,-2.39759e-05,0,1.1977e-05,0,-1.91982e-05,0,0,-2.39759e-05,0,1.1977e-05,0,-1.91982e-05,0,0,0.539817,-0.456666,0.691737,0.571277,0.185164,0.153271,0.78477,-1.08921e-05,-8.05493e-06,3.89813e-06,0.412776,0.209942,0.0737407,0.00720647,0.00195568,0.0010816,0.00720647,0.00195568,0.0010816,-0.45825,0.476392,0.648578,0.67459,0.667383,0.791758,0.0647516,1
1.73532,-1.03075,-1.75749,-1.05557,2.00219,1.19046,-0.908775,1.73532,-1.03075,-1.75749,-1.05557,2.00219,1.19046,-0.908775,1.7818,-1.07682,-1.82223,-1.12313,1.93563,1.11127,-0.916323,-5.99071e-05,2.39759e-05,0,2.39759e-05,0,0,0,-5.99071e-05,2.39759e-05,0,2.39759e-05,0,0,0,0.539817,-0.456666,0.691737,0.571277,0.185164,0.153271,0.78477,-3.26834e-05,-3.23213e-05,1.90287e-05,0.412777,0.209932,0.0737388,0.00796401,-0.000658503,-0.000821192,0.00796401,-0.000658503,-0.000821192,-0.464827,0.460682,0.647416,0.675657,0.665625,0.791871,0.0754829,1
1.73359,-1.03085,-1.75685,-1.05576,2.00269,1.19031,-0.907897,1.73359,-1.03085,-1.75685,-1.05576,2.00269,1.19031,-0.907897,1.7818,-1.07682,-1.82223,-1.12313,1.93563,1.11127,-0.916323,0,0,0,2.39759e-05,-3.83615e-05,0,0,0,0,0,2.39759e-05,-3.83615e-05,0,0,0.539817,-0.456666,0.691737,0.571277,0.185164,0.153271,0.78477,-2.44726e-06,-4.54447e-06,4.90535e-06,0.412769,0.209922,0.0737406,0.00341295,-0.00523319,0.00426953,0.00341295,-0.00523319,0.00426953,-0.482081,0.459745,0.653837,0.673739,0.670559,0.790412,0.0842636,1
1.73235,-1.0315,-1.75648,-1.05584,2.00292,1.19022,-0.906893,1.73235,-1.0315,-1.75648,-1.05584,2.00292,1.19022,-0.906893,1.7818,-1.07682,-1.82223,-1.12313,1.93563,1.11127,-0.916323,1.19989e-05,2.39759e-05,-1.1977e-05,-3.5953e-05,1.91982e-05,0,-3.5953e-05,1.19989e-05,2.39759e-05,-1.1977e-05,-3.5953e-05,1.91982e-05,0,-3.5953e-05,0.539817,-0.456666,0.691736,0.571277,0.185164,0.153271,0.78477,9.43094e-06,2.19371e-05,8.81423e-07,0.412764,0.209931,0.0737347,-0.00240487,-0.00132754,-0.00159861,-0.00240487,-0.00132754,-0.00159861,-0.494497,0.453213,0.657531,0.672951,0.672863,0.789513,0.0943028,1
1.73229,-1.03411,-1.75695,-1.05559,2.00239,1.19031,-0.905815,1.73229,-1.03411,-1.75695,-1.05559,2.00239,1.19031,-0.905815,1.7818,-1.07682,-1.82223,-1.12313,1.93563,1.11127,-0.916323,2.39541e-05,-1.1977e-05,-1.19989e-05,-1.1977e-05,-3.83615e-05,0,0,2.39541e-05,-1.1977e-05,-1.19989e-05,-1.1977e-05,-3.83615e-05,0,0,0.539817,-0.456666,0.691736,0.571277,0.185164,0.153271,0.78477,1.53827e-05,1.48848e-05,-1.46051e-05,0.412771,0.209931,0.0737263,0.00155587,0.00239631,0.00305617,0.00155587,0.00239631,0.00305617,-0.495146,0.427154,0.652823,0.675463,0.667557,0.790423,0.105076,1
1.73164,-1.0357,-1.75695,-1.05554,2.0023,1.19029,-0.904667,1.73164,-1.0357,-1.75695,-1.05554,2.0023,1.19029,-0.904667,1.7818,-1.07682,-1.82223,-1.12313,1.93563,1.11127,-0.916323,0,1.1977e-05,-2.39759e-05,-2.39759e-05,-1.91633e-05,0,-3.5953e-05,0,1.1977e-05,-2.39759e-05,-2.39759e-05,-1.91633e-05,0,-3.5953e-05,0.539817,-0.456666,0.691736,0.571277,0.185164,0.153271,0.78477,4.63924e-06,9.7015e-06,-8.04025e-06,0.412777,0.209923,0.0737303,-0.00206222,0.000312238,-0.0030062,-0.00206222,0.000312238,-0.0030062,-0.501659,0.411234,0.652816,0.675955,0.666672,0.790245,0.11656,1
1.72993,-1.03661,-1.75663,-1.0556,2.00251,1.19016,-0.903411,1.72993,-1.03661,-1.75663,-1.0556,2.00251,1.19016,-0.903411,1.7818,-1.07682,-1.82223,-1.12313,1.93563,1.11127,-0.916323,4.793e-05,0,0,0,-3.83615e-05,0,-2.39759e-05,4.793e-05,0,0,0,-3.83615e-05,0,-2.39759e-05,0.539817,-0.456666,0.691737,0.571277,0.185164,0.153271,0.78477,2.32202e-05,2.8743e-05,-7.95362e-07,0.412776,0.209926,0.0737344,0.00414413,-0.00201067,-0.00191858,0.00414413,-0.00201067,-0.00191858,-0.518721,0.402105,0.656061,0.67533,0.668771,0.788944,0.129118,1
1.73034,-1.03997,-1.7575,-1.05491,2.00163,1.19035,-0.90282,1.73034,-1.03997,-1.7575,-1.05491,2.00163,1.19035,-0.90282,1.7818,-1.07682,-1.82223,-1.12313,1.93563,1.11127,-0.916323,2.39771e-05,1.19776e-05,-1.19776e-05,0,0,0,0,2.39771e-05,1.19776e-05,-1.19776e-05,0,0,0,0,0.539817,-0.456666,0.691737,0.571277,0.185164,0.153271,0.78477,1.07581e-05,1.36539e-05,2.36178e-06,0.412777,0.209928,0.0737388,0.00478279,-0.000541959,-0.00532475,0.00478279,-0.000541959,-0.00532475,-0.514646,0.368553,0.647289,0.68226,0.660026,0.790765,0.135035,1
1.73023,-1.04168,-1.75735,-1.05496,2.00161,1.19031,-0.902391,1.73023,-1.04168,-1.75735,-1.05496,2.00161,1.19031,-0.902391,1.7818,-1.07682,-1.82223,-1.12313,1.93563,1.11127,-0.916323,0,0,-1.19776e-05,-2.39771e-05,0,0,-2.39771e-05,0,0,-1.19776e-05,-2.39771e-05,0,0,-2.39771e-05,0.539817,-0.456666,0.691737,0.571277,0.185164,0.153271,0.78477,4.23884e-06,6.36184e-06,-9.99688e-06,0.412764,0.209926,0.0737457,-0.00270497,0.000734763,0.00732162,-0.00270497,0.000734763,0.00732162,-0.515759,0.351419,0.648794,0.681776,0.659761,0.790387,0.139323,1
1.7303,-1.04293,-1.75697,-1.05522,2.00177,1.19023,-0.901976,1.7303,-1.04293,-1.75697,-1.05522,2.00177,1.19023,-0.901976,1.7818,-1.07682,-1.82223,-1.12313,1.93563,1.11127,-0.916323,0,-1.19994e-05,0,0,-1.91991e-05,0,0,0,-1.19994e-05,0,0,-1.91991e-05,0,0,0.539817,-0.456666,0.691737,0.571277,0.185164,0.153271,0.78477,1.39356e-06,-1.53288e-06,-7.06812e-06,0.412769,0.209925,0.0737404,-0.0108523,0.00226297,0.0108523,-0.0108523,0.00226297,0.0108523,-0.515049,0.338948,0.652623,0.679142,0.661431,0.789644,0.143472,1
1.7315,-1.04608,-1.75727,-1.05515,2.00133,1.19033,-0.901943,1.7315,-1.04608,-1.75727,-1.05515,2.00133,1.19033,-0.901943,1.7818,-1.07682,-1.82223,-1.12313,1.93563,1.11127,-0.916323,0,0,-1.19776e-05,1.19776e-05,3.83284e-05,3.59547e-05,-3.59547e-05,0,0,-1.19776e-05,1.19776e-05,3.83284e-05,3.59547e-05,-3.59547e-05,0.539817,-0.456666,0.691737,0.571277,0.185164,0.153271,0.78477,-6.35892e-06,-9.06947e-06,1.28973e-06,0.412789,0.209924,0.0737302,0.00158938,0.00195475,0.00591906,0.00158938,0.00195475,0.00591906,-0.502988,0.307376,0.649572,0.67983,0.656982,0.790575,0.143799,1
1.73149,-1.04891,-1.75755,-1.0549,2.00093,1.19036,-0.901505,1.73149,-1.04891,-1.75755,-1.0549,2.00093,1.19036,-0.901505,1.7818,-1.07682,-1.82223,-1.12313,1.93563,1.11127,-0.916323,-2.39771e-05,-2.39771e-05,-1.19776e-05,-2.39771e-05,0,0,3.59547e-05,-2.39771e-05,-2.39771e-05,-1.19776e-05,-2.39771e-05,0,0,3.59547e-05,0.539817,-0.456666,0.691736,0.571277,0.185164,0.153271,0.78477,-5.22018e-06,-1.31127e-05,-2.33249e-05,0.412774,0.209929,0.0737297,-0.00472392,-0.00326046,0.00276356,-0.00472392,-0.00326046,0.00276356,-0.503128,0.279126,0.646805,0.682308,0.652985,0.790932,0.148181,1
1.73214,-1.05158,-1.75732,-1.0551,2.0008,1.19032,-0.901471,1.73214,-1.05158,-1.75732,-1.0551,2.0008,1.19032,-0.901471,1.7818,-1.07682,-1.82223,-1.12313,1.93563,1.11127,-0.916323,0,1.19994e-05,0,-2.39771e-05,1.91991e-05,0,-3.59547e-05,0,1.19994e-05,0,-2.39771e-05,1.91991e-05,0,-3.59547e-05,0.539817,-0.456666,0.691736,0.571277,0.185164,0.153271,0.78477,2.31069e-06,1.01462e-05,1.36741e-06,0.412772,0.209932,0.0737227,0.00132808,0.0015373,-0.000664039,0.00132808,0.0015373,-0.000664039,-0.496599,0.252453,0.649094,0.680302,0.651696,0.790539,0.14852,1
1.7325,-1.05657,-1.75811,-1.05454,1.99984,1.19045,-0.901389,1.7325,-1.05657,-1.75811,-1.05454,1.99984,1.19045,-0.901389,1.7818,-1.07682,-1.82223,-1.12313,1.93563,1.11127,-0.916323,1.19994e-05,1.19776e-05,1.19776e-05,0,3.83633e-05,0,0,1.19994e-05,1.19776e-05,1.19776e-05,0,3.83633e-05,0,0,0.539817,-0.456666,0.691737,0.571277,0.185164,0.153271,0.78477,2.94362e-06,7.92225e-06,1.17495e-05,0.412777,0.20993,0.0737482,0.0020229,0.00397156,0.0133251,0.0020229,0.00397156,0.0133251,-0.493007,0.202529,0.64124,0.685921,0.642104,0.791826,0.149342,1
1.73228,-1.05857,-1.75733,-1.05517,2.00019,1.19024,-0.901338,1.73228,-1.05857,-1.75733,-1.05517,2.00019,1.19024,-0.901338,1.7818,-1.07682,-1.82223,-1.12313,1.93563,1.11127,-0.916323,1.19994e-05,1.19776e-05,0,0,1.91642e-05,0,5.99317e-05,1.19994e-05,1.19776e-05,0,0,1.91642e-05,0,5.99317e-05,0.539817,-0.456666,0.691737,0.571277,0.185164,0.153271,0.78477,4.10728e-06,7.70705e-06,7.05527e-06,0.412769,0.209935,0.0737396,-0.00187192,0.00700553,0.00355476,-0.00187192,0.00700553,0.00355476,-0.495203,0.182521,0.649002,0.679615,0.645535,0.789685,0.149848,1
1.73353,-1.06349,-1.75734,-1.05547,1.99984,1.19022,-0.901736,1.73353,-1.06349,-1.75734,-1.05547,1.99984,1.19022,-0.901736,1.7818,-1.07682,-1.82223,-1.12313,1.93563,1.11127,-0.916323,-1.19776e-05,0,-1.19776e-05,0,0,2.39771e-05,-3.59547e-05,-1.19776e-05,0,-1.19776e-05,0,0,2.39771e-05,-3.59547e-05,0.539817,-0.456666,0.691737,0.571277,0.185164,0.153271,0.78477,-7.4793e-06,-7.38362e-06,-3.00011e-06,0.412779,0.209925,0.0737311,0.000265019,0.000234903,-0.00108417,0.000265019,0.000234903,-0.00108417,-0.482682,0.133291,0.648949,0.676605,0.642086,0.789538,0.145866,1
1.73602,-1.07213,-1.75822,-1.05526,1.99869,1.19041,-0.902447,1.73602,-1.07213,-1.75822,-1.05526,1.99869,1.19041,-0.902447,1.7818,-1.07682,-1.82223,-1.12313,1.93563,1.11127,-0.916323,1.19776e-05,-2.39771e-05,0,0,-1.91642e-05,0,2.39771e-05,1.19776e-05,-2.39771e-05,0,0,-1.91642e-05,0,2.39771e-05,0.539817,-0.456666,0.691736,0.571277,0.185164,0.153271,0.78477,7.64382e-06,1.06648e-06,-1.37253e-05,0.412779,0.209926,0.0737259,-0.00200797,-6.08475e-06,-0.00192886,-0.00200797,-6.08475e-06,-0.00192886,-0.457842,0.0468941,0.64013,0.678745,0.630591,0.791383,0.138765,1
1.73841,-1.07889,-1.75836,-1.05556,1.9982,1.19044,-0.902984,1.73841,-1.07889,-1.75836,-1.05556,1.9982,1.19044,-0.902984,1.7818,-1.07682,-1.82223,-1.12313,1.93563,1.11127,-0.916323,4.79541e-05,-1.19994e-05,-1.19776e-05,0,1.91642e-05,0,1.19776e-05,4.79541e-05,-1.19994e-05,-1.19776e-05,0,1.91642e-05,0,1.19776e-05,0.539817,-0.456666,0.691736,0.571277,0.185164,0.153271,0.78477,2.26444e-05,1.68322e-05,-1.05689e-05,0.412776,0.209935,0.0737399,-0.00150738,-0.000120962,0.00181133,-0.00150738,-0.000120962,0.00181133,-0.433959,-0.0206829,0.638718,0.675746,0.625645,0.79174,0.133385,1
1.74044,-1.08479,-1.75819,-1.05612,1.99795,1.19038,-0.90347,1.74044,-1.08479,-1.75819,-1.05612,1.99795,1.19038,-0.90347,1.7818,-1.07682,-1.82223,-1.12313,1.93563,1.11127,-0.916323,2.39771e-05,0,1.19776e-05,-3.59547e-05,-3.83633e-05,0,0,2.39771e-05,0,1.19776e-05,-3.59547e-05,-3.83633e-05,0,0,0.539817,-0.456666,0.691736,0.571277,0.185164,0.153271,0.78477,1.72637e-05,3.15791e-05,-5.04766e-06,0.412791,0.209929,0.0737469,0.00280197,-0.00121212,0.00132487,0.00280197,-0.00121212,0.00132487,-0.413581,-0.0797113,0.640379,0.670181,0.623163,0.791135,0.128532,1
1.74544,-1.091,-1.75833,-1.0566,1.99756,1.19039,-0.905603,1.74544,-1.091,-1.75833,-1.0566,1.99756,1.19039,-0.905603,1.7818,-1.07682,-1.82223,-1.12313,1.93563,1.11127,-0.916323,3.5953e-05,0,1.1977e-05,-1.1977e-05,3.83615e-05,0,3.5953e-05,3.5953e-05,0,1.1977e-05,-1.1977e-05,3.83615e-05,0,3.5953e-05,0.539817,-0.456666,0.691737,0.571277,0.185164,0.153271,0.78477,1.65338e-05,2.09938e-05,2.24377e-06,0.412775,0.209935,0.0737437,-0.00134868,0.000899118,0.00396429,-0.00134868,0.000899118,0.00396429,-0.363573,-0.141804,0.639019,0.665292,0.619277,0.791187,0.107197,1
1.74357,-1.09706,-1.75909,-1.0561,1.99641,1.19031,-0.905214,1.74357,-1.09706,-1.75909,-1.0561,1.99641,1.19031,-0.905214,1.7818,-1.07682,-1.82223,-1.12313,1.93563,1.11127,-0.916323,-3.5953e-05,0,-2.39759e-05,3.5953e-05,3.83615e-05,-2.39759e-05,0,-3.5953e-05,0,-2.39759e-05,3.5953e-05,3.83615e-05,-2.39759e-05,0,0.539817,-0.456666,0.691737,0.571277,0.185164,0.153271,0.78477,-1.96909e-05,-4.10339e-05,-5.52401e-07,0.412773,0.209933,0.0737368,0.000105524,0.000254499,-0.000701424,0.000105524,0.000254499,-0.000701424,-0.382282,-0.202418,0.631405,0.670335,0.607812,0.790375,0.111089,1
1.74403,-1.10158,-1.75897,-1.05649,1.99616,1.19009,-0.906481,1.74403,-1.10158,-1.75897,-1.05649,1.99616,1.19009,-0.906481,1.7818,-1.07682,-1.82223,-1.12313,1.93563,1.11127,-0.916323,-2.39541e-05,-2.39759e-05,0,-1.19989e-05,0,0,3.5953e-05,-2.39541e-05,-2.39759e-05,0,-1.19989e-05,0,0,3.5953e-05,0.539817,-0.456666,0.691736,0.571277,0.185164,0.153271,0.78477,-7.59522e-06,-1.51527e-05,-1.6181e-05,0.412778,0.209929,0.0737336,0.00241524,0.00105932,-0.00158595,0.00241524,0.00105932,-0.00158595,-0.37767,-0.247607,0.632647,0.66647,0.605274,0.788188,0.0984225,1
1.74503,-1.10677,-1.76017,-1.05582,1.99468,1.19011,-0.907964,1.74503,-1.10677,-1.76017,-1.05582,1.99468,1.19011,-0.907964,1.7818,-1.07682,-1.82223,-1.12313,1.93563,1.11127,-0.916323,-1.19989e-05,0,-2.39759e-05,1.19989e-05,1.91982e-05,0,-1.1977e-05,-1.19989e-05,0,-2.39759e-05,1.19989e-05,1.91982e-05,0,-1.1977e-05,0.539817,-0.456666,0.691736,0.571277,0.185164,0.153271,0.78477,-6.91102e-06,-1.70309e-05,-5.34918e-06,0.412779,0.209933,0.0737317,-0.000859878,0.00150625,-0.000321723,-0.000859878,0.00150625,-0.000321723,-0.367684,-0.299442,0.6206,0.673158,0.59044,0.788418,0.0835878,1
1.74639,-1.11057,-1.75951,-1.057,1.99503,1.18971,-0.910022,1.74639,-1.11057,-1.75951,-1.057,1.99503,1.18971,-0.910022,1.7818,-1.07682,-1.82223,-1.12313,1.93563,1.11127,-0.916323,0,2.39541e-05,0,0,0,2.39759e-05,0,0,2.39541e-05,0,0,0,2.39759e-05,0,0.539817,-0.456666,0.691736,0.571277,0.185164,0.153271,0.78477,-4.05178e-06,8.15891e-06,1.4612e-05,0.412787,0.209921,0.0737268,0.00193568,-0.00254663,-0.00347212,0.00193568,-0.00254663,-0.00347212,-0.354152,-0.337438,0.627228,0.661329,0.594005,0.784406,0.0630152,1
1.75019,-1.11536,-1.76024,-1.05722,1.9939,1.18954,-0.913291,1.75019,-1.11536,-1.76024,-1.05722,1.9939,1.18954,-0.913291,1.7818,-1.07682,-1.82223,-1.12313,1.93563,1.11127,-0.916323,-2.39541e-05,-2.39541e-05,0,-1.1977e-05,1.91982e-05,0,0,-2.39541e-05,-2.39541e-05,0,-1.1977e-05,1.91982e-05,0,0,0.539817,-0.456666,0.691736,0.571277,0.185164,0.153271,0.78477,-8.22905e-06,-1.71903e-05,-1.57656e-05,0.412779,0.209922,0.0737441,0.00130172,-0.00252596,0.000427708,0.00130172,-0.00252596,0.000427708,-0.316117,-0.385408,0.619928,0.65909,0.582703,0.78269,0.0303221,1
1.75189,-1.11934,-1.76082,-1.0574,1.99289,1.18935,-0.91539,1.75189,-1.11934,-1.76082,-1.0574,1.99289,1.18935,-0.91539,1.7818,-1.07682,-1.82223,-1.12313,1.93563,1.11127,-0.916323,-1.19989e-05,0,0,-1.1977e-05,0,0,3.5953e-05,-1.19989e-05,0,0,-1.1977e-05,0,0,3.5953e-05,0.539817,-0.456666,0.691736,0.571277,0.185164,0.153271,0.78477,-3.64787e-06,-1.87421e-06,-2.84776e-06,0.41277,0.209934,0.0737383,-0.000950346,-0.000487515,-0.00140701,-0.000950346,-0.000487515,-0.00140701,-0.299092,-0.425171,0.614111,0.657361,0.572605,0.780796,0.00933328,1
1.75432,-1.12246,-1.76082,-1.05801,1.99235,1.18908,-0.918203,1.75432,-1.12246,-1.76082,-1.05801,1.99235,1.18908,-0.918203,1.7818,-1.07682,-1.82223,-1.12313,1.93563,1.11127,-0.916323,1.1977e-05,0,0,0,-1.91633e-05,0,0,1.1977e-05,0,0,0,-1.91633e-05,0,0,0.539817,-0.456666,0.691736,0.571277,0.185164,0.153271,0.78477,6.11623e-06,8.1983e-06,-3.97319e-07,0.412779,0.209927,0.0737428,0.000785765,-0.000873386,0.00115321,0.000785765,-0.000873386,0.00115321,-0.274788,-0.456421,0.614137,0.651237,0.567198,0.778077,-0.0187954,1
1.75905,-1.12575,-1.7611,-1.05873,1.99156,1.18879,-0.921884,1.75905,-1.12575,-1.7611,-1.05873,1.99156,1.18879,-0.921884,1.7818,-1.07682,-1.82223,-1.12313,1.93563,1.11127,-0.916323,4.79518e-05,-2.39541e-05,-2.39759e-05,1.19989e-05,-3.83266e-05,0,-3.5953e-05,4.79518e-05,-2.39541e-05,-2.39759e-05,1.19989e-05,-3.83266e-05,0,-3.5953e-05,0.539817,-0.456666,0.691736,0.571277,0.185164,0.153271,0.78477,2.39716e-05,1.28075e-05,-1.98578e-05,0.412782,0.209918,0.0737386,0.000419122,0.000471512,-0.000135598,0.000419122,0.000471512,-0.000135598,-0.22754,-0.489313,0.611338,0.644031,0.559318,0.775214,-0.0556092,1
1.76575,-1.12929,-1.76168,-1.05974,1.99063,1.18844,-0.925737,1.76575,-1.12929,-1.76168,-1.05974,1.99063,1.18844,-0.925737,1.7818,-1.07682,-1.82223,-1.12313,1.93563,1.11127,-0.916323,-3.5953e-05,1.19989e-05,0,1.1977e-05,-1.91633e-05,-2.39759e-05,0,-3.5953e-05,1.19989e-05,0,1.1977e-05,-1.91633e-05,-2.39759e-05,0,0.539817,-0.456666,0.691737,0.571277,0.185164,0.153271,0.78477,-1.59363e-05,-1.8243e-05,7.82445e-06,0.412777,0.209915,0.0737356,-0.000859663,-0.00286764,-0.000338845,-0.000859663,-0.00286764,-0.000338845,-0.160463,-0.524707,0.60552,0.633942,0.549964,0.771686,-0.0941422,1
1.77009,-1.13229,-1.76245,-1.06074,1.98903,1.1881,-0.928896,1.77009,-1.13229,-1.76245,-1.06074,1.98903,1.1881,-0.928896,1.7818,-1.07682,-1.82223,-1.12313,1.93563,1.11127,-0.916323,0,-2.39541e-05,0,0,0,2.39759e-05,-2.39759e-05,0,-2.39541e-05,0,0,0,2.39759e-05,-2.39759e-05,0.539817,-0.456666,0.691736,0.571277,0.185164,0.153271,0.78477,-9.99389e-07,-6.09175e-06,-1.20198e-05,0.412776,0.209927,0.0737298,0.000608646,0.00185157,-0.00158889,0.000608646,0.00185157,-0.00158889,-0.11712,-0.554647,0.597821,0.62396,0.533973,0.768317,-0.125733,1
1.77299,-1.13446,-1.76259,-1.0626,1.98712,1.18778,-0.931855,1.77299,-1.13446,-1.76259,-1.0626,1.98712,1.18778,-0.931855,1.7818,-1.07682,-1.82223,-1.12313,1.93563,1.11127,-0.916323,2.39759e-05,2.39541e-05,0,1.1977e-05,0,0,3.5953e-05,2.39759e-05,2.39541e-05,0,1.1977e-05,0,0,3.5953e-05,0.539817,-0.456666,0.691737,0.571277,0.185164,0.153271,0.78477,7.60998e-06,1.51653e-05,1.61637e-05,0.41277,0.209928,0.0737256,-0.00190225,-0.000997661,-0.00152412,-0.00190225,-0.000997661,-0.00152412,-0.0880754,-0.576389,0.596415,0.605346,0.51487,0.765099,-0.155325,1
1.77744,-1.13623,-1.76258,-1.0647,1.98542,1.18746,-0.935002,1.77744,-1.13623,-1.76258,-1.0647,1.98542,1.18746,-0.935002,1.7818,-1.07682,-1.82223,-1.12313,1.93563,1.11127,-0.916323,0,-1.1977e-05,-1.1977e-05,4.79518e-05,0,0,-3.5953e-05,0,-1.1977e-05,-1.1977e-05,4.79518e-05,0,0,-3.5953e-05,0.539817,-0.456666,0.691736,0.571277,0.185164,0.153271,0.78477,-6.11081e-06,-2.30408e-05,4.47293e-07,0.412775,0.209917,0.0737298,0.000382446,-0.00225121,-0.00119949,0.000382446,-0.00225121,-0.00119949,-0.0436507,-0.594133,0.596538,0.58433,0.497843,0.761926,-0.186789,1
1.7856,-1.13808,-1.76302,-1.06631,1.98286,1.18716,-0.937725,1.7856,-1.13808,-1.76302,-1.06631,1.98286,1.18716,-0.937725,1.7818,-1.07682,-1.82223,-1.12313,1.93563,1.11127,-0.916323,-2.39771e-05,-2.39771e-05,0,0,0,0,0,-2.39771e-05,-2.39771e-05,0,0,0,0,0,0.539817,-0.456666,0.691737,0.571277,0.185164,0.153271,0.78477,-9.45903e-06,-1.94745e-05,-1.3328e-05,0.412783,0.209925,0.0737306,0.000883987,-0.00162666,0.00115459,0.000883987,-0.00162666,0.00115459,0.0379699,-0.612622,0.592079,0.568284,0.47225,0.758903,-0.214023,1
1.79349,-1.13966,-1.76349,-1.06859,1.98085,1.18671,-0.94094,1.79349,-1.13966,-1.76349,-1.06859,1.98085,1.18671,-0.94094,1.7818,-1.07682,-1.82223,-1.12313,1.93563,1.11127,-0.916323,2.39771e-05,0,0,-1.19994e-05,0,0,0,2.39771e-05,0,0,-1.19994e-05,0,0,0,0.539817,-0.456666,0.691737,0.571277,0.185164,0.153271,0.78477,1.28404e-05,1.66533e-05,-2.85295e-06,0.412792,0.209916,0.073727,0.00114645,-0.00238697,-0.000382151,0.00114645,-0.00238697,-0.000382151,0.116876,-0.628347,0.587424,0.545434,0.452143,0.754388,-0.246168,1
1.80216,-1.14088,-1.76334,-1.07204,1.97849,1.18607,-0.943355,1.80216,-1.14088,-1.76334,-1.07204,1.97849,1.18607,-0.943355,1.7818,-1.07682,-1.82223,-1.12313,1.93563,1.11127,-0.916323,0,-2.39771e-05,1.19776e-05,-1.19776e-05,-3.83633e-05,0,0,0,-2.39771e-05,1.19776e-05,-1.19776e-05,-3.83633e-05,0,0,0.539817,-0.456666,0.691737,0.571277,0.185164,0.153271,0.78477,4.10042e-06,3.49125e-06,-1.2675e-05,0.41278,0.209916,0.0737438,-0.00206666,-0.00185999,0.0038278,-0.00206666,-0.00185999,0.0038278,0.203573,-0.640579,0.588887,0.510939,0.428595,0.747966,-0.270318,1
1.80684,-1.14204,-1.76372,-1.07486,1.97658,1.18527,-0.945047,1.80684,-1.14204,-1.76372,-1.07486,1.97658,1.18527,-0.945047,1.7818,-1.07682,-1.82223,-1.12313,1.93563,1.11127,-0.916323,0,0,1.19776e-05,2.39771e-05,-1.91642e-05,0,0,0,0,1.19776e-05,2.39771e-05,-1.91642e-05,0,0,0.539817,-0.456666,0.691737,0.571277,0.185164,0.153271,0.78477,-3.61092e-06,-4.32927e-06,9.59956e-06,0.412783,0.20992,0.0737378,-2.37113e-05,0.0013219,-0.00051572,-2.37113e-05,0.0013219,-0.00051572,0.250348,-0.652228,0.585116,0.482786,0.409456,0.740021,-0.28724,1
1.809,-1.14297,-1.76437,-1.07742,1.97314,1.18454,-0.944862,1.809,-1.14297,-1.76437,-1.07742,1.97314,1.18454,-0.944862,1.7818,-1.07682,-1.82223,-1.12313,1.93563,1.11127,-0.916323,0,0,0,0,-3.83633e-05,-2.39771e-05,-3.59547e-05,0,0,0,0,-3.83633e-05,-2.39771e-05,-3.59547e-05,0.539817,-0.456666,0.691737,0.571277,0.185164,0.153271,0.78477,3.78258e-06,3.03527e-06,-2.09142e-06,0.412771,0.209927,0.0737427,-0.00200858,-0.000744504,0.0015397,-0.00200858,-0.000744504,0.0015397,0.272028,-0.661487,0.578609,0.457177,0.375058,0.732686,-0.285391,1
1.8122,-1.14348,-1.76477,-1.08032,1.96588,1.18378,-0.945168,1.8122,-1.14348,-1.76477,-1.08032,1.96588,1.18378,-0.945168,1.7818,-1.07682,-1.82223,-1.12313,1.93563,1.11127,-0.916323,0,-2.39552e-05,0,1.19776e-05,1.91991e-05,0,3.59547e-05,0,-2.39552e-05,0,1.19776e-05,1.91991e-05,0,3.59547e-05,0.539817,-0.456666,0.691736,0.571277,0.185164,0.153271,0.78477,-9.53308e-07,-1.34643e-05,-1.00701e-05,0.412772,0.20993,0.0737275,0.000433339,0.00073905,-0.00118129,0.000433339,0.00073905,-0.00118129,0.303966,-0.666592,0.574601,0.428088,0.30248,0.725083,-0.288447,1
1.81248,-1.14377,-1.7657,-1.08621,1.95752,1.18264,-0.944073,1.81248,-1.14377,-1.7657,-1.08621,1.95752,1.18264,-0.944073,1.7818,-1.07682,-1.82223,-1.12313,1.93563,1.11127,-0.916323,0,2.39552e-05,2.39552e-05,0,-3.83633e-05,0,0,0,2.39552e-05,2.39552e-05,0,-3.83633e-05,0,0,0.539817,-0.456666,0.691737,0.571277,0.185164,0.153271,0.78477,-1.33841e-06,1.56971e-05,2.11129e-05,0.412776,0.209922,0.0737399,-9.52525e-05,-0.00155976,0.00160143,-9.52525e-05,-0.00155976,0.00160143,0.306763,-0.669511,0.565344,0.369262,0.218887,0.713698,-0.277498,1
1.81325,-1.14436,-1.76833,-1.09069,1.94761,1.18151,-0.943859,1.81325,-1.14436,-1.76833,-1.09069,1.94761,1.18151,-0.943859,1.7818,-1.07682,-1.82223,-1.12313,1.93563,1.11127,-0.916323,0,1.19994e-05,-2.39552e-05,0,3.83633e-05,0,0,0,1.19994e-05,-2.39552e-05,0,3.83633e-05,0,0,0.539817,-0.456666,0.691737,0.571277,0.185164,0.153271,0.78477,-9.52283e-07,-5.00265e-06,-1.12691e-06,0.412784,0.209929,0.0737345,0.000645706,0.00331155,-0.00105158,0.000645706,0.00331155,-0.00105158,0.314457,-0.675354,0.539026,0.32443,0.119796,0.702375,-0.275362,1
1.81244,-1.14562,-1.77216,-1.09401,1.93492,1.18036,-0.943827,1.81244,-1.14562,-1.77216,-1.09401,1.93492,1.18036,-0.943827,1.7818,-1.07682,-1.82223,-1.12313,1.93563,1.11127,-0.916323,0,0,-2.39552e-05,0,-1.91642e-05,0,0,0,0,-2.39552e-05,0,-1.91642e-05,0,0,0.539817,-0.456666,0.691737,0.571277,0.185164,0.153271,0.78477,1.69712e-06,-2.47038e-06,-8.98966e-06,0.412771,0.209925,0.073739,0.00271642,-0.000224889,4.7345e-05,0.00271642,-0.000224889,4.7345e-05,0.306361,-0.687967,0.500688,0.291215,-0.00710873,0.690898,-0.275036,1
1.80894,-1.14711,-1.77939,-1.09882,1.92499,1.17889,-0.944093,1.80894,-1.14711,-1.77939,-1.09882,1.92499,1.17889,-0.944093,1.7818,-1.07682,-1.82223,-1.12313,1.93563,1.11127,-0.916323,2.39771e-05,2.39771e-05,0,1.19994e-05,-3.83633e-05,2.39771e-05,2.39771e-05,2.39771e-05,2.39771e-05,0,1.19994e-05,-3.83633e-05,2.39771e-05,2.39771e-05,0.539817,-0.456666,0.691737,0.571277,0.185164,0.153271,0.78477,6.33661e-06,2.02663e-05,1.66817e-05,0.41276,0.209928,0.0737539,-0.00122735,0.000328103,0.00218735,-0.00122735,0.000328103,0.00218735,0.271402,-0.702874,0.428433,0.243132,-0.106414,0.676228,-0.277695,1
1.79872,-1.14876,-1.79369,-1.10432,1.91455,1.17753,-0.942645,1.79872,-1.14876,-1.79369,-1.10432,1.91455,1.17753,-0.942645,1.7818,-1.07682,-1.82223,-1.12313,1.93563,1.11127,-0.916323,1.19776e-05,-1.19776e-05,0,1.19776e-05,0,0,0,1.19776e-05,-1.19776e-05,0,1.19776e-05,0,0,0,0.539817,-0.456666,0.691737,0.571277,0.185164,0.153271,0.78477,4.40097e-06,-1.69968e-06,-3.81019e-06,0.412765,0.209929,0.0737355,-0.000271861,-0.000349949,-0.00153862,-0.000271861,-0.000349949,-0.00153862,0.169139,-0.719353,0.285366,0.188108,-0.210768,0.662639,-0.263222,1
1.77429,-1.14929,-1.80618,-1.10624,1.90851,1.17654,-0.938232,1.77429,-1.14929,-1.80618,-1.10624,1.90851,1.17654,-0.938232,1.7818,-1.07682,-1.82223,-1.12313,1.93563,1.11127,-0.916323,-1.19776e-05,0,0,2.39771e-05,1.91991e-05,0,0,-1.19776e-05,0,0,2.39771e-05,1.91991e-05,0,0,0.539817,-0.456666,0.691737,0.571277,0.185164,0.153271,0.78477,-9.82162e-06,-1.68153e-05,6.09875e-06,0.412776,0.209929,0.0737303,7.18695e-05,-0.000880402,-0.000359348,7.18695e-05,-0.000880402,-0.000359348,-0.0751614,-0.724693,0.16052,0.168889,-0.271216,0.652737,-0.219093,1
1.75934,-1.15037,-1.82878,-1.12044,1.90419,1.17562,-0.93777,1.75934,-1.15037,-1.82878,-1.12044,1.90419,1.17562,-0.93777,1.7818,-1.07682,-1.82223,-1.12313,1.93563,1.11127,-0.916323,0,0,0,1.1977e-05,0,0,0,0,0,0,1.1977e-05,0,0,0,0.539817,-0.456666,0.691737,0.571277,0.185164,0.153271,0.78477,-1.85044e-06,-4.30274e-06,2.84776e-06,0.412773,0.209928,0.073738,-0.000489326,-0.000172519,0.000401498,-0.000489326,-0.000172519,0.000401498,-0.224657,-0.735509,-0.0654479,0.0269155,-0.314434,0.643514,-0.214467,1
1.74166,-1.15078,-1.84957,-1.13129,1.89838,1.17366,-0.925956,1.74166,-1.15078,-1.84957,-1.13129,1.89838,1.17366,-0.925956,1.7818,-1.07682,-1.82223,-1.12313,1.93563,1.11127,-0.916323,0,0,0,1.19989e-05,0,0,0,0,0,0,1.19989e-05,0,0,0,0.539817,-0.456666,0.691737,0.571277,0.185164,0.153271,0.78477,-1.85381e-06,-4.31058e-06,2.85295e-06,0.412774,0.209935,0.0737308,-0.000587689,0.000728489,0.00183653,-0.000587689,0.000728489,0.00183653,-0.401385,-0.739599,-0.273357,-0.0815593,-0.372509,0.623923,-0.0963305,1
1.73353,-1.15185,-1.8641,-1.14467,1.89704,1.17035,-0.920419,1.73353,-1.15185,-1.8641,-1.14467,1.89704,1.17035,-0.920419,1.7818,-1.07682,-1.82223,-1.12313,1.93563,1.11127,-0.916323,2.39759e-05,0,2.39759e-05,1.19989e-05,0,2.39759e-05,2.39759e-05,2.39759e-05,0,2.39759e-05,1.19989e-05,0,2.39759e-05,2.39759e-05,0.539817,-0.456666,0.691737,0.571277,0.185164,0.153271,0.78477,5.53704e-06,1.35727e-05,1.27492e-05,0.412771,0.209931,0.0737409,-0.00106536,0.00210665,0.000445405,-0.00106536,0.00210665,0.000445405,-0.482672,-0.750314,-0.418736,-0.21532,-0.38592,0.590841,-0.040955,1
