Afshin1997/kuka_rl_ros2/src/catch_and_throw/output_files/tm/nn_ema7.00_jvws1_realball_D25H10M34S19/recorded_data.csv
pure_target_joint_0,pure_target_joint_1,pure_target_joint_2,pure_target_joint_3,pure_target_joint_4,pure_target_joint_5,pure_target_joint_6,target_joint_0,target_joint_1,target_joint_2,target_joint_3,target_joint_4,target_joint_5,target_joint_6,pos_joint_0,pos_joint_1,pos_joint_2,pos_joint_3,pos_joint_4,pos_joint_5,pos_joint_6,vel_joint_0,vel_joint_1,vel_joint_2,vel_joint_3,vel_joint_4,vel_joint_5,vel_joint_6,vel_smooth_joint_0,vel_smooth_joint_1,vel_smooth_joint_2,vel_smooth_joint_3,vel_smooth_joint_4,vel_smooth_joint_5,vel_smooth_joint_6,ee_pos_x,ee_pos_y,ee_pos_z,ee_or_w,ee_or_x,ee_or_y,ee_or_z,ee_vel_x,ee_vel_y,ee_vel_z,ball_pos_x,ball_pos_y,ball_pos_z,ball_raw_vx,ball_raw_vy,ball_raw_vz,ball_ema_vx,ball_ema_vy,ball_ema_vz,action_0,action_1,action_2,action_3,action_4,action_5,action_6,command_published
1.80739,-1.03169,-1.85948,-1.05832,1.99752,1.18591,-0.922672,1.80739,-1.03169,-1.85948,-1.05832,1.99752,1.18591,-0.922672,1.78108,-1.07368,-1.81919,-1.12137,1.93723,1.11688,-0.916244,0,0,0,1.19776e-05,0,0,0,0,0,0,1.19776e-05,0,0,0,0.534444,-0.456169,0.689121,0.572159,0.180439,0.151588,0.785555,-1.8669e-06,-4.28622e-06,2.84793e-06,2.97748,-0.534056,0.312275,-3.24378,-0.0948727,5.02,-3.24378,-0.266347,5.02,0.263055,0.419894,-0.402854,0.630474,0.602893,0.690263,-0.0642749,1
1.73642,-1.03919,-1.86378,-1.07058,2.00811,1.17768,-0.897698,1.73642,-1.03919,-1.86378,-1.07058,2.00811,1.17768,-0.897698,1.78108,-1.07368,-1.81919,-1.12137,1.93723,1.11688,-0.916244,-3.59547e-05,2.39771e-05,4.79541e-05,0,0,2.39771e-05,0,-3.59547e-05,2.39771e-05,4.79541e-05,0,0,2.39771e-05,0,0.534444,-0.456169,0.689121,0.572159,0.180439,0.151588,0.785555,-2.27543e-05,-1.16958e-06,3.1695e-05,2.94523,-0.534746,0.362615,-3.22547,-0.0690639,5.03408,-3.22547,-0.215917,5.03408,-0.446657,0.34486,-0.445839,0.507872,0.708787,0.607954,0.185467,1
1.71749,-1.01251,-1.85888,-1.09275,2.01044,1.16579,-0.893592,1.71749,-1.01251,-1.85888,-1.09275,2.01044,1.16579,-0.893592,1.7811,-1.0737,-1.81926,-1.12143,1.93723,1.11688,-0.916244,0.00328361,-0.00412248,-0.0140811,-0.0132423,0,0,-2.39541e-05,0.00328361,-0.00412248,-0.0140811,-0.0132423,0,0,-2.39541e-05,0.534471,-0.456156,0.689066,0.572135,0.180479,0.151614,0.785558,0.00448307,0.00253247,-0.0104654,2.9118,-0.535546,0.411493,-3.34289,-0.0799716,4.88778,-3.34289,-0.165636,4.88778,-0.636137,0.611831,-0.396152,0.286828,0.732094,0.489027,0.226528,1
1.71712,-1.0144,-1.8546,-1.07788,1.9882,1.18888,-0.923045,1.71712,-1.0144,-1.8546,-1.07788,1.9882,1.18888,-0.923045,1.78121,-1.07383,-1.82059,-1.12123,1.93822,1.11799,-0.916479,0.00870035,-0.0138415,-0.20006,0.0592367,0.179299,0.197879,-0.0342142,0.00870035,-0.0138415,-0.20006,0.0592367,0.179299,0.197879,-0.0342142,0.534398,-0.456551,0.68865,0.572392,0.180535,0.151328,0.785413,-0.0220792,-0.0690475,-0.0508391,2.87917,-0.536399,0.45897,-3.2629,-0.0852764,4.74771,-3.2629,-0.12113,4.74771,-0.640889,0.594342,-0.340152,0.433498,0.49983,0.708892,-0.0656637,1
1.71692,-1.00712,-1.82472,-1.07639,2.00348,1.19364,-0.941277,1.71692,-1.00712,-1.82472,-1.07639,2.00348,1.19364,-0.941277,1.78175,-1.07348,-1.82495,-1.11855,1.94519,1.12537,-0.91627,0.0915694,0.0594763,-0.495896,0.333082,0.872547,0.918929,0.0537959,0.0915694,0.0594763,-0.495896,0.333082,0.872547,0.918929,0.0537959,0.533114,-0.45854,0.688604,0.573493,0.178953,0.148022,0.785602,-0.118871,-0.200127,0.00197675,2.84645,-0.537659,0.505746,-3.2717,-0.125986,4.67758,-3.2717,-0.098535,4.67758,-0.648324,0.663653,0.00238845,0.421553,0.582875,0.682662,-0.250067,1
1.7195,-1.00341,-1.798,-1.13031,2.02958,1.18726,-0.936712,1.7195,-1.00341,-1.798,-1.13031,2.02958,1.18726,-0.936712,1.78386,-1.07226,-1.83141,-1.11362,1.95743,1.13653,-0.914583,0.238229,0.136533,-0.69749,0.542981,1.31927,1.13512,0.207203,0.238229,0.136533,-0.69749,0.542981,1.31927,1.13512,0.207203,0.531434,-0.46116,0.68924,0.574417,0.176331,0.142285,0.78658,-0.121749,-0.251527,0.0441698,2.81377,-0.538667,0.551316,-3.26791,-0.100791,4.55701,-3.26791,-0.0912047,4.55701,-0.643594,0.688537,0.334131,-0.16686,0.721512,0.507302,-0.221291,1
1.72114,-1.00423,-1.79411,-1.14747,2.04738,1.19798,-0.938061,1.72114,-1.00423,-1.79411,-1.14747,2.04738,1.19798,-0.938061,1.7866,-1.07042,-1.83908,-1.10731,1.97192,1.14748,-0.912274,0.285098,0.200551,-0.765439,0.642112,1.4514,1.08756,0.19535,0.285098,0.200551,-0.765439,0.642112,1.4514,1.08756,0.19535,0.529735,-0.464283,0.690166,0.575491,0.173977,0.135873,0.787452,-0.121,-0.270359,0.0814173,2.78092,-0.539755,0.59608,-3.28524,-0.108874,4.4764,-3.28524,-0.0966144,4.4764,-0.654613,0.661898,0.449649,-0.401611,0.754572,0.505033,-0.257873,1
1.83452,-1.0874,-1.77849,-1.1646,2.06142,1.19279,-0.933227,1.83452,-1.0874,-1.77849,-1.1646,2.06142,1.19279,-0.933227,1.78907,-1.06791,-1.84536,-1.10081,1.98409,1.15834,-0.912612,0.21323,0.265768,-0.559579,0.650633,1.12716,1.08569,-0.109953,0.21323,0.265768,-0.559579,0.650633,1.12716,1.08569,-0.109953,0.527784,-0.46677,0.691977,0.577833,0.170339,0.130561,0.787431,-0.160747,-0.214586,0.187388,2.77074,-0.548119,0.640672,-1.01793,-0.836402,4.45918,-1.01793,-0.181448,4.45918,0.45448,-0.194915,0.668732,-0.637932,0.773264,0.344541,-0.206149,1
1.78679,-1.04029,-1.80836,-1.03287,2.02441,1.24564,-0.944625,1.78679,-1.04029,-1.80836,-1.03287,2.02441,1.24564,-0.944625,1.78997,-1.06541,-1.84861,-1.09601,1.99363,1.16855,-0.91581,0.060459,0.242423,-0.228222,0.407047,0.920751,0.982145,-0.382731,0.060459,0.242423,-0.228222,0.407047,0.920751,0.982145,-0.382731,0.525378,-0.468537,0.694347,0.58097,0.165858,0.126071,0.786811,-0.187253,-0.13409,0.220691,2.73373,-0.551867,0.684035,-3.7014,-0.374782,4.33633,-3.7014,-0.266075,4.33633,-0.0318018,0.251215,0.402438,0.63142,0.307786,0.770929,-0.28815,1
1.74122,-1.02841,-1.80965,-1.04275,2.06688,1.24765,-0.914498,1.74122,-1.02841,-1.80965,-1.04275,2.06688,1.24765,-0.914498,1.78989,-1.06287,-1.84732,-1.09474,2.00322,1.17647,-0.920562,-0.0422434,0.258494,0.238277,0.0406735,0.989472,0.744707,-0.493511,-0.0422434,0.258494,0.238277,0.0406735,0.989472,0.744707,-0.493511,0.523145,-0.468854,0.697311,0.583017,0.161685,0.121174,0.786934,-0.171453,0.0131697,0.288707,2.70463,-0.548436,0.723908,-2.9094,0.34312,3.9873,-2.9094,-0.264219,3.9873,-0.486701,0.344507,0.376712,0.519876,0.63661,0.711744,0.0606344,1
1.73167,-1.01387,-1.8329,-1.05244,2.07898,1.25298,-0.941626,1.73167,-1.01387,-1.8329,-1.05244,2.07898,1.25298,-0.941626,1.7879,-1.06038,-1.84221,-1.09765,2.01441,1.18265,-0.925477,-0.252969,0.243861,0.593841,-0.41377,1.16538,0.575757,-0.476014,-0.252969,0.243861,0.593841,-0.41377,1.16538,0.575757,-0.476014,0.520694,-0.468363,0.700447,0.583553,0.158373,0.115146,0.788115,-0.195456,0.0965326,0.283781,2.67282,-0.547868,0.764191,-3.1812,0.0568509,4.02828,-3.1812,-0.222418,4.02828,-0.562331,0.465146,0.0930856,0.452089,0.645769,0.703288,-0.161491,1
1.72167,-1.00035,-1.85164,-1.04961,2.08284,1.26028,-0.951407,1.72167,-1.00035,-1.85164,-1.04961,2.08284,1.26028,-0.951407,1.78371,-1.05788,-1.83423,-1.10463,2.02695,1.18763,-0.929748,-0.474936,0.253449,0.838601,-0.76327,1.25086,0.504968,-0.426509,-0.474936,0.253449,0.838601,-0.76327,1.25086,0.504968,-0.426509,0.517878,-0.46733,0.703509,0.582582,0.155956,0.108249,0.79029,-0.246698,0.140923,0.283483,2.64049,-0.548915,0.804922,-3.23298,-0.104737,4.0731,-3.23298,-0.168877,4.0731,-0.620403,0.575269,-0.174085,0.55018,0.558877,0.726519,-0.216584,1
1.71496,-0.989573,-1.84706,-1.06362,2.0964,1.26589,-0.959777,1.71496,-0.989573,-1.84706,-1.06362,2.0964,1.26589,-0.959777,1.77774,-1.05541,-1.82699,-1.11223,2.03592,1.19467,-0.933279,-0.615855,0.25237,0.66487,-0.711379,0.749793,0.794188,-0.283181,-0.615855,0.25237,0.66487,-0.711379,0.749793,0.794188,-0.283181,0.514275,-0.466483,0.706161,0.582174,0.152556,0.102827,0.791976,-0.32758,0.0891671,0.240439,2.60751,-0.551039,0.843946,-3.29773,-0.212371,3.90238,-3.29773,-0.112289,3.90238,-0.627867,0.65834,-0.200665,0.486115,0.604728,0.712232,-0.26498,1
1.71018,-0.981479,-1.84011,-1.08254,2.10441,1.27283,-0.963411,1.71018,-0.981479,-1.84011,-1.08254,2.10441,1.27283,-0.963411,1.77249,-1.05193,-1.82198,-1.11705,2.0416,1.2051,-0.933673,-0.494638,0.376859,0.425694,-0.399066,0.571548,1.11331,0.00136617,-0.494638,0.376859,0.425694,-0.399066,0.571548,1.11331,0.00136617,0.510216,-0.465594,0.709389,0.582035,0.146943,0.0987918,0.793652,-0.351037,0.072799,0.31155,2.574,-0.554084,0.882174,-3.35169,-0.304514,3.8228,-3.35169,-0.0596951,3.8228,-0.623105,0.704523,-0.181242,0.34505,0.628003,0.677311,-0.297384,1
1.70392,-0.973884,-1.82834,-1.10729,2.11463,1.28041,-0.956959,1.70392,-0.973884,-1.82834,-1.10729,2.11463,1.28041,-0.956959,1.76798,-1.04796,-1.82084,-1.11664,2.0494,1.21736,-0.934797,-0.433627,0.397124,0.0135778,0.204326,0.860026,1.25063,-0.160561,-0.433627,0.397124,0.0135778,0.204326,0.860026,1.25063,-0.160561,0.505381,-0.466865,0.712921,0.584408,0.140648,0.0940635,0.793623,-0.435807,-0.194925,0.333187,2.54136,-0.554893,0.917899,-3.2635,-0.0809371,3.57256,-3.2635,-0.0840864,3.57256,-0.640579,0.740769,-0.0750195,0.0935307,0.652355,0.630577,-0.221618,1
1.70178,-0.969229,-1.82828,-1.10014,2.12475,1.29124,-0.959579,1.70178,-0.969229,-1.82828,-1.10014,2.12475,1.29124,-0.959579,1.76532,-1.04406,-1.82353,-1.11039,2.05954,1.23008,-0.937668,-0.194089,0.392829,-0.361477,0.7431,1.04267,1.26422,-0.325044,-0.194089,0.392829,-0.361477,0.7431,1.04267,1.26422,-0.325044,0.500355,-0.470224,0.716542,0.589379,0.134264,0.088601,0.791678,-0.413891,-0.343711,0.335138,2.50928,-0.55503,0.952648,-3.20821,-0.0137091,3.47487,-3.20821,-0.139295,3.47487,-0.635477,0.748312,-0.0475414,0.102506,0.652118,0.611626,-0.219109,1
1.70342,-0.965001,-1.83589,-1.08165,2.13595,1.30465,-0.961598,1.70342,-0.965001,-1.83589,-1.08165,2.13595,1.30465,-0.961598,1.76495,-1.03968,-1.82875,-1.10124,2.07028,1.24191,-0.942039,-0.00649562,0.466318,-0.558143,0.95114,1.08131,1.16213,-0.471771,-0.00649562,0.466318,-0.558143,0.95114,1.08131,1.16213,-0.471771,0.496022,-0.473777,0.720231,0.595477,0.128119,0.0836846,0.788663,-0.355689,-0.3354,0.358672,2.47762,-0.555028,0.986871,-3.1657,0.000172853,3.4223,-3.1657,-0.134172,3.4223,-0.615268,0.74677,-0.0714013,0.195976,0.656683,0.627364,-0.195595,1
1.70389,-0.958362,-1.84268,-1.07234,2.14739,1.31637,-0.964848,1.70389,-0.958362,-1.84268,-1.07234,2.14739,1.31637,-0.964848,1.7644,-1.03381,-1.83313,-1.09258,2.08111,1.25282,-0.94718,-0.0844909,0.626311,-0.362388,0.807002,1.08559,1.06945,-0.510852,-0.0844909,0.626311,-0.362388,0.807002,1.08559,1.06945,-0.510852,0.491593,-0.476517,0.724881,0.601654,0.121617,0.0792204,0.785459,-0.381387,-0.23269,0.475444,2.44619,-0.554995,1.01987,-3.14331,0.00334978,3.30015,-3.14331,-0.0970232,3.30015,-0.605107,0.754506,-0.0955392,0.202404,0.662746,0.635543,-0.176684,1
1.69828,-0.950583,-1.85474,-1.06275,2.15732,1.32591,-0.976956,1.69828,-0.950583,-1.85474,-1.06275,2.15732,1.32591,-0.976956,1.76177,-1.027,-1.83519,-1.08789,2.092,1.26281,-0.951581,-0.335543,0.693376,-0.16692,0.343464,1.09383,0.987177,-0.41808,-0.335543,0.693376,-0.16692,0.343464,1.09383,0.987177,-0.41808,0.486832,-0.478174,0.729803,0.606516,0.115443,0.0749138,0.783071,-0.421228,-0.142766,0.459926,2.41411,-0.555855,1.05286,-3.20797,-0.0860214,3.29844,-3.20797,-0.0585986,3.29844,-0.634874,0.764135,-0.195496,0.251404,0.653204,0.630944,-0.253751,1
1.69107,-0.942701,-1.8624,-1.06289,2.16739,1.33489,-0.985425,1.69107,-0.942701,-1.8624,-1.06289,2.16739,1.33489,-0.985425,1.756,-1.01956,-1.83605,-1.0874,2.10313,1.27251,-0.955226,-0.656057,0.767788,-0.0752628,-0.0320466,1.11928,0.966767,-0.349313,-0.656057,0.767788,-0.0752628,-0.0320466,1.11928,0.966767,-0.349313,0.481338,-0.479533,0.734377,0.610595,0.109931,0.0707943,0.781075,-0.511091,-0.1304,0.435632,2.38134,-0.559358,1.08498,-3.27682,-0.350237,3.21233,-3.27682,-0.0632514,3.21233,-0.649228,0.768552,-0.263485,0.245058,0.642534,0.623755,-0.301991,1
1.6837,-0.93502,-1.86378,-1.06611,2.17564,1.34643,-0.991843,1.6837,-0.93502,-1.86378,-1.06611,2.17564,1.34643,-0.991843,1.74795,-1.01167,-1.83606,-1.08853,2.11433,1.28278,-0.958346,-0.837526,0.771659,0.0208051,-0.105596,1.12361,1.04682,-0.306001,-0.837526,0.771659,0.0208051,-0.105596,1.12361,1.04682,-0.306001,0.47491,-0.48103,0.739051,0.614634,0.104198,0.0665601,0.779062,-0.5977,-0.161034,0.448327,2.34881,-0.562771,1.11552,-3.25277,-0.341302,3.05357,-3.25277,-0.118264,3.05357,-0.642504,0.766536,-0.277203,0.224242,0.613078,0.636478,-0.334977,1
1.67295,-0.928441,-1.86668,-1.06367,2.18743,1.35611,-0.992655,1.67295,-0.928441,-1.86668,-1.06367,2.18743,1.35611,-0.992655,1.73938,-1.00465,-1.83716,-1.08883,2.12537,1.2933,-0.961392,-0.84721,0.675148,-0.174459,-0.00559678,1.09468,1.04851,-0.313575,-0.84721,0.675148,-0.174459,-0.00559678,1.09468,1.04851,-0.313575,0.468145,-0.483449,0.743058,0.61928,0.0987705,0.0622679,0.77644,-0.609008,-0.255438,0.354748,2.31715,-0.562113,1.1444,-3.16694,0.0657439,2.88842,-3.16694,-0.14677,2.88842,-0.664276,0.762132,-0.295183,0.251635,0.620594,0.628082,-0.312637,1
1.66399,-0.921956,-1.8706,-1.05749,2.19997,1.36524,-0.99296,1.66399,-0.921956,-1.8706,-1.05749,2.19997,1.36524,-0.99296,1.73154,-0.998077,-1.84042,-1.08656,2.1361,1.30372,-0.965151,-0.758129,0.664362,-0.369207,0.334428,1.07345,1.04032,-0.400607,-0.758129,0.664362,-0.369207,0.334428,1.07345,1.04032,-0.400607,0.461341,-0.486756,0.746744,0.625166,0.0934341,0.058327,0.772681,-0.628904,-0.346819,0.371028,2.28595,-0.560769,1.17232,-3.11916,0.134444,2.79162,-3.11916,-0.137044,2.79162,-0.675441,0.761211,-0.3018,0.290656,0.6387,0.615192,-0.278094,1
1.65689,-0.916693,-1.87995,-1.04245,2.21009,1.37671,-0.992695,1.65689,-0.916693,-1.87995,-1.04245,2.21009,1.37671,-0.992695,1.72531,-0.992036,-1.84519,-1.08206,2.14677,1.31395,-0.969931,-0.572632,0.579883,-0.509798,0.454525,1.06668,1.01631,-0.502115,-0.572632,0.579883,-0.509798,0.454525,1.06668,1.01631,-0.502115,0.454938,-0.490374,0.750203,0.631786,0.0881353,0.0545227,0.768183,-0.556075,-0.347449,0.310945,2.25566,-0.561735,1.19987,-3.02908,-0.0966549,2.75549,-3.02908,-0.117155,2.75549,-0.684199,0.753426,-0.347586,0.396056,0.633122,0.627612,-0.22764,1
1.64927,-0.911144,-1.89733,-1.02707,2.21345,1.38749,-1.00764,1.64927,-0.911144,-1.89733,-1.02707,2.21345,1.38749,-1.00764,1.7203,-0.986467,-1.85121,-1.07774,2.15726,1.32436,-0.975512,-0.494206,0.558491,-0.624561,0.430376,1.04553,1.05073,-0.570307,-0.494206,0.558491,-0.624561,0.430376,1.04553,1.05073,-0.570307,0.449209,-0.493686,0.752973,0.63838,0.0831829,0.0511085,0.763504,-0.51578,-0.323907,0.260052,2.2215,-0.561219,1.22787,-3.41587,0.0516713,2.7994,-3.41587,-0.0672983,2.7994,-0.710288,0.753229,-0.461164,0.506642,0.561911,0.631327,-0.321277,1
1.64422,-0.904966,-1.90537,-1.02492,2.22373,1.39715,-1.00986,1.64422,-0.904966,-1.90537,-1.02492,2.22373,1.39715,-1.00986,1.71508,-0.980336,-1.85774,-1.07393,2.16762,1.33466,-0.981114,-0.528817,0.630949,-0.645486,0.363347,1.03512,1.02465,-0.548903,-0.528817,0.630949,-0.645486,0.363347,1.03512,1.02465,-0.548903,0.443477,-0.496711,0.755765,0.644976,0.0782839,0.0481748,0.758655,-0.523363,-0.290233,0.277581,2.18957,-0.565996,1.25289,-3.19309,-0.477791,2.50257,-3.19309,-0.0586952,2.50257,-0.70864,0.753707,-0.476238,0.490113,0.561069,0.624888,-0.287422,1
1.63814,-0.898111,-1.91419,-1.01787,2.22788,1.40702,-1.02128,1.63814,-0.898111,-1.91419,-1.01787,2.22788,1.40702,-1.02128,1.70943,-0.973588,-1.86353,-1.07072,2.17802,1.34493,-0.985942,-0.585504,0.679283,-0.561247,0.313743,1.04517,1.02705,-0.456311,-0.585504,0.679283,-0.561247,0.313743,1.04517,1.02705,-0.456311,0.437541,-0.499276,0.758979,0.651084,0.0730826,0.0452657,0.754122,-0.55058,-0.259374,0.31756,2.15731,-0.567555,1.27721,-3.22614,-0.155896,2.432,-3.22614,-0.0806104,2.432,-0.71294,0.754779,-0.506633,0.528522,0.498594,0.620852,-0.353338,1
1.63172,-0.891559,-1.92027,-1.01478,2.2353,1.41828,-1.02821,1.63172,-0.891559,-1.92027,-1.01478,2.2353,1.41828,-1.02821,1.7028,-0.966633,-1.86932,-1.06726,2.18844,1.35533,-0.99005,-0.682162,0.708395,-0.595506,0.368207,1.03825,1.03926,-0.411229,-0.682162,0.708395,-0.595506,0.368207,1.03825,1.03926,-0.411229,0.430973,-0.502143,0.762374,0.657335,0.0676589,0.0423198,0.749361,-0.617167,-0.300184,0.338494,2.125,-0.568805,1.30004,-3.23071,-0.124955,2.28311,-3.23071,-0.135393,2.28311,-0.710803,0.750749,-0.509458,0.524867,0.468643,0.629534,-0.381624,1
1.6245,-0.88377,-1.92665,-1.01054,2.24454,1.42751,-1.0331,1.6245,-0.88377,-1.92665,-1.01054,2.24454,1.42751,-1.0331,1.69587,-0.959109,-1.87581,-1.06269,2.19819,1.36579,-0.994553,-0.695393,0.772569,-0.66433,0.493331,0.946272,1.04209,-0.459656,-0.695393,0.772569,-0.66433,0.493331,0.946272,1.04209,-0.459656,0.423971,-0.5051,0.766172,0.664326,0.0617234,0.0399507,0.743818,-0.654361,-0.306049,0.387347,2.09357,-0.56905,1.32199,-3.14333,-0.0244737,2.19494,-3.14333,-0.161854,2.19494,-0.71366,0.753394,-0.508449,0.521536,0.46355,0.617219,-0.385429,1
1.61686,-0.875275,-1.93439,-1.00467,2.25142,1.4358,-1.03939,1.61686,-0.875275,-1.93439,-1.00467,2.25142,1.4358,-1.03939,1.68891,-0.950863,-1.88277,-1.0567,2.20679,1.37602,-0.999341,-0.691881,0.829829,-0.708228,0.632153,0.839874,1.02406,-0.491977,-0.691881,0.829829,-0.708228,0.632153,0.839874,1.02406,-0.491977,0.416648,-0.507908,0.770601,0.67195,0.055127,0.0383856,0.737544,-0.684237,-0.302023,0.444017,2.06189,-0.568611,1.34355,-3.16796,0.0438333,2.15608,-3.16796,-0.13964,2.15608,-0.720525,0.755885,-0.516175,0.520342,0.446257,0.59777,-0.400506,1
1.60959,-0.867149,-1.94343,-0.997694,2.25798,1.44441,-1.0442,1.60959,-0.867149,-1.94343,-0.997694,2.25798,1.44441,-1.0442,1.68231,-0.942771,-1.89062,-1.04983,2.21472,1.38629,-1.00491,-0.647121,0.800228,-0.810103,0.705112,0.780798,1.02512,-0.57952,-0.647121,0.800228,-0.810103,0.705112,0.780798,1.02512,-0.57952,0.409319,-0.510749,0.774942,0.680094,0.0483645,0.0373013,0.730576,-0.678836,-0.311767,0.421121,2.0303,-0.568767,1.36396,-3.1595,-0.0155747,2.04077,-3.1595,-0.104892,2.04077,-0.727224,0.756224,-0.528124,0.521338,0.432645,0.58119,-0.392917,1
1.60285,-0.858746,-1.95252,-0.991164,2.26454,1.45211,-1.05082,1.60285,-0.858746,-1.95252,-0.991164,2.26454,1.45211,-1.05082,1.67608,-0.934633,-1.89925,-1.04202,2.2223,1.39643,-1.01124,-0.616251,0.816898,-0.873846,0.811817,0.755257,1.01326,-0.648679,-0.616251,0.816898,-0.873846,0.811817,0.755257,1.01326,-0.648679,0.401951,-0.513577,0.779361,0.688706,0.0414311,0.0365843,0.722931,-0.692522,-0.312816,0.444821,1.99851,-0.570298,1.38357,-3.17898,-0.153095,1.96117,-3.17898,-0.0540523,1.96117,-0.732327,0.758878,-0.532698,0.508558,0.422453,0.556839,-0.395748,1
1.59739,-0.8515,-1.96168,-0.981386,2.26654,1.4645,-1.05896,1.59739,-0.8515,-1.96168,-0.981386,2.26654,1.4645,-1.05896,1.6702,-0.926905,-1.90806,-1.03426,2.22981,1.40652,-1.01802,-0.579412,0.752796,-0.884511,0.752029,0.750655,1.00126,-0.683205,-0.579412,0.752796,-0.884511,0.752029,0.750655,1.00126,-0.683205,0.394746,-0.516279,0.783526,0.69723,0.0346112,0.0358745,0.715112,-0.661614,-0.295961,0.394663,1.96663,-0.573925,1.40185,-3.18787,-0.362647,1.82792,-3.18787,-0.0778962,1.82792,-0.728139,0.754049,-0.536237,0.528746,0.367265,0.57982,-0.409398,1
1.59403,-0.849917,-1.96839,-0.961235,2.20113,1.48201,-1.07979,1.59403,-0.849917,-1.96839,-0.961235,2.20113,1.48201,-1.07979,1.66424,-0.919738,-1.91683,-1.02685,2.2373,1.41627,-1.02488,-0.607107,0.716748,-0.869507,0.750016,0.752036,0.970904,-0.684284,-0.607107,0.716748,-0.869507,0.750016,0.752036,0.970904,-0.684284,0.387611,-0.519025,0.787321,0.705562,0.0281639,0.0351025,0.707217,-0.677361,-0.304313,0.381945,1.91451,-0.572232,1.41828,-5.21171,0.169295,1.64313,-5.21171,-0.0775578,1.64313,-0.702082,0.69821,-0.515544,0.656195,-0.361733,0.65736,-0.5491,1
1.58555,-0.839979,-1.97156,-0.985882,2.29723,1.48337,-1.03736,1.58555,-0.839979,-1.97156,-0.985882,2.29723,1.48337,-1.03736,1.65776,-0.912575,-1.9254,-1.01925,2.24474,1.42583,-1.03159,-0.666667,0.710672,-0.862269,0.747703,0.741356,0.948578,-0.666296,-0.666667,0.710672,-0.862269,0.747703,0.741356,0.948578,-0.666296,0.380116,-0.521807,0.791255,0.713904,0.0216091,0.0343077,0.699069,-0.710894,-0.311637,0.383442,1.89413,-0.577528,1.43508,-2.03859,-0.529599,1.68006,-2.03859,-0.135112,1.68006,-0.72208,0.725956,-0.461648,0.33368,0.524858,0.575408,-0.0576731,1
1.57873,-0.830907,-1.97545,-0.986566,2.31832,1.48487,-1.02784,1.57873,-0.830907,-1.97545,-0.986566,2.31832,1.48487,-1.02784,1.65059,-0.905815,-1.93425,-1.01211,2.25196,1.43505,-1.0382,-0.727881,0.666236,-0.881647,0.705591,0.711291,0.919816,-0.659848,-0.727881,0.666236,-0.881647,0.705591,0.711291,0.919816,-0.659848,0.372424,-0.524817,0.794786,0.722246,0.0154896,0.0336995,0.690641,-0.732299,-0.330154,0.345766,1.87229,-0.574546,1.45079,-2.18346,0.29816,1.57046,-2.18346,-0.133065,1.57046,-0.718574,0.749079,-0.412014,0.25546,0.663549,0.498291,0.103527,1
1.57122,-0.824237,-1.99701,-0.958094,2.30588,1.50481,-1.08027,1.57122,-0.824237,-1.99701,-0.958094,2.30588,1.50481,-1.08027,1.64338,-0.898819,-1.94275,-1.00487,2.25754,1.44444,-1.04506,-0.71803,0.714076,-0.845024,0.738607,0.456042,0.949392,-0.705663,-0.71803,0.714076,-0.845024,0.738607,0.456042,0.949392,-0.705663,0.364736,-0.527248,0.798581,0.73055,0.00878878,0.0338607,0.681962,-0.727686,-0.26101,0.392196,1.84105,-0.575764,1.46574,-3.12427,-0.12179,1.49505,-3.12427,-0.118175,1.49505,-0.721628,0.745822,-0.542653,0.467776,0.483472,0.603687,-0.352046,1
1.56362,-0.820951,-2.00723,-0.949383,2.29919,1.51473,-1.09204,1.56362,-0.820951,-2.00723,-0.949383,2.29919,1.51473,-1.09204,1.63599,-0.891688,-1.95152,-0.997244,2.25664,1.45434,-1.05232,-0.746672,0.704692,-0.890216,0.755924,-0.267098,0.999677,-0.693871,-0.746672,0.704692,-0.890216,0.755924,-0.267098,0.999677,-0.693871,0.357369,-0.528664,0.802437,0.739193,0.000943605,0.0372205,0.672464,-0.704453,-0.193279,0.376919,1.80922,-0.579203,1.47984,-3.18234,-0.343907,1.41057,-3.18234,-0.116813,1.41057,-0.723687,0.707369,-0.557102,0.478605,0.425461,0.603879,-0.397194,1
1.55807,-0.81752,-2.01093,-0.924913,2.21826,1.52834,-1.1103,1.55807,-0.81752,-2.01093,-0.924913,2.21826,1.52834,-1.1103,1.62888,-0.884772,-1.95981,-0.991095,2.25282,1.46426,-1.05542,-0.694937,0.694254,-0.792654,0.560633,-0.318869,0.982265,-0.16551,-0.694937,0.694254,-0.792654,0.560633,-0.318869,0.982265,-0.16551,0.350856,-0.529157,0.805849,0.745744,-0.00676528,0.0420052,0.664873,-0.619865,-0.106738,0.341333,1.75718,-0.579797,1.491,-5.20415,-0.0594497,1.11558,-5.20415,-0.10642,1.11558,-0.708142,0.672526,-0.511176,0.661822,-0.345661,0.640801,-0.54882,1
1.54653,-0.810175,-2.01949,-0.93308,2.23477,1.53408,-1.10822,1.54653,-0.810175,-2.01949,-0.93308,2.23477,1.53408,-1.10822,1.62127,-0.87737,-1.96732,-0.986278,2.25584,1.47366,-1.05464,-0.801151,0.749548,-0.755876,0.47375,0.543649,0.938152,0.0870634,-0.801151,0.749548,-0.755876,0.47375,0.543649,0.938152,0.0870634,0.343816,-0.530083,0.809444,0.750429,-0.0133852,0.0436777,0.65937,-0.715463,-0.174065,0.36714,1.72544,-0.581206,1.50265,-3.1739,-0.140852,1.16478,-3.1739,-0.128999,1.16478,-0.747364,0.671956,-0.521633,0.531986,-0.21077,0.604256,-0.535868,1
1.53708,-0.796921,-2.02707,-0.925947,2.29346,1.53703,-1.10541,1.53708,-0.796921,-2.02707,-0.925947,2.29346,1.53703,-1.10541,1.61243,-0.87004,-1.97531,-0.981362,2.26758,1.48331,-1.05648,-0.887873,0.724608,-0.806115,0.494565,1.33145,0.979651,-0.292578,-0.887873,0.724608,-0.806115,0.494565,1.33145,0.979651,-0.292578,0.335152,-0.532571,0.813053,0.756263,-0.0192094,0.0412576,0.652683,-0.836126,-0.285724,0.357653,1.69398,-0.583034,1.51276,-3.14621,-0.182837,1.01093,-3.14621,-0.120978,1.01093,-0.753501,0.73119,-0.517597,0.554153,0.258799,0.537242,-0.48932,1
1.53218,-0.788644,-2.03714,-0.917385,2.30004,1.55472,-1.10802,1.53218,-0.788644,-2.03714,-0.917385,2.30004,1.55472,-1.10802,1.60436,-0.863017,-1.98338,-0.975627,2.28081,1.49324,-1.06264,-0.783896,0.69817,-0.823325,0.611342,1.21778,0.997783,-0.718053,-0.783896,0.69817,-0.823325,0.611342,1.21778,0.997783,-0.718053,0.326423,-0.53506,0.81673,0.763329,-0.0253504,0.0379289,0.644397,-0.809437,-0.254248,0.372244,1.66243,-0.584689,1.52214,-3.1552,-0.16551,0.937951,-3.1552,-0.167765,0.937951,-0.721767,0.743734,-0.537587,0.58242,0.192334,0.614742,-0.453843,1
1.52794,-0.789417,-1.99247,-1.02039,2.35469,1.54692,-1.03263,1.52794,-0.789417,-1.99247,-1.02039,2.35469,1.54692,-1.03263,1.59669,-0.856338,-1.99264,-0.967774,2.28553,1.50346,-1.07223,-0.761616,0.656213,-0.955814,0.831486,0.192097,1.00614,-1.01889,-0.761616,0.656213,-0.955814,0.831486,0.192097,1.00614,-1.01889,0.318149,-0.53674,0.820425,0.772043,-0.0328864,0.0387499,0.633535,-0.782368,-0.206027,0.372264,1.6516,-0.583019,1.53167,-1.0828,0.167048,0.953519,-1.0828,-0.128482,0.953519,-0.687492,0.669214,0.00172983,-0.526141,0.691564,0.434521,0.395988,1
1.50972,-0.778307,-2.0596,-0.918568,2.33491,1.55659,-1.08356,1.50972,-0.778307,-2.0596,-0.918568,2.33491,1.55659,-1.08356,1.5899,-0.849885,-2.00196,-0.958869,2.28017,1.51356,-1.08299,-0.646996,0.645259,-0.904712,0.893542,-0.723156,1.00411,-1.07557,-0.646996,0.645259,-0.904712,0.893542,-0.723156,1.00411,-1.07557,0.311174,-0.536894,0.824128,0.780957,-0.0416604,0.044347,0.621613,-0.660946,-0.0699531,0.385618,1.62012,-0.584494,1.53891,-3.14772,-0.147462,0.724161,-3.14772,-0.0921371,0.724161,-0.801815,0.715775,-0.576391,0.403016,0.547461,0.430316,-0.00569488,1
1.52009,-0.771951,-2.06337,-0.957622,2.33126,1.58123,-1.10978,1.52009,-0.771951,-2.06337,-0.957622,2.33126,1.58123,-1.10978,1.58333,-0.843483,-2.01102,-0.950217,2.27345,1.52328,-1.09265,-0.677701,0.640513,-0.915006,0.860668,-0.560569,0.965725,-0.921514,-0.677701,0.640513,-0.915006,0.860668,-0.560569,0.965725,-0.921514,0.304628,-0.536634,0.827752,0.78908,-0.0503508,0.0506189,0.610128,-0.677644,-0.0825917,0.374019,1.5901,-0.588458,1.5453,-3.00274,-0.396419,0.639081,-3.00274,-0.116217,0.639081,-0.632387,0.715319,-0.523461,-0.0740504,0.578144,0.579478,-0.171274,1
1.51296,-0.764557,-2.06942,-0.916014,2.32394,1.59407,-1.14216,1.51296,-0.764557,-2.06942,-0.916014,2.32394,1.59407,-1.14216,1.57629,-0.836524,-2.01953,-0.942173,2.27349,1.53277,-1.09915,-0.694851,0.716075,-0.792141,0.742825,0.205712,0.943326,-0.506598,-0.694851,0.716075,-0.792141,0.742825,0.205712,0.943326,-0.506598,0.29728,-0.536788,0.831757,0.79587,-0.0584146,0.0537888,0.600238,-0.714005,-0.0710068,0.421825,1.55944,-0.590783,1.55095,-3.06548,-0.23253,0.564134,-3.06548,-0.140651,0.564134,-0.633309,0.719671,-0.498847,0.261596,0.504449,0.612912,-0.430087,1
1.51757,-0.758036,-2.06323,-0.908389,2.33471,1.60644,-1.14633,1.51757,-0.758036,-2.06323,-0.908389,2.33471,1.60644,-1.14633,1.56955,-0.829382,-2.0242,-0.938485,2.28191,1.54117,-1.09835,-0.689074,0.702389,-0.362004,0.237881,1.04706,0.801693,0.255342,-0.689074,0.702389,-0.362004,0.237881,1.04706,0.801693,0.255342,0.290534,-0.536582,0.835659,0.798681,-0.0645939,0.0524502,0.595974,-0.616938,-0.00758356,0.377713,1.52778,-0.591087,1.55543,-3.16607,-0.0303984,0.448823,-3.16607,-0.149229,0.448823,-0.519826,0.713463,-0.390348,0.30096,0.527944,0.652725,-0.479799,1
1.50388,-0.750621,-2.06438,-0.936024,2.35263,1.60894,-1.14581,1.50388,-0.750621,-2.06438,-0.936024,2.35263,1.60894,-1.14581,1.56077,-0.823054,-2.02594,-0.938767,2.2967,1.54847,-1.09478,-0.950708,0.617958,-0.13298,-0.0933235,1.57434,0.720593,0.317374,-0.950708,0.617958,-0.13298,-0.0933235,1.57434,0.720593,0.317374,0.283249,-0.537225,0.838758,0.799973,-0.0686581,0.0474807,0.594201,-0.697887,-0.0840143,0.29218,1.49601,-0.590241,1.55908,-3.17709,0.0845909,0.364518,-3.17709,-0.139574,0.364518,-0.568955,0.724331,-0.384426,0.0274277,0.559312,0.60469,-0.510323,1
1.4849,-0.74268,-2.07265,-0.944967,2.36343,1.61364,-1.14046,1.4849,-0.74268,-2.07265,-0.944967,2.36343,1.61364,-1.14046,1.55001,-0.816844,-2.02745,-0.940525,2.31207,1.55651,-1.09478,-1.09743,0.627629,-0.187162,-0.173056,1.47557,0.845352,-0.122254,-1.09743,0.627629,-0.187162,-0.173056,1.47557,0.845352,-0.122254,0.275188,-0.538192,0.841375,0.802525,-0.072636,0.0421755,0.590677,-0.759525,-0.0932711,0.256114,1.46485,-0.589978,1.5617,-3.11599,0.0263453,0.261819,-3.11599,-0.125002,0.261819,-0.651134,0.741638,-0.452001,-0.0444273,0.513599,0.571268,-0.4568,1
1.47332,-0.734999,-2.08154,-0.950888,2.36898,1.62438,-1.13596,1.47332,-0.734999,-2.08154,-0.950888,2.36898,1.62438,-1.13596,1.53914,-0.81021,-2.03221,-0.940636,2.32367,1.5664,-1.10005,-1.07065,0.673962,-0.59122,0.0683357,1.0621,1.03078,-0.657567,-1.07065,0.673962,-0.59122,0.0683357,1.0621,1.03078,-0.657567,0.266812,-0.538942,0.843859,0.807435,-0.0779422,0.0394282,0.583454,-0.807926,-0.102749,0.255361,1.43472,-0.592351,1.56361,-3.01358,-0.237381,0.191772,-3.01358,-0.0931131,0.191772,-0.658231,0.752112,-0.493292,-0.102515,0.453113,0.579793,-0.359192,1
1.46464,-0.727603,-2.09216,-0.923542,2.36422,1.63775,-1.14331,1.46464,-0.727603,-2.09216,-0.923542,2.36422,1.63775,-1.14331,1.52985,-0.803002,-2.04129,-0.937673,2.33195,1.57746,-1.10942,-0.858943,0.738079,-0.990281,0.359416,0.770576,1.12509,-1.00548,-0.858943,0.738079,-0.990281,0.359416,0.770576,1.12509,-1.00548,0.258617,-0.539362,0.846525,0.814261,-0.0845335,0.0392977,0.572964,-0.772888,-0.0732534,0.286456,1.4035,-0.595201,1.56435,-3.12113,-0.284928,0.0740051,-3.12113,-0.0794877,0.0740051,-0.652154,0.75399,-0.508638,0.141302,0.322706,0.602854,-0.338828,1
1.4603,-0.720339,-2.10546,-0.894614,2.36192,1.65037,-1.15598,1.4603,-0.720339,-2.10546,-0.894614,2.36192,1.65037,-1.15598,1.52394,-0.795638,-2.05196,-0.934496,2.3389,1.58856,-1.12016,-0.514603,0.726466,-1.08024,0.271569,0.683846,1.0826,-1.06843,-0.514603,0.726466,-1.08024,0.271569,0.683846,1.0826,-1.06843,0.252335,-0.538847,0.848992,0.820656,-0.0911637,0.040159,0.562672,-0.553947,0.0147731,0.238109,1.37239,-0.597616,1.56383,-3.11103,-0.241494,-0.0522494,-3.11103,-0.110128,-0.0522494,-0.636426,0.752991,-0.534949,0.398819,0.230226,0.618068,-0.358161,1
1.45155,-0.714557,-2.11547,-0.880514,2.35918,1.66121,-1.17409,1.45155,-0.714557,-2.11547,-0.880514,2.35918,1.66121,-1.17409,1.51927,-0.788402,-2.06229,-0.933584,2.34619,1.59893,-1.12936,-0.480065,0.730889,-1.00482,0.0377255,0.747779,1.01752,-0.85122,-0.480065,0.730889,-1.00482,0.0377255,0.747779,1.01752,-0.85122,0.247432,-0.537933,0.850849,0.825729,-0.0966724,0.0409383,0.554211,-0.468048,0.053365,0.191143,1.3405,-0.597623,1.56217,-3.18887,-0.000679493,-0.166559,-3.18887,-0.141352,-0.166559,-0.677144,0.738453,-0.531797,0.530701,0.129955,0.622777,-0.447339,1
1.4406,-0.708475,-2.12583,-0.878271,2.35995,1.67022,-1.18524,1.4406,-0.708475,-2.12583,-0.878271,2.35995,1.67022,-1.18524,1.51304,-0.780456,-2.07126,-0.93451,2.35389,1.60897,-1.13591,-0.677609,0.820445,-0.853713,-0.107568,0.77052,1.00898,-0.603847,-0.677609,0.820445,-0.853713,-0.107568,0.77052,1.00898,-0.603847,0.242264,-0.536712,0.852839,0.829845,-0.101864,0.0416544,0.547033,-0.527084,0.0886761,0.226351,1.30866,-0.5974,1.55961,-3.18432,0.0222027,-0.255799,-3.18432,-0.150114,-0.255799,-0.724335,0.719801,-0.545761,0.562389,0.0605547,0.612515,-0.493333,1
1.42876,-0.702209,-2.13563,-0.881986,2.36564,1.67711,-1.19198,1.42876,-0.702209,-2.13563,-0.881986,2.36564,1.67711,-1.19198,1.50478,-0.771827,-2.07883,-0.93443,2.36052,1.61929,-1.14117,-0.869124,0.859645,-0.745198,0.066475,0.610089,1.05434,-0.509833,-0.869124,0.859645,-0.745198,0.066475,0.610089,1.05434,-0.509833,0.235886,-0.535168,0.855692,0.833914,-0.10818,0.0427465,0.539498,-0.657992,0.0968846,0.314129,1.2771,-0.597824,1.55604,-3.15592,-0.0423014,-0.356996,-3.15592,-0.128776,-0.356996,-0.760234,0.696177,-0.567979,0.524432,0.0511585,0.578207,-0.508095,1
1.41853,-0.696816,-2.14623,-0.885574,2.38193,1.68305,-1.19375,1.41853,-0.696816,-2.14623,-0.885574,2.38193,1.68305,-1.19375,1.49574,-0.764222,-2.08693,-0.931742,2.3646,1.62978,-1.14637,-0.897886,0.728277,-0.836528,0.347151,0.338714,1.05164,-0.538607,-0.897886,0.728277,-0.836528,0.347151,0.338714,1.05164,-0.538607,0.228627,-0.534108,0.858585,0.838555,-0.115188,0.0448414,0.530609,-0.731493,0.0293028,0.305126,1.24665,-0.599607,1.5512,-3.04532,-0.178397,-0.483382,-3.04532,-0.0957076,-0.483382,-0.772042,0.674064,-0.593081,0.461677,0.173311,0.532693,-0.473812,1
1.41225,-0.691421,-2.15588,-0.885999,2.39264,1.69212,-1.19505,1.41225,-0.691421,-2.15588,-0.885999,2.39264,1.69212,-1.19505,1.48807,-0.757717,-2.09549,-0.925728,2.36607,1.64021,-1.15287,-0.709965,0.624316,-0.857452,0.675152,0.0962934,1.04058,-0.693164,-0.709965,0.624316,-0.857452,0.675152,0.0962934,1.04058,-0.693164,0.22147,-0.533058,0.861709,0.843589,-0.12312,0.0477074,0.520503,-0.69614,0.0355738,0.339368,1.21738,-0.602793,1.54561,-2.92667,-0.318569,-0.558996,-2.92667,-0.0962915,-0.558996,-0.758193,0.662965,-0.603971,0.397293,0.265732,0.519107,-0.421786,1
1.40893,-0.687889,-2.16613,-0.873613,2.38479,1.70639,-1.19818,1.40893,-0.687889,-2.16613,-0.873613,2.38479,1.70639,-1.19818,1.48216,-0.752073,-2.1048,-0.917757,2.36597,1.65036,-1.16085,-0.564911,0.549884,-0.964684,0.826305,-0.026729,1.00239,-0.828091,-0.564911,0.549884,-0.964684,0.826305,-0.026729,1.00239,-0.828091,0.214915,-0.531963,0.864777,0.848771,-0.131339,0.0510722,0.509636,-0.65089,0.0261006,0.324741,1.18806,-0.605629,1.53956,-2.9322,-0.283563,-0.605929,-2.9322,-0.13067,-0.605929,-0.732302,0.641836,-0.613241,0.441444,0.188195,0.560239,-0.373277,1
1.40516,-0.681425,-2.17619,-0.858195,2.36735,1.71874,-1.20772,1.40516,-0.681425,-2.17619,-0.858195,2.36735,1.71874,-1.20772,1.47688,-0.746373,-2.1148,-0.909407,2.36604,1.66035,-1.1697,-0.514339,0.592822,-0.994129,0.838397,0.0325196,0.988065,-0.896687,-0.514339,0.592822,-0.994129,0.838397,0.0325196,0.988065,-0.896687,0.2086,-0.530731,0.867864,0.853955,-0.139558,0.0545031,0.498311,-0.629093,0.0603054,0.347809,1.15743,-0.605517,1.53287,-3.06345,0.0111699,-0.668955,-3.06345,-0.161107,-0.668955,-0.717128,0.64948,-0.613879,0.51212,0.0130502,0.583861,-0.380168,1
1.40004,-0.673912,-2.18509,-0.846526,2.34636,1.72995,-1.22134,1.40004,-0.673912,-2.18509,-0.846526,2.34636,1.72995,-1.22134,1.47187,-0.739543,-2.12439,-0.901503,2.36789,1.66969,-1.1784,-0.509234,0.703338,-0.95723,0.757829,0.246333,0.918558,-0.851304,-0.509234,0.703338,-0.95723,0.757829,0.246333,0.918558,-0.851304,0.202501,-0.528889,0.871532,0.858675,-0.147774,0.057333,0.487394,-0.61027,0.115818,0.395223,1.12591,-0.606539,1.52514,-3.1514,-0.102198,-0.772512,-3.1514,-0.174372,-0.772512,-0.718246,0.656308,-0.607019,0.549771,-0.21525,0.602678,-0.429369,1
1.39531,-0.67374,-2.1914,-0.827773,2.31851,1.74463,-1.24149,1.39531,-0.67374,-2.1914,-0.827773,2.31851,1.74463,-1.24149,1.46602,-0.732552,-2.13424,-0.895095,2.37223,1.67863,-1.18599,-0.611625,0.699767,-0.988832,0.614477,0.479991,0.889545,-0.726863,-0.611625,0.699767,-0.988832,0.614477,0.479991,0.889545,-0.726863,0.196119,-0.527338,0.874892,0.86306,-0.1551,0.0593367,0.477023,-0.649244,0.0849683,0.352316,1.07472,-0.616387,1.51447,-5.11917,-0.984806,-1.06688,-5.11917,-0.258136,-1.06688,-0.707014,0.58812,-0.571567,0.673222,-0.53716,0.659969,-0.555073,1
1.3823,-0.675593,-2.20642,-0.828643,2.33389,1.75075,-1.23956,1.3823,-0.675593,-2.20642,-0.828643,2.33389,1.75075,-1.23956,1.45921,-0.725563,-2.14408,-0.889153,2.37653,1.68761,-1.1924,-0.706154,0.696256,-0.988976,0.597628,0.368626,0.907796,-0.619367,-0.706154,0.696256,-0.988976,0.597628,0.368626,0.907796,-0.619367,0.189408,-0.525824,0.878115,0.867144,-0.162254,0.0615714,0.466844,-0.683414,0.089063,0.343629,1.04427,-0.617731,1.50424,-3.04523,-0.134367,-1.02282,-3.04523,-0.294529,-1.02282,-0.769154,0.499706,-0.623462,0.605102,-0.426317,0.631404,-0.471577,1
1.37287,-0.682518,-2.2188,-0.822073,2.34283,1.75696,-1.24028,1.37287,-0.682518,-2.2188,-0.822073,2.34283,1.75696,-1.24028,1.45142,-0.718841,-2.15391,-0.882433,2.37746,1.69716,-1.19841,-0.795219,0.663767,-0.977375,0.688646,-0.00743964,0.97934,-0.60598,-0.795219,0.663767,-0.977375,0.688646,-0.00743964,0.97934,-0.60598,0.182413,-0.524078,0.881297,0.871121,-0.170044,0.0654753,0.456011,-0.718651,0.106076,0.345448,1.01431,-0.619049,1.49297,-2.99569,-0.131834,-1.12729,-2.99569,-0.299436,-1.12729,-0.78547,0.363234,-0.64891,0.603602,-0.34636,0.597995,-0.418703,1
1.36572,-0.69622,-2.23093,-0.814928,2.33404,1.7667,-1.24676,1.36572,-0.69622,-2.23093,-0.814928,2.33404,1.7667,-1.24676,1.4434,-0.712543,-2.16372,-0.875216,2.37391,1.70731,-1.20509,-0.80664,0.617749,-0.991768,0.735299,-0.482196,1.02441,-0.697011,-0.80664,0.617749,-0.991768,0.735299,-0.482196,1.02441,-0.697011,0.175795,-0.52195,0.884231,0.874946,-0.178384,0.0714363,0.444461,-0.689079,0.128824,0.320397,0.983582,-0.620471,1.48133,-3.07294,-0.142211,-1.1645,-3.07294,-0.295654,-1.1645,-0.776819,0.163227,-0.672134,0.602885,-0.398608,0.593882,-0.416761,1
1.35984,-0.725244,-2.24348,-0.809133,2.31711,1.7777,-1.2503,1.35984,-0.725244,-2.24348,-0.809133,2.31711,1.7777,-1.2503,1.43505,-0.706743,-2.17395,-0.866782,2.36544,1.71816,-1.21329,-0.836815,0.575757,-1.02251,0.879071,-0.957316,1.11113,-0.85726,-0.836815,0.575757,-1.02251,0.879071,-0.957316,1.11113,-0.85726,0.169347,-0.519529,0.886967,0.87886,-0.187478,0.0796859,0.431401,-0.696775,0.151477,0.319244,0.952923,-0.622652,1.46772,-3.06584,-0.218046,-1.36096,-3.06584,-0.292608,-1.36096,-0.752143,-0.185005,-0.695359,0.576487,-0.483264,0.595435,-0.370106,1
1.35769,-0.732163,-2.254,-0.80011,2.30269,1.79049,-1.2536,1.35769,-0.732163,-2.254,-0.80011,2.30269,1.79049,-1.2536,1.42742,-0.700842,-2.18371,-0.857753,2.35473,1.72928,-1.2221,-0.738187,0.590226,-0.972892,0.892835,-1.06612,1.105,-0.871598,-0.738187,0.590226,-0.972892,0.892835,-1.06612,1.105,-0.871598,0.163552,-0.516489,0.889837,0.882235,-0.197167,0.0888101,0.418209,-0.622177,0.202384,0.332045,0.922773,-0.624655,1.45306,-3.01501,-0.200349,-1.46544,-3.01501,-0.248635,-1.46544,-0.697293,-0.313202,-0.702915,0.576423,-0.520352,0.612117,-0.315021,1
1.36162,-0.742773,-2.26463,-0.788033,2.29151,1.80422,-1.26471,1.36162,-0.742773,-2.26463,-0.788033,2.29151,1.80422,-1.26471,1.42006,-0.695467,-2.19389,-0.848839,2.34606,1.7402,-1.2301,-0.741003,0.52467,-1.0278,0.90736,-0.80095,1.08382,-0.776741,-0.741003,0.52467,-1.0278,0.90736,-0.80095,1.08382,-0.776741,0.157692,-0.513861,0.892377,0.88523,-0.206261,0.0970408,0.405472,-0.656908,0.155244,0.299896,0.893051,-0.626646,1.43811,-2.97222,-0.199038,-1.49515,-2.97222,-0.172238,-1.49515,-0.58447,-0.473065,-0.707465,0.608059,-0.545429,0.640173,-0.346171,1
1.37025,-0.744636,-2.27494,-0.778479,2.28059,1.81543,-1.27775,1.37025,-0.744636,-2.27494,-0.778479,2.28059,1.81543,-1.27775,1.41268,-0.690359,-2.20417,-0.839487,2.33908,1.75057,-1.23717,-0.735922,0.503062,-1.03115,0.920951,-0.675793,1.02401,-0.683765,-0.735922,0.503062,-1.03115,0.920951,-0.675793,1.02401,-0.683765,0.151574,-0.511465,0.894946,0.887914,-0.214975,0.104556,0.393017,-0.662636,0.145878,0.296999,0.862174,-0.628568,1.42205,-3.08766,-0.192219,-1.6065,-3.08766,-0.185313,-1.6065,-0.424351,-0.542775,-0.707664,0.610079,-0.584913,0.648524,-0.40582,1
1.37127,-0.746015,-2.28578,-0.770944,2.2783,1.82357,-1.28054,1.37127,-0.746015,-2.28578,-0.770944,2.2783,1.82357,-1.28054,1.40518,-0.685934,-2.21471,-0.830409,2.33214,1.76072,-1.24325,-0.757062,0.427164,-1.06158,0.917907,-0.706416,1.01134,-0.582879,-0.757062,0.427164,-1.06158,0.917907,-0.706416,1.01134,-0.582879,0.145502,-0.509447,0.89705,0.890244,-0.223032,0.112171,0.380973,-0.671674,0.112375,0.251756,0.831749,-0.630037,1.405,-3.04256,-0.146908,-1.70462,-3.04256,-0.189821,-1.70462,-0.339189,-0.60081,-0.710735,0.59465,-0.538358,0.628484,-0.372903,1
1.35889,-0.745856,-2.29732,-0.764366,2.27227,1.82948,-1.28319,1.35889,-0.745856,-2.29732,-0.764366,2.27227,1.82948,-1.28319,1.39732,-0.681966,-2.22577,-0.820902,2.32434,1.77085,-1.24854,-0.795664,0.382666,-1.11909,0.946597,-0.808121,1.02227,-0.521183,-0.795664,0.382666,-1.11909,0.946597,-0.808121,1.02227,-0.521183,0.139284,-0.507625,0.898905,0.892284,-0.230843,0.120464,0.368821,-0.691476,0.0955374,0.224298,0.801215,-0.632094,1.38669,-3.05341,-0.205702,-1.83139,-3.05341,-0.191252,-1.83139,-0.384286,-0.638891,-0.715442,0.565363,-0.520692,0.586323,-0.34648,1
1.34351,-0.746874,-2.30852,-0.757759,2.25805,1.83612,-1.29026,1.34351,-0.746874,-2.30852,-0.757759,2.25805,1.83612,-1.29026,1.38977,-0.678899,-2.23678,-0.811797,2.3153,1.7816,-1.25402,-0.727952,0.283494,-1.08533,0.908571,-0.937362,1.0887,-0.565466,-0.727952,0.283494,-1.08533,0.908571,-0.937362,1.0887,-0.565466,0.133473,-0.50602,0.900092,0.893931,-0.238419,0.129138,0.356886,-0.635926,0.0808177,0.15889,0.771213,-0.634333,1.36744,-3.00019,-0.223941,-1.92472,-3.00019,-0.190404,-1.92472,-0.462608,-0.67975,-0.717418,0.54038,-0.57249,0.545198,-0.362363,1
1.33301,-0.749736,-2.31986,-0.754547,2.24717,1.84684,-1.29962,1.33301,-0.749736,-2.31986,-0.754547,2.24717,1.84684,-1.29962,1.38294,-0.676722,-2.24787,-0.802371,2.30517,1.79279,-1.26035,-0.681752,0.189439,-1.12945,0.952602,-1.03146,1.13074,-0.652749,-0.681752,0.189439,-1.12945,0.952602,-1.03146,1.13074,-0.652749,0.128063,-0.504596,0.900803,0.895298,-0.245977,0.138033,0.344796,-0.621483,0.0522442,0.110895,0.741458,-0.635932,1.34758,-2.97545,-0.159883,-1.98541,-2.97545,-0.188329,-1.98541,-0.499276,-0.730138,-0.719958,0.478235,-0.58,0.540532,-0.392701,1
1.32658,-0.751304,-2.33084,-0.751418,2.23652,1.85829,-1.30968,1.32658,-0.751304,-2.33084,-0.751418,2.23652,1.85829,-1.30968,1.37667,-0.675621,-2.25904,-0.792987,2.29494,1.8042,-1.26709,-0.595487,0.088254,-1.10067,0.937453,-1.01324,1.13525,-0.672751,-0.595487,0.088254,-1.10067,0.937453,-1.01324,1.13525,-0.672751,0.122899,-0.503614,0.900917,0.89644,-0.253153,0.146685,0.332855,-0.576975,0.0226457,0.0585453,0.711068,-0.63776,1.32674,-3.03898,-0.182784,-2.08449,-3.03898,-0.187029,-2.08449,-0.50083,-0.756828,-0.717967,0.415683,-0.584232,0.54086,-0.425923,1
1.32178,-0.753334,-2.34102,-0.756953,2.2308,1.86988,-1.3199,1.32178,-0.753334,-2.34102,-0.756953,2.2308,1.86988,-1.3199,1.37114,-0.675472,-2.26985,-0.783311,2.28539,1.81514,-1.27354,-0.552798,-0.0164667,-1.08122,0.978848,-0.930517,1.0832,-0.636222,-0.552798,-0.0164667,-1.08122,0.978848,-0.930517,1.0832,-0.636222,0.117954,-0.503019,0.900746,0.897335,-0.259847,0.154662,0.321481,-0.575077,-0.0199143,0.0255075,0.681456,-0.638976,1.30485,-2.96124,-0.121599,-2.18865,-2.96124,-0.180389,-2.18865,-0.493646,-0.778623,-0.711666,0.263586,-0.545952,0.547397,-0.463604,1
1.31398,-0.756048,-2.35139,-0.77982,2.22628,1.88216,-1.32911,1.31398,-0.756048,-2.35139,-0.77982,2.22628,1.88216,-1.32911,1.36548,-0.676542,-2.28066,-0.773666,2.2763,1.82539,-1.27978,-0.571446,-0.135197,-1.08666,0.959864,-0.913278,1.00424,-0.622896,-0.571446,-0.135197,-1.08666,0.959864,-0.913278,1.00424,-0.622896,0.112849,-0.50317,0.900043,0.898259,-0.265598,0.162256,0.31026,-0.587892,-0.0851696,-0.0357316,0.651273,-0.640545,1.28186,-3.01831,-0.156939,-2.29967,-3.01831,-0.173987,-2.29967,-0.514972,-0.795059,-0.707344,-0.06154,-0.50013,0.567684,-0.49331,1
1.30589,-0.759502,-2.36158,-0.804762,2.2263,1.89572,-1.34026,1.30589,-0.759502,-2.36158,-0.804762,2.2263,1.89572,-1.34026,1.35949,-0.67878,-2.29163,-0.764153,2.26708,1.83509,-1.28621,-0.605123,-0.253461,-1.09253,0.952746,-0.926317,0.967007,-0.654499,-0.605123,-0.253461,-1.09253,0.952746,-0.926317,0.967007,-0.654499,0.10757,-0.504046,0.898741,0.899271,-0.270442,0.169801,0.298899,-0.611528,-0.145226,-0.097223,0.621396,-0.642051,1.25814,-2.98766,-0.15052,-2.37192,-2.98766,-0.161921,-2.37192,-0.53599,-0.807224,-0.699536,-0.406094,-0.407793,0.606319,-0.540498,1
1.29695,-0.762917,-2.37282,-0.820529,2.22995,1.9041,-1.35167,1.29695,-0.762917,-2.37282,-0.820529,2.22995,1.9041,-1.35167,1.35363,-0.682094,-2.3023,-0.755727,2.25757,1.84461,-1.29324,-0.577199,-0.362879,-1.06637,0.794538,-0.959011,0.954076,-0.721516,-0.577199,-0.362879,-1.06637,0.794538,-0.959011,0.954076,-0.721516,0.102585,-0.505528,0.896651,0.90025,-0.274409,0.177124,0.287883,-0.565187,-0.201361,-0.196072,0.591162,-0.644641,1.23308,-3.02342,-0.259012,-2.50608,-3.02342,-0.164087,-2.50608,-0.566785,-0.808235,-0.705218,-0.648014,-0.276157,0.594947,-0.584262,1
1.28651,-0.767823,-2.3849,-0.820279,2.24801,1.91275,-1.35911,1.28651,-0.767823,-2.3849,-0.820279,2.24801,1.91275,-1.35911,1.348,-0.686607,-2.31294,-0.749694,2.24816,1.85424,-1.30092,-0.553742,-0.474624,-1.05605,0.527653,-0.926925,0.972486,-0.785093,-0.553742,-0.474624,-1.05605,0.527653,-0.926925,0.972486,-0.785093,0.0980997,-0.507853,0.893325,0.901249,-0.277079,0.184079,0.277655,-0.510307,-0.271723,-0.329096,0.561378,-0.646772,1.20684,-2.97844,-0.213122,-2.62334,-2.97844,-0.176269,-2.62334,-0.614823,-0.812159,-0.719648,-0.705845,-0.00150771,0.585093,-0.581835,1
1.2737,-0.773386,-2.39694,-0.819872,2.27145,1.92151,-1.3641,1.2737,-0.773386,-2.39694,-0.819872,2.27145,1.92151,-1.3641,1.34239,-0.691297,-2.32334,-0.747248,2.23962,1.86419,-1.30931,-0.572318,-0.46119,-1.03986,0.144287,-0.822636,1.00018,-0.857248,-0.572318,-0.46119,-1.03986,0.144287,-0.822636,1.00018,-0.857248,0.094245,-0.510607,0.888979,0.90222,-0.278584,0.190456,0.268545,-0.449494,-0.294781,-0.429513,0.53194,-0.648635,1.18008,-2.94377,-0.186336,-2.67651,-2.94377,-0.186832,-2.67651,-0.686955,-0.820886,-0.735992,-0.72624,0.318319,0.573207,-0.547923,1
1.2641,-0.778295,-2.40764,-0.821071,2.27669,1.9294,-1.36984,1.2641,-0.778295,-2.40764,-0.821071,2.27669,1.9294,-1.36984,1.33619,-0.695714,-2.33343,-0.748862,2.23288,1.8747,-1.31844,-0.63467,-0.429157,-0.998455,-0.265732,-0.616148,1.06858,-0.93216,-0.63467,-0.429157,-0.998455,-0.265732,-0.616148,1.06858,-0.93216,0.0906624,-0.513643,0.883748,0.90328,-0.279061,0.19591,0.260441,-0.419251,-0.309236,-0.523089,0.501954,-0.650507,1.15255,-2.99858,-0.187176,-2.75235,-2.99858,-0.198194,-2.75235,-0.720941,-0.825807,-0.742109,-0.722087,0.438121,0.547003,-0.513959,1
1.25525,-0.782409,-2.41811,-0.823132,2.28354,1.93227,-1.38208,1.25525,-0.782409,-2.41811,-0.823132,2.28354,1.93227,-1.38208,1.32931,-0.699901,-2.34337,-0.754444,2.22936,1.88548,-1.32824,-0.711535,-0.42253,-1.00109,-0.651675,-0.239775,1.0789,-0.994356,-0.711535,-0.42253,-1.00109,-0.651675,-0.239775,1.0789,-0.994356,0.0870327,-0.51707,0.87773,0.904688,-0.278364,0.199791,0.253252,-0.42968,-0.348032,-0.617233,0.472293,-0.652043,1.12385,-2.96612,-0.153613,-2.87044,-2.96612,-0.19786,-2.87044,-0.740552,-0.82508,-0.747387,-0.686887,0.541792,0.467911,-0.53833,1
1.24754,-0.786615,-2.42869,-0.83016,2.28887,1.94068,-1.39278,1.24754,-0.786615,-2.42869,-0.83016,2.28887,1.94068,-1.39278,1.32163,-0.70424,-2.35361,-0.762838,2.23059,1.8961,-1.33829,-0.781342,-0.442987,-1.0235,-0.8932,0.245489,1.06095,-1.00231,-0.781342,-0.442987,-1.0235,-0.8932,0.245489,1.06095,-1.00231,0.0827311,-0.521087,0.871128,0.906754,-0.276446,0.201457,0.246557,-0.486003,-0.389559,-0.679876,0.442341,-0.654187,1.09403,-2.99523,-0.214416,-2.98243,-2.99523,-0.196251,-2.98243,-0.740884,-0.823751,-0.750829,-0.673226,0.582778,0.445745,-0.544868,1
1.23958,-0.791276,-2.43997,-0.839395,2.29775,1.95112,-1.40186,1.23958,-0.791276,-2.43997,-0.839395,2.29775,1.95112,-1.40186,1.31349,-0.709326,-2.36426,-0.7732,2.23659,1.90642,-1.34789,-0.822483,-0.533693,-1.08361,-1.07078,0.705347,1.01849,-0.943413,-0.822483,-0.533693,-1.08361,-1.07078,0.705347,1.01849,-0.943413,0.0776477,-0.525867,0.863871,0.909505,-0.273232,0.200841,0.24043,-0.551723,-0.459158,-0.766343,0.412392,-0.656132,1.06331,-2.99487,-0.19446,-3.07119,-2.99487,-0.188259,-3.07119,-0.739063,-0.819501,-0.757044,-0.661952,0.611632,0.446985,-0.53967,1
1.23401,-0.797201,-2.44981,-0.850539,2.31009,1.96158,-1.41053,1.23401,-0.797201,-2.44981,-0.850539,2.31009,1.96158,-1.41053,1.3057,-0.715421,-2.37506,-0.783764,2.24612,1.91625,-1.3568,-0.759303,-0.624436,-1.07652,-1.03791,1.01756,0.968087,-0.876015,-0.759303,-0.624436,-1.07652,-1.03791,1.01756,0.968087,-0.876015,0.0720163,-0.531187,0.856268,0.912729,-0.269264,0.198314,0.23472,-0.578505,-0.488596,-0.790475,0.384134,-0.657885,1.03166,-2.82575,-0.175297,-3.16538,-2.82575,-0.185759,-3.16538,-0.716945,-0.817798,-0.747461,-0.667752,0.639653,0.453279,-0.537343,1
1.22543,-0.804058,-2.46225,-0.860782,2.32065,1.96975,-1.4191,1.22543,-0.804058,-2.46225,-0.860782,2.32065,1.96975,-1.4191,1.29827,-0.722262,-2.38648,-0.793927,2.25708,1.92502,-1.36536,-0.738894,-0.714915,-1.16101,-1.02061,1.10517,0.853054,-0.855534,-0.738894,-0.714915,-1.16101,-1.02061,1.10517,0.853054,-0.855534,0.0660572,-0.536916,0.848442,0.916298,-0.264495,0.195113,0.228847,-0.609695,-0.533954,-0.839385,0.354402,-0.659856,0.999327,-2.9732,-0.197124,-3.23329,-2.9732,-0.187525,-3.23329,-0.728414,-0.817963,-0.757756,-0.668543,0.635687,0.447353,-0.537375,1
1.21847,-0.812385,-2.47326,-0.872257,2.33009,1.98097,-1.42904,1.21847,-0.812385,-2.47326,-0.872257,2.33009,1.98097,-1.42904,1.29175,-0.729684,-2.39759,-0.803314,2.26804,1.93305,-1.37409,-0.620385,-0.742897,-1.09246,-0.915298,1.08339,0.781617,-0.880485,-0.620385,-0.742897,-1.09246,-0.915298,1.08339,0.781617,-0.880485,0.0602968,-0.542676,0.840579,0.919913,-0.259568,0.191507,0.222955,-0.563952,-0.512372,-0.81672,0.324735,-0.661698,0.965545,-2.96679,-0.184149,-3.37818,-2.96679,-0.188912,-3.37818,-0.732789,-0.827004,-0.756636,-0.689431,0.620425,0.479236,-0.549456,1
1.21237,-0.820718,-2.48483,-0.881386,2.34042,1.98843,-1.43787,1.21237,-0.820718,-2.48483,-0.881386,2.34042,1.98843,-1.43787,1.2857,-0.737526,-2.40882,-0.812427,2.27853,1.94051,-1.38304,-0.612512,-0.801523,-1.13613,-0.902643,1.03957,0.747511,-0.899084,-0.612512,-0.801523,-1.13613,-0.902643,1.03957,0.747511,-0.899084,0.0546591,-0.548496,0.832509,0.923552,-0.254304,0.187978,0.216902,-0.579489,-0.527285,-0.856893,0.295537,-0.663444,0.931143,-2.91972,-0.174648,-3.44018,-2.91972,-0.189099,-3.44018,-0.733299,-0.831918,-0.760066,-0.689592,0.618855,0.479147,-0.54832,1
1.20511,-0.829215,-2.49641,-0.890718,2.3486,1.99839,-1.44548,1.20511,-0.829215,-2.49641,-0.890718,2.3486,1.99839,-1.44548,1.27952,-0.745573,-2.42013,-0.82109,2.28883,1.94799,-1.39212,-0.616598,-0.802517,-1.12536,-0.866068,1.02705,0.751394,-0.909965,-0.616598,-0.802517,-1.12536,-0.866068,1.02705,0.751394,-0.909965,0.0487474,-0.554202,0.824368,0.927165,-0.249077,0.184509,0.210431,-0.596344,-0.504809,-0.85226,0.26621,-0.665166,0.895866,-2.93272,-0.172234,-3.5277,-2.93272,-0.18348,-3.5277,-0.74411,-0.836419,-0.762844,-0.696281,0.597754,0.504042,-0.533599,1
1.19803,-0.838013,-2.50789,-0.900268,2.35795,2.00873,-1.45351,1.19803,-0.838013,-2.50789,-0.900268,2.35795,2.00873,-1.45351,1.27337,-0.753994,-2.43122,-0.830133,2.29919,1.95558,-1.40124,-0.61383,-0.852586,-1.10381,-0.921626,1.03566,0.764828,-0.911595,-0.61383,-0.852586,-1.10381,-0.921626,1.03566,0.764828,-0.911595,0.0427617,-0.559896,0.815878,0.930774,-0.243629,0.180798,0.204003,-0.599599,-0.507413,-0.90067,0.236168,-0.667213,0.859611,-3.00427,-0.204664,-3.62546,-3.00427,-0.183552,-3.62546,-0.753374,-0.840186,-0.766742,-0.701349,0.5876,0.531529,-0.52274,1
1.19257,-0.846785,-2.51844,-0.910224,2.36733,2.01721,-1.46255,1.19257,-0.846785,-2.51844,-0.910224,2.36733,2.01062,-1.46255,1.26707,-0.762515,-2.44229,-0.83934,2.30947,1.96328,-1.41028,-0.645851,-0.850884,-1.11475,-0.919529,1.02103,0.776704,-0.897514,-0.645851,-0.850884,-1.11475,-0.919529,1.02103,0.776704,-0.897514,0.0366149,-0.565449,0.807204,0.934325,-0.238077,0.1771,0.197462,-0.628748,-0.487048,-0.908569,0.207427,-0.669047,0.821644,-2.87407,-0.183409,-3.79679,-2.87407,-0.184534,-3.79679,-0.745002,-0.842698,-0.761502,-0.708839,0.578613,0.539301,-0.522657,1
1.18491,-0.855477,-2.52981,-0.9202,2.37661,2.02677,-1.47025,1.18491,-0.855477,-2.52981,-0.9202,2.37661,2.01062,-1.47025,1.26014,-0.771059,-2.45348,-0.849091,2.31938,1.97114,-1.41905,-0.697224,-0.857061,-1.10857,-1.00495,0.981523,0.797282,-0.8733,-0.697224,-0.857061,-1.10857,-1.00495,0.981523,0.797282,-0.8733,0.03012,-0.57087,0.79824,0.937822,-0.232232,0.173681,0.190768,-0.650941,-0.47171,-0.946637,0.178401,-0.671105,0.783287,-2.9026,-0.205785,-3.83567,-2.9026,-0.186481,-3.83567,-0.752205,-0.844183,-0.763301,-0.711094,0.572359,0.556299,-0.51198,1
1.17907,-0.863723,-2.53998,-0.930414,2.38568,2.03602,-1.47826,1.17907,-0.863723,-2.53998,-0.930414,2.38568,2.01062,-1.47826,1.25324,-0.779415,-2.46435,-0.859188,2.32909,1.97935,-1.4278,-0.696828,-0.827843,-1.08805,-0.996597,0.974428,0.830443,-0.876308,-0.696828,-0.827843,-1.08805,-0.996597,0.974428,0.830443,-0.876308,0.0236666,-0.575938,0.789214,0.941163,-0.226539,0.170234,0.184153,-0.655587,-0.431982,-0.932864,0.150834,-0.673119,0.744498,-2.75666,-0.201398,-3.8789,-2.75666,-0.190953,-3.8789,-0.741664,-0.843079,-0.756284,-0.712266,0.565901,0.56664,-0.504614,1
1.16953,-0.872318,-2.55237,-0.940307,2.39464,2.04848,-1.48491,1.16953,-0.872318,-2.55237,-0.940307,2.39464,2.01062,-1.48491,1.24588,-0.787679,-2.47556,-0.869745,2.33885,1.98812,-1.43658,-0.742609,-0.828406,-1.134,-1.08302,0.972664,0.882684,-0.877998,-0.742609,-0.828406,-1.134,-1.08302,0.972664,0.882684,-0.877998,0.016859,-0.58076,0.779955,0.944441,-0.220828,0.166889,0.17724,-0.687483,-0.41391,-0.974892,0.12087,-0.674665,0.703717,-2.99641,-0.154632,-4.07807,-2.99641,-0.190931,-4.07807,-0.763534,-0.846381,-0.768127,-0.705621,0.557861,0.60357,-0.483312,1
1.16256,-0.880363,-2.5635,-0.951093,2.40356,2.05713,-1.49355,1.16256,-0.880363,-2.5635,-0.951093,2.40356,2.01062,-1.49355,1.23836,-0.79576,-2.48713,-0.880489,2.34847,1.99662,-1.44531,-0.754569,-0.794514,-1.15647,-1.0494,0.952606,0.82414,-0.872641,-0.754569,-0.794514,-1.15647,-1.0494,0.952606,0.82414,-0.872641,0.00989127,-0.585374,0.770639,0.947676,-0.214861,0.163779,0.170063,-0.705324,-0.383604,-0.951291,0.0912889,-0.677794,0.662384,-2.95812,-0.312907,-4.13334,-2.95812,-0.203072,-4.13334,-0.758021,-0.846025,-0.76377,-0.706037,0.550905,0.605105,-0.482378,1
1.26733,-0.857592,-2.4373,-0.911346,2.43692,2.01949,-1.44873,1.26733,-0.857592,-2.4373,-0.911346,2.43692,2.01062,-1.44873,1.23067,-0.80377,-2.49915,-0.89182,2.35766,2.00378,-1.45396,-0.771635,-0.829137,-1.20538,-1.1493,0.931034,0.680757,-0.863293,-0.771635,-0.829137,-1.20538,-1.1493,0.931034,0.680757,-0.863293,0.0028878,-0.590018,0.761133,0.950984,-0.207884,0.161068,0.162695,-0.715325,-0.39687,-1.00858,0.0970656,-0.69136,0.653542,0.57767,-1.35652,-0.884157,0.57767,-0.333908,-0.884157,0.366578,-0.538224,0.618473,-0.195267,0.792588,0.157152,0.052296,1
1.26108,-0.884999,-2.46449,-0.911949,2.44308,2.05388,-1.48153,1.26108,-0.884999,-2.46449,-0.911949,2.44308,2.01062,-1.48153,1.22285,-0.812208,-2.51112,-0.902634,2.36701,2.00926,-1.46243,-0.779941,-0.837299,-1.1906,-1.06172,0.939376,0.494937,-0.840906,-0.779941,-0.837299,-1.1906,-1.06172,0.939376,0.494937,-0.840906,-0.00439444,-0.594799,0.751603,0.954423,-0.200084,0.158227,0.154941,-0.737843,-0.389238,-0.980287,0.109219,-0.709406,0.649359,1.21537,-1.80461,-0.418282,1.21537,-0.593786,-0.418282,0.382303,-0.727908,0.466305,-0.0931459,0.760654,0.446159,-0.190939,1
1.24348,-0.892998,-2.48405,-0.916892,2.44487,2.0703,-1.44983,1.24348,-0.892998,-2.48405,-0.916892,2.44487,2.01062,-1.44983,1.21524,-0.820726,-2.5227,-0.913498,2.37639,2.01292,-1.47064,-0.761113,-0.862838,-1.16221,-1.09446,0.933393,0.324217,-0.814396,-0.761113,-0.862838,-1.16221,-1.09446,0.933393,0.324217,-0.814396,-0.0115382,-0.599613,0.742115,0.957908,-0.191398,0.155232,0.147246,-0.723157,-0.391775,-1.00015,0.122039,-0.72806,0.644314,1.28201,-1.86543,-0.504565,1.28201,-0.929046,-0.504565,0.282438,-0.722719,0.3865,-0.0339448,0.684804,0.573738,0.208122,1
1.24502,-0.906035,-2.48466,-0.946966,2.44747,2.08158,-1.50215,1.24502,-0.906035,-2.48466,-0.946966,2.44747,2.01062,-1.50215,1.20773,-0.829342,-2.53356,-0.923554,2.38598,2.01512,-1.4776,-0.737875,-0.840942,-1.03019,-0.967139,0.970171,0.178414,-0.606429,-0.737875,-0.840942,-1.03019,-0.967139,0.970171,0.178414,-0.606429,-0.0187363,-0.604333,0.732943,0.961293,-0.182332,0.15201,0.139874,-0.710246,-0.363045,-0.926489,0.134634,-0.745261,0.637264,1.2595,-1.72015,-0.704956,1.2595,-1.26724,-0.704956,0.372926,-0.766935,0.488975,-0.234123,0.614915,0.664642,-0.245513,1
1.25186,-0.913922,-2.49292,-0.959325,2.44315,2.08655,-1.51357,1.25186,-0.913922,-2.49292,-0.959325,2.44315,2.01062,-1.51357,1.20057,-0.837631,-2.54076,-0.931068,2.39671,2.01612,-1.4794,-0.720462,-0.855467,-0.596793,-0.665764,1.11504,0.0825973,-0.0592754,-0.720462,-0.855467,-0.596793,-0.665764,1.11504,0.0825973,-0.0592754,-0.0257479,-0.608428,0.725311,0.964169,-0.174317,0.147556,0.134976,-0.687039,-0.320403,-0.773631,0.147336,-0.762224,0.63028,1.27014,-1.69626,-0.69837,1.27014,-1.55111,-0.69837,0.512833,-0.762909,0.478349,-0.282562,0.464406,0.704224,-0.341714,1
1.25073,-0.923157,-2.48849,-0.95866,2.42558,2.08762,-1.50549,1.25073,-0.923157,-2.48849,-0.95866,2.42558,2.01062,-1.50549,1.19355,-0.847898,-2.54178,-0.935111,2.40891,2.01647,-1.47948,-0.684065,-1.08387,0.0894884,-0.322719,1.24706,0.0205415,-0.00753826,-0.684065,-1.08387,0.0894884,-0.322719,1.24706,0.0205415,-0.00753826,-0.0328344,-0.612428,0.718525,0.966953,-0.167866,0.139977,0.131264,-0.634873,-0.330487,-0.701853,0.159699,-0.780149,0.621801,1.23636,-1.7925,-0.847948,1.23636,-1.73089,-0.847948,0.571859,-0.752588,0.532939,-0.235499,0.1667,0.711473,-0.260167,1
1.23865,-0.93522,-2.48364,-0.953911,2.39538,2.0892,-1.50447,1.23865,-0.93522,-2.48364,-0.953911,2.39538,2.01062,-1.50447,1.18669,-0.860209,-2.53574,-0.937005,2.42137,2.01629,-1.47794,-0.703815,-1.27011,0.751454,-0.163049,1.23561,-0.023969,0.212857,-0.703815,-1.27011,0.751454,-0.163049,1.23561,-0.023969,0.212857,-0.0394761,-0.616377,0.712193,0.969556,-0.162696,0.129373,0.129437,-0.574755,-0.333067,-0.673067,0.17318,-0.797642,0.61295,1.34806,-1.74928,-0.885099,1.34806,-1.76606,-0.885099,0.519631,-0.750119,0.520975,-0.169056,-0.259848,0.729025,-0.265307,1
1.22369,-0.94752,-2.47684,-0.93646,2.38475,2.09142,-1.51113,1.22369,-0.94752,-2.47684,-0.93646,2.38475,2.01062,-1.51113,1.179,-0.873007,-2.52482,-0.93895,2.43273,2.01608,-1.47695,-0.786185,-1.25784,1.16147,-0.216848,1.08898,-0.0205415,-0.00560875,-0.786185,-1.25784,1.16147,-0.216848,1.08898,-0.0205415,-0.00560875,-0.0458852,-0.619947,0.706147,0.971972,-0.158385,0.117301,0.128164,-0.530847,-0.288533,-0.632284,0.186169,-0.816195,0.60348,1.29889,-1.85529,-0.946951,1.29889,-1.76578,-0.946951,0.446843,-0.745131,0.479858,0.0248997,-0.479824,0.753404,-0.341808,1
1.21417,-0.958538,-2.46955,-0.938662,2.38679,2.09244,-1.52139,1.21417,-0.958538,-2.46955,-0.938662,2.38679,2.01062,-1.52139,1.1709,-0.884561,-2.51388,-0.941513,2.44102,2.0159,-1.4813,-0.800444,-1.13197,1.05063,-0.26844,0.717522,-0.0135179,-0.569765,-0.800444,-1.13197,1.05063,-0.26844,0.717522,-0.0135179,-0.569765,-0.0518705,-0.622943,0.700473,0.974288,-0.154652,0.106488,0.124525,-0.498379,-0.242109,-0.600879,0.19809,-0.834606,0.592333,1.19209,-1.84109,-1.11475,1.19209,-1.77472,-1.11475,0.432689,-0.73977,0.443357,0.0285067,-0.542288,0.765424,-0.400885,1
1.20898,-0.968826,-2.46325,-0.946963,2.38838,2.09188,-1.52744,1.20898,-0.968826,-2.46325,-0.946963,2.38838,2.01062,-1.52744,1.16412,-0.894824,-2.50579,-0.94513,2.44354,2.01572,-1.4886,-0.633639,-0.980814,0.730494,-0.367356,0.0905603,-0.0168015,-0.742418,-0.633639,-0.980814,0.730494,-0.367356,0.0905603,-0.0168015,-0.742418,-0.0562334,-0.62565,0.69459,0.976196,-0.150581,0.0993733,0.12038,-0.345513,-0.211837,-0.603418,0.210599,-0.852217,0.580198,1.2509,-1.7611,-1.21353,1.2509,-1.7917,-1.21353,0.448614,-0.740021,0.425384,-0.018334,-0.551634,0.761598,-0.388372,1
1.20587,-0.977735,-2.45783,-0.947782,2.38303,2.0912,-1.52991,1.20587,-0.977735,-2.45783,-0.947782,2.38303,2.01062,-1.52991,1.15919,-0.903795,-2.49966,-0.948234,2.43938,2.01556,-1.49546,-0.450333,-0.882726,0.580682,-0.283576,-0.584644,-0.014968,-0.665397,-0.450333,-0.882726,0.580682,-0.283576,-0.584644,-0.014968,-0.665397,-0.0586015,-0.62794,0.689108,0.977391,-0.146883,0.0964233,0.117625,-0.181672,-0.184962,-0.55505,0.223455,-0.869559,0.566621,1.28559,-1.73418,-1.35769,1.28559,-1.79679,-1.35769,0.466755,-0.739395,0.418307,0.00452265,-0.563455,0.756453,-0.344438,1
1.20385,-0.987474,-2.45174,-0.943561,2.37357,2.0906,-1.53279,1.20385,-0.987474,-2.45174,-0.943561,2.37357,2.01062,-1.53279,1.15601,-0.913092,-2.4948,-0.94981,2.42944,2.01554,-1.50178,-0.265013,-0.947044,0.46759,-0.112014,-1.10538,-0.00014379,-0.626101,-0.265013,-0.947044,0.46759,-0.112014,-1.10538,-0.00014379,-0.626101,-0.0594747,-0.630229,0.683505,0.978049,-0.143541,0.0966284,0.116097,-0.0615692,-0.201806,-0.571101,0.236494,-0.886939,0.552082,1.30394,-1.73802,-1.45386,1.30394,-1.78652,-1.45386,0.478387,-0.743817,0.43063,0.0624835,-0.558693,0.750571,-0.310144,1
1.20493,-0.997166,-2.44588,-0.937308,2.36232,2.09013,-1.53729,1.20493,-0.997166,-2.44588,-0.937308,2.36232,2.01062,-1.53729,1.15507,-0.922846,-2.49027,-0.950216,2.4169,2.01555,-1.50804,-0.0422794,-0.988508,0.450225,-0.0474564,-1.26993,0.00191742,-0.627084,-0.0422794,-0.988508,0.450225,-0.0474564,-1.26993,0.00191742,-0.627084,-0.0588313,-0.632634,0.677834,0.978393,-0.140564,0.0980078,0.115685,0.082332,-0.218818,-0.583992,0.249518,-0.904203,0.536974,1.30244,-1.72644,-1.51083,1.30244,-1.77187,-1.51083,0.498576,-0.743206,0.443837,0.129081,-0.545718,0.745844,-0.292517,1
1.20777,-1.00599,-2.44083,-0.939419,2.35175,2.08994,-1.54259,1.20777,-1.00599,-2.44083,-0.939419,2.35175,2.01062,-1.54259,1.15558,-0.932167,-2.48602,-0.950485,2.40529,2.01552,-1.51429,0.0763977,-0.896543,0.418192,-0.0169693,-1.11537,-0.00705856,-0.619954,0.0763977,-0.896543,0.418192,-0.0169693,-1.11537,-0.00705856,-0.619954,-0.0574036,-0.63497,0.67244,0.978664,-0.13785,0.0990659,0.115755,0.143914,-0.201341,-0.519538,0.262491,-0.921607,0.521284,1.29726,-1.7404,-1.56897,1.29726,-1.75055,-1.56897,0.521927,-0.738226,0.451975,0.110663,-0.535386,0.744126,-0.282983,1
1.21085,-1.014,-2.43657,-0.937551,2.34266,2.08975,-1.54627,1.21085,-1.014,-2.43657,-0.937551,2.34266,2.01062,-1.54627,1.15735,-0.940576,-2.48134,-0.950285,2.39547,2.01556,-1.52011,0.208844,-0.833328,0.48553,0.0367787,-0.939772,0.00340345,-0.568638,0.208844,-0.833328,0.48553,0.0367787,-0.939772,0.00340345,-0.568638,-0.0553292,-0.637023,0.667857,0.97884,-0.135904,0.0993163,0.116352,0.221443,-0.186007,-0.4491,0.27494,-0.939428,0.504637,1.24492,-1.78212,-1.66477,1.24492,-1.74248,-1.66477,0.535025,-0.734269,0.447742,0.127346,-0.52815,0.741916,-0.261547,1
1.21422,-1.02289,-2.43219,-0.939311,2.33517,2.08956,-1.55041,1.21422,-1.02289,-2.43219,-0.939311,2.33517,2.01062,-1.55041,1.15999,-0.949451,-2.47669,-0.94938,2.38703,2.01553,-1.52531,0.278807,-0.906897,0.451831,0.113788,-0.809693,-0.00329559,-0.497801,0.278807,-0.906897,0.451831,0.113788,-0.809693,-0.00329559,-0.497801,-0.0530735,-0.63923,0.66324,0.979036,-0.134032,0.0988479,0.117275,0.226845,-0.209112,-0.473775,0.287414,-0.957279,0.486948,1.24741,-1.78509,-1.7689,1.24741,-1.74855,-1.7689,0.542295,-0.734406,0.445007,0.100685,-0.518643,0.740293,-0.25102,1
1.21797,-1.0319,-2.42793,-0.937165,2.32803,2.08934,-1.55334,1.21797,-1.0319,-2.42793,-0.937165,2.32803,2.01062,-1.55334,1.16333,-0.958577,-2.47205,-0.94727,2.37946,2.01545,-1.52986,0.353814,-0.924766,0.475751,0.227395,-0.753302,-0.00659117,-0.448751,0.353814,-0.924766,0.475751,0.227395,-0.753302,-0.00659117,-0.448751,-0.050722,-0.641486,0.658851,0.979196,-0.13251,0.0979998,0.118371,0.253203,-0.213371,-0.445418,0.300025,-0.97464,0.468322,1.26111,-1.7361,-1.86259,1.26111,-1.75411,-1.86259,0.546379,-0.733275,0.441215,0.101055,-0.514316,0.73886,-0.234818,1
1.22175,-1.04167,-2.42371,-0.936312,2.32044,2.08918,-1.5575,1.22175,-1.04167,-2.42371,-0.936312,2.32044,2.01062,-1.5575,1.16715,-0.968166,-2.46725,-0.945075,2.3715,2.0154,-1.53427,0.386482,-0.957026,0.477057,0.229373,-0.809425,-0.0083528,-0.438253,0.386482,-0.957026,0.477057,0.229373,-0.809425,-0.0083528,-0.438253,-0.0480481,-0.643827,0.654205,0.979321,-0.130901,0.0971464,0.119826,0.279074,-0.217575,-0.467046,0.312778,-0.991962,0.448649,1.27526,-1.73214,-1.96726,1.27526,-1.75577,-1.96726,0.546023,-0.735059,0.435362,0.0876319,-0.510658,0.737871,-0.232305,1
1.22609,-1.05068,-2.41876,-0.933302,2.31142,2.08898,-1.56126,1.22609,-1.05068,-2.41876,-0.933302,2.31142,2.01062,-1.56126,1.17146,-0.977344,-2.462,-0.942803,2.36291,2.0152,-1.53857,0.450908,-0.914112,0.546001,0.217161,-0.871645,-0.0184673,-0.428127,0.450908,-0.914112,0.546001,0.217161,-0.871645,-0.0184673,-0.428127,-0.0448377,-0.645993,0.649887,0.979327,-0.12957,0.0965107,0.121721,0.348492,-0.201454,-0.433985,0.325906,-1.00972,0.428172,1.31278,-1.77605,-2.04771,1.31278,-1.75885,-2.04771,0.54639,-0.733321,0.43241,0.0950155,-0.514816,0.737821,-0.226828,1
1.23033,-1.05991,-2.41484,-0.932821,2.30229,2.08867,-1.56519,1.23033,-1.05991,-2.41484,-0.932821,2.30229,2.01062,-1.56519,1.17618,-0.986373,-2.45646,-0.941099,2.35389,2.01497,-1.54276,0.473785,-0.89568,0.549704,0.165618,-0.907712,-0.0270837,-0.414537,0.473785,-0.89568,0.549704,0.165618,-0.907712,-0.0270837,-0.414537,-0.0411205,-0.648069,0.645525,0.979263,-0.12817,0.0959334,0.124149,0.38162,-0.192285,-0.438365,0.338786,-1.02764,0.406001,1.28802,-1.79212,-2.21711,1.28802,-1.76207,-2.2171,0.541424,-0.735354,0.416197,0.0827785,-0.515989,0.736928,-0.224308,1
1.23392,-1.06864,-2.41137,-0.931815,2.29213,2.08844,-1.5694,1.23392,-1.06864,-2.41137,-0.931815,2.29213,2.01062,-1.5694,1.18091,-0.995043,-2.45079,-0.9396,2.3448,2.01466,-1.54675,0.470778,-0.85889,0.5794,0.153478,-0.904817,-0.0333873,-0.393948,0.470778,-0.85889,0.5794,0.153478,-0.904817,-0.0333873,-0.393948,-0.0372788,-0.649992,0.641347,0.979153,-0.126839,0.0954292,0.126747,0.391857,-0.176704,-0.413545,0.351318,-1.04514,0.382954,1.25315,-1.75009,-2.30471,1.25315,-1.76056,-2.30471,0.530091,-0.735975,0.394147,0.077849,-0.526639,0.737877,-0.226499,1
1.23705,-1.07753,-2.40731,-0.933294,2.28249,2.08823,-1.57397,1.23705,-1.07753,-2.40731,-0.933294,2.28249,2.01062,-1.57397,1.18541,-1.00377,-2.44497,-0.938394,2.33587,2.01425,-1.5506,0.445824,-0.879436,0.579464,0.111097,-0.889808,-0.0428327,-0.380904,0.445824,-0.879436,0.579464,0.111097,-0.889808,-0.0428327,-0.380904,-0.033521,-0.651882,0.63708,0.979062,-0.125352,0.0947825,0.129386,0.381596,-0.175748,-0.438489,0.364039,-1.06267,0.359056,1.27211,-1.75215,-2.38983,1.27211,-1.76018,-2.38983,0.516389,-0.737543,0.376606,0.0510012,-0.533792,0.739746,-0.233792,1
1.24161,-1.08608,-2.40222,-0.933255,2.27343,2.0878,-1.57716,1.24161,-1.08608,-2.40222,-0.933255,2.27343,2.01062,-1.57716,1.19024,-1.0125,-2.43893,-0.937267,2.32702,2.0137,-1.5543,0.500486,-0.864671,0.611259,0.116466,-0.884055,-0.0576815,-0.367421,0.500486,-0.864671,0.611259,0.116466,-0.884055,-0.0576815,-0.367421,-0.0294908,-0.653732,0.632843,0.978941,-0.123844,0.0940001,0.132292,0.424777,-0.168595,-0.421136,0.377275,-1.07982,0.334622,1.32367,-1.71562,-2.44336,1.32367,-1.75848,-2.44336,0.513655,-0.735861,0.367045,0.0401218,-0.535872,0.740921,-0.228645,1
1.2459,-1.09515,-2.39809,-0.93309,2.26509,2.08721,-1.58063,1.2459,-1.09515,-2.39809,-0.93309,2.26509,2.01062,-1.58063,1.19533,-1.02131,-2.43302,-0.936251,2.31823,2.01315,-1.55794,0.502691,-0.889851,0.575485,0.0919572,-0.878264,-0.04952,-0.364833,0.502691,-0.889851,0.575485,0.0919572,-0.878264,-0.04952,-0.364833,-0.0252958,-0.655567,0.628494,0.978803,-0.122243,0.0932041,0.135333,0.423949,-0.168973,-0.450755,0.390419,-1.0975,0.309623,1.31438,-1.76735,-2.49985,1.31438,-1.75651,-2.49985,0.505722,-0.738411,0.349359,0.0316086,-0.531356,0.740597,-0.226861,1
1.24944,-1.1044,-2.39564,-0.935658,2.2563,2.08669,-1.58429,1.24944,-1.1044,-2.39564,-0.935658,2.2563,2.01062,-1.58429,1.20012,-1.03018,-2.42756,-0.935379,2.30938,2.01269,-1.56165,0.476013,-0.877135,0.541856,0.0859889,-0.88929,-0.0427488,-0.373354,0.476013,-0.877135,0.541856,0.0859889,-0.88929,-0.0427488,-0.373354,-0.0212957,-0.657363,0.623987,0.978679,-0.120517,0.0925996,0.138164,0.405967,-0.159863,-0.451039,0.403181,-1.11624,0.283037,1.27618,-1.87433,-2.65859,1.27618,-1.76404,-2.65859,0.493163,-0.742271,0.319209,-0.00278712,-0.530796,0.739992,-0.226402,1
1.25302,-1.11313,-2.39303,-0.937635,2.24702,2.08641,-1.588,1.25302,-1.11313,-2.39303,-0.937635,2.24702,2.01062,-1.588,1.20489,-1.03875,-2.42225,-0.93457,2.30039,2.01234,-1.56543,0.475714,-0.860297,0.526504,0.0697619,-0.900872,-0.0318069,-0.379058,0.475714,-0.860297,0.526504,0.0697619,-0.900872,-0.0318069,-0.379058,-0.0172549,-0.659009,0.619606,0.978515,-0.118937,0.0921755,0.140947,0.410596,-0.148934,-0.448431,0.416013,-1.1332,0.255766,1.28317,-1.69603,-2.72719,1.28317,-1.76316,-2.72719,0.481328,-0.743832,0.292144,-0.0306453,-0.533703,0.740668,-0.225727,1
1.25683,-1.12213,-2.39228,-0.941795,2.23859,2.08607,-1.59136,1.25683,-1.12213,-2.39228,-0.941795,2.23859,2.01062,-1.59136,1.20981,-1.04738,-2.41725,-0.934179,2.29125,2.0121,-1.56923,0.499707,-0.857481,0.493559,0.0341319,-0.918014,-0.0229743,-0.379466,0.499707,-0.857481,0.493559,0.0341319,-0.918014,-0.0229743,-0.379466,-0.0130401,-0.660609,0.615002,0.978324,-0.117188,0.0918964,0.14389,0.432452,-0.14176,-0.463709,0.428789,-1.15092,0.226449,1.27764,-1.77236,-2.93168,1.27764,-1.76721,-2.93168,0.470249,-0.747529,0.249745,-0.0761625,-0.526626,0.739683,-0.221337,1
1.25913,-1.13095,-2.39346,-0.945796,2.22941,2.08606,-1.59548,1.25913,-1.13095,-2.39346,-0.945796,2.22941,2.01062,-1.59548,1.21483,-1.05581,-2.41237,-0.933928,2.28208,2.01201,-1.57296,0.494194,-0.847234,0.482772,0.0167184,-0.912933,-0.00226506,-0.371304,0.494194,-0.847234,0.482772,0.0167184,-0.912933,-0.00226506,-0.371304,-0.00870499,-0.662076,0.610459,0.978083,-0.115547,0.091702,0.146944,0.431899,-0.13068,-0.464458,0.441767,-1.16833,0.196324,1.29783,-1.74036,-3.0125,1.29783,-1.76745,-3.0125,0.44301,-0.751412,0.18911,-0.118684,-0.526671,0.740436,-0.225169,1
1.25815,-1.14015,-2.39984,-0.951298,2.21982,2.08627,-1.60033,1.25815,-1.14015,-2.39984,-0.951298,2.21982,2.01062,-1.60033,1.21919,-1.06438,-2.40799,-0.934023,2.27303,2.01203,-1.57663,0.420753,-0.857505,0.420225,-0.0179887,-0.902847,-0.000527299,-0.366019,0.420753,-0.857505,0.420225,-0.0179887,-0.902847,-0.000527299,-0.366019,-0.0048111,-0.663531,0.605633,0.977894,-0.113635,0.0916271,0.149715,0.380116,-0.128014,-0.492641,0.454965,-1.18497,0.165856,1.31977,-1.66425,-3.04678,1.31977,-1.75638,-3.04678,0.3896,-0.757703,0.0815279,-0.172752,-0.532074,0.742398,-0.236943,1
1.25648,-1.14924,-2.41247,-0.959156,2.21067,2.08624,-1.60436,1.25648,-1.14924,-2.41247,-0.959156,2.21067,2.01062,-1.60436,1.22347,-1.07269,-2.40395,-0.934339,2.26404,2.01204,-1.58028,0.437111,-0.822989,0.401122,-0.0392733,-0.8965,0.00197744,-0.363658,0.437111,-0.822989,0.401122,-0.0392733,-0.8965,0.00197744,-0.363658,-0.000922654,-0.664884,0.600849,0.977686,-0.111685,0.0917181,0.152461,0.396341,-0.114972,-0.480131,0.468106,-1.20205,0.134118,1.31405,-1.70792,-3.17377,1.31405,-1.73659,-3.17377,0.330062,-0.765554,-0.0851431,-0.248173,-0.533716,0.741978,-0.240806,1
1.25221,-1.1586,-2.4236,-0.966879,2.20168,2.08591,-1.6073,1.25221,-1.1586,-2.4236,-0.966879,2.20168,2.01062,-1.6073,1.22806,-1.08103,-2.40048,-0.935431,2.25516,2.01203,-1.5839,0.463441,-0.836004,0.321533,-0.134466,-0.886414,-0.00104264,-0.363467,0.463441,-0.836004,0.321533,-0.134466,-0.886414,-0.00104264,-0.363467,0.00326127,-0.666218,0.595719,0.977455,-0.109326,0.0919135,0.155505,0.422512,-0.111732,-0.53053,0.480988,-1.21918,0.10194,1.28826,-1.7132,-3.21784,1.28826,-1.71631,-3.21784,0.241488,-0.775664,-0.231211,-0.314488,-0.53485,0.738736,-0.233975,1
