Afshin1997/kuka_rl_ros2/src/catch_and_throw/output_files/tm/idealpd_6s/tm_received_joint_target_np.csv
joint_0,joint_1,joint_2,joint_3,joint_4,joint_5,joint_6
7.637184858322143555e-01,1.199808716773986816e-02,1.302346467971801758e+00,1.239213824272155762e+00,1.677546977996826172e+00,-9.690576195716857910e-01,1.628325462341308594e+00
7.539997100830078125e-01,2.230572327971458435e-02,1.301421761512756348e+00,1.235974669456481934e+00,1.682893753051757812e+00,-9.741253256797790527e-01,1.629703283309936523e+00
7.521289587020874023e-01,2.563605830073356628e-02,1.301159143447875977e+00,1.234188795089721680e+00,1.683146595954895020e+00,-9.740710258483886719e-01,1.629807949066162109e+00
7.517685294151306152e-01,2.641065791249275208e-02,1.300612568855285645e+00,1.233873367309570312e+00,1.683146357536315918e+00,-9.740146398544311523e-01,1.629818201065063477e+00
7.516406774520874023e-01,2.646388486027717590e-02,1.300502657890319824e+00,1.233762741088867188e+00,1.683123946189880371e+00,-9.740146994590759277e-01,1.629809617996215820e+00
7.515327930450439453e-01,2.636688947677612305e-02,1.300686120986938477e+00,1.233639717102050781e+00,1.683108329772949219e+00,-9.740295410156250000e-01,1.629800438880920410e+00
7.514173984527587891e-01,2.624510601162910461e-02,1.300993919372558594e+00,1.233499407768249512e+00,1.683099150657653809e+00,-9.740443229675292969e-01,1.629792690277099609e+00
7.512964606285095215e-01,2.611676231026649475e-02,1.301339626312255859e+00,1.233353137969970703e+00,1.683092117309570312e+00,-9.740560054779052734e-01,1.629785656929016113e+00
7.511739134788513184e-01,2.598216757178306580e-02,1.301704406738281250e+00,1.233197569847106934e+00,1.683086395263671875e+00,-9.740703701972961426e-01,1.629779458045959473e+00
7.510535717010498047e-01,2.583226561546325684e-02,1.302060961723327637e+00,1.233045220375061035e+00,1.683080554008483887e+00,-9.740855097770690918e-01,1.629773378372192383e+00
7.509321570396423340e-01,2.567005157470703125e-02,1.302420854568481445e+00,1.232883095741271973e+00,1.683074951171875000e+00,-9.741033315658569336e-01,1.629767894744873047e+00
7.508113980293273926e-01,2.549004927277565002e-02,1.302763342857360840e+00,1.232723593711853027e+00,1.683068156242370605e+00,-9.741209149360656738e-01,1.629762291908264160e+00
7.506918907165527344e-01,2.529093995690345764e-02,1.303097605705261230e+00,1.232560992240905762e+00,1.683060765266418457e+00,-9.741416573524475098e-01,1.629756808280944824e+00
7.505735158920288086e-01,2.507866919040679932e-02,1.303434133529663086e+00,1.232390761375427246e+00,1.683054089546203613e+00,-9.741660952568054199e-01,1.629751563072204590e+00
7.504578828811645508e-01,2.485786378383636475e-02,1.303767085075378418e+00,1.232224464416503906e+00,1.683046698570251465e+00,-9.741895794868469238e-01,1.629746079444885254e+00
7.503434419631958008e-01,2.463354542851448059e-02,1.304118514060974121e+00,1.232053160667419434e+00,1.683039069175720215e+00,-9.742140769958496094e-01,1.629740715026855469e+00
7.502350807189941406e-01,2.441661804914474487e-02,1.304483771324157715e+00,1.231876254081726074e+00,1.683031916618347168e+00,-9.742426276206970215e-01,1.629735827445983887e+00
7.501325011253356934e-01,2.421011403203010559e-02,1.304853558540344238e+00,1.231698632240295410e+00,1.683025121688842773e+00,-9.742721319198608398e-01,1.629730463027954102e+00
7.500333786010742188e-01,2.401927858591079712e-02,1.305236697196960449e+00,1.231516480445861816e+00,1.683018207550048828e+00,-9.743010401725769043e-01,1.629725217819213867e+00
7.499416470527648926e-01,2.384176477789878845e-02,1.305617332458496094e+00,1.231343746185302734e+00,1.683010578155517578e+00,-9.743281602859497070e-01,1.629719734191894531e+00
7.498545646667480469e-01,2.368065714836120605e-02,1.306020736694335938e+00,1.231168150901794434e+00,1.683003544807434082e+00,-9.743552207946777344e-01,1.629714727401733398e+00
7.497729659080505371e-01,2.353270351886749268e-02,1.306428074836730957e+00,1.231000542640686035e+00,1.682996630668640137e+00,-9.743796586990356445e-01,1.629709243774414062e+00
7.496954798698425293e-01,2.340088784694671631e-02,1.306844115257263184e+00,1.230836749076843262e+00,1.682989478111267090e+00,-9.744018316268920898e-01,1.629703998565673828e+00
7.496219277381896973e-01,2.328249067068099976e-02,1.307280898094177246e+00,1.230677247047424316e+00,1.682982683181762695e+00,-9.744220376014709473e-01,1.629698872566223145e+00
7.495512366294860840e-01,2.317892014980316162e-02,1.307733774185180664e+00,1.230518579483032227e+00,1.682975888252258301e+00,-9.744405150413513184e-01,1.629694104194641113e+00
7.494831085205078125e-01,2.308678999543190002e-02,1.308216929435729980e+00,1.230360865592956543e+00,1.682970404624938965e+00,-9.744585156440734863e-01,1.629689455032348633e+00
7.494159340858459473e-01,2.300949022173881531e-02,1.308714389801025391e+00,1.230209827423095703e+00,1.682964801788330078e+00,-9.744728207588195801e-01,1.629685163497924805e+00
7.493508458137512207e-01,2.294119819998741150e-02,1.309241294860839844e+00,1.230061054229736328e+00,1.682959198951721191e+00,-9.744839072227478027e-01,1.629680275917053223e+00
7.492859959602355957e-01,2.288914471864700317e-02,1.309816122055053711e+00,1.229918360710144043e+00,1.682955026626586914e+00,-9.744952917098999023e-01,1.629676461219787598e+00
7.492213845252990723e-01,2.285124734044075012e-02,1.310437560081481934e+00,1.229783892631530762e+00,1.682952523231506348e+00,-9.745042324066162109e-01,1.629672646522521973e+00
7.491561174392700195e-01,2.282774820923805237e-02,1.311102271080017090e+00,1.229664564132690430e+00,1.682951331138610840e+00,-9.745093584060668945e-01,1.629669070243835449e+00
7.490879297256469727e-01,2.281957492232322693e-02,1.311850190162658691e+00,1.229550838470458984e+00,1.682952523231506348e+00,-9.745104312896728516e-01,1.629665851593017578e+00
7.490179538726806641e-01,2.282530441880226135e-02,1.312686562538146973e+00,1.229445695877075195e+00,1.682956218719482422e+00,-9.745096564292907715e-01,1.629663228988647461e+00
7.489460706710815430e-01,2.284026145935058594e-02,1.313611388206481934e+00,1.229355812072753906e+00,1.682962179183959961e+00,-9.745047688484191895e-01,1.629660367965698242e+00
7.488681077957153320e-01,2.287215739488601685e-02,1.314691781997680664e+00,1.229269862174987793e+00,1.682972431182861328e+00,-9.744973182678222656e-01,1.629658818244934082e+00
7.487848997116088867e-01,2.291565760970115662e-02,1.315947890281677246e+00,1.229202151298522949e+00,1.682986736297607422e+00,-9.744849801063537598e-01,1.629657626152038574e+00
7.486960291862487793e-01,2.296917513012886047e-02,1.317449212074279785e+00,1.229150533676147461e+00,1.683006525039672852e+00,-9.744684696197509766e-01,1.629657030105590820e+00
7.485964894294738770e-01,2.303721755743026733e-02,1.319313526153564453e+00,1.229114532470703125e+00,1.683033823966979980e+00,-9.744469523429870605e-01,1.629657745361328125e+00
7.484841942787170410e-01,2.311490476131439209e-02,1.321742177009582520e+00,1.229105949401855469e+00,1.683071970939636230e+00,-9.744194746017456055e-01,1.629660010337829590e+00
7.483537793159484863e-01,2.321198582649230957e-02,1.325013399124145508e+00,1.229134678840637207e+00,1.683123469352722168e+00,-9.743794202804565430e-01,1.629664182662963867e+00
7.481977343559265137e-01,2.334101870656013489e-02,1.329106450080871582e+00,1.229209542274475098e+00,1.683195233345031738e+00,-9.743269681930541992e-01,1.629672288894653320e+00
7.480166554450988770e-01,2.348513901233673096e-02,1.333501458168029785e+00,1.229334235191345215e+00,1.683285117149353027e+00,-9.742585420608520508e-01,1.629682779312133789e+00
7.478264570236206055e-01,2.361416071653366089e-02,1.337661147117614746e+00,1.229476928710937500e+00,1.683379650115966797e+00,-9.741802811622619629e-01,1.629692554473876953e+00
7.476411461830139160e-01,2.371444180607795715e-02,1.341259717941284180e+00,1.229576230049133301e+00,1.683467268943786621e+00,-9.741038680076599121e-01,1.629699826240539551e+00
7.474688291549682617e-01,2.378519997000694275e-02,1.344229102134704590e+00,1.229588985443115234e+00,1.683542370796203613e+00,-9.740471243858337402e-01,1.629705667495727539e+00
7.473123073577880859e-01,2.380871400237083435e-02,1.346618771553039551e+00,1.229580402374267578e+00,1.683603048324584961e+00,-9.740118980407714844e-01,1.629707694053649902e+00
7.471712231636047363e-01,2.376657351851463318e-02,1.348534464836120605e+00,1.229577779769897461e+00,1.683653593063354492e+00,-9.739914536476135254e-01,1.629709720611572266e+00
7.470451593399047852e-01,2.366036176681518555e-02,1.350079059600830078e+00,1.229567885398864746e+00,1.683695793151855469e+00,-9.739847779273986816e-01,1.629711270332336426e+00
7.469317317008972168e-01,2.349951490759849548e-02,1.351361989974975586e+00,1.229549884796142578e+00,1.683731913566589355e+00,-9.739903807640075684e-01,1.629711747169494629e+00
7.468265295028686523e-01,2.329701557755470276e-02,1.352453947067260742e+00,1.229518890380859375e+00,1.683763027191162109e+00,-9.740018844604492188e-01,1.629711151123046875e+00
7.467256188392639160e-01,2.306635677814483643e-02,1.353403687477111816e+00,1.229475498199462891e+00,1.683790445327758789e+00,-9.740163683891296387e-01,1.629710435867309570e+00
7.466287016868591309e-01,2.281025424599647522e-02,1.354239940643310547e+00,1.229421496391296387e+00,1.683814883232116699e+00,-9.740332961082458496e-01,1.629709482192993164e+00
7.465342879295349121e-01,2.252378687262535095e-02,1.354981064796447754e+00,1.229355454444885254e+00,1.683837175369262695e+00,-9.740509390830993652e-01,1.629707813262939453e+00
7.464390993118286133e-01,2.221178263425827026e-02,1.355655431747436523e+00,1.229276180267333984e+00,1.683858156204223633e+00,-9.740704298019409180e-01,1.629706263542175293e+00
7.463452219963073730e-01,2.186536602675914764e-02,1.356260657310485840e+00,1.229183793067932129e+00,1.683876156806945801e+00,-9.740882515907287598e-01,1.629703640937805176e+00
7.462493777275085449e-01,2.148394845426082611e-02,1.356820702552795410e+00,1.229078531265258789e+00,1.683893322944641113e+00,-9.741100668907165527e-01,1.629701018333435059e+00
7.461519241333007812e-01,2.107074297964572906e-02,1.357344269752502441e+00,1.228960275650024414e+00,1.683910131454467773e+00,-9.741320610046386719e-01,1.629698038101196289e+00
7.460560202598571777e-01,2.063619159162044525e-02,1.357822775840759277e+00,1.228833794593811035e+00,1.683924436569213867e+00,-9.741511940956115723e-01,1.629694581031799316e+00
7.459599375724792480e-01,2.018909342586994171e-02,1.358267664909362793e+00,1.228704571723937988e+00,1.683937668800354004e+00,-9.741719365119934082e-01,1.629691123962402344e+00
7.458660602569580078e-01,1.972533576190471649e-02,1.358675122261047363e+00,1.228572845458984375e+00,1.683949112892150879e+00,-9.741910696029663086e-01,1.629686951637268066e+00
7.457723021507263184e-01,1.925022713840007782e-02,1.359062194824218750e+00,1.228448748588562012e+00,1.683960318565368652e+00,-9.742088913917541504e-01,1.629683375358581543e+00
7.456804513931274414e-01,1.875962130725383759e-02,1.359421849250793457e+00,1.228330016136169434e+00,1.683969616889953613e+00,-9.742228388786315918e-01,1.629679083824157715e+00
7.455884218215942383e-01,1.825683191418647766e-02,1.359769344329833984e+00,1.228223085403442383e+00,1.683979034423828125e+00,-9.742370843887329102e-01,1.629675269126892090e+00
7.454950809478759766e-01,1.773948967456817627e-02,1.360106945037841797e+00,1.228129506111145020e+00,1.683988571166992188e+00,-9.742497801780700684e-01,1.629672169685363770e+00
7.454045414924621582e-01,1.719880290329456329e-02,1.360432386398315430e+00,1.228032946586608887e+00,1.683997154235839844e+00,-9.742597937583923340e-01,1.629668593406677246e+00
7.453156113624572754e-01,1.664120517671108246e-02,1.360757231712341309e+00,1.227930903434753418e+00,1.684006094932556152e+00,-9.742710590362548828e-01,1.629665493965148926e+00
7.452289462089538574e-01,1.606208086013793945e-02,1.361085295677185059e+00,1.227826118469238281e+00,1.684015750885009766e+00,-9.742838144302368164e-01,1.629662394523620605e+00
7.451438903808593750e-01,1.546199433505535126e-02,1.361408352851867676e+00,1.227716326713562012e+00,1.684025406837463379e+00,-9.742959737777709961e-01,1.629659652709960938e+00
7.450608015060424805e-01,1.484211161732673645e-02,1.361728429794311523e+00,1.227604627609252930e+00,1.684035301208496094e+00,-9.743083119392395020e-01,1.629657149314880371e+00
7.449807524681091309e-01,1.419177930802106857e-02,1.362043857574462891e+00,1.227487921714782715e+00,1.684045076370239258e+00,-9.743199348449707031e-01,1.629654169082641602e+00
7.449014782905578613e-01,1.351932808756828308e-02,1.362362742424011230e+00,1.227370738983154297e+00,1.684055447578430176e+00,-9.743328094482421875e-01,1.629652023315429688e+00
7.448232173919677734e-01,1.281222328543663025e-02,1.362680077552795410e+00,1.227249860763549805e+00,1.684066653251647949e+00,-9.743451476097106934e-01,1.629650115966796875e+00
7.447474002838134766e-01,1.207143627107143402e-02,1.362998247146606445e+00,1.227125167846679688e+00,1.684077978134155273e+00,-9.743577241897583008e-01,1.629648089408874512e+00
7.446721792221069336e-01,1.128651015460491180e-02,1.363322138786315918e+00,1.226998209953308105e+00,1.684090018272399902e+00,-9.743701815605163574e-01,1.629646539688110352e+00
7.445977330207824707e-01,1.046456396579742432e-02,1.363651394844055176e+00,1.226870059967041016e+00,1.684102416038513184e+00,-9.743832945823669434e-01,1.629645228385925293e+00
7.445254325866699219e-01,9.599374607205390930e-03,1.363989949226379395e+00,1.226744890213012695e+00,1.684115290641784668e+00,-9.743970632553100586e-01,1.629643917083740234e+00
7.444539666175842285e-01,8.689301088452339172e-03,1.364338040351867676e+00,1.226621389389038086e+00,1.684128284454345703e+00,-9.744102358818054199e-01,1.629642724990844727e+00
7.443842887878417969e-01,7.735956460237503052e-03,1.364699840545654297e+00,1.226502656936645508e+00,1.684141635894775391e+00,-9.744249582290649414e-01,1.629641652107238770e+00
7.443159222602844238e-01,6.733783520758152008e-03,1.365075588226318359e+00,1.226388931274414062e+00,1.684155106544494629e+00,-9.744397401809692383e-01,1.629640579223632812e+00
7.442481517791748047e-01,5.673274397850036621e-03,1.365471839904785156e+00,1.226281642913818359e+00,1.684169530868530273e+00,-9.744564294815063477e-01,1.629639983177185059e+00
7.441812753677368164e-01,4.541998729109764099e-03,1.365893483161926270e+00,1.226183295249938965e+00,1.684184670448303223e+00,-9.744738340377807617e-01,1.629639387130737305e+00
7.441153526306152344e-01,3.340316005051136017e-03,1.366343379020690918e+00,1.226100802421569824e+00,1.684199690818786621e+00,-9.744925498962402344e-01,1.629639148712158203e+00
7.440496087074279785e-01,2.055354416370391846e-03,1.366825342178344727e+00,1.226039052009582520e+00,1.684216499328613281e+00,-9.745159745216369629e-01,1.629639506340026855e+00
7.439844608306884766e-01,6.679026409983634949e-04,1.367324590682983398e+00,1.225989699363708496e+00,1.684235095977783203e+00,-9.745420217514038086e-01,1.629640579223632812e+00
7.439208626747131348e-01,-8.439347147941589355e-04,1.367837309837341309e+00,1.225949406623840332e+00,1.684253692626953125e+00,-9.745703935623168945e-01,1.629641771316528320e+00
7.438573837280273438e-01,-2.503991592675447464e-03,1.368375897407531738e+00,1.225934147834777832e+00,1.684274435043334961e+00,-9.746051430702209473e-01,1.629644513130187988e+00
7.437942624092102051e-01,-4.360958002507686615e-03,1.368945121765136719e+00,1.225942134857177734e+00,1.684297680854797363e+00,-9.746464490890502930e-01,1.629648327827453613e+00
7.437316179275512695e-01,-6.492160260677337646e-03,1.369557261466979980e+00,1.225980520248413086e+00,1.684324264526367188e+00,-9.746964573860168457e-01,1.629653692245483398e+00
7.436673045158386230e-01,-8.996626362204551697e-03,1.370227098464965820e+00,1.226054787635803223e+00,1.684354424476623535e+00,-9.747572541236877441e-01,1.629661798477172852e+00
7.436011433601379395e-01,-1.184040680527687073e-02,1.370972514152526855e+00,1.226167559623718262e+00,1.684390902519226074e+00,-9.748295545578002930e-01,1.629673480987548828e+00
7.435302734375000000e-01,-1.479764655232429504e-02,1.371792674064636230e+00,1.226332426071166992e+00,1.684437394142150879e+00,-9.749114513397216797e-01,1.629690408706665039e+00
7.434573173522949219e-01,-1.762651279568672180e-02,1.372635126113891602e+00,1.226477146148681641e+00,1.684488534927368164e+00,-9.749867916107177734e-01,1.629708409309387207e+00
7.433868646621704102e-01,-2.012146264314651489e-02,1.373438119888305664e+00,1.226518988609313965e+00,1.684538483619689941e+00,-9.750485420227050781e-01,1.629724740982055664e+00
7.433237433433532715e-01,-2.221881225705146790e-02,1.374155521392822266e+00,1.226418852806091309e+00,1.684582829475402832e+00,-9.750931859016418457e-01,1.629737019538879395e+00
7.432678937911987305e-01,-2.395192533731460571e-02,1.374771952629089355e+00,1.226189494132995605e+00,1.684620857238769531e+00,-9.751214981079101562e-01,1.629744887351989746e+00
7.432198524475097656e-01,-2.541148290038108826e-02,1.375276088714599609e+00,1.225880980491638184e+00,1.684652209281921387e+00,-9.751393198966979980e-01,1.629749059677124023e+00
7.431781888008117676e-01,-2.667335793375968933e-02,1.375691056251525879e+00,1.225535273551940918e+00,1.684678077697753906e+00,-9.751494526863098145e-01,1.629750967025756836e+00
7.431419491767883301e-01,-2.779213897883892059e-02,1.376043677330017090e+00,1.225163102149963379e+00,1.684700012207031250e+00,-9.751550555229187012e-01,1.629751443862915039e+00
7.431103587150573730e-01,-2.881666459143161774e-02,1.376350998878479004e+00,1.224757790565490723e+00,1.684718847274780273e+00,-9.751568436622619629e-01,1.629749774932861328e+00
7.430798411369323730e-01,-2.976389415562152863e-02,1.376630783081054688e+00,1.224335908889770508e+00,1.684736490249633789e+00,-9.751563668251037598e-01,1.629748225212097168e+00
7.430530786514282227e-01,-3.065899573266506195e-02,1.376885056495666504e+00,1.223880171775817871e+00,1.684752345085144043e+00,-9.751538038253784180e-01,1.629745125770568848e+00
7.430275082588195801e-01,-3.150579333305358887e-02,1.377123355865478516e+00,1.223408937454223633e+00,1.684767365455627441e+00,-9.751491546630859375e-01,1.629741668701171875e+00
7.430040240287780762e-01,-3.230822831392288208e-02,1.377343177795410156e+00,1.222921371459960938e+00,1.684781074523925781e+00,-9.751420617103576660e-01,1.629737257957458496e+00
7.429811358451843262e-01,-3.306741267442703247e-02,1.377548098564147949e+00,1.222430944442749023e+00,1.684794306755065918e+00,-9.751335382461547852e-01,1.629732847213745117e+00
7.429642677307128906e-01,-3.379526361823081970e-02,1.377722501754760742e+00,1.221894025802612305e+00,1.684802412986755371e+00,-9.751217961311340332e-01,1.629724264144897461e+00
7.429465055465698242e-01,-3.444328159093856812e-02,1.377841234207153320e+00,1.221291780471801758e+00,1.684805274009704590e+00,-9.751090407371520996e-01,1.629717469215393066e+00
7.429159283638000488e-01,-3.494454547762870789e-02,1.377934932708740234e+00,1.220875144004821777e+00,1.684824347496032715e+00,-9.751150608062744141e-01,1.629735350608825684e+00
7.428963184356689453e-01,-3.542334586381912231e-02,1.378067851066589355e+00,1.220924735069274902e+00,1.684878110885620117e+00,-9.751602411270141602e-01,1.629782915115356445e+00
7.428326010704040527e-01,-3.584726527333259583e-02,1.378398537635803223e+00,1.221906661987304688e+00,1.685025811195373535e+00,-9.752703905105590820e-01,1.629914879798889160e+00
7.426767945289611816e-01,-3.606142848730087280e-02,1.379027724266052246e+00,1.224464058876037598e+00,1.685362577438354492e+00,-9.755153059959411621e-01,1.630217313766479492e+00
7.423707842826843262e-01,-3.585049882531166077e-02,1.380006194114685059e+00,1.229240655899047852e+00,1.686022758483886719e+00,-9.760602712631225586e-01,1.630837082862854004e+00
7.418731451034545898e-01,-3.547307848930358887e-02,1.381266117095947266e+00,1.234591603279113770e+00,1.687088251113891602e+00,-9.771453738212585449e-01,1.631892919540405273e+00
7.414082884788513184e-01,-3.366385027766227722e-02,1.382925748825073242e+00,1.238975882530212402e+00,1.688543677330017090e+00,-9.788526296615600586e-01,1.633412003517150879e+00
7.410109639167785645e-01,-2.954109013080596924e-02,1.384441375732421875e+00,1.242031455039978027e+00,1.690352559089660645e+00,-9.812230467796325684e-01,1.635432600975036621e+00
7.406634688377380371e-01,-2.114789932966232300e-02,1.385475277900695801e+00,1.244189739227294922e+00,1.692521214485168457e+00,-9.839034676551818848e-01,1.637930393218994141e+00
7.403688430786132812e-01,-3.946098033338785172e-03,1.386154174804687500e+00,1.244868159294128418e+00,1.695056200027465820e+00,-9.869099855422973633e-01,1.640893697738647461e+00
7.400319576263427734e-01,1.454899180680513382e-02,1.386912822723388672e+00,1.243649840354919434e+00,1.697919487953186035e+00,-9.901690483093261719e-01,1.644346594810485840e+00
7.397148013114929199e-01,2.456517890095710754e-02,1.387936472892761230e+00,1.241675615310668945e+00,1.701138854026794434e+00,-9.937332868576049805e-01,1.648257136344909668e+00
7.393422722816467285e-01,2.812626212835311890e-02,1.389167428016662598e+00,1.239838480949401855e+00,1.704758286476135254e+00,-9.976366162300109863e-01,1.652573227882385254e+00
7.388594746589660645e-01,2.910654991865158081e-02,1.390931367874145508e+00,1.239054322242736816e+00,1.708776593208312988e+00,-1.001843929290771484e+00,1.657244086265563965e+00
7.383406162261962891e-01,2.921017445623874664e-02,1.392935752868652344e+00,1.239683389663696289e+00,1.713163614273071289e+00,-1.006260037422180176e+00,1.662197351455688477e+00
7.378094792366027832e-01,2.908117882907390594e-02,1.395139217376708984e+00,1.241236090660095215e+00,1.717880487442016602e+00,-1.010846495628356934e+00,1.667384386062622070e+00
7.372814416885375977e-01,2.885571494698524475e-02,1.397516012191772461e+00,1.243383407592773438e+00,1.722868084907531738e+00,-1.015540957450866699e+00,1.672744750976562500e+00
7.367433309555053711e-01,2.831434458494186401e-02,1.399989128112792969e+00,1.245933771133422852e+00,1.728110432624816895e+00,-1.020384311676025391e+00,1.678226590156555176e+00
7.361837029457092285e-01,2.757230401039123535e-02,1.402571439743041992e+00,1.248512148857116699e+00,1.733571887016296387e+00,-1.025366902351379395e+00,1.683796882629394531e+00
7.355825901031494141e-01,2.686203643679618835e-02,1.405334949493408203e+00,1.250875592231750488e+00,1.739197969436645508e+00,-1.030376553535461426e+00,1.689423918724060059e+00
7.349118590354919434e-01,2.607865072786808014e-02,1.408194541931152344e+00,1.253119587898254395e+00,1.744976878166198730e+00,-1.035399675369262695e+00,1.695086121559143066e+00
7.341825366020202637e-01,2.491123601794242859e-02,1.411027312278747559e+00,1.255295038223266602e+00,1.750867486000061035e+00,-1.040541410446166992e+00,1.700782895088195801e+00
7.334328889846801758e-01,2.360492013394832611e-02,1.413901805877685547e+00,1.257142305374145508e+00,1.756785154342651367e+00,-1.045770525932312012e+00,1.706502676010131836e+00
7.326440215110778809e-01,2.245952188968658447e-02,1.416887879371643066e+00,1.258730888366699219e+00,1.762749075889587402e+00,-1.050995588302612305e+00,1.712248086929321289e+00
7.318187355995178223e-01,2.134801819920539856e-02,1.419931530952453613e+00,1.260252594947814941e+00,1.768775105476379395e+00,-1.056228756904602051e+00,1.718017458915710449e+00
7.309606075286865234e-01,1.991078816354274750e-02,1.422944903373718262e+00,1.261592268943786621e+00,1.774813055992126465e+00,-1.061571955680847168e+00,1.723812222480773926e+00
7.300530672073364258e-01,1.830591261386871338e-02,1.425963878631591797e+00,1.262876033782958984e+00,1.780867815017700195e+00,-1.067023634910583496e+00,1.729639887809753418e+00
7.291036248207092285e-01,1.710886321961879730e-02,1.429140210151672363e+00,1.264173150062561035e+00,1.786966085433959961e+00,-1.072440624237060547e+00,1.735503911972045898e+00
7.281200289726257324e-01,1.587520726025104523e-02,1.432414770126342773e+00,1.265424966812133789e+00,1.793080568313598633e+00,-1.077857136726379395e+00,1.741407752037048340e+00
7.271227836608886719e-01,1.397442258894443512e-02,1.435585498809814453e+00,1.266711831092834473e+00,1.799186587333679199e+00,-1.083481311798095703e+00,1.747348666191101074e+00
7.261291146278381348e-01,1.243075542151927948e-02,1.438842654228210449e+00,1.267784357070922852e+00,1.805250883102416992e+00,-1.089136719703674316e+00,1.753332734107971191e+00
7.250908017158508301e-01,1.137012988328933716e-02,1.442214250564575195e+00,1.268799424171447754e+00,1.811311841011047363e+00,-1.094685673713684082e+00,1.759362339973449707e+00
7.239611744880676270e-01,9.649287909269332886e-03,1.445504069328308105e+00,1.269980669021606445e+00,1.817378401756286621e+00,-1.100354433059692383e+00,1.765443682670593262e+00
7.227983474731445312e-01,7.353439927101135254e-03,1.448719739913940430e+00,1.271293759346008301e+00,1.823384404182434082e+00,-1.106199026107788086e+00,1.771562337875366211e+00
7.216136455535888672e-01,5.686178803443908691e-03,1.452094435691833496e+00,1.272512912750244141e+00,1.829379558563232422e+00,-1.111949324607849121e+00,1.777737379074096680e+00
7.203797698020935059e-01,3.969762474298477173e-03,1.455545544624328613e+00,1.273813247680664062e+00,1.835367202758789062e+00,-1.117679953575134277e+00,1.783955931663513184e+00
7.191042900085449219e-01,1.455940306186676025e-03,1.458887577056884766e+00,1.275244593620300293e+00,1.841270923614501953e+00,-1.123625993728637695e+00,1.790207028388977051e+00
7.178044915199279785e-01,-1.135114580392837524e-03,1.462157249450683594e+00,1.276566028594970703e+00,1.847084879875183105e+00,-1.129635453224182129e+00,1.796494841575622559e+00
7.164336442947387695e-01,-3.170656040310859680e-03,1.465485811233520508e+00,1.277599811553955078e+00,1.852870345115661621e+00,-1.135452747344970703e+00,1.802845001220703125e+00
7.149485945701599121e-01,-6.210207939147949219e-03,1.468712806701660156e+00,1.279136776924133301e+00,1.858673930168151855e+00,-1.141411781311035156e+00,1.809226870536804199e+00
7.134475708007812500e-01,-1.026235613971948624e-02,1.471856117248535156e+00,1.280992507934570312e+00,1.864380955696105957e+00,-1.147595286369323730e+00,1.815633416175842285e+00
7.119544744491577148e-01,-1.462962757796049118e-02,1.475148916244506836e+00,1.282225012779235840e+00,1.869990110397338867e+00,-1.153629541397094727e+00,1.822086811065673828e+00
7.103699445724487305e-01,-2.018763497471809387e-02,1.478323698043823242e+00,1.283527016639709473e+00,1.875618338584899902e+00,-1.159639716148376465e+00,1.828579068183898926e+00
7.087399959564208984e-01,-2.850118651986122131e-02,1.481096744537353516e+00,1.285459876060485840e+00,1.881159067153930664e+00,-1.165889739990234375e+00,1.835080385208129883e+00
7.071387767791748047e-01,-3.787058591842651367e-02,1.483930587768554688e+00,1.286800384521484375e+00,1.886595249176025391e+00,-1.172066926956176758e+00,1.841616392135620117e+00
7.054802179336547852e-01,-4.503277689218521118e-02,1.486771702766418457e+00,1.287677764892578125e+00,1.892068505287170410e+00,-1.178165197372436523e+00,1.848205447196960449e+00
7.037978172302246094e-01,-4.980697482824325562e-02,1.489275693893432617e+00,1.289165616035461426e+00,1.897495031356811523e+00,-1.184445142745971680e+00,1.854806661605834961e+00
7.021645307540893555e-01,-5.289664119482040405e-02,1.491824746131896973e+00,1.290830612182617188e+00,1.902713894844055176e+00,-1.190843105316162109e+00,1.861427068710327148e+00
7.005001902580261230e-01,-5.462665110826492310e-02,1.494866967201232910e+00,1.291875958442687988e+00,1.907939076423645020e+00,-1.197109460830688477e+00,1.868110895156860352e+00
6.987161636352539062e-01,-5.571980029344558716e-02,1.497572779655456543e+00,1.293563008308410645e+00,1.913197159767150879e+00,-1.203411340713500977e+00,1.874817609786987305e+00
6.969104409217834473e-01,-5.669540911912918091e-02,1.500123739242553711e+00,1.296053171157836914e+00,1.918322920799255371e+00,-1.209867238998413086e+00,1.881524443626403809e+00
6.950944662094116211e-01,-5.750297382473945618e-02,1.503315448760986328e+00,1.297878742218017578e+00,1.923435807228088379e+00,-1.216268777847290039e+00,1.888259649276733398e+00
6.931605339050292969e-01,-5.805788934230804443e-02,1.506215095520019531e+00,1.299735784530639648e+00,1.928621649742126465e+00,-1.222636461257934570e+00,1.895020246505737305e+00
6.911509037017822266e-01,-5.862018838524818420e-02,1.508443117141723633e+00,1.302463173866271973e+00,1.933696627616882324e+00,-1.229138135910034180e+00,1.901767492294311523e+00
6.891337037086486816e-01,-5.925783514976501465e-02,1.511084914207458496e+00,1.304978609085083008e+00,1.938699364662170410e+00,-1.235625743865966797e+00,1.908519625663757324e+00
6.870267391204833984e-01,-5.982708185911178589e-02,1.513962626457214355e+00,1.307316303253173828e+00,1.943811655044555664e+00,-1.242060422897338867e+00,1.915293574333190918e+00
6.849072575569152832e-01,-6.033586710691452026e-02,1.516506910324096680e+00,1.310182690620422363e+00,1.948884129524230957e+00,-1.248596072196960449e+00,1.922065496444702148e+00
6.828792095184326172e-01,-6.080683320760726929e-02,1.519476056098937988e+00,1.312746644020080566e+00,1.953786849975585938e+00,-1.255160570144653320e+00,1.928812265396118164e+00
6.808602213859558105e-01,-6.116087734699249268e-02,1.522235155105590820e+00,1.315048456192016602e+00,1.958675980567932129e+00,-1.261746525764465332e+00,1.935561180114746094e+00
6.788442730903625488e-01,-6.136069819331169128e-02,1.524518966674804688e+00,1.317378520965576172e+00,1.963585376739501953e+00,-1.268375158309936523e+00,1.942316532135009766e+00
6.768273711204528809e-01,-6.162676215171813965e-02,1.526744365692138672e+00,1.319846868515014648e+00,1.968407034873962402e+00,-1.274964332580566406e+00,1.949040412902832031e+00
6.747449636459350586e-01,-6.204774603247642517e-02,1.528548836708068848e+00,1.322457432746887207e+00,1.973223567008972168e+00,-1.281664967536926270e+00,1.955762028694152832e+00
6.725975871086120605e-01,-6.239727139472961426e-02,1.529101610183715820e+00,1.325118184089660645e+00,1.978112578392028809e+00,-1.288396835327148438e+00,1.962491273880004883e+00
6.704563498497009277e-01,-6.267600506544113159e-02,1.529411792755126953e+00,1.327515959739685059e+00,1.982933044433593750e+00,-1.295016646385192871e+00,1.969196557998657227e+00
6.682105064392089844e-01,-6.333115696907043457e-02,1.527092695236206055e+00,1.330459237098693848e+00,1.987709045410156250e+00,-1.301741480827331543e+00,1.975869178771972656e+00
6.659793853759765625e-01,-6.412508338689804077e-02,1.518425941467285156e+00,1.333493351936340332e+00,1.992478966712951660e+00,-1.308585524559020996e+00,1.982548832893371582e+00
6.638879776000976562e-01,-6.502340734004974365e-02,1.497151136398315430e+00,1.335338711738586426e+00,1.997046470642089844e+00,-1.315388321876525879e+00,1.989190340042114258e+00
6.620334982872009277e-01,-6.729415059089660645e-02,1.474321722984313965e+00,1.335524439811706543e+00,2.000791549682617188e+00,-1.322583556175231934e+00,1.995781421661376953e+00
6.603885889053344727e-01,-7.013311237096786499e-02,1.466408371925354004e+00,1.333483815193176270e+00,2.003507137298583984e+00,-1.329848885536193848e+00,2.002365827560424805e+00
6.586948633193969727e-01,-7.120453566312789917e-02,1.466724753379821777e+00,1.331156611442565918e+00,2.006245136260986328e+00,-1.336630344390869141e+00,2.008933782577514648e+00
6.567433476448059082e-01,-7.155240327119827271e-02,1.468607187271118164e+00,1.330592751502990723e+00,2.009327650070190430e+00,-1.343301177024841309e+00,2.015462160110473633e+00
6.546455621719360352e-01,-7.151592522859573364e-02,1.470809102058410645e+00,1.332922935485839844e+00,2.012703418731689453e+00,-1.350046753883361816e+00,2.021977901458740234e+00
6.524567008018493652e-01,-7.109235227108001709e-02,1.473489999771118164e+00,1.336519479751586914e+00,2.017288446426391602e+00,-1.356678366661071777e+00,2.028499126434326172e+00
6.501563191413879395e-01,-7.064308971166610718e-02,1.476155757904052734e+00,1.341325998306274414e+00,2.022846937179565430e+00,-1.363285779953002930e+00,2.035018205642700195e+00
6.478927135467529297e-01,-7.015217840671539307e-02,1.478692412376403809e+00,1.346977710723876953e+00,2.028620243072509766e+00,-1.369940280914306641e+00,2.041543245315551758e+00
6.457796692848205566e-01,-6.971969455480575562e-02,1.481113910675048828e+00,1.352121710777282715e+00,2.034323930740356445e+00,-1.376589894294738770e+00,2.048058032989501953e+00
6.437674164772033691e-01,-6.931003928184509277e-02,1.483287453651428223e+00,1.356402993202209473e+00,2.039756059646606445e+00,-1.383245706558227539e+00,2.054570913314819336e+00
6.418716311454772949e-01,-6.871101260185241699e-02,1.485305786132812500e+00,1.359799265861511230e+00,2.044905900955200195e+00,-1.389839410781860352e+00,2.061061620712280273e+00
6.400181055068969727e-01,-6.831782311201095581e-02,1.486978650093078613e+00,1.362658381462097168e+00,2.049983739852905273e+00,-1.396429657936096191e+00,2.067510128021240234e+00
6.381541490554809570e-01,-6.791727244853973389e-02,1.488283395767211914e+00,1.365553498268127441e+00,2.055014848709106445e+00,-1.403121709823608398e+00,2.073961257934570312e+00
6.363475322723388672e-01,-6.716731935739517212e-02,1.489575982093811035e+00,1.368100881576538086e+00,2.060024023056030273e+00,-1.409730195999145508e+00,2.080398082733154297e+00
6.345428824424743652e-01,-6.664086133241653442e-02,1.490501880645751953e+00,1.370562195777893066e+00,2.065093040466308594e+00,-1.416296839714050293e+00,2.086801767349243164e+00
6.327466964721679688e-01,-6.631290912628173828e-02,1.490889787673950195e+00,1.373102664947509766e+00,2.070198535919189453e+00,-1.422977924346923828e+00,2.093194246292114258e+00
6.310644745826721191e-01,-6.560906767845153809e-02,1.491238951683044434e+00,1.375131487846374512e+00,2.075217485427856445e+00,-1.429549694061279297e+00,2.099591732025146484e+00
6.294537782669067383e-01,-6.520465016365051270e-02,1.491197466850280762e+00,1.377028942108154297e+00,2.080190181732177734e+00,-1.436063289642333984e+00,2.105980157852172852e+00
6.278814077377319336e-01,-6.498014926910400391e-02,1.490720629692077637e+00,1.379119277000427246e+00,2.085138797760009766e+00,-1.442751169204711914e+00,2.112381219863891602e+00
6.264691352844238281e-01,-6.439201533794403076e-02,1.490220189094543457e+00,1.380854368209838867e+00,2.089915990829467773e+00,-1.449459075927734375e+00,2.118799686431884766e+00
6.251269578933715820e-01,-6.381773203611373901e-02,1.489600181579589844e+00,1.382531404495239258e+00,2.094674348831176758e+00,-1.456046819686889648e+00,2.125190258026123047e+00
6.237978339195251465e-01,-6.328552216291427612e-02,1.488710761070251465e+00,1.384422063827514648e+00,2.099456787109375000e+00,-1.462721586227416992e+00,2.131581544876098633e+00
6.225539445877075195e-01,-6.254919618368148804e-02,1.487703323364257812e+00,1.386194348335266113e+00,2.104209184646606445e+00,-1.469413399696350098e+00,2.137989044189453125e+00
6.213154792785644531e-01,-6.180875748395919800e-02,1.486634016036987305e+00,1.387943744659423828e+00,2.108979940414428711e+00,-1.475992798805236816e+00,2.144378185272216797e+00
6.200448274612426758e-01,-6.110681220889091492e-02,1.485436201095581055e+00,1.389945745468139648e+00,2.113826751708984375e+00,-1.482592463493347168e+00,2.150771617889404297e+00
6.187711358070373535e-01,-6.038084626197814941e-02,1.484165787696838379e+00,1.392038941383361816e+00,2.118691921234130859e+00,-1.489210009574890137e+00,2.157175779342651367e+00
6.174994707107543945e-01,-5.966083332896232605e-02,1.482864141464233398e+00,1.394161224365234375e+00,2.123529672622680664e+00,-1.495763778686523438e+00,2.163558959960937500e+00
6.162000298500061035e-01,-5.893965438008308411e-02,1.481533527374267578e+00,1.396329760551452637e+00,2.128366947174072266e+00,-1.502270102500915527e+00,2.169934988021850586e+00
6.148826479911804199e-01,-5.823615565896034241e-02,1.480178594589233398e+00,1.398558139801025391e+00,2.133233070373535156e+00,-1.508733272552490234e+00,2.176311969757080078e+00
6.135240197181701660e-01,-5.761507153511047363e-02,1.478836774826049805e+00,1.400890588760375977e+00,2.138136148452758789e+00,-1.515176892280578613e+00,2.182679414749145508e+00
6.121367812156677246e-01,-5.697833746671676636e-02,1.477567672729492188e+00,1.403262495994567871e+00,2.142999887466430664e+00,-1.521611452102661133e+00,2.189043998718261719e+00
6.107223033905029297e-01,-5.639180541038513184e-02,1.476367950439453125e+00,1.405690670013427734e+00,2.147902488708496094e+00,-1.527988195419311523e+00,2.195408821105957031e+00
6.092674136161804199e-01,-5.594995245337486267e-02,1.475195884704589844e+00,1.408246636390686035e+00,2.152900457382202148e+00,-1.534352898597717285e+00,2.201764583587646484e+00
6.077929139137268066e-01,-5.557522922754287720e-02,1.474061012268066406e+00,1.410835504531860352e+00,2.157868385314941406e+00,-1.540735602378845215e+00,2.208109378814697266e+00
6.063259243965148926e-01,-5.521162226796150208e-02,1.473003864288330078e+00,1.413365244865417480e+00,2.162723064422607422e+00,-1.547035336494445801e+00,2.214439392089843750e+00
6.048583388328552246e-01,-5.487129837274551392e-02,1.471976518630981445e+00,1.416010260581970215e+00,2.167647123336791992e+00,-1.553292274475097656e+00,2.220774888992309570e+00
6.034084558486938477e-01,-5.463143438100814819e-02,1.470946788787841797e+00,1.418678402900695801e+00,2.172614336013793945e+00,-1.559604883193969727e+00,2.227099418640136719e+00
6.019792556762695312e-01,-5.445712804794311523e-02,1.469962835311889648e+00,1.421246290206909180e+00,2.177478790283203125e+00,-1.565872788429260254e+00,2.233408451080322266e+00
6.005421280860900879e-01,-5.429793894290924072e-02,1.468986630439758301e+00,1.423948287963867188e+00,2.182428598403930664e+00,-1.572100281715393066e+00,2.239734649658203125e+00
5.990690588951110840e-01,-5.436408519744873047e-02,1.467881441116333008e+00,1.426798462867736816e+00,2.187530279159545898e+00,-1.578454136848449707e+00,2.246068716049194336e+00
5.976018905639648438e-01,-5.450043082237243652e-02,1.466687679290771484e+00,1.429538130760192871e+00,2.192469596862792969e+00,-1.584799647331237793e+00,2.252373218536376953e+00
5.961409807205200195e-01,-5.451694503426551819e-02,1.465456843376159668e+00,1.432312488555908203e+00,2.197369337081909180e+00,-1.591030716896057129e+00,2.258688449859619141e+00
5.946850180625915527e-01,-5.466248467564582825e-02,1.464113593101501465e+00,1.435257554054260254e+00,2.202436685562133789e+00,-1.597348451614379883e+00,2.265022039413452148e+00
5.932923555374145508e-01,-5.483575910329818726e-02,1.462717771530151367e+00,1.438065171241760254e+00,2.207324743270874023e+00,-1.603698372840881348e+00,2.271322488784790039e+00
5.919415354728698730e-01,-5.484454706311225891e-02,1.461333274841308594e+00,1.440781235694885254e+00,2.212060451507568359e+00,-1.609900355339050293e+00,2.277613639831542969e+00
5.905910134315490723e-01,-5.497288331389427185e-02,1.459877252578735352e+00,1.443733096122741699e+00,2.217036724090576172e+00,-1.616190195083618164e+00,2.283936262130737305e+00
5.892675518989562988e-01,-5.515131354331970215e-02,1.458382010459899902e+00,1.446598649024963379e+00,2.221912860870361328e+00,-1.622571587562561035e+00,2.290233373641967773e+00
5.879678130149841309e-01,-5.524106323719024658e-02,1.456903815269470215e+00,1.449314951896667480e+00,2.226627111434936523e+00,-1.628808856010437012e+00,2.296508073806762695e+00
5.866087079048156738e-01,-5.542791634798049927e-02,1.455364942550659180e+00,1.452268600463867188e+00,2.231630086898803711e+00,-1.635114669799804688e+00,2.302823543548583984e+00
5.853196978569030762e-01,-5.574969202280044556e-02,1.453762769699096680e+00,1.455210089683532715e+00,2.236614942550659180e+00,-1.641470193862915039e+00,2.309141159057617188e+00
5.840092301368713379e-01,-5.602268129587173462e-02,1.452185869216918945e+00,1.457931756973266602e+00,2.241384744644165039e+00,-1.647715687751770020e+00,2.315412998199462891e+00
5.826693177223205566e-01,-5.641731992363929749e-02,1.450532436370849609e+00,1.460831761360168457e+00,2.246352672576904297e+00,-1.653966903686523438e+00,2.321719884872436523e+00
5.813248157501220703e-01,-5.690759420394897461e-02,1.448814511299133301e+00,1.463783383369445801e+00,2.251394987106323242e+00,-1.660337805747985840e+00,2.328032255172729492e+00
5.799193382263183594e-01,-5.738882347941398621e-02,1.447121262550354004e+00,1.466531276702880859e+00,2.256224870681762695e+00,-1.666615247726440430e+00,2.334299564361572266e+00
5.785592198371887207e-01,-5.786909162998199463e-02,1.445336699485778809e+00,1.469378471374511719e+00,2.261085033416748047e+00,-1.672860741615295410e+00,2.340607404708862305e+00
5.771099925041198730e-01,-5.844055116176605225e-02,1.443464398384094238e+00,1.472394943237304688e+00,2.266153812408447266e+00,-1.679228186607360840e+00,2.346930027008056641e+00
5.756406188011169434e-01,-5.900797247886657715e-02,1.441588640213012695e+00,1.475183486938476562e+00,2.271003723144531250e+00,-1.685497641563415527e+00,2.353204488754272461e+00
5.741186141967773438e-01,-5.963563546538352966e-02,1.439642071723937988e+00,1.477987408638000488e+00,2.275871276855468750e+00,-1.691690564155578613e+00,2.359479427337646484e+00
5.725782513618469238e-01,-6.034794822335243225e-02,1.437575221061706543e+00,1.480929374694824219e+00,2.280943870544433594e+00,-1.697989106178283691e+00,2.365780591964721680e+00
5.710324048995971680e-01,-6.093243509531021118e-02,1.435536503791809082e+00,1.483656167984008789e+00,2.285795688629150391e+00,-1.704213857650756836e+00,2.372056484222412109e+00
5.695028901100158691e-01,-6.149337440729141235e-02,1.433521866798400879e+00,1.486351132392883301e+00,2.290549755096435547e+00,-1.710351467132568359e+00,2.378328800201416016e+00
5.679864287376403809e-01,-6.205749139189720154e-02,1.431437730789184570e+00,1.489298939704895020e+00,2.295504808425903320e+00,-1.716619014739990234e+00,2.384649753570556641e+00
5.663629770278930664e-01,-6.051532924175262451e-02,1.429020881652832031e+00,1.488653898239135742e+00,2.299723625183105469e+00,-1.722913026809692383e+00,2.390821218490600586e+00
5.678265690803527832e-01,-5.226247385144233704e-02,1.435967445373535156e+00,1.486893415451049805e+00,2.307383775711059570e+00,-1.728593707084655762e+00,2.397224187850952148e+00
5.664374828338623047e-01,-4.893909394741058350e-02,1.438509702682495117e+00,1.489500522613525391e+00,2.312515974044799805e+00,-1.734259843826293945e+00,2.403619527816772461e+00
5.650020241737365723e-01,-4.764761030673980713e-02,1.439402580261230469e+00,1.492396712303161621e+00,2.317556142807006836e+00,-1.740363955497741699e+00,2.409950733184814453e+00
5.635073184967041016e-01,-4.793064668774604797e-02,1.439297556877136230e+00,1.495009779930114746e+00,2.322434663772583008e+00,-1.746389865875244141e+00,2.416234970092773438e+00
5.621268749237060547e-01,-5.342746526002883911e-02,1.436254978179931641e+00,1.502080917358398438e+00,2.327558040618896484e+00,-1.753052711486816406e+00,2.422696828842163086e+00
5.603841543197631836e-01,-5.560476332902908325e-02,1.433906316757202148e+00,1.505813717842102051e+00,2.332644939422607422e+00,-1.759526968002319336e+00,2.429034948348999023e+00
5.587699413299560547e-01,-5.675835162401199341e-02,1.431379556655883789e+00,1.508627891540527344e+00,2.337514877319335938e+00,-1.765582561492919922e+00,2.435303449630737305e+00
5.572469234466552734e-01,-5.745430290699005127e-02,1.429022192955017090e+00,1.511342167854309082e+00,2.342312574386596680e+00,-1.771591544151306152e+00,2.441551685333251953e+00
5.556355714797973633e-01,-5.789654701948165894e-02,1.426947712898254395e+00,1.514638900756835938e+00,2.347276687622070312e+00,-1.777769804000854492e+00,2.447864294052124023e+00
5.542098879814147949e-01,-5.852919071912765503e-02,1.424768686294555664e+00,1.517636656761169434e+00,2.352083683013916016e+00,-1.783719301223754883e+00,2.454140901565551758e+00
5.527909398078918457e-01,-5.920848250389099121e-02,1.422568082809448242e+00,1.520748138427734375e+00,2.356816291809082031e+00,-1.789625167846679688e+00,2.460414409637451172e+00
5.513215661048889160e-01,-5.970400944352149963e-02,1.420390963554382324e+00,1.524150371551513672e+00,2.361670970916748047e+00,-1.795771121978759766e+00,2.466716766357421875e+00
5.498891472816467285e-01,-6.024336814880371094e-02,1.418311238288879395e+00,1.527262330055236816e+00,2.366495370864868164e+00,-1.801835417747497559e+00,2.472995519638061523e+00
5.482924580574035645e-01,-6.086573004722595215e-02,1.416661977767944336e+00,1.530307292938232422e+00,2.371286630630493164e+00,-1.807863950729370117e+00,2.479257822036743164e+00
5.464805960655212402e-01,-6.136427074670791626e-02,1.415596842765808105e+00,1.533546686172485352e+00,2.376237154006958008e+00,-1.814116120338439941e+00,2.485547780990600586e+00
5.446108579635620117e-01,-6.184774637222290039e-02,1.414845705032348633e+00,1.536618471145629883e+00,2.381241559982299805e+00,-1.820329189300537109e+00,2.491844654083251953e+00
5.426566600799560547e-01,-6.247386708855628967e-02,1.414356946945190430e+00,1.539644360542297363e+00,2.386180162429809570e+00,-1.826386332511901855e+00,2.498134613037109375e+00
5.405650734901428223e-01,-6.309100985527038574e-02,1.414131164550781250e+00,1.543012857437133789e+00,2.391194820404052734e+00,-1.832614779472351074e+00,2.504443407058715820e+00
5.385304689407348633e-01,-6.373404711484909058e-02,1.413809299468994141e+00,1.546414852142333984e+00,2.396235227584838867e+00,-1.838854312896728516e+00,2.510760307312011719e+00
5.366135835647583008e-01,-6.450287997722625732e-02,1.413499951362609863e+00,1.549684286117553711e+00,2.401158332824707031e+00,-1.844898343086242676e+00,2.517048358917236328e+00
5.347217917442321777e-01,-6.525058299303054810e-02,1.413574695587158203e+00,1.553094863891601562e+00,2.406088590621948242e+00,-1.851035833358764648e+00,2.523328781127929688e+00
5.329005718231201172e-01,-6.593760102987289429e-02,1.413955330848693848e+00,1.556492209434509277e+00,2.411088466644287109e+00,-1.857292413711547852e+00,2.529620409011840820e+00
5.311679244041442871e-01,-6.671618670225143433e-02,1.414433240890502930e+00,1.559638857841491699e+00,2.416008949279785156e+00,-1.863389253616333008e+00,2.535899877548217773e+00
5.293854475021362305e-01,-6.747145950794219971e-02,1.415340662002563477e+00,1.562910556793212891e+00,2.420937299728393555e+00,-1.869555711746215820e+00,2.542181968688964844e+00
5.275557637214660645e-01,-6.814917922019958496e-02,1.416585803031921387e+00,1.566304206848144531e+00,2.425952196121215820e+00,-1.875922441482543945e+00,2.548486709594726562e+00
5.257682204246520996e-01,-6.886771321296691895e-02,1.417907357215881348e+00,1.569410204887390137e+00,2.430907249450683594e+00,-1.882146477699279785e+00,2.554775476455688477e+00
5.239093303680419922e-01,-6.952127069234848022e-02,1.419750928878784180e+00,1.572486519813537598e+00,2.435827970504760742e+00,-1.888346195220947266e+00,2.561055660247802734e+00
5.219662785530090332e-01,-7.001648843288421631e-02,1.422602772712707520e+00,1.575638294219970703e+00,2.440816402435302734e+00,-1.894721984863281250e+00,2.567353487014770508e+00
5.200002193450927734e-01,-7.052514702081680298e-02,1.426739692687988281e+00,1.578601717948913574e+00,2.445793390274047852e+00,-1.900970220565795898e+00,2.573657035827636719e+00
5.179967880249023438e-01,-7.101244479417800903e-02,1.434097409248352051e+00,1.581617474555969238e+00,2.450734853744506836e+00,-1.907126784324645996e+00,2.579966306686401367e+00
5.158947110176086426e-01,-7.131206989288330078e-02,1.443053960800170898e+00,1.584939241409301758e+00,2.455751895904541016e+00,-1.913434624671936035e+00,2.586327552795410156e+00
5.139112472534179688e-01,-7.153895497322082520e-02,1.449469447135925293e+00,1.588112831115722656e+00,2.460734128952026367e+00,-1.919612050056457520e+00,2.592682361602783203e+00
5.119243860244750977e-01,-7.168605923652648926e-02,1.452875971794128418e+00,1.591549515724182129e+00,2.465689659118652344e+00,-1.925712108612060547e+00,2.599033117294311523e+00
5.101486444473266602e-01,-7.188105583190917969e-02,1.453555703163146973e+00,1.594969749450683594e+00,2.470541000366210938e+00,-1.931881308555603027e+00,2.605346441268920898e+00
5.084925293922424316e-01,-7.225503772497177124e-02,1.452640533447265625e+00,1.598259687423706055e+00,2.475379228591918945e+00,-1.937991738319396973e+00,2.611638545989990234e+00
5.068626403808593750e-01,-7.276642322540283203e-02,1.451225757598876953e+00,1.601459383964538574e+00,2.480157613754272461e+00,-1.944040060043334961e+00,2.617906570434570312e+00
5.050941109657287598e-01,-7.328905910253524780e-02,1.449877381324768066e+00,1.604750156402587891e+00,2.484953403472900391e+00,-1.950295925140380859e+00,2.624181032180786133e+00
5.032134056091308594e-01,-7.383780181407928467e-02,1.448514342308044434e+00,1.608040571212768555e+00,2.489827156066894531e+00,-1.956597208976745605e+00,2.630468845367431641e+00
5.012367963790893555e-01,-7.437023520469665527e-02,1.447446584701538086e+00,1.611332178115844727e+00,2.494698286056518555e+00,-1.962833404541015625e+00,2.636753320693969727e+00
4.991678893566131592e-01,-7.480980455875396729e-02,1.447067260742187500e+00,1.614746451377868652e+00,2.499548435211181641e+00,-1.969175934791564941e+00,2.643038511276245117e+00
4.970701038837432861e-01,-7.520470023155212402e-02,1.447167515754699707e+00,1.618200540542602539e+00,2.504430532455444336e+00,-1.975457906723022461e+00,2.649337291717529297e+00
4.949775934219360352e-01,-7.551905512809753418e-02,1.447936892509460449e+00,1.621769428253173828e+00,2.509317874908447266e+00,-1.981583476066589355e+00,2.655640125274658203e+00
4.928856492042541504e-01,-7.573156058788299561e-02,1.449672698974609375e+00,1.625525951385498047e+00,2.514169216156005859e+00,-1.987842082977294922e+00,2.661936759948730469e+00
4.907517433166503906e-01,-7.594810426235198975e-02,1.451690673828125000e+00,1.629284739494323730e+00,2.519054889678955078e+00,-1.994141459465026855e+00,2.668251037597656250e+00
4.885777235031127930e-01,-7.615785300731658936e-02,1.453819632530212402e+00,1.632987022399902344e+00,2.523983955383300781e+00,-2.000286340713500977e+00,2.674572944641113281e+00
4.863804578781127930e-01,-7.634161412715911865e-02,1.456242322921752930e+00,1.636698842048645020e+00,2.528889656066894531e+00,-2.006582975387573242e+00,2.680878877639770508e+00
4.840971529483795166e-01,-7.662209868431091309e-02,1.458489656448364258e+00,1.640280604362487793e+00,2.533810615539550781e+00,-2.010623931884765625e+00,2.687185525894165039e+00
4.817142188549041748e-01,-7.704828679561614990e-02,1.460433959960937500e+00,1.643749475479125977e+00,2.538801908493041992e+00,-2.010623931884765625e+00,2.693493843078613281e+00
4.793058335781097412e-01,-7.752452045679092407e-02,1.462501406669616699e+00,1.647290468215942383e+00,2.543765544891357422e+00,-2.010623931884765625e+00,2.699788331985473633e+00
4.768864810466766357e-01,-7.811323553323745728e-02,1.464491844177246094e+00,1.650871157646179199e+00,2.548718929290771484e+00,-2.010623931884765625e+00,2.706086397171020508e+00
4.744744002819061279e-01,-7.869234681129455566e-02,1.466330051422119141e+00,1.654420256614685059e+00,2.553694963455200195e+00,-2.010623931884765625e+00,2.712391614913940430e+00
4.713212549686431885e-01,-7.808193564414978027e-02,1.471659421920776367e+00,1.653867363929748535e+00,2.558582067489624023e+00,-2.010623931884765625e+00,2.718538522720336914e+00
4.689642786979675293e-01,-7.813187688589096069e-02,1.473757743835449219e+00,1.657029628753662109e+00,2.563379526138305664e+00,-2.010623931884765625e+00,2.724804878234863281e+00
4.668589830398559570e-01,-7.787428051233291626e-02,1.475962400436401367e+00,1.660278558731079102e+00,2.568230628967285156e+00,-2.010623931884765625e+00,2.731080293655395508e+00
4.647690653800964355e-01,-7.747443020343780518e-02,1.478310585021972656e+00,1.663480997085571289e+00,2.573078870773315430e+00,-2.010623931884765625e+00,2.737351894378662109e+00
4.615922272205352783e-01,-7.715360820293426514e-02,1.477065324783325195e+00,1.665809988975524902e+00,2.577777624130249023e+00,-2.010623931884765625e+00,2.743584871292114258e+00
4.594185352325439453e-01,-7.612912356853485107e-02,1.477894306182861328e+00,1.668267607688903809e+00,2.582578182220458984e+00,-2.010623931884765625e+00,2.749830484390258789e+00
4.572089314460754395e-01,-7.494913041591644287e-02,1.479776859283447266e+00,1.670698404312133789e+00,2.587478160858154297e+00,-2.010623931884765625e+00,2.756089210510253906e+00
4.549428522586822510e-01,-7.375958561897277832e-02,1.482046246528625488e+00,1.673147201538085938e+00,2.592364072799682617e+00,-2.010623931884765625e+00,2.762355804443359375e+00
4.527882933616638184e-01,-7.189801335334777832e-02,1.484455943107604980e+00,1.675032496452331543e+00,2.597283840179443359e+00,-2.010623931884765625e+00,2.768623113632202148e+00
4.507770538330078125e-01,-6.868341565132141113e-02,1.487019181251525879e+00,1.676361918449401855e+00,2.602183580398559570e+00,-2.010623931884765625e+00,2.774876117706298828e+00
4.488653540611267090e-01,-6.247860193252563477e-02,1.490062952041625977e+00,1.677435040473937988e+00,2.606988191604614258e+00,-2.010623931884765625e+00,2.781128406524658203e+00
4.470642209053039551e-01,-5.356179922819137573e-02,1.492768406867980957e+00,1.677924156188964844e+00,2.611766576766967773e+00,-2.010623931884765625e+00,2.787353038787841797e+00
4.455542266368865967e-01,-4.477124288678169250e-02,1.495223045349121094e+00,1.676272392272949219e+00,2.616437911987304688e+00,-2.010623931884765625e+00,2.793521165847778320e+00
4.462622404098510742e-01,-2.876439690589904785e-02,1.489809870719909668e+00,1.683616042137145996e+00,2.618237257003784180e+00,-2.010623931884765625e+00,2.799744367599487305e+00
4.455551207065582275e-01,-2.486076205968856812e-02,1.490332126617431641e+00,1.688886165618896484e+00,2.622334003448486328e+00,-2.010623931884765625e+00,2.806082963943481445e+00
4.441182911396026611e-01,-2.475683391094207764e-02,1.491796016693115234e+00,1.692593693733215332e+00,2.627046585083007812e+00,-2.010623931884765625e+00,2.812404155731201172e+00
4.422729909420013428e-01,-2.567426487803459167e-02,1.492708206176757812e+00,1.695025205612182617e+00,2.631661891937255859e+00,-2.010623931884765625e+00,2.818672180175781250e+00
4.400411844253540039e-01,-2.692772075533866882e-02,1.493904232978820801e+00,1.697110772132873535e+00,2.636274576187133789e+00,-2.010623931884765625e+00,2.824908494949340820e+00
4.375524222850799561e-01,-2.830093353986740112e-02,1.494957327842712402e+00,1.699299335479736328e+00,2.640820264816284180e+00,-2.010623931884765625e+00,2.831125736236572266e+00
4.351355433464050293e-01,-2.972875535488128662e-02,1.495772957801818848e+00,1.701236963272094727e+00,2.645303249359130859e+00,-2.010623931884765625e+00,2.837339401245117188e+00
4.327034056186676025e-01,-3.111616149544715881e-02,1.496206998825073242e+00,1.703350663185119629e+00,2.649759292602539062e+00,-2.010623931884765625e+00,2.843559980392456055e+00
4.302935898303985596e-01,-3.241669014096260071e-02,1.496703267097473145e+00,1.706046819686889648e+00,2.654366731643676758e+00,-2.010623931884765625e+00,2.849808454513549805e+00
4.279465079307556152e-01,-3.381413221359252930e-02,1.497352123260498047e+00,1.708913683891296387e+00,2.659018278121948242e+00,-2.010623931884765625e+00,2.856055021286010742e+00
4.256547689437866211e-01,-3.517614305019378662e-02,1.497781395912170410e+00,1.711573719978332520e+00,2.663601636886596680e+00,-2.010623931884765625e+00,2.862289190292358398e+00
4.234430491924285889e-01,-3.644334152340888977e-02,1.497890472412109375e+00,1.714173078536987305e+00,2.668177604675292969e+00,-2.010623931884765625e+00,2.868525743484497070e+00
4.213430285453796387e-01,-3.779238462448120117e-02,1.498606204986572266e+00,1.716524839401245117e+00,2.672735929489135742e+00,-2.010623931884765625e+00,2.874737977981567383e+00
4.194794297218322754e-01,-3.903214260935783386e-02,1.499318003654479980e+00,1.718213796615600586e+00,2.677287817001342773e+00,-2.010623931884765625e+00,2.880928754806518555e+00
4.177500307559967041e-01,-4.008112102746963501e-02,1.498967885971069336e+00,1.719303250312805176e+00,2.681849718093872070e+00,-2.010623931884765625e+00,2.887116909027099609e+00
4.160382747650146484e-01,-4.132235050201416016e-02,1.497007131576538086e+00,1.720764040946960449e+00,2.686472415924072266e+00,-2.010623931884765625e+00,2.893310308456420898e+00
4.142514765262603760e-01,-4.291127994656562805e-02,1.491302013397216797e+00,1.722725629806518555e+00,2.691052913665771484e+00,-2.010623931884765625e+00,2.899523019790649414e+00
4.123097360134124756e-01,-4.496183618903160095e-02,1.477462410926818848e+00,1.724981665611267090e+00,2.695562124252319336e+00,-2.010623931884765625e+00,2.905792713165283203e+00
4.098558127880096436e-01,-4.818294942378997803e-02,1.463096022605895996e+00,1.728094339370727539e+00,2.699961662292480469e+00,-2.010623931884765625e+00,2.912092447280883789e+00
4.073524177074432373e-01,-5.189137905836105347e-02,1.455453753471374512e+00,1.730819582939147949e+00,2.704425573348999023e+00,-2.010623931884765625e+00,2.918353796005249023e+00
4.053787291049957275e-01,-5.520381033420562744e-02,1.452204942703247070e+00,1.732348442077636719e+00,2.709045886993408203e+00,-2.010623931884765625e+00,2.924607992172241211e+00
4.034853577613830566e-01,-5.740750581026077271e-02,1.451293110847473145e+00,1.733980417251586914e+00,2.713724136352539062e+00,-2.010623931884765625e+00,2.930869340896606445e+00
4.016341567039489746e-01,-5.908092856407165527e-02,1.451754093170166016e+00,1.735504865646362305e+00,2.718351840972900391e+00,-2.010623931884765625e+00,2.932127952575683594e+00
3.997815251350402832e-01,-6.021587178111076355e-02,1.452543854713439941e+00,1.737240672111511230e+00,2.723023891448974609e+00,-2.010623931884765625e+00,2.932127952575683594e+00
3.979582488536834717e-01,-6.088379397988319397e-02,1.453319787979125977e+00,1.739163994789123535e+00,2.727807044982910156e+00,-2.010623931884765625e+00,2.932127952575683594e+00
3.961926400661468506e-01,-6.157833337783813477e-02,1.454212069511413574e+00,1.740990519523620605e+00,2.732578277587890625e+00,-2.010623931884765625e+00,2.932127952575683594e+00
3.944437503814697266e-01,-6.225002557039260864e-02,1.454947471618652344e+00,1.742786526679992676e+00,2.737340688705444336e+00,-2.010623931884765625e+00,2.932127952575683594e+00
3.927560746669769287e-01,-6.243591755628585815e-02,1.455392241477966309e+00,1.744653224945068359e+00,2.742216587066650391e+00,-2.010623931884765625e+00,2.932127952575683594e+00
3.909557759761810303e-01,-6.243415176868438721e-02,1.455740213394165039e+00,1.746678113937377930e+00,2.747120857238769531e+00,-2.010623931884765625e+00,2.932127952575683594e+00
3.891693055629730225e-01,-6.221231073141098022e-02,1.456016421318054199e+00,1.748929977416992188e+00,2.752022266387939453e+00,-2.010623931884765625e+00,2.932127952575683594e+00
3.875601887702941895e-01,-6.118152290582656860e-02,1.456207752227783203e+00,1.751667141914367676e+00,2.757072925567626953e+00,-2.010623931884765625e+00,2.932127952575683594e+00
3.861020207405090332e-01,-5.960299074649810791e-02,1.456521868705749512e+00,1.754968523979187012e+00,2.762179374694824219e+00,-2.010623931884765625e+00,2.932127952575683594e+00
3.851192295551300049e-01,-5.738025903701782227e-02,1.456990718841552734e+00,1.758398890495300293e+00,2.767253637313842773e+00,-2.010623931884765625e+00,2.932127952575683594e+00
3.848241567611694336e-01,-5.439512431621551514e-02,1.457265615463256836e+00,1.761705040931701660e+00,2.772395849227905273e+00,-2.010623931884765625e+00,2.932127952575683594e+00
3.852050304412841797e-01,-5.127921327948570251e-02,1.456789612770080566e+00,1.765215516090393066e+00,2.777537107467651367e+00,-2.010623931884765625e+00,2.932127952575683594e+00
3.863202631473541260e-01,-4.867501929402351379e-02,1.455452203750610352e+00,1.768653273582458496e+00,2.782677888870239258e+00,-2.010623931884765625e+00,2.932127952575683594e+00
3.883612453937530518e-01,-4.668403789401054382e-02,1.453273057937622070e+00,1.771705031394958496e+00,2.787899255752563477e+00,-2.010623931884765625e+00,2.932127952575683594e+00
3.908584117889404297e-01,-4.528493434190750122e-02,1.451389074325561523e+00,1.775229692459106445e+00,2.793263673782348633e+00,-2.010623931884765625e+00,2.932127952575683594e+00
3.943251967430114746e-01,-4.401983320713043213e-02,1.450223207473754883e+00,1.779369711875915527e+00,2.798568487167358398e+00,-2.010623931884765625e+00,2.932127952575683594e+00
3.997235298156738281e-01,-4.260508716106414795e-02,1.449971199035644531e+00,1.784526705741882324e+00,2.803724288940429688e+00,-2.010623931884765625e+00,2.932127952575683594e+00
4.045961499214172363e-01,-4.219802841544151306e-02,1.449547410011291504e+00,1.791458129882812500e+00,2.808507442474365234e+00,-2.010623931884765625e+00,2.932127952575683594e+00
4.080314338207244873e-01,-4.260252043604850769e-02,1.448062539100646973e+00,1.798523545265197754e+00,2.812967061996459961e+00,-2.010623931884765625e+00,2.932127952575683594e+00
4.108337759971618652e-01,-4.256003722548484802e-02,1.446062445640563965e+00,1.804785370826721191e+00,2.817445516586303711e+00,-2.010623931884765625e+00,2.932127952575683594e+00
4.149481058120727539e-01,-4.188734292984008789e-02,1.444170713424682617e+00,1.810661792755126953e+00,2.822140932083129883e+00,-2.010623931884765625e+00,2.932127952575683594e+00
4.200468361377716064e-01,-4.118566215038299561e-02,1.442893505096435547e+00,1.816147685050964355e+00,2.827150344848632812e+00,-2.010623931884765625e+00,2.932127952575683594e+00
4.222448170185089111e-01,-4.054592177271842957e-02,1.442457079887390137e+00,1.820948004722595215e+00,2.832382202148437500e+00,-2.010623931884765625e+00,2.932127952575683594e+00
4.218640029430389404e-01,-3.972532600164413452e-02,1.441743850708007812e+00,1.824946165084838867e+00,2.837623357772827148e+00,-2.010623931884765625e+00,2.932127952575683594e+00
4.202074706554412842e-01,-3.871011361479759216e-02,1.440530061721801758e+00,1.828356981277465820e+00,2.842782974243164062e+00,-2.010623931884765625e+00,2.932127952575683594e+00
4.180462062358856201e-01,-3.768970817327499390e-02,1.439100503921508789e+00,1.831449270248413086e+00,2.847888708114624023e+00,-2.010623931884765625e+00,2.932127952575683594e+00
4.156200885772705078e-01,-3.656538203358650208e-02,1.437291979789733887e+00,1.834387063980102539e+00,2.848415851593017578e+00,-2.010623931884765625e+00,2.932127952575683594e+00
4.128889143466949463e-01,-3.535333648324012756e-02,1.435165286064147949e+00,1.837258934974670410e+00,2.848415851593017578e+00,-2.010623931884765625e+00,2.932127952575683594e+00
4.103739261627197266e-01,-3.428938612341880798e-02,1.433133363723754883e+00,1.840043663978576660e+00,2.848415851593017578e+00,-2.010623931884765625e+00,2.932127952575683594e+00
4.088388085365295410e-01,-3.326521813869476318e-02,1.431393027305603027e+00,1.842879295349121094e+00,2.848415851593017578e+00,-2.010623931884765625e+00,2.932127952575683594e+00
4.081993103027343750e-01,-3.212049230933189392e-02,1.429768562316894531e+00,1.845787167549133301e+00,2.848415851593017578e+00,-2.010623931884765625e+00,2.932127952575683594e+00
4.078043699264526367e-01,-3.099414706230163574e-02,1.428296208381652832e+00,1.848762512207031250e+00,2.848415851593017578e+00,-2.010623931884765625e+00,2.932127952575683594e+00
4.077652394771575928e-01,-2.995928004384040833e-02,1.427147030830383301e+00,1.851833343505859375e+00,2.848415851593017578e+00,-2.010623931884765625e+00,2.932127952575683594e+00
4.076590538024902344e-01,-2.887406945228576660e-02,1.426110982894897461e+00,1.855011463165283203e+00,2.848415851593017578e+00,-2.010623931884765625e+00,2.932127952575683594e+00
4.070646762847900391e-01,-2.781153097748756409e-02,1.424980044364929199e+00,1.858250498771667480e+00,2.848415851593017578e+00,-2.010623931884765625e+00,2.932127952575683594e+00
4.060766100883483887e-01,-2.687762305140495300e-02,1.423760056495666504e+00,1.861526846885681152e+00,2.848415851593017578e+00,-2.010623931884765625e+00,2.932127952575683594e+00
4.048110246658325195e-01,-2.593386918306350708e-02,1.422177910804748535e+00,1.864771246910095215e+00,2.848415851593017578e+00,-2.010623931884765625e+00,2.932127952575683594e+00
4.033463895320892334e-01,-2.511511370539665222e-02,1.420425415039062500e+00,1.868048787117004395e+00,2.848415851593017578e+00,-2.010623931884765625e+00,2.932127952575683594e+00
4.018016159534454346e-01,-2.460267394781112671e-02,1.418507456779479980e+00,1.871250033378601074e+00,2.848415851593017578e+00,-2.010623931884765625e+00,2.932127952575683594e+00
4.003108739852905273e-01,-2.429391071200370789e-02,1.416404724121093750e+00,1.874428391456604004e+00,2.848415851593017578e+00,-2.010623931884765625e+00,2.932127952575683594e+00
3.988325297832489014e-01,-2.419225126504898071e-02,1.414369702339172363e+00,1.877565979957580566e+00,2.848415851593017578e+00,-2.010623931884765625e+00,2.932127952575683594e+00
3.971520960330963135e-01,-2.441977150738239288e-02,1.412345767021179199e+00,1.880472540855407715e+00,2.848415851593017578e+00,-2.010623931884765625e+00,2.932127952575683594e+00
3.953670263290405273e-01,-2.480719238519668579e-02,1.410189509391784668e+00,1.883135199546813965e+00,2.848415851593017578e+00,-2.010623931884765625e+00,2.932127952575683594e+00
3.934049308300018311e-01,-2.532034181058406830e-02,1.407930374145507812e+00,1.885606646537780762e+00,2.848415851593017578e+00,-2.010623931884765625e+00,2.932127952575683594e+00
3.915304541587829590e-01,-2.588742785155773163e-02,1.405881524085998535e+00,1.888042330741882324e+00,2.848415851593017578e+00,-2.010623931884765625e+00,2.932127952575683594e+00
3.895279169082641602e-01,-2.641571685671806335e-02,1.404005765914916992e+00,1.890449643135070801e+00,2.848415851593017578e+00,-2.010623931884765625e+00,2.932127952575683594e+00
3.870886862277984619e-01,-2.662289887666702271e-02,1.402079463005065918e+00,1.892847299575805664e+00,2.848415851593017578e+00,-2.010623931884765625e+00,2.932127952575683594e+00
3.847188949584960938e-01,-2.684495784342288971e-02,1.400017738342285156e+00,1.895138859748840332e+00,2.848415851593017578e+00,-2.010623931884765625e+00,2.932127952575683594e+00
3.830172419548034668e-01,-2.728216536343097687e-02,1.398005604743957520e+00,1.897257804870605469e+00,2.848415851593017578e+00,-2.010623931884765625e+00,2.932127952575683594e+00
3.819990754127502441e-01,-2.782672457396984100e-02,1.396356225013732910e+00,1.899230241775512695e+00,2.848415851593017578e+00,-2.010623931884765625e+00,2.932127952575683594e+00
3.813168406486511230e-01,-2.852080017328262329e-02,1.395153164863586426e+00,1.901165008544921875e+00,2.848415851593017578e+00,-2.010623931884765625e+00,2.932127952575683594e+00
3.804306685924530029e-01,-2.969777211546897888e-02,1.394034862518310547e+00,1.902696847915649414e+00,2.848415851593017578e+00,-2.010623931884765625e+00,2.932127952575683594e+00
3.799332380294799805e-01,-3.127723932266235352e-02,1.392853617668151855e+00,1.903693675994873047e+00,2.848415851593017578e+00,-2.010623931884765625e+00,2.932127952575683594e+00
3.804634213447570801e-01,-3.321822732686996460e-02,1.391772389411926270e+00,1.904261827468872070e+00,2.848415851593017578e+00,-2.010623931884765625e+00,2.932127952575683594e+00
3.816292583942413330e-01,-3.519997373223304749e-02,1.391096353530883789e+00,1.904539704322814941e+00,2.848415851593017578e+00,-2.010623931884765625e+00,2.932127952575683594e+00
3.829665482044219971e-01,-3.701746836304664612e-02,1.390443444252014160e+00,1.904228448867797852e+00,2.848415851593017578e+00,-2.010623931884765625e+00,2.932127952575683594e+00
3.840111494064331055e-01,-3.841383382678031921e-02,1.389432191848754883e+00,1.903543591499328613e+00,2.848415851593017578e+00,-2.010623931884765625e+00,2.932127952575683594e+00
3.846904337406158447e-01,-3.957775607705116272e-02,1.387920260429382324e+00,1.903203606605529785e+00,2.848415851593017578e+00,-2.010623931884765625e+00,2.932127952575683594e+00
3.851847350597381592e-01,-4.057224094867706299e-02,1.386239409446716309e+00,1.903563857078552246e+00,2.848415851593017578e+00,-2.010623931884765625e+00,2.932127952575683594e+00
3.857216536998748779e-01,-4.156465455889701843e-02,1.384711742401123047e+00,1.904706239700317383e+00,2.848415851593017578e+00,-2.003813982009887695e+00,2.932127952575683594e+00
3.864944577217102051e-01,-4.269031435251235962e-02,1.383515477180480957e+00,1.906301736831665039e+00,2.848415851593017578e+00,-1.993982315063476562e+00,2.932127952575683594e+00
3.873504400253295898e-01,-4.346794262528419495e-02,1.382401227951049805e+00,1.907719016075134277e+00,2.848415851593017578e+00,-1.988770008087158203e+00,2.932127952575683594e+00
3.880617320537567139e-01,-4.370373114943504333e-02,1.381059408187866211e+00,1.908821821212768555e+00,2.848415851593017578e+00,-1.985624909400939941e+00,2.932127952575683594e+00
3.885435760021209717e-01,-4.331108182668685913e-02,1.379469394683837891e+00,1.909891605377197266e+00,2.848415851593017578e+00,-1.983835101127624512e+00,2.932127952575683594e+00
3.887059688568115234e-01,-4.224168136715888977e-02,1.377745151519775391e+00,1.911206245422363281e+00,2.848415851593017578e+00,-1.982926487922668457e+00,2.932127952575683594e+00
3.886116147041320801e-01,-4.025646671652793884e-02,1.375907182693481445e+00,1.912598967552185059e+00,2.848415851593017578e+00,-1.982933282852172852e+00,2.932127952575683594e+00
3.881633877754211426e-01,-3.667433187365531921e-02,1.374072313308715820e+00,1.913633823394775391e+00,2.848415851593017578e+00,-1.984299778938293457e+00,2.928959369659423828e+00
3.870694637298583984e-01,-3.204304724931716919e-02,1.373133420944213867e+00,1.914129734039306641e+00,2.848415851593017578e+00,-1.989295244216918945e+00,2.900278806686401367e+00
3.848524093627929688e-01,-3.029035031795501709e-02,1.373995304107666016e+00,1.916060328483581543e+00,2.848415851593017578e+00,-1.999201059341430664e+00,2.891933202743530273e+00
3.838067054748535156e-01,-2.999500185251235962e-02,1.373688578605651855e+00,1.917719244956970215e+00,2.848415851593017578e+00,-2.010623931884765625e+00,2.891371011734008789e+00
3.837989568710327148e-01,-3.016652911901473999e-02,1.372339606285095215e+00,1.918881773948669434e+00,2.848415851593017578e+00,-2.010623931884765625e+00,2.897453784942626953e+00
3.844781219959259033e-01,-2.999819628894329071e-02,1.369968771934509277e+00,1.919910550117492676e+00,2.848415851593017578e+00,-2.010623931884765625e+00,2.911680459976196289e+00
3.853477239608764648e-01,-2.927619591355323792e-02,1.366198420524597168e+00,1.921334981918334961e+00,2.848415851593017578e+00,-2.010623931884765625e+00,2.932127952575683594e+00
3.856021165847778320e-01,-2.619539387524127960e-02,1.359185218811035156e+00,1.924648761749267578e+00,2.848415851593017578e+00,-2.010623931884765625e+00,2.932127952575683594e+00
3.855847120285034180e-01,-1.969490014016628265e-02,1.351938843727111816e+00,1.930693507194519043e+00,2.848415851593017578e+00,-2.010623931884765625e+00,2.932127952575683594e+00
3.817711472511291504e-01,-7.730394601821899414e-03,1.352246642112731934e+00,1.931072115898132324e+00,2.848415851593017578e+00,-2.010623931884765625e+00,2.932127952575683594e+00
3.865977525711059570e-01,-8.791288360953330994e-03,1.338728308677673340e+00,1.942303061485290527e+00,2.840110063552856445e+00,-2.010623931884765625e+00,2.932127952575683594e+00
3.834315836429595947e-01,-8.448168635368347168e-03,1.333830237388610840e+00,1.942722797393798828e+00,2.833614587783813477e+00,-2.010623931884765625e+00,2.932127952575683594e+00
3.827719092369079590e-01,-9.703997522592544556e-03,1.328531146049499512e+00,1.946147441864013672e+00,2.831089973449707031e+00,-2.010623931884765625e+00,2.932127952575683594e+00
3.833966255187988281e-01,-1.146322581917047501e-02,1.324350953102111816e+00,1.951119303703308105e+00,2.826331138610839844e+00,-2.010623931884765625e+00,2.932127952575683594e+00
3.836298286914825439e-01,-1.397062372416257858e-02,1.321151375770568848e+00,1.956244707107543945e+00,2.823241472244262695e+00,-2.010623931884765625e+00,2.932127952575683594e+00
3.838082551956176758e-01,-1.618835702538490295e-02,1.319432854652404785e+00,1.959773302078247070e+00,2.823124647140502930e+00,-2.010623931884765625e+00,2.932127952575683594e+00
3.837300837039947510e-01,-1.833818852901458740e-02,1.318705916404724121e+00,1.961665511131286621e+00,2.826164007186889648e+00,-2.010623931884765625e+00,2.932127952575683594e+00
3.836065530776977539e-01,-1.976519636809825897e-02,1.319119334220886230e+00,1.962145805358886719e+00,2.832373857498168945e+00,-2.010623931884765625e+00,2.932127952575683594e+00
3.834825456142425537e-01,-1.900429092347621918e-02,1.321308851242065430e+00,1.961089968681335449e+00,2.842090606689453125e+00,-2.010623931884765625e+00,2.932127952575683594e+00
3.830919861793518066e-01,-1.624666154384613037e-02,1.325505495071411133e+00,1.958426713943481445e+00,2.848415851593017578e+00,-2.010623931884765625e+00,2.932127952575683594e+00
3.824503123760223389e-01,-1.308774761855602264e-02,1.330609440803527832e+00,1.954649567604064941e+00,2.848415851593017578e+00,-2.010623931884765625e+00,2.932127952575683594e+00
3.825009763240814209e-01,-9.885056875646114349e-03,1.334782123565673828e+00,1.951616883277893066e+00,2.848415851593017578e+00,-2.010623931884765625e+00,2.932127952575683594e+00
3.846863508224487305e-01,-6.827523931860923767e-03,1.338769078254699707e+00,1.950445652008056641e+00,2.848415851593017578e+00,-1.985535383224487305e+00,2.924785852432250977e+00
3.881337940692901611e-01,-7.250154390931129456e-03,1.343212127685546875e+00,1.949388146400451660e+00,2.848415851593017578e+00,-1.960865616798400879e+00,2.877603530883789062e+00
3.884866535663604736e-01,-1.042792852967977524e-02,1.357150912284851074e+00,1.945045351982116699e+00,2.848415851593017578e+00,-1.958200097084045410e+00,2.856298208236694336e+00
3.815143704414367676e-01,-1.341520715504884720e-02,1.363380312919616699e+00,1.944502592086791992e+00,2.848415851593017578e+00,-1.964570283889770508e+00,2.853643178939819336e+00
3.745749890804290771e-01,-1.724759489297866821e-02,1.362422704696655273e+00,1.945660233497619629e+00,2.848415851593017578e+00,-1.973681569099426270e+00,2.853950977325439453e+00
3.721232116222381592e-01,-2.087052911520004272e-02,1.359129428863525391e+00,1.947600603103637695e+00,2.848415851593017578e+00,-1.990053892135620117e+00,2.856860637664794922e+00
3.723219633102416992e-01,-2.226540818810462952e-02,1.356359958648681641e+00,1.949259281158447266e+00,2.848415851593017578e+00,-2.010623931884765625e+00,2.865509033203125000e+00
3.706716597080230713e-01,-2.035595104098320007e-02,1.355010390281677246e+00,1.949902534484863281e+00,2.848415851593017578e+00,-2.010623931884765625e+00,2.894854307174682617e+00
3.651301264762878418e-01,-1.482885703444480896e-02,1.353080511093139648e+00,1.951327562332153320e+00,2.848415851593017578e+00,-2.010623931884765625e+00,2.931502103805541992e+00
3.596730530261993408e-01,-6.087860092520713806e-03,1.348924994468688965e+00,1.952190876007080078e+00,2.848415851593017578e+00,-2.010623931884765625e+00,2.909852981567382812e+00
3.590300381183624268e-01,4.089921712875366211e-04,1.349574327468872070e+00,1.951432228088378906e+00,2.848415851593017578e+00,-2.010623931884765625e+00,2.879043340682983398e+00
3.635622262954711914e-01,2.465590834617614746e-03,1.350444674491882324e+00,1.951783061027526855e+00,2.848415851593017578e+00,-2.010623931884765625e+00,2.879793643951416016e+00
3.694844841957092285e-01,3.577865660190582275e-03,1.348701953887939453e+00,1.953973412513732910e+00,2.848415851593017578e+00,-2.010623931884765625e+00,2.893148660659790039e+00
3.760887980461120605e-01,4.451030865311622620e-03,1.343633294105529785e+00,1.957565665245056152e+00,2.848415851593017578e+00,-2.010623931884765625e+00,2.926494121551513672e+00
3.785192072391510010e-01,3.620443865656852722e-03,1.332229733467102051e+00,1.963031172752380371e+00,2.848415851593017578e+00,-2.010623931884765625e+00,2.932127952575683594e+00
3.786959350109100342e-01,-7.585007697343826294e-04,1.309846043586730957e+00,1.972089767456054688e+00,2.848415851593017578e+00,-2.010623931884765625e+00,2.932127952575683594e+00
3.774259686470031738e-01,-8.413339965045452118e-03,1.286677241325378418e+00,1.983841061592102051e+00,2.848415851593017578e+00,-2.010623931884765625e+00,2.932127952575683594e+00
3.782249093055725098e-01,-1.699868962168693542e-02,1.276774048805236816e+00,1.990631937980651855e+00,2.848415851593017578e+00,-2.010623931884765625e+00,2.932127952575683594e+00
3.766429126262664795e-01,-2.491329796612262726e-02,1.272585749626159668e+00,1.993580579757690430e+00,2.848415851593017578e+00,-2.010623931884765625e+00,2.932127952575683594e+00
3.715248703956604004e-01,-3.099647909402847290e-02,1.271103620529174805e+00,1.994783043861389160e+00,2.848415851593017578e+00,-2.010623931884765625e+00,2.932127952575683594e+00
3.647141754627227783e-01,-3.632323443889617920e-02,1.271054506301879883e+00,1.994764208793640137e+00,2.848415851593017578e+00,-2.010623931884765625e+00,2.932127952575683594e+00
3.587097525596618652e-01,-4.047822952270507812e-02,1.273145556449890137e+00,1.995208263397216797e+00,2.848415851593017578e+00,-2.010623931884765625e+00,2.932127952575683594e+00
3.545867204666137695e-01,-4.317418485879898071e-02,1.278025627136230469e+00,1.996690273284912109e+00,2.848415851593017578e+00,-2.010623931884765625e+00,2.932127952575683594e+00
3.510039448738098145e-01,-4.420781508088111877e-02,1.286693096160888672e+00,1.998676538467407227e+00,2.848415851593017578e+00,-2.010623931884765625e+00,2.932127952575683594e+00
3.480798900127410889e-01,-4.443380981683731079e-02,1.301196694374084473e+00,2.000665187835693359e+00,2.848415851593017578e+00,-2.010623931884765625e+00,2.932127952575683594e+00
3.454836606979370117e-01,-4.433409869670867920e-02,1.324683547019958496e+00,2.002778768539428711e+00,2.848415851593017578e+00,-2.010623931884765625e+00,2.932127952575683594e+00
3.392772674560546875e-01,-4.662837088108062744e-02,1.340782999992370605e+00,2.005107402801513672e+00,2.848415851593017578e+00,-2.010623931884765625e+00,2.932127952575683594e+00
3.331813514232635498e-01,-5.128033459186553955e-02,1.349377989768981934e+00,2.007500171661376953e+00,2.848415851593017578e+00,-2.010623931884765625e+00,2.932127952575683594e+00
3.290990591049194336e-01,-5.649981647729873657e-02,1.356210231781005859e+00,2.008885383605957031e+00,2.848415851593017578e+00,-2.010623931884765625e+00,2.932127952575683594e+00
3.268561959266662598e-01,-6.104403734207153320e-02,1.360861063003540039e+00,2.009499788284301758e+00,2.848415851593017578e+00,-2.010623931884765625e+00,2.932127952575683594e+00
3.277693092823028564e-01,-6.406259536743164062e-02,1.363413453102111816e+00,2.007800340652465820e+00,2.848415851593017578e+00,-2.010623931884765625e+00,2.932127952575683594e+00
3.284477591514587402e-01,-6.432902812957763672e-02,1.363412857055664062e+00,2.005773067474365234e+00,2.848415851593017578e+00,-2.010623931884765625e+00,2.932127952575683594e+00
3.285589218139648438e-01,-6.308396160602569580e-02,1.363042831420898438e+00,2.003116846084594727e+00,2.848415851593017578e+00,-2.010623931884765625e+00,2.932127952575683594e+00
3.293491303920745850e-01,-6.130092591047286987e-02,1.362295269966125488e+00,1.999070048332214355e+00,2.848415851593017578e+00,-2.010623931884765625e+00,2.932127952575683594e+00
3.304727673530578613e-01,-5.975264310836791992e-02,1.360577106475830078e+00,1.995342493057250977e+00,2.848415851593017578e+00,-2.010623931884765625e+00,2.932127952575683594e+00
3.314830362796783447e-01,-5.829266458749771118e-02,1.358645319938659668e+00,1.992638230323791504e+00,2.848415851593017578e+00,-2.010623931884765625e+00,2.932127952575683594e+00
3.319617807865142822e-01,-5.678976327180862427e-02,1.356948137283325195e+00,1.990996003150939941e+00,2.848415851593017578e+00,-2.010623931884765625e+00,2.932127952575683594e+00
3.316409289836883545e-01,-5.555602163076400757e-02,1.356029748916625977e+00,1.990901231765747070e+00,2.848415851593017578e+00,-2.010623931884765625e+00,2.932127952575683594e+00
3.304118216037750244e-01,-5.454165488481521606e-02,1.355696201324462891e+00,1.991367816925048828e+00,2.848415851593017578e+00,-2.010623931884765625e+00,2.932127952575683594e+00
3.283028900623321533e-01,-5.372221767902374268e-02,1.355400919914245605e+00,1.991918921470642090e+00,2.848415851593017578e+00,-2.010623931884765625e+00,2.932127952575683594e+00
3.258549273014068604e-01,-5.331753939390182495e-02,1.355356216430664062e+00,1.993585586547851562e+00,2.848415851593017578e+00,-2.010623931884765625e+00,2.932127952575683594e+00
3.236273527145385742e-01,-5.331121385097503662e-02,1.355317950248718262e+00,1.995699405670166016e+00,2.848415851593017578e+00,-2.010623931884765625e+00,2.932127952575683594e+00
3.215673863887786865e-01,-5.371005833148956299e-02,1.355431437492370605e+00,1.998140692710876465e+00,2.848415851593017578e+00,-2.010623931884765625e+00,2.932127952575683594e+00
3.198364675045013428e-01,-5.411543324589729309e-02,1.355945110321044922e+00,2.000787258148193359e+00,2.848415851593017578e+00,-2.010623931884765625e+00,2.932127952575683594e+00
3.183491230010986328e-01,-5.435366183519363403e-02,1.357104063034057617e+00,2.003758907318115234e+00,2.848415851593017578e+00,-2.010623931884765625e+00,2.932127952575683594e+00
3.169007897377014160e-01,-5.450654029846191406e-02,1.358904480934143066e+00,2.007207393646240234e+00,2.848415851593017578e+00,-2.010623931884765625e+00,2.932127952575683594e+00
3.153319954872131348e-01,-5.468914285302162170e-02,1.361297726631164551e+00,2.010623931884765625e+00,2.848415851593017578e+00,-2.010623931884765625e+00,2.932127952575683594e+00
3.136304020881652832e-01,-5.492275208234786987e-02,1.363999605178833008e+00,2.010623931884765625e+00,2.848415851593017578e+00,-2.010623931884765625e+00,2.932127952575683594e+00
3.118691444396972656e-01,-5.518735945224761963e-02,1.366733670234680176e+00,2.010623931884765625e+00,2.848415851593017578e+00,-2.010623931884765625e+00,2.932127952575683594e+00
3.102087378501892090e-01,-5.537322908639907837e-02,1.369396686553955078e+00,2.010623931884765625e+00,2.848415851593017578e+00,-2.010623931884765625e+00,2.932127952575683594e+00
3.086635172367095947e-01,-5.538610368967056274e-02,1.371844887733459473e+00,2.010623931884765625e+00,2.848415851593017578e+00,-2.010623931884765625e+00,2.932127952575683594e+00
3.072460889816284180e-01,-5.525624752044677734e-02,1.374129176139831543e+00,2.010623931884765625e+00,2.848415851593017578e+00,-2.010623931884765625e+00,2.932127952575683594e+00
3.124452233314514160e-01,-5.537050589919090271e-02,1.373141527175903320e+00,2.010623931884765625e+00,2.848415851593017578e+00,-2.010623931884765625e+00,2.932127952575683594e+00
3.128211498260498047e-01,-5.405068770051002502e-02,1.372936487197875977e+00,2.010074377059936523e+00,2.848415851593017578e+00,-2.010623931884765625e+00,2.932127952575683594e+00
3.118955194950103760e-01,-5.314838141202926636e-02,1.374389767646789551e+00,2.009361267089843750e+00,2.848415851593017578e+00,-2.010623931884765625e+00,2.932127952575683594e+00
3.104763627052307129e-01,-5.268713831901550293e-02,1.376853227615356445e+00,2.009006500244140625e+00,2.848415851593017578e+00,-2.010623931884765625e+00,2.932127952575683594e+00
3.088201284408569336e-01,-5.245448648929595947e-02,1.379494309425354004e+00,2.008831262588500977e+00,2.848415851593017578e+00,-2.010623931884765625e+00,2.932127952575683594e+00
3.070988059043884277e-01,-5.229857563972473145e-02,1.381916284561157227e+00,2.008837223052978516e+00,2.848415851593017578e+00,-2.010623931884765625e+00,2.932127952575683594e+00
3.053841292858123779e-01,-5.218205600976943970e-02,1.384114861488342285e+00,2.009055137634277344e+00,2.848415851593017578e+00,-2.010623931884765625e+00,2.932127952575683594e+00
3.037147223949432373e-01,-5.205070972442626953e-02,1.386155247688293457e+00,2.009502887725830078e+00,2.848415851593017578e+00,-2.010623931884765625e+00,2.932127952575683594e+00
3.020941317081451416e-01,-5.193375796079635620e-02,1.388092637062072754e+00,2.009959459304809570e+00,2.848415851593017578e+00,-2.010623931884765625e+00,2.932127952575683594e+00
3.005189895629882812e-01,-5.186175927519798279e-02,1.390094161033630371e+00,2.010360002517700195e+00,2.848415851593017578e+00,-2.010623931884765625e+00,2.932127952575683594e+00
2.989931702613830566e-01,-5.191738903522491455e-02,1.392344355583190918e+00,2.010623931884765625e+00,2.848415851593017578e+00,-2.010623931884765625e+00,2.932127952575683594e+00
2.975850105285644531e-01,-5.216595157980918884e-02,1.394782304763793945e+00,2.010623931884765625e+00,2.848415851593017578e+00,-2.010623931884765625e+00,2.932127952575683594e+00
2.962297797203063965e-01,-5.254723131656646729e-02,1.397281050682067871e+00,2.010623931884765625e+00,2.848415851593017578e+00,-2.010623931884765625e+00,2.932127952575683594e+00
2.948444485664367676e-01,-5.297767370939254761e-02,1.399707794189453125e+00,2.010623931884765625e+00,2.848415851593017578e+00,-2.010623931884765625e+00,2.932127952575683594e+00
2.932838499546051025e-01,-5.339914560317993164e-02,1.402038931846618652e+00,2.010623931884765625e+00,2.848415851593017578e+00,-2.010623931884765625e+00,2.932127952575683594e+00
2.915584743022918701e-01,-5.377975478768348694e-02,1.404234170913696289e+00,2.010623931884765625e+00,2.848415851593017578e+00,-2.010623931884765625e+00,2.932127952575683594e+00
2.896625399589538574e-01,-5.411403626203536987e-02,1.406332373619079590e+00,2.010623931884765625e+00,2.848415851593017578e+00,-2.010623931884765625e+00,2.932127952575683594e+00
2.876696884632110596e-01,-5.440932139754295349e-02,1.408370614051818848e+00,2.010623931884765625e+00,2.848415851593017578e+00,-2.010623931884765625e+00,2.932127952575683594e+00
2.856594324111938477e-01,-5.474385619163513184e-02,1.410500884056091309e+00,2.010623931884765625e+00,2.848415851593017578e+00,-2.010623931884765625e+00,2.932127952575683594e+00
2.838536202907562256e-01,-5.517416819930076599e-02,1.412823081016540527e+00,2.010623931884765625e+00,2.848415851593017578e+00,-2.010623931884765625e+00,2.932127952575683594e+00
2.823737859725952148e-01,-5.573882162570953369e-02,1.415379762649536133e+00,2.010623931884765625e+00,2.848415851593017578e+00,-2.010623931884765625e+00,2.932127952575683594e+00
2.812105715274810791e-01,-5.639599263668060303e-02,1.418092012405395508e+00,2.010623931884765625e+00,2.848415851593017578e+00,-2.010623931884765625e+00,2.932127952575683594e+00
2.801153957843780518e-01,-5.707799270749092102e-02,1.420837163925170898e+00,2.010623931884765625e+00,2.848415851593017578e+00,-2.010623931884765625e+00,2.932127952575683594e+00
2.789557874202728271e-01,-5.774354562163352966e-02,1.423553109169006348e+00,2.010623931884765625e+00,2.848415851593017578e+00,-2.010623931884765625e+00,2.932127952575683594e+00
2.775325775146484375e-01,-5.838320404291152954e-02,1.426271319389343262e+00,2.010623931884765625e+00,2.848415851593017578e+00,-2.010623931884765625e+00,2.932127952575683594e+00
2.757894098758697510e-01,-5.897241085767745972e-02,1.428905844688415527e+00,2.010623931884765625e+00,2.848415851593017578e+00,-2.010623931884765625e+00,2.932127952575683594e+00
2.738125622272491455e-01,-5.953086912631988525e-02,1.431412696838378906e+00,2.010623931884765625e+00,2.848415851593017578e+00,-2.010623931884765625e+00,2.932127952575683594e+00
2.791999876499176025e-01,-5.667021870613098145e-02,1.426999688148498535e+00,2.010623931884765625e+00,2.848415851593017578e+00,-2.010623931884765625e+00,2.932127952575683594e+00
2.798843383789062500e-01,-5.620569735765457153e-02,1.427732944488525391e+00,2.010623931884765625e+00,2.848415851593017578e+00,-2.010623931884765625e+00,2.932127952575683594e+00
2.792797386646270752e-01,-5.698908492922782898e-02,1.430178403854370117e+00,2.010623931884765625e+00,2.848415851593017578e+00,-2.010623931884765625e+00,2.932127952575683594e+00
2.786768376827239990e-01,-5.827847123146057129e-02,1.433242678642272949e+00,2.010623931884765625e+00,2.848415851593017578e+00,-2.010623931884765625e+00,2.932127952575683594e+00
2.781246602535247803e-01,-5.985495448112487793e-02,1.436685919761657715e+00,2.010623931884765625e+00,2.848415851593017578e+00,-2.010623931884765625e+00,2.932127952575683594e+00
2.773497700691223145e-01,-6.151424720883369446e-02,1.440123081207275391e+00,2.010623931884765625e+00,2.848415851593017578e+00,-2.010623931884765625e+00,2.932127952575683594e+00
2.763865590095520020e-01,-6.308944523334503174e-02,1.443260550498962402e+00,2.010623931884765625e+00,2.848415851593017578e+00,-2.010623931884765625e+00,2.932127952575683594e+00
2.751462459564208984e-01,-6.453383713960647583e-02,1.445963859558105469e+00,2.010623931884765625e+00,2.848415851593017578e+00,-2.010623931884765625e+00,2.932127952575683594e+00
2.743132710456848145e-01,-6.582023203372955322e-02,1.448511004447937012e+00,2.010623931884765625e+00,2.848415851593017578e+00,-2.010623931884765625e+00,2.932127952575683594e+00
2.738564312458038330e-01,-6.707904487848281860e-02,1.451075077056884766e+00,2.010623931884765625e+00,2.848415851593017578e+00,-2.010623931884765625e+00,2.932127952575683594e+00
2.736630737781524658e-01,-6.825518608093261719e-02,1.453468799591064453e+00,2.010623931884765625e+00,2.848415851593017578e+00,-2.010623931884765625e+00,2.932127952575683594e+00
2.738333940505981445e-01,-6.937079131603240967e-02,1.455864787101745605e+00,2.010623931884765625e+00,2.848415851593017578e+00,-2.010623931884765625e+00,2.932127952575683594e+00
2.739855349063873291e-01,-7.042310386896133423e-02,1.458139300346374512e+00,2.010623931884765625e+00,2.848415851593017578e+00,-2.010623931884765625e+00,2.932127952575683594e+00
2.739815115928649902e-01,-7.138741761445999146e-02,1.460202813148498535e+00,2.010623931884765625e+00,2.848415851593017578e+00,-2.010623931884765625e+00,2.932127952575683594e+00
2.738592624664306641e-01,-7.230387628078460693e-02,1.462128877639770508e+00,2.010623931884765625e+00,2.848415851593017578e+00,-2.010623931884765625e+00,2.932127952575683594e+00
2.735708057880401611e-01,-7.318110764026641846e-02,1.463949918746948242e+00,2.010623931884765625e+00,2.848415851593017578e+00,-2.010623931884765625e+00,2.932127952575683594e+00
2.732047736644744873e-01,-7.406498491764068604e-02,1.465851783752441406e+00,2.010623931884765625e+00,2.848415851593017578e+00,-2.010623931884765625e+00,2.932127952575683594e+00
2.728194594383239746e-01,-7.500957697629928589e-02,1.467896103858947754e+00,2.010623931884765625e+00,2.848415851593017578e+00,-2.010623931884765625e+00,2.932127952575683594e+00
2.724107205867767334e-01,-7.602575421333312988e-02,1.470024585723876953e+00,2.010623931884765625e+00,2.848415851593017578e+00,-2.010623931884765625e+00,2.932127952575683594e+00
2.721287906169891357e-01,-7.711727917194366455e-02,1.472163796424865723e+00,2.010623931884765625e+00,2.848415851593017578e+00,-2.010623931884765625e+00,2.932127952575683594e+00
2.718744874000549316e-01,-7.830856740474700928e-02,1.474095106124877930e+00,2.010623931884765625e+00,2.848415851593017578e+00,-2.010623931884765625e+00,2.932127952575683594e+00
2.720298171043395996e-01,-7.959495484828948975e-02,1.475727558135986328e+00,2.010623931884765625e+00,2.848415851593017578e+00,-2.010623931884765625e+00,2.932127952575683594e+00
2.723040282726287842e-01,-8.092933893203735352e-02,1.477159738540649414e+00,2.010623931884765625e+00,2.848415851593017578e+00,-2.010623931884765625e+00,2.932127952575683594e+00
2.727818489074707031e-01,-8.232969045639038086e-02,1.478548645973205566e+00,2.010623931884765625e+00,2.848415851593017578e+00,-2.010623931884765625e+00,2.932127952575683594e+00
2.728103995323181152e-01,-8.380357921123504639e-02,1.479673981666564941e+00,2.010623931884765625e+00,2.848415851593017578e+00,-2.010623931884765625e+00,2.932127952575683594e+00
2.726030051708221436e-01,-8.540165424346923828e-02,1.481204032897949219e+00,2.010623931884765625e+00,2.848415851593017578e+00,-2.010623931884765625e+00,2.932127952575683594e+00
2.724680006504058838e-01,-8.703090250492095947e-02,1.482783317565917969e+00,2.010623931884765625e+00,2.848415851593017578e+00,-2.010623931884765625e+00,2.932127952575683594e+00
2.727886140346527100e-01,-8.864036202430725098e-02,1.484238982200622559e+00,2.010623931884765625e+00,2.848415851593017578e+00,-2.010623931884765625e+00,2.932127952575683594e+00
2.733327448368072510e-01,-9.023366868495941162e-02,1.485243797302246094e+00,2.010623931884765625e+00,2.848415851593017578e+00,-2.010623931884765625e+00,2.932127952575683594e+00
2.738780975341796875e-01,-9.178712964057922363e-02,1.485810637474060059e+00,2.010623931884765625e+00,2.848415851593017578e+00,-2.010623931884765625e+00,2.932127952575683594e+00
2.741490006446838379e-01,-9.328080713748931885e-02,1.485941529273986816e+00,2.010623931884765625e+00,2.848415851593017578e+00,-2.010623931884765625e+00,2.932127952575683594e+00
2.739115357398986816e-01,-9.469068050384521484e-02,1.485522747039794922e+00,2.010623931884765625e+00,2.848415851593017578e+00,-2.010623931884765625e+00,2.932127952575683594e+00
2.730929553508758545e-01,-9.599209576845169067e-02,1.484640002250671387e+00,2.010623931884765625e+00,2.848415851593017578e+00,-2.010623931884765625e+00,2.932127952575683594e+00
2.718263566493988037e-01,-9.722019731998443604e-02,1.482840418815612793e+00,2.010623931884765625e+00,2.848415851593017578e+00,-2.010623931884765625e+00,2.932127952575683594e+00
2.698836326599121094e-01,-9.839672595262527466e-02,1.479310393333435059e+00,2.010623931884765625e+00,2.848415851593017578e+00,-2.010623931884765625e+00,2.932127952575683594e+00
2.670678198337554932e-01,-9.948669373989105225e-02,1.474542617797851562e+00,2.010623931884765625e+00,2.848415851593017578e+00,-2.010623931884765625e+00,2.932127952575683594e+00
2.632505893707275391e-01,-1.005306094884872437e-01,1.470281720161437988e+00,2.010623931884765625e+00,2.848415851593017578e+00,-2.010623931884765625e+00,2.932127952575683594e+00
2.599201798439025879e-01,-1.015420928597450256e-01,1.468555331230163574e+00,2.010623931884765625e+00,2.848415851593017578e+00,-2.010623931884765625e+00,2.932127952575683594e+00
2.585700750350952148e-01,-1.025749370455741882e-01,1.469019293785095215e+00,2.010623931884765625e+00,2.848415851593017578e+00,-2.010623931884765625e+00,2.932127952575683594e+00
2.586098611354827881e-01,-1.038028225302696228e-01,1.470003128051757812e+00,2.010623931884765625e+00,2.848415851593017578e+00,-2.010623931884765625e+00,2.932127952575683594e+00
2.594113647937774658e-01,-1.052507758140563965e-01,1.470751285552978516e+00,2.010623931884765625e+00,2.848415851593017578e+00,-2.010623931884765625e+00,2.932127952575683594e+00
2.605877518653869629e-01,-1.068908870220184326e-01,1.471140265464782715e+00,2.010623931884765625e+00,2.848415851593017578e+00,-2.010623931884765625e+00,2.932127952575683594e+00
2.619131505489349365e-01,-1.085675209760665894e-01,1.471368312835693359e+00,2.010623931884765625e+00,2.848415851593017578e+00,-2.010623931884765625e+00,2.932127952575683594e+00
2.633552551269531250e-01,-1.102120801806449890e-01,1.471525788307189941e+00,2.010623931884765625e+00,2.848415851593017578e+00,-2.010623931884765625e+00,2.932127952575683594e+00
2.648520469665527344e-01,-1.117688789963722229e-01,1.471658468246459961e+00,2.010623931884765625e+00,2.848415851593017578e+00,-2.010623931884765625e+00,2.932127952575683594e+00
2.663770318031311035e-01,-1.131721362471580505e-01,1.471744179725646973e+00,2.010623931884765625e+00,2.848415851593017578e+00,-2.010623931884765625e+00,2.932127952575683594e+00
2.679353058338165283e-01,-1.144694089889526367e-01,1.471789479255676270e+00,2.010623931884765625e+00,2.848415851593017578e+00,-2.010623931884765625e+00,2.932127952575683594e+00
2.693497836589813232e-01,-1.156621724367141724e-01,1.471790313720703125e+00,2.010623931884765625e+00,2.848415851593017578e+00,-2.010623931884765625e+00,2.932127952575683594e+00
2.706084847450256348e-01,-1.167937815189361572e-01,1.471688508987426758e+00,2.010623931884765625e+00,2.848415851593017578e+00,-2.010623931884765625e+00,2.932127952575683594e+00
2.717636227607727051e-01,-1.178685575723648071e-01,1.471524596214294434e+00,2.010623931884765625e+00,2.848415851593017578e+00,-2.010623931884765625e+00,2.932127952575683594e+00
2.728093564510345459e-01,-1.188979744911193848e-01,1.471363186836242676e+00,2.010623931884765625e+00,2.848415851593017578e+00,-2.010623931884765625e+00,2.932127952575683594e+00
2.737123370170593262e-01,-1.198548823595046997e-01,1.471290588378906250e+00,2.010623931884765625e+00,2.848415851593017578e+00,-2.010623931884765625e+00,2.932127952575683594e+00
2.744983732700347900e-01,-1.207619160413742065e-01,1.471291184425354004e+00,2.010623931884765625e+00,2.848415851593017578e+00,-2.010623931884765625e+00,2.932127952575683594e+00
2.751106321811676025e-01,-1.216585487127304077e-01,1.471349477767944336e+00,2.010623931884765625e+00,2.848415851593017578e+00,-2.010623931884765625e+00,2.932127952575683594e+00
2.755019068717956543e-01,-1.225087642669677734e-01,1.471434950828552246e+00,2.010623931884765625e+00,2.848415851593017578e+00,-2.010623931884765625e+00,2.932127952575683594e+00
2.755575180053710938e-01,-1.232828348875045776e-01,1.471476316452026367e+00,2.010623931884765625e+00,2.848415851593017578e+00,-2.010623931884765625e+00,2.932127952575683594e+00
2.753987014293670654e-01,-1.238858252763748169e-01,1.471524834632873535e+00,2.010623931884765625e+00,2.848415851593017578e+00,-2.010623931884765625e+00,2.932127952575683594e+00
2.751877009868621826e-01,-1.243995875120162964e-01,1.471619248390197754e+00,2.010623931884765625e+00,2.848415851593017578e+00,-2.010623931884765625e+00,2.932127952575683594e+00
2.750786840915679932e-01,-1.248579397797584534e-01,1.471720337867736816e+00,2.010623931884765625e+00,2.848415851593017578e+00,-2.010623931884765625e+00,2.932127952575683594e+00
2.749689817428588867e-01,-1.254174411296844482e-01,1.471689939498901367e+00,2.010623931884765625e+00,2.848415851593017578e+00,-2.010623931884765625e+00,2.932127952575683594e+00
2.749010026454925537e-01,-1.261383593082427979e-01,1.471474647521972656e+00,2.010623931884765625e+00,2.848415851593017578e+00,-2.010623931884765625e+00,2.932127952575683594e+00
2.749022841453552246e-01,-1.269769668579101562e-01,1.471176624298095703e+00,2.010623931884765625e+00,2.848415851593017578e+00,-2.010623931884765625e+00,2.932127952575683594e+00
2.750149965286254883e-01,-1.279303431510925293e-01,1.470808148384094238e+00,2.010623931884765625e+00,2.848415851593017578e+00,-2.010623931884765625e+00,2.932127952575683594e+00
2.751686871051788330e-01,-1.289709806442260742e-01,1.470430612564086914e+00,2.010623931884765625e+00,2.848415851593017578e+00,-2.010623931884765625e+00,2.932127952575683594e+00
2.752105593681335449e-01,-1.302185654640197754e-01,1.469973087310791016e+00,2.010623931884765625e+00,2.848415851593017578e+00,-2.010623931884765625e+00,2.932127952575683594e+00
2.752841711044311523e-01,-1.315275728702545166e-01,1.469555497169494629e+00,2.010623931884765625e+00,2.848415851593017578e+00,-2.010623931884765625e+00,2.932127952575683594e+00
2.753704190254211426e-01,-1.327241510152816772e-01,1.469264507293701172e+00,2.010623931884765625e+00,2.848415851593017578e+00,-2.010623931884765625e+00,2.932127952575683594e+00
2.755732834339141846e-01,-1.337108165025711060e-01,1.469109296798706055e+00,2.010623931884765625e+00,2.848415851593017578e+00,-2.010623931884765625e+00,2.932127952575683594e+00
2.757966816425323486e-01,-1.345232278108596802e-01,1.468910694122314453e+00,2.010623931884765625e+00,2.848415851593017578e+00,-2.010623931884765625e+00,2.932127952575683594e+00
2.760093510150909424e-01,-1.352053582668304443e-01,1.468509078025817871e+00,2.010623931884765625e+00,2.848415851593017578e+00,-2.010623931884765625e+00,2.932127952575683594e+00
2.762570977210998535e-01,-1.357947289943695068e-01,1.467911243438720703e+00,2.010623931884765625e+00,2.848415851593017578e+00,-2.010623931884765625e+00,2.932127952575683594e+00
2.765171825885772705e-01,-1.364027559757232666e-01,1.467232227325439453e+00,2.010623931884765625e+00,2.848415851593017578e+00,-2.010623931884765625e+00,2.932127952575683594e+00
2.767736315727233887e-01,-1.370823383331298828e-01,1.466602087020874023e+00,2.010623931884765625e+00,2.848415851593017578e+00,-2.010623931884765625e+00,2.932127952575683594e+00
2.770107686519622803e-01,-1.379891782999038696e-01,1.466012835502624512e+00,2.010623931884765625e+00,2.848415851593017578e+00,-2.010623931884765625e+00,2.932127952575683594e+00
2.772246599197387695e-01,-1.392258256673812866e-01,1.465462803840637207e+00,2.010623931884765625e+00,2.848415851593017578e+00,-2.010623931884765625e+00,2.932127952575683594e+00
