Afshin1997/kuka_rl_ros2/src/catch_and_throw/output_files/tm/nn_ema2.00_jvws1_realball_D24H17M35S32/recorded_data.csv
pure_target_joint_0,pure_target_joint_1,pure_target_joint_2,pure_target_joint_3,pure_target_joint_4,pure_target_joint_5,pure_target_joint_6,target_joint_0,target_joint_1,target_joint_2,target_joint_3,target_joint_4,target_joint_5,target_joint_6,pos_joint_0,pos_joint_1,pos_joint_2,pos_joint_3,pos_joint_4,pos_joint_5,pos_joint_6,vel_joint_0,vel_joint_1,vel_joint_2,vel_joint_3,vel_joint_4,vel_joint_5,vel_joint_6,vel_smooth_joint_0,vel_smooth_joint_1,vel_smooth_joint_2,vel_smooth_joint_3,vel_smooth_joint_4,vel_smooth_joint_5,vel_smooth_joint_6,ee_pos_x,ee_pos_y,ee_pos_z,ee_or_w,ee_or_x,ee_or_y,ee_or_z,ee_vel_x,ee_vel_y,ee_vel_z,ball_pos_x,ball_pos_y,ball_pos_z,ball_raw_vx,ball_raw_vy,ball_raw_vz,ball_ema_vx,ball_ema_vy,ball_ema_vz,action_0,action_1,action_2,action_3,action_4,action_5,action_6,command_published
1.71299,-1.02022,-1.76629,-1.16295,2.01098,1.17503,-0.939083,1.71299,-1.02022,-1.76629,-1.16295,2.01098,1.17503,-0.939083,1.78086,-1.07155,-1.81508,-1.1194,1.93717,1.11684,-0.916287,2.39759e-05,0,0,0,1.91982e-05,0,0,2.39759e-05,0,0,0,1.91982e-05,0,0,0.533506,-0.455494,0.692332,0.572674,0.17803,0.150842,0.785873,0,0,0,2.97984,-0.492187,0.504015,-3.02444,0.252181,5.66298,-3.02444,0.252181,5.66298,-0.678753,0.513245,0.487907,-0.435554,0.738086,0.581883,-0.227967,1
1.71355,-1.01904,-1.76687,-1.16092,2.01051,1.17609,-0.940265,1.71355,-1.01904,-1.76687,-1.16092,2.01051,1.17609,-0.940265,1.78086,-1.07155,-1.81509,-1.1194,1.93717,1.11684,-0.916287,5.98867e-06,5.99958e-06,-1.19882e-05,0,0,0,-1.19882e-05,5.98867e-06,5.99958e-06,-1.19882e-05,0,0,0,-1.19882e-05,0.533506,-0.455494,0.692332,0.572673,0.17803,0.150843,0.785873,5.85026e-06,5.26841e-06,-1.89829e-06,2.94982,-0.489938,0.559023,-3.00174,0.224882,5.50073,-3.00174,0.224882,5.50073,-0.673119,0.525072,0.482179,-0.415173,0.733398,0.592456,-0.239783,1
1.71339,-1.01541,-1.76588,-1.16276,2.01161,1.17264,-0.936409,1.71339,-1.01541,-1.76588,-1.16276,2.01161,1.17264,-0.936409,1.78086,-1.07155,-1.81509,-1.1194,1.93717,1.11684,-0.916287,1.19776e-05,-1.19994e-05,-7.19094e-05,4.79541e-05,-3.83284e-05,-9.58864e-05,2.39771e-05,1.19776e-05,-1.19994e-05,-7.19094e-05,4.79541e-05,-3.83284e-05,-9.58864e-05,2.39771e-05,0.533506,-0.455494,0.692332,0.572674,0.17803,0.150843,0.785873,1.36302e-05,-2.82834e-05,-2.66881e-05,2.92046,-0.487242,0.613416,-2.93596,0.269589,5.43935,-2.93596,0.269589,5.43935,-0.67475,0.561365,0.492018,-0.433618,0.744378,0.557954,-0.201226,1
1.71202,-1.01614,-1.77039,-1.16406,2.01,1.17296,-0.936881,1.71202,-1.01614,-1.77039,-1.16406,2.01,1.17296,-0.936881,1.78081,-1.07169,-1.81579,-1.11882,1.93626,1.11596,-0.915961,-0.00848504,-0.0254911,-0.124064,0.0996753,-0.162568,-0.150406,0.0473988,-0.00848504,-0.0254911,-0.124064,0.0996753,-0.162568,-0.150406,0.0473988,0.533618,-0.455844,0.692042,0.572916,0.178506,0.151395,0.785483,0.00937888,-0.0603771,-0.0459264,2.89157,-0.484934,0.666608,-2.88906,0.230825,5.31916,-2.88906,0.230825,5.31916,-0.687867,0.555475,0.453989,-0.452459,0.737353,0.569993,-0.209199,1
1.71218,-1.01174,-1.78221,-1.15855,2.00299,1.17314,-0.939392,1.71218,-1.01174,-1.78221,-1.15855,2.00299,1.17314,-0.939392,1.78157,-1.07215,-1.8183,-1.11684,1.93195,1.1138,-0.917348,0.0759741,-0.0461153,-0.250518,0.197626,-0.431874,-0.216333,-0.138765,0.0759741,-0.0461153,-0.250518,0.197626,-0.431874,-0.216333,-0.138765,0.534369,-0.456308,0.691056,0.574469,0.179303,0.154075,0.783643,0.111487,-0.113203,-0.177004,2.8625,-0.482331,0.718866,-2.90682,0.260329,5.22587,-2.90682,0.260329,5.22587,-0.69386,0.60417,0.360864,-0.417109,0.710451,0.593418,-0.220441,1
1.72128,-1.00669,-1.77253,-1.13947,2.00542,1.17515,-0.938336,1.72128,-1.00669,-1.77253,-1.13947,2.00542,1.17515,-0.938336,1.78391,-1.072,-1.81983,-1.11619,1.93115,1.11737,-0.921519,0.250512,0.0262341,-0.0995554,-0.0142256,0.159442,0.56362,-0.451816,0.250512,0.0262341,-0.0995554,-0.0142256,0.159442,0.56362,-0.451816,0.534954,-0.455209,0.690964,0.575805,0.177331,0.154892,0.78295,0.0547174,0.13079,0.00871481,2.83271,-0.479579,0.770696,-2.97902,0.275198,5.18296,-2.97902,0.275198,5.18296,-0.626294,0.653084,0.472904,-0.232806,0.742629,0.577767,-0.16817,1
1.72131,-1.00377,-1.76523,-1.14082,2.01053,1.1656,-0.949318,1.72131,-1.00377,-1.76523,-1.14082,2.01053,1.1656,-0.949318,1.78496,-1.07196,-1.81962,-1.11719,1.93513,1.12214,-0.923832,0.209971,0.00855654,0.0419318,-0.200623,0.79443,0.95288,-0.462628,0.209971,0.00855654,0.0419318,-0.200623,0.79443,0.95288,-0.462628,0.534715,-0.454516,0.691274,0.575735,0.175572,0.152831,0.783803,0,0,0,2.80366,-0.47687,0.820941,-2.90556,0.270817,5.02449,-2.90556,0.270817,5.02449,-0.636448,0.68183,0.543884,-0.236335,0.754059,0.434601,-0.254859,1
1.72466,-1.00798,-1.75964,-1.12656,2.02546,1.18997,-0.949017,1.72466,-1.00798,-1.75964,-1.12656,2.02546,1.18997,-0.949017,1.78586,-1.07272,-1.81553,-1.12241,1.95162,1.1352,-0.928255,0.0461143,-0.113057,0.553035,-0.628474,1.90842,1.36331,-0.433543,0.0461143,-0.113057,0.553035,-0.628474,1.90842,1.36331,-0.433543,0.533096,-0.453257,0.692454,0.573672,0.171614,0.143363,0.787969,-0.110334,0.167966,0.0910303,2.77433,-0.474349,0.869991,-2.93303,0.252178,4.90497,-2.93303,0.252178,4.90497,-0.611957,0.647429,0.558937,-0.04152,0.738416,0.547674,-0.207617,1
1.71851,-1.01627,-1.75452,-1.12432,2.04806,1.20487,-0.928306,1.71851,-1.01627,-1.75452,-1.12432,2.04806,1.20487,-0.928306,1.78476,-1.07548,-1.80679,-1.13123,1.97457,1.14835,-0.932513,-0.109716,-0.275913,0.874412,-0.881914,2.29573,1.31455,-0.425788,-0.109716,-0.275913,0.874412,-0.881914,2.29573,1.31455,-0.425788,0.530622,-0.452589,0.693473,0.569652,0.16878,0.129281,0.793912,0,0,0,2.74516,-0.471774,0.918486,-2.91677,0.257507,4.84957,-2.91677,0.257507,4.84957,-0.662499,0.592157,0.522676,0.0690667,0.734881,0.565184,0.0420663,1
1.7129,-1.01727,-1.7562,-1.12272,2.06732,1.21675,-0.929787,1.7129,-1.01727,-1.7562,-1.12272,2.06732,1.21675,-0.929787,1.78218,-1.07913,-1.79651,-1.13983,1.99487,1.15936,-0.93582,-0.274828,-0.35862,1.02958,-0.805525,1.87105,1.03096,-0.305747,-0.274828,-0.35862,1.02958,-0.805525,1.87105,1.03096,-0.305747,0.527772,-0.452622,0.694339,0.565707,0.166534,0.115689,0.799286,-0.205873,0.0592179,0.05779,2.71514,-0.46898,0.965928,-3.00221,0.279355,4.7442,-3.00221,0.279355,4.7442,-0.692853,0.618564,0.403041,0.171107,0.724474,0.573828,0.0603245,1
1.71368,-1.01714,-1.76095,-1.11129,2.07802,1.2283,-0.948231,1.71368,-1.01714,-1.76095,-1.11129,2.07802,1.2283,-0.948231,1.78031,-1.08208,-1.78705,-1.14588,2.00865,1.16712,-0.938787,-0.135689,-0.267674,0.924414,-0.529284,1.21866,0.697691,-0.301291,-0.135689,-0.267674,0.924414,-0.529284,1.21866,0.697691,-0.301291,0.525559,-0.45238,0.695516,0.562848,0.164291,0.105618,0.803154,-0.131163,0.0959333,0.108111,2.68557,-0.466457,1.01202,-2.95632,0.25228,4.60948,-2.95632,0.25228,4.60948,-0.666298,0.649349,0.260919,0.345882,0.693717,0.61182,-0.0944384,1
1.71584,-1.01463,-1.76522,-1.11116,2.08594,1.23346,-0.950333,1.71584,-1.01463,-1.76522,-1.11116,2.08594,1.23346,-0.950333,1.78035,-1.0838,-1.77879,-1.14846,2.01746,1.17315,-0.941494,0.0300212,-0.147757,0.770329,-0.17006,0.795906,0.599178,-0.250896,0.0300212,-0.147757,0.770329,-0.17006,0.795906,0.599178,-0.250896,0.524078,-0.451571,0.697524,0.561018,0.161273,0.0983846,0.805959,-0.08878,0.100482,0.189603,2.65608,-0.464114,1.05683,-2.94914,0.234365,4.48052,-2.94914,0.234365,4.48052,-0.645146,0.691668,0.135628,0.372946,0.684813,0.603182,-0.088389,1
1.71155,-1.01153,-1.75528,-1.1352,2.09617,1.21671,-0.961638,1.71155,-1.01153,-1.75528,-1.1352,2.09617,1.21671,-0.961638,1.78122,-1.08489,-1.77279,-1.14818,2.02426,1.17921,-0.942063,0.113074,-0.08829,0.557963,0.0641531,0.669484,0.612325,0.0129313,0.113074,-0.08829,0.557963,0.0641531,0.669484,0.612325,0.0129313,0.522697,-0.451297,0.699658,0.559636,0.15795,0.0923108,0.808293,-0.077524,0.050876,0.196427,2.62654,-0.461113,1.10068,-2.95444,0.300062,4.38558,-2.95444,0.300062,4.38558,-0.696737,0.733538,0.175116,0.129848,0.719079,0.374955,-0.195753,1
1.71625,-1.00845,-1.73642,-1.15768,2.10389,1.20776,-0.974607,1.71625,-1.00845,-1.73642,-1.15768,2.10389,1.20776,-0.974607,1.78279,-1.08502,-1.76814,-1.14691,2.03178,1.18613,-0.941001,0.152455,0.0182764,0.431323,0.138469,0.789176,0.72438,0.117868,0.152455,0.0182764,0.431323,0.138469,0.789176,0.72438,0.117868,0.521338,-0.451032,0.702079,0.557954,0.154304,0.0862118,0.81083,-0.0879089,0.043183,0.229573,2.59739,-0.459039,1.14334,-2.91476,0.20735,4.26579,-2.91476,0.20735,4.26579,-0.665336,0.765684,0.317231,-0.107755,0.721164,0.216312,-0.336062,1
1.71396,-1.00292,-1.72816,-1.17564,2.11791,1.20719,-0.972245,1.71396,-1.00292,-1.72816,-1.17564,2.11791,1.20719,-0.972245,1.78352,-1.08182,-1.7642,-1.14326,2.04667,1.1992,-0.941361,0.0238307,0.267848,0.223326,0.268782,1.04063,0.905139,-0.061587,0.0238307,0.267848,0.223326,0.268782,1.04063,0.905139,-0.061587,0.517718,-0.451901,0.706989,0.558106,0.14759,0.0766873,0.812929,-0.399026,-0.0998032,0.65208,2.56833,-0.456515,1.18507,-2.90625,0.252485,4.17311,-2.90625,0.252485,4.17311,-0.695538,0.788939,0.360381,-0.323811,0.712477,0.0799791,-0.30884,1
1.713,-1.00101,-1.72428,-1.1745,2.12397,1.20783,-0.973958,1.713,-1.00101,-1.72428,-1.1745,2.12397,1.20783,-0.973958,1.78338,-1.0796,-1.76351,-1.14183,2.05236,1.204,-0.942026,-0.0270251,0.443367,0.138601,0.285076,1.13878,0.961722,-0.133004,-0.0270251,0.443367,0.138601,0.285076,1.13878,0.961722,-0.133004,0.516166,-0.452251,0.709092,0.558758,0.144995,0.073637,0.81323,-0.241685,-0.0490815,0.397142,2.53966,-0.454145,1.22595,-2.86648,0.236914,4.08762,-2.86648,0.236914,4.08762,-0.703861,0.785909,0.392299,-0.326693,0.71613,0.0382541,-0.319328,1
1.71122,-0.991586,-1.72925,-1.17956,2.13949,1.22602,-0.975485,1.71122,-0.991586,-1.72925,-1.17956,2.13949,1.22602,-0.975485,1.78094,-1.07077,-1.76158,-1.13935,2.07031,1.21471,-0.946415,-0.207016,0.613221,0.124043,0.122593,1.20918,0.622857,-0.338824,-0.207016,0.613221,0.124043,0.122593,1.20918,0.622857,-0.338824,0.511282,-0.453187,0.71589,0.56179,0.138671,0.0657829,0.812918,-0.545573,-0.0870904,0.863935,2.51085,-0.451744,1.26564,-2.88124,0.240132,3.9694,-2.88124,0.240132,3.9694,-0.697176,0.791797,0.323312,-0.402156,0.691773,0.113122,-0.2907,1
1.70683,-0.984753,-1.74252,-1.16756,2.15123,1.23941,-0.976113,1.70683,-0.984753,-1.74252,-1.16756,2.15123,1.23941,-0.976113,1.77666,-1.06438,-1.75937,-1.14058,2.0824,1.21715,-0.951785,-0.428191,0.638197,0.220995,-0.123504,1.20855,0.243669,-0.536954,-0.428191,0.638197,0.220995,-0.123504,1.20855,0.243669,-0.536954,0.507954,-0.453955,0.720074,0.564457,0.136783,0.0616364,0.811714,-0.593587,-0.0983557,0.81424,2.48197,-0.449351,1.30481,-2.88796,0.239328,3.91709,-2.88796,0.239328,3.91709,-0.698243,0.79631,0.168498,-0.269785,0.688337,0.222623,-0.243284,1
1.70291,-0.981428,-1.77179,-1.12417,2.15463,1.25925,-0.972572,1.70291,-0.981428,-1.77179,-1.12417,2.15463,1.25925,-0.972572,1.77375,-1.06117,-1.75781,-1.14241,2.08837,1.21723,-0.954812,-0.582388,0.64261,0.311322,-0.365049,1.19308,0.016227,-0.605398,-0.582388,0.64261,0.311322,-0.365049,1.19308,0.016227,-0.605398,0.506306,-0.454229,0.721988,0.565666,0.136472,0.0598459,0.811058,-0.305471,-0.0261118,0.376303,2.453,-0.446976,1.34288,-2.89738,0.237504,3.80647,-2.89738,0.237504,3.80647,-0.708388,0.797428,-0.139811,0.182374,0.662661,0.420217,-0.177601,1
1.69226,-0.971266,-1.78438,-1.119,2.1692,1.26494,-0.981804,1.69226,-0.971266,-1.78438,-1.119,2.1692,1.26494,-0.981804,1.76276,-1.05111,-1.75099,-1.15098,2.10589,1.2158,-0.963466,-0.757733,0.6766,0.489526,-0.619226,1.15886,-0.103783,-0.56402,-0.757733,0.6766,0.489526,-0.619226,1.15886,-0.103783,-0.56402,0.500992,-0.454461,0.72785,0.568442,0.136198,0.0548709,0.809514,-0.676751,0.0582136,0.774649,2.42414,-0.444501,1.3796,-2.88572,0.247493,3.67209,-2.88572,0.247493,3.67209,-0.70506,0.798413,-0.33388,0.319765,0.633135,0.491419,-0.183383,1
1.68879,-0.967955,-1.78171,-1.12431,2.17719,1.25811,-0.964413,1.68879,-0.967955,-1.78171,-1.12431,2.17719,1.25811,-0.964413,1.75883,-1.0478,-1.74848,-1.15464,2.11156,1.21574,-0.965989,-0.786628,0.661246,0.502511,-0.730936,1.13466,-0.011625,-0.50468,-0.786628,0.661246,0.502511,-0.730936,1.13466,-0.011625,-0.50468,0.499184,-0.454291,0.729673,0.569006,0.136028,0.0532535,0.809254,-0.341036,0.059716,0.359125,2.39542,-0.441883,1.41559,-2.87251,0.26176,3.59933,-2.87251,0.26176,3.59933,-0.700444,0.798463,-0.332311,0.303292,0.656331,0.423681,0.0157649,1
1.67814,-0.961085,-1.78248,-1.13711,2.18597,1.24043,-0.979728,1.67814,-0.961085,-1.78248,-1.13711,2.18597,1.24043,-0.979728,1.75044,-1.04145,-1.7454,-1.16135,2.12291,1.21705,-0.970256,-0.856582,0.637553,0.23999,-0.620511,1.13586,0.184658,-0.397371,-0.856582,0.637553,0.23999,-0.620511,1.13586,0.184658,-0.397371,0.49523,-0.454788,0.732663,0.570648,0.135665,0.0500551,0.808363,-0.392411,-0.0588671,0.284746,2.36638,-0.439454,1.45061,-2.90327,0.242949,3.50188,-2.90327,0.242949,3.50188,-0.722906,0.803669,-0.370789,0.242458,0.630616,0.233796,-0.0947147,1
1.66872,-0.949211,-1.77222,-1.15644,2.20198,1.22466,-1.00461,1.66872,-0.949211,-1.77222,-1.15644,2.20198,1.22466,-1.00461,1.73878,-1.03048,-1.74564,-1.16618,2.13903,1.22442,-0.974383,-0.745408,0.753443,-0.090433,-0.248775,1.05102,0.572205,-0.249925,-0.745408,0.753443,-0.090433,-0.248775,1.05102,0.572205,-0.249925,0.488299,-0.456813,0.737646,0.575042,0.132419,0.0455999,0.806048,-0.864858,-0.254954,0.655463,2.33722,-0.436852,1.4848,-2.91655,0.260156,3.41932,-2.91655,0.260156,3.41932,-0.700598,0.812721,-0.265826,0.0973991,0.629449,0.00240906,-0.302317,1
1.65936,-0.941647,-1.77016,-1.15993,2.21298,1.20983,-1.01238,1.65936,-0.941647,-1.77016,-1.15993,2.21298,1.20983,-1.01238,1.73204,-1.02247,-1.75029,-1.16484,2.14882,1.23277,-0.976012,-0.673868,0.800811,-0.46521,0.134152,0.978163,0.835745,-0.162866,-0.673868,0.800811,-0.46521,0.134152,0.978163,0.835745,-0.162866,0.483116,-0.459466,0.740999,0.57989,0.128637,0.0431474,0.803317,-0.954236,-0.51409,0.648109,2.30825,-0.434393,1.51744,-2.89705,0.245881,3.26388,-2.89705,0.245881,3.26388,-0.726822,0.808282,-0.198754,0.0490996,0.641694,-0.229464,-0.363635,1
1.65346,-0.932698,-1.77262,-1.16059,2.21993,1.2173,-1.01576,1.65346,-0.932698,-1.77262,-1.16059,2.21993,1.2173,-1.01576,1.72648,-1.01338,-1.75708,-1.1613,2.15821,1.24077,-0.975991,-0.556302,0.909052,-0.679356,0.35399,0.938998,0.799331,0.00201934,-0.556302,0.909052,-0.679356,0.35399,0.938998,0.799331,0.00201934,0.478191,-0.462172,0.744713,0.584889,0.124702,0.0414962,0.800395,-0.910779,-0.537662,0.724401,2.27956,-0.432186,1.54861,-2.86851,0.220752,3.11651,-2.86851,0.220752,3.11651,-0.730216,0.806862,-0.155372,0.00706,0.61722,-0.234634,-0.397663,1
1.65005,-0.923258,-1.78353,-1.1433,2.23055,1.22602,-1.01658,1.65005,-0.923258,-1.78353,-1.1433,2.23055,1.22602,-1.01658,1.72165,-1.00371,-1.76392,-1.15835,2.16755,1.24543,-0.97692,-0.482551,0.967487,-0.683934,0.294788,0.934962,0.466624,-0.0928718,-0.482551,0.967487,-0.683934,0.294788,0.934962,0.466624,-0.0928718,0.47418,-0.464178,0.748455,0.589671,0.122156,0.0408533,0.797306,-0.75818,-0.400212,0.738401,2.25077,-0.429439,1.57916,-2.8795,0.274688,3.05519,-2.8795,0.274688,3.05519,-0.716053,0.804512,-0.196086,0.15056,0.629935,-0.194138,-0.396601,1
1.6518,-0.917797,-1.7906,-1.12975,2.23563,1.25251,-1.01399,1.6518,-0.917797,-1.7906,-1.12975,2.23563,1.25251,-1.01399,1.71875,-0.998556,-1.76693,-1.1575,2.17239,1.24619,-0.978329,-0.581389,1.03074,-0.602086,0.169813,0.967824,0.15095,-0.281755,-0.581389,1.03074,-0.602086,0.169813,0.967824,0.15095,-0.281755,0.47225,-0.465078,0.750416,0.592277,0.12153,0.0408505,0.795468,-0.375272,-0.178108,0.389716,2.22157,-0.427073,1.60876,-2.91936,0.236595,2.95973,-2.91936,0.236595,2.95973,-0.669439,0.807581,-0.236699,0.277569,0.632356,0.0631858,-0.356659,1
1.64179,-0.908045,-1.80844,-1.11785,2.2427,1.27605,-1.00899,1.64179,-0.908045,-1.80844,-1.11785,2.2427,1.27605,-1.00899,1.71149,-0.9881,-1.77129,-1.15708,2.18274,1.24481,-0.983419,-0.767476,1.02681,-0.378022,-0.00498533,1.05606,-0.216047,-0.579999,-0.767476,1.02681,-0.378022,-0.00498533,1.05606,-0.216047,-0.579999,0.468246,-0.466944,0.75453,0.598015,0.121443,0.0408805,0.791176,-0.402174,-0.180225,0.405888,2.19269,-0.425085,1.63718,-2.8883,0.198829,2.84227,-2.8883,0.198829,2.84227,-0.697012,0.80055,-0.37147,0.392216,0.599607,0.31233,-0.255666,1
1.62855,-0.893956,-1.81021,-1.1223,2.26716,1.24849,-0.991432,1.62855,-0.893956,-1.81021,-1.1223,2.26716,1.24849,-0.991432,1.6988,-0.974554,-1.77459,-1.15821,2.19924,1.23911,-0.994486,-0.860804,0.878397,-0.190328,-0.0693887,1.10525,-0.402263,-0.763642,-0.860804,0.878397,-0.190328,-0.0693887,1.10525,-0.402263,-0.763642,0.462128,-0.470443,0.760023,0.606997,0.12332,0.0398581,0.784065,-0.832987,-0.441438,0.729148,2.16421,-0.423109,1.66483,-2.84793,0.197577,2.765,-2.84793,0.197577,2.765,-0.702482,0.805987,-0.356236,0.359059,0.679141,0.0938423,0.0305347,1
1.62342,-0.889892,-1.81496,-1.13212,2.27001,1.22257,-0.991108,1.62342,-0.889892,-1.81496,-1.13212,2.27001,1.22257,-0.991108,1.6942,-0.970504,-1.77591,-1.15785,2.20474,1.23729,-0.998294,-0.919169,0.809995,-0.264965,0.0721194,1.0997,-0.363665,-0.761556,-0.919169,0.809995,-0.264965,0.0721194,1.0997,-0.363665,-0.761556,0.459771,-0.472216,0.761722,0.610428,0.123957,0.0392559,0.781327,-0.47089,-0.326833,0.341695,2.13599,-0.420853,1.69096,-2.82218,0.225598,2.61333,-2.82218,0.225598,2.61333,-0.707791,0.806129,-0.390516,0.257238,0.652711,-0.147227,0.0718527,1
1.61729,-0.88194,-1.81249,-1.12372,2.28073,1.21685,-1.01691,1.61729,-0.88194,-1.81249,-1.12372,2.28073,1.21685,-1.01691,1.68581,-0.963079,-1.77914,-1.15598,2.21524,1.23554,-1.00498,-0.789347,0.728864,-0.330865,0.222698,1.0255,-0.098604,-0.626185,-0.789347,0.728864,-0.330865,0.222698,1.0255,-0.098604,-0.626185,0.454949,-0.475925,0.764958,0.617155,0.124377,0.0376724,0.776035,-0.465409,-0.334039,0.325953,2.1075,-0.418538,1.71687,-2.84865,0.23151,2.59026,-2.84865,0.23151,2.59026,-0.685182,0.81139,-0.333527,0.322647,0.654906,-0.186966,-0.119308,1
1.61192,-0.875694,-1.81042,-1.12231,2.29036,1.23187,-1.03987,1.61192,-0.875694,-1.81042,-1.12231,2.29036,1.23187,-1.03987,1.67915,-0.956267,-1.78361,-1.15194,2.22485,1.23699,-1.00933,-0.637834,0.659788,-0.502823,0.460471,0.936992,0.229708,-0.365259,-0.637834,0.659788,-0.502823,0.460471,0.936992,0.229708,-0.365259,0.450054,-0.479661,0.768197,0.62341,0.123166,0.0356532,0.77131,-0.472525,-0.372212,0.309426,2.07901,-0.416147,1.74171,-2.84934,0.239143,2.48454,-2.84934,0.239143,2.48454,-0.672226,0.805734,-0.268113,0.296284,0.655106,-0.0512386,-0.305453,1
1.60597,-0.869779,-1.8097,-1.11526,2.29969,1.24581,-1.05008,1.60597,-0.869779,-1.8097,-1.11526,2.29969,1.24581,-1.05008,1.67352,-0.949938,-1.78995,-1.14655,2.23418,1.24014,-1.01018,-0.531344,0.638433,-0.671509,0.551166,0.941517,0.289604,0.0104021,-0.531344,0.638433,-0.671509,0.551166,0.941517,0.289604,0.0104021,0.445171,-0.483739,0.771039,0.62879,0.121474,0.0334047,0.767301,-0.447873,-0.388426,0.274313,2.04996,-0.414062,1.76533,-2.90518,0.208452,2.36213,-2.90518,0.208452,2.36213,-0.675522,0.801585,-0.197501,0.312894,0.655062,0.0567554,-0.399024,1
1.6043,-0.863194,-1.81301,-1.11638,2.31062,1.24007,-1.04726,1.6043,-0.863194,-1.81301,-1.11638,2.31062,1.24007,-1.04726,1.66915,-0.943334,-1.79687,-1.14224,2.24419,1.24084,-1.00858,-0.420505,0.671185,-0.689365,0.38671,1.0209,-0.0137695,0.184301,-0.420505,0.671185,-0.689365,0.38671,1.0209,-0.0137695,0.184301,0.441454,-0.48713,0.773483,0.63237,0.121335,0.0315776,0.764454,-0.334854,-0.300586,0.236883,2.02194,-0.411575,1.788,-2.80185,0.248736,2.26704,-2.80185,0.248736,2.26704,-0.648446,0.801401,-0.161366,0.25861,0.664238,-0.00777483,-0.386814,1
1.59384,-0.851638,-1.8255,-1.13382,2.32569,1.22132,-1.03896,1.59384,-0.851638,-1.8255,-1.13382,2.32569,1.22132,-1.03896,1.66069,-0.931809,-1.80608,-1.13702,2.25999,1.23776,-1.00879,-0.605196,0.789509,-0.589149,0.337989,1.05476,-0.239457,-0.0764276,-0.605196,0.789509,-0.589149,0.337989,1.05476,-0.239457,-0.0764276,0.435598,-0.491998,0.777921,0.638641,0.12249,0.0296018,0.759117,-0.809435,-0.606724,0.627793,1.99355,-0.408957,1.80981,-2.83874,0.261781,2.18055,-2.83874,0.261781,2.18055,-0.668494,0.801713,-0.194148,0.0319655,0.657042,-0.164354,-0.301728,1
1.58647,-0.843351,-1.83687,-1.11416,2.33107,1.22993,-1.04452,1.58647,-0.843351,-1.83687,-1.11416,2.33107,1.22993,-1.04452,1.65353,-0.924071,-1.81055,-1.13444,2.2703,1.23621,-1.01287,-0.748673,0.764552,-0.410966,0.258817,1.02636,-0.112973,-0.497586,-0.748673,0.764552,-0.410966,0.258817,1.02636,-0.112973,-0.497586,0.430946,-0.4951,0.781236,0.644258,0.122631,0.0281913,0.754386,-0.477334,-0.295703,0.339421,1.96493,-0.407058,1.83081,-2.86254,0.189853,2.09976,-2.86254,0.189853,2.09976,-0.670584,0.807198,-0.263202,0.202838,0.607669,-0.0628271,-0.316402,1
1.57659,-0.835415,-1.83442,-1.13455,2.34687,1.21543,-1.03653,1.57659,-0.835415,-1.83442,-1.13455,2.34687,1.21543,-1.03653,1.64542,-0.916421,-1.81383,-1.13123,2.28051,1.23598,-1.02004,-0.810931,0.765014,-0.327823,0.321255,1.02069,-0.0225963,-0.716927,-0.810931,0.765014,-0.327823,0.321255,1.02069,-0.0225963,-0.716927,0.425355,-0.498369,0.78512,0.651344,0.121578,0.0263209,0.748517,-1.07527,-0.611899,0.771128,1.93661,-0.404642,1.85046,-2.83173,0.241616,1.96569,-2.83173,0.241616,1.96569,-0.688372,0.810051,-0.205961,-0.0332564,0.663597,-0.205532,-0.1649,1
1.57393,-0.831672,-1.84245,-1.11471,2.34696,1.22084,-1.04587,1.57393,-0.831672,-1.84245,-1.11471,2.34696,1.22084,-1.04587,1.6416,-0.912731,-1.81513,-1.12978,2.28558,1.23595,-1.02414,-0.764181,0.737923,-0.259992,0.289582,1.01546,-0.00702294,-0.818471,-0.764181,0.737923,-0.259992,0.289582,1.01546,-0.00702294,-0.818471,0.422679,-0.499797,0.787057,0.654838,0.120984,0.0253253,0.745593,-0.510648,-0.267644,0.383858,1.90806,-0.4026,1.86877,-2.85488,0.204164,1.83101,-2.85488,0.204164,1.83101,-0.676704,0.810587,-0.273183,0.150689,0.61371,-0.15108,-0.217369,1
1.56595,-0.820801,-1.83292,-1.13493,2.36804,1.21261,-1.05453,1.56595,-0.820801,-1.83292,-1.13493,2.36804,1.21261,-1.05453,1.63051,-0.902195,-1.82013,-1.12711,2.30139,1.23418,-1.03437,-0.742615,0.701749,-0.35284,0.166395,1.07013,-0.141486,-0.637783,-0.742615,0.701749,-0.35284,0.166395,1.07013,-0.141486,-0.637783,0.415513,-0.504062,0.791714,0.663919,0.121028,0.0225711,0.737601,-0.921988,-0.529079,0.600191,1.87988,-0.400216,1.88565,-2.81811,0.238428,1.68734,-2.81811,0.238428,1.68734,-0.645614,0.813944,-0.127866,-0.0781735,0.666555,-0.215709,-0.201534,1
1.56854,-0.816988,-1.83474,-1.09691,2.37051,1.22413,-1.06835,1.56854,-0.816988,-1.83474,-1.09691,2.37051,1.22413,-1.06835,1.62673,-0.898347,-1.82195,-1.12602,2.30687,1.23342,-1.03701,-0.755313,0.769646,-0.363119,0.217136,1.09596,-0.152563,-0.527786,-0.755313,0.769646,-0.363119,0.217136,1.09596,-0.152563,-0.527786,0.413023,-0.505459,0.793449,0.666751,0.121017,0.0216417,0.735071,0,0,0,1.85169,-0.39804,1.90271,-2.81906,0.21762,1.70674,-2.81906,0.21762,1.70674,-0.581892,0.813592,-0.12793,0.291144,0.636387,-0.0929246,-0.313377,1
1.55374,-0.806041,-1.84116,-1.11965,2.38914,1.22106,-1.07642,1.55374,-0.806041,-1.84116,-1.11965,2.38914,1.22106,-1.07642,1.61595,-0.88687,-1.82837,-1.12418,2.32318,1.2296,-1.04185,-0.706459,0.756379,-0.45017,0.090469,1.08603,-0.286891,-0.279119,-0.706459,0.756379,-0.45017,0.090469,1.08603,-0.286891,-0.279119,0.406443,-0.509317,0.79787,0.673598,0.122376,0.0194136,0.728637,-0.831345,-0.456996,0.550988,1.82326,-0.396429,1.91824,-2.84271,0.161096,1.55294,-2.84271,0.161096,1.55294,-0.622142,0.808295,-0.127886,0.0452783,0.659677,-0.0854176,-0.345722,1
1.54573,-0.798263,-1.84749,-1.11683,2.3983,1.21106,-1.07737,1.54573,-0.798263,-1.84749,-1.11683,2.3983,1.21106,-1.07737,1.60872,-0.879199,-1.83318,-1.12337,2.33377,1.22642,-1.04424,-0.722883,0.767105,-0.480616,0.0803483,1.05905,-0.318493,-0.239199,-0.722883,0.767105,-0.480616,0.0803483,1.05905,-0.318493,-0.239199,0.402245,-0.511853,0.80053,0.677828,0.123781,0.0182783,0.724495,-0.839367,-0.458092,0.538126,1.79488,-0.3948,1.93277,-2.83804,0.162938,1.45264,-2.83804,0.162938,1.45264,-0.629898,0.809355,-0.143106,0.0654555,0.645343,-0.153582,-0.331261,1
1.54767,-0.793717,-1.83532,-1.11388,2.40264,1.21212,-1.07746,1.54767,-0.793717,-1.83532,-1.11388,2.40264,1.21212,-1.07746,1.60514,-0.875244,-1.83501,-1.12329,2.33895,1.2247,-1.0456,-0.716974,0.790931,-0.366319,0.0175573,1.03746,-0.343764,-0.272576,-0.716974,0.790931,-0.366319,0.0175573,1.03746,-0.343764,-0.272576,0.400246,-0.512814,0.801995,0.679775,0.124412,0.0177468,0.722574,-0.398084,-0.170779,0.295544,1.76707,-0.392522,1.94561,-2.78138,0.227791,1.28436,-2.78138,0.227791,1.28436,-0.574712,0.815277,-0.00312855,0.0940964,0.636822,-0.125791,-0.318615,1
1.53304,-0.786961,-1.85166,-1.11517,2.4129,1.20078,-1.08211,1.53304,-0.786961,-1.85166,-1.11517,2.4129,1.20078,-1.08211,1.59765,-0.867862,-1.83826,-1.12362,2.34924,1.22206,-1.04928,-0.783021,0.723458,-0.323798,0.00454214,1.02235,-0.235891,-0.405592,-0.783021,0.723458,-0.323798,0.00454214,1.02235,-0.235891,-0.405592,0.396102,-0.514776,0.804652,0.683879,0.125491,0.0164479,0.718534,-0.439491,-0.198942,0.271844,1.73935,-0.390335,1.9584,-2.77194,0.218689,1.27823,-2.77194,0.218689,1.27823,-0.646155,0.809013,-0.133997,0.0845036,0.636523,-0.212802,-0.328371,1
1.52054,-0.775484,-1.85524,-1.13211,2.42838,1.19548,-1.08494,1.52054,-0.775484,-1.85524,-1.13211,2.42838,1.19548,-1.08494,1.58591,-0.856923,-1.84226,-1.12216,2.36471,1.21921,-1.05754,-0.754078,0.738379,-0.247319,0.095772,1.03389,-0.190633,-0.584483,-0.754078,0.738379,-0.247319,0.095772,1.03389,-0.190633,-0.584483,0.388849,-0.518037,0.809436,0.691548,0.125749,0.0138691,0.711166,-0.909471,-0.347672,0.657082,1.71142,-0.388198,1.97046,-2.79289,0.213644,1.20608,-2.79289,0.213644,1.20608,-0.653706,0.814385,-0.129772,-0.0995083,0.636723,-0.23735,-0.273996,1
1.52506,-0.771246,-1.83907,-1.12024,2.43267,1.19454,-1.08792,1.52506,-0.771246,-1.83907,-1.12024,2.43267,1.19454,-1.08792,1.58259,-0.853147,-1.84348,-1.12193,2.37006,1.21812,-1.06067,-0.664841,0.755145,-0.243478,0.0472909,1.06963,-0.218034,-0.625268,-0.664841,0.755145,-0.243478,0.0472909,1.06963,-0.218034,-0.625268,0.386804,-0.518755,0.811049,0.693893,0.125912,0.0130585,0.708864,-0.396104,-0.123319,0.322727,1.68321,-0.385951,1.98097,-2.82087,0.224724,1.05106,-2.82087,0.224724,1.05106,-0.575346,0.819014,0.0441409,0.0168879,0.626056,-0.235783,-0.272515,1
1.51207,-0.759895,-1.84667,-1.13256,2.44862,1.18839,-1.10041,1.51207,-0.759895,-1.84667,-1.13256,2.44862,1.18839,-1.10041,1.57188,-0.841339,-1.84596,-1.12043,2.38612,1.21464,-1.06929,-0.722081,0.773696,-0.119156,0.0768771,1.04521,-0.266607,-0.539961,-0.722081,0.773696,-0.119156,0.0768771,1.04521,-0.266607,-0.539961,0.380057,-0.520769,0.816691,0.700825,0.125762,0.0103215,0.702084,-0.424455,-0.103734,0.3728,1.65547,-0.383636,1.99101,-2.77425,0.231475,1.00446,-2.77425,0.231475,1.00446,-0.598062,0.814437,-0.00712776,-0.121363,0.625088,-0.262449,-0.311149,1
1.50554,-0.752399,-1.84697,-1.12997,2.45855,1.18491,-1.10802,1.50554,-0.752399,-1.84697,-1.12997,2.45855,1.18491,-1.10802,1.56499,-0.834262,-1.84753,-1.12012,2.39623,1.21154,-1.0743,-0.688261,0.707669,-0.157569,0.0308354,1.01098,-0.310146,-0.501001,-0.688261,0.707669,-0.157569,0.0308354,1.01098,-0.310146,-0.501001,0.376056,-0.522123,0.819808,0.704802,0.126419,0.00867658,0.697995,-0.778438,-0.22569,0.624959,1.62727,-0.382013,2.00002,-2.81985,0.162312,0.900352,-2.81985,0.162312,0.900352,-0.594484,0.818631,0.0056015,-0.0985433,0.623288,-0.266218,-0.337217,1
1.50711,-0.748791,-1.83746,-1.12096,2.46385,1.18544,-1.10979,1.50711,-0.748791,-1.83746,-1.12096,2.46385,1.18544,-1.10979,1.5616,-0.830604,-1.84866,-1.1201,2.40129,1.20977,-1.07662,-0.678208,0.731656,-0.224963,0.00365509,1.0134,-0.352364,-0.463335,-0.678208,0.731656,-0.224963,0.00365509,1.0134,-0.352364,-0.463335,0.374153,-0.52278,0.82128,0.706731,0.126936,0.00800708,0.695956,-0.374135,-0.109961,0.296395,1.5995,-0.379773,2.00804,-2.77665,0.224021,0.802803,-2.77665,0.224021,0.802803,-0.544885,0.818136,0.111917,-0.00856286,0.625606,-0.243358,-0.331665,1
1.49618,-0.740992,-1.84712,-1.12177,2.47331,1.18078,-1.11719,1.49618,-0.740992,-1.84712,-1.12177,2.47331,1.18078,-1.11719,1.55437,-0.822675,-1.85055,-1.11999,2.41155,1.20596,-1.08084,-0.7405,0.819319,-0.147439,0.0162143,1.02107,-0.381749,-0.410774,-0.7405,0.819319,-0.147439,0.0162143,1.02107,-0.381749,-0.410774,0.37012,-0.523896,0.824643,0.710529,0.12779,0.00671572,0.691934,-0.403953,-0.074531,0.363844,1.57075,-0.377646,2.01462,-2.8756,0.212672,0.65794,-2.8756,0.212672,0.65794,-0.581853,0.816828,0.0343204,-0.0178006,0.617592,-0.251805,-0.363456,1
1.48926,-0.732807,-1.84291,-1.11957,2.48144,1.18289,-1.11939,1.48926,-0.732807,-1.84291,-1.11957,2.48144,1.18289,-1.11939,1.54689,-0.814826,-1.85122,-1.12086,2.42163,1.20165,-1.08518,-0.739254,0.747775,-0.058997,-0.13108,1.00886,-0.435545,-0.450021,-0.739254,0.747775,-0.058997,-0.13108,1.00886,-0.435545,-0.450021,0.366355,-0.524582,0.82796,0.713856,0.128878,0.00545633,0.68831,-0.354142,-0.0495185,0.303098,1.54251,-0.376021,2.02002,-2.82357,0.162509,0.53947,-2.82357,0.162509,0.53947,-0.57639,0.820194,0.083182,0.0128937,0.598094,-0.187599,-0.342139,1
1.47924,-0.726332,-1.84699,-1.13749,2.49384,1.17006,-1.11899,1.47924,-0.726332,-1.84699,-1.13749,2.49384,1.17006,-1.11899,1.53969,-0.807929,-1.85211,-1.12235,2.43207,1.19709,-1.09027,-0.719924,0.684811,-0.0888131,-0.13422,1.05764,-0.460124,-0.528157,-0.719924,0.684811,-0.0888131,-0.13422,1.05764,-0.460124,-0.528157,0.362921,-0.525595,0.830502,0.717102,0.130718,0.00395257,0.684589,-0.344214,-0.0799385,0.259024,1.51501,-0.373563,2.02429,-2.74968,0.245845,0.42758,-2.74968,0.245845,0.42758,-0.604548,0.81597,0.0511974,-0.15149,0.617642,-0.270288,-0.287116,1
1.47561,-0.718096,-1.84026,-1.13768,2.50243,1.166,-1.12392,1.47561,-0.718096,-1.84026,-1.13768,2.50243,1.166,-1.12392,1.53228,-0.800456,-1.85208,-1.12355,2.44258,1.19272,-1.09588,-0.747535,0.765559,0.0315657,-0.133561,1.03917,-0.433591,-0.56454,-0.747535,0.765559,0.0315657,-0.133561,1.03917,-0.433591,-0.56454,0.359294,-0.526162,0.833662,0.720454,0.131953,0.00238052,0.680829,-0.352832,-0.0148647,0.330681,1.48712,-0.371591,2.02814,-2.78889,0.197187,0.384808,-2.78889,0.197187,0.384808,-0.566719,0.8236,0.118179,-0.14123,0.598495,-0.267231,-0.280388,1
1.47192,-0.710874,-1.83523,-1.14567,2.51169,1.16486,-1.13468,1.47192,-0.710874,-1.83523,-1.14567,2.51169,1.16486,-1.13468,1.52506,-0.793051,-1.85176,-1.12489,2.45254,1.18863,-1.10163,-0.709234,0.730038,0.02241,-0.110444,0.981955,-0.398131,-0.578765,-0.709234,0.730038,0.02241,-0.110444,0.981955,-0.398131,-0.578765,0.355831,-0.526448,0.836818,0.723728,0.132978,0.00100377,0.677151,-0.338349,-0.0118432,0.3166,1.45939,-0.369793,2.03117,-2.77297,0.179824,0.303054,-2.77297,0.179824,0.303054,-0.531412,0.821766,0.165239,-0.207809,0.591547,-0.237733,-0.330466,1
1.46902,-0.703559,-1.82886,-1.14684,2.52219,1.16929,-1.14187,1.46902,-0.703559,-1.82886,-1.14684,2.52219,1.16929,-1.14187,1.5183,-0.785645,-1.85132,-1.12507,2.46195,1.18505,-1.10727,-0.669603,0.743868,0.0535083,-0.0107855,0.931009,-0.339278,-0.55518,-0.669603,0.743868,0.0535083,-0.0107855,0.931009,-0.339278,-0.55518,0.352252,-0.526585,0.840377,0.727117,0.133281,-0.000386189,0.673451,-0.344411,0.0107288,0.362759,1.43157,-0.368137,2.03265,-2.78249,0.165552,0.147295,-2.78249,0.165552,0.147295,-0.492744,0.820857,0.224523,-0.217702,0.602382,-0.157644,-0.345917,1
1.46253,-0.696305,-1.82941,-1.14635,2.53299,1.16476,-1.14795,1.46253,-0.696305,-1.82941,-1.14635,2.53299,1.16476,-1.14795,1.51168,-0.778296,-1.85148,-1.12622,2.47109,1.18147,-1.1123,-0.652179,0.738499,-0.020181,-0.134771,0.915248,-0.369705,-0.484008,-0.652179,0.738499,-0.020181,-0.134771,0.915248,-0.369705,-0.484008,0.349076,-0.526604,0.84342,0.730147,0.134048,-0.00139925,0.67001,-0.298443,0.0222199,0.299015,1.40354,-0.366149,2.03282,-2.80273,0.198793,0.0174999,-2.80273,0.198793,0.0174999,-0.491549,0.819909,0.22065,-0.201352,0.619003,-0.167161,-0.356484,1
1.45787,-0.688074,-1.82517,-1.14883,2.54128,1.16349,-1.15258,1.45787,-0.688074,-1.82517,-1.14883,2.54128,1.16349,-1.15258,1.50536,-0.770279,-1.85042,-1.12803,2.48031,1.17762,-1.11667,-0.641225,0.809827,0.130901,-0.193541,0.925947,-0.397448,-0.425083,-0.641225,0.809827,0.130901,-0.193541,0.925947,-0.397448,-0.425083,0.346376,-0.525725,0.846869,0.732398,0.134653,-0.00229729,0.667425,-0.261778,0.11046,0.350904,1.37597,-0.36393,2.03291,-2.75742,0.221932,0.00925064,-2.75742,0.221932,0.00925064,-0.4749,0.822049,0.252451,-0.207994,0.609779,-0.141348,-0.359066,1
1.44757,-0.680484,-1.82444,-1.15918,2.55224,1.15014,-1.15538,1.44757,-0.680484,-1.82444,-1.15918,2.55224,1.15014,-1.15538,1.49813,-0.762675,-1.84925,-1.13041,2.48971,1.17363,-1.12107,-0.74195,0.751609,0.120523,-0.248164,0.942111,-0.399305,-0.451244,-0.74195,0.751609,0.120523,-0.248164,0.942111,-0.399305,-0.451244,0.343397,-0.525243,0.849915,0.734724,0.135671,-0.00336817,0.664652,-0.298249,0.0590094,0.298707,1.34794,-0.361593,2.03176,-2.80277,0.233719,-0.115085,-2.80277,0.233719,-0.115085,-0.505566,0.821918,0.248066,-0.287728,0.625294,-0.23489,-0.343161,1
1.44463,-0.668656,-1.8121,-1.16893,2.56312,1.15004,-1.16193,1.44463,-0.668656,-1.8121,-1.16893,2.56312,1.15004,-1.16193,1.48737,-0.751433,-1.84549,-1.13505,2.50403,1.16902,-1.12873,-0.708628,0.744694,0.276548,-0.323676,0.957809,-0.285602,-0.525856,-0.708628,0.744694,0.276548,-0.323676,0.957809,-0.285602,-0.525856,0.339237,-0.523673,0.854562,0.73781,0.136542,-0.00537444,0.661032,-0.516832,0.266388,0.617811,1.3203,-0.359392,2.02945,-2.76424,0.220078,-0.231504,-2.76424,0.220078,-0.231504,-0.427405,0.827768,0.333883,-0.338779,0.590897,-0.189798,-0.331942,1
1.43807,-0.662157,-1.81103,-1.17559,2.57442,1.14583,-1.16523,1.43807,-0.662157,-1.81103,-1.17559,2.57442,1.14583,-1.16523,1.48028,-0.744545,-1.84284,-1.13845,2.51379,1.16655,-1.13445,-0.709042,0.688849,0.264096,-0.339991,0.976587,-0.246959,-0.571413,-0.709042,0.688849,0.264096,-0.339991,0.976587,-0.246959,-0.571413,0.33653,-0.522755,0.857271,0.739884,0.137173,-0.00700174,0.658563,-0.516212,0.220469,0.541595,1.29324,-0.357121,2.02647,-2.70599,0.227115,-0.297832,-2.70599,0.227115,-0.297832,-0.42212,0.823878,0.318156,-0.371347,0.606241,-0.20725,-0.307856,1
1.43458,-0.658537,-1.80585,-1.17932,2.57939,1.13793,-1.16992,1.43458,-0.658537,-1.80585,-1.17932,2.57939,1.13793,-1.16992,1.47686,-0.740974,-1.84136,-1.14012,2.51868,1.16543,-1.1374,-0.685047,0.714134,0.295958,-0.333913,0.977688,-0.224997,-0.590154,-0.685047,0.714134,0.295958,-0.333913,0.977688,-0.224997,-0.590154,0.335242,-0.52213,0.858728,0.740889,0.137356,-0.00779624,0.657386,-0.244746,0.14053,0.291665,1.26524,-0.35535,2.02235,-2.79942,0.177133,-0.412202,-2.79942,0.177133,-0.412202,-0.422795,0.824371,0.355187,-0.392008,0.607083,-0.274957,-0.325225,1
1.43168,-0.6514,-1.79987,-1.18628,2.58766,1.12996,-1.17618,1.43168,-0.6514,-1.79987,-1.18628,2.58766,1.12996,-1.17618,1.47042,-0.733727,-1.83811,-1.14385,2.52848,1.1629,-1.14317,-0.633322,0.724273,0.32707,-0.384511,0.980181,-0.271725,-0.569684,-0.633322,0.724273,0.32707,-0.384511,0.980181,-0.271725,-0.569684,0.333093,-0.520545,0.861595,0.742533,0.13791,-0.00924846,0.655393,-0.192564,0.179127,0.282247,1.23744,-0.353574,2.01759,-2.77994,0.177526,-0.475645,-2.77994,0.177526,-0.475645,-0.387386,0.823275,0.382408,-0.424284,0.591822,-0.329363,-0.330048,1
1.43487,-0.640148,-1.79419,-1.19113,2.60061,1.13595,-1.18317,1.43487,-0.640148,-1.79419,-1.19113,2.60061,1.13595,-1.18317,1.46091,-0.72255,-1.83255,-1.15061,2.54347,1.15806,-1.15152,-0.639143,0.753737,0.380691,-0.462675,1.00451,-0.327829,-0.55472,-0.639143,0.753737,0.380691,-0.462675,1.00451,-0.327829,-0.55472,0.330585,-0.517655,0.865694,0.744303,0.139478,-0.0111373,0.65302,-0.314175,0.43483,0.549854,1.20969,-0.351821,2.01166,-2.77529,0.175348,-0.593257,-2.77529,0.175348,-0.593257,-0.260365,0.824026,0.383616,-0.405157,0.571396,-0.221103,-0.316459,1
1.42669,-0.636705,-1.79575,-1.19348,2.60948,1.13672,-1.18,1.42669,-0.636705,-1.79575,-1.19348,2.60948,1.13672,-1.18,1.45762,-0.718673,-1.83044,-1.15315,2.54861,1.15634,-1.15421,-0.657435,0.775459,0.422394,-0.50667,1.02775,-0.343644,-0.538069,-0.657435,0.775459,0.422394,-0.50667,1.02775,-0.343644,-0.538069,0.329827,-0.516547,0.867072,0.744755,0.140073,-0.0117429,0.652366,-0.147188,0.238911,0.277599,1.18228,-0.349973,2.00448,-2.74135,0.184786,-0.717449,-2.74135,0.184786,-0.717449,-0.309315,0.819683,0.346941,-0.403319,0.608747,-0.196157,-0.257913,1
1.43203,-0.62556,-1.78735,-1.20246,2.62445,1.14329,-1.18012,1.43203,-0.62556,-1.78735,-1.20246,2.62445,1.14329,-1.18012,1.44794,-0.707278,-1.8232,-1.16171,2.56387,1.1504,-1.16186,-0.642888,0.753269,0.493876,-0.58217,1.00946,-0.413055,-0.503188,-0.642888,0.753269,0.493876,-0.58217,1.00946,-0.413055,-0.503188,0.328195,-0.512882,0.870882,0.745403,0.142472,-0.0133557,0.651074,-0.196745,0.533894,0.499185,1.15498,-0.347436,1.99619,-2.72938,0.253734,-0.829148,-2.72938,0.253734,-0.829148,-0.159062,0.817183,0.358507,-0.407474,0.605851,-0.0711635,-0.182595,1
1.42446,-0.622423,-1.79931,-1.20606,2.62657,1.15958,-1.18792,1.42446,-0.622423,-1.79931,-1.20606,2.62657,1.15958,-1.18792,1.44467,-0.703578,-1.82077,-1.16464,2.5687,1.14807,-1.16433,-0.653876,0.740068,0.485145,-0.585732,0.966719,-0.467912,-0.495536,-0.653876,0.740068,0.485145,-0.585732,0.966719,-0.467912,-0.495536,0.327752,-0.511693,0.872042,0.74558,0.143483,-0.0137245,0.650642,-0.0931657,0.257299,0.236079,1.12745,-0.345856,1.98722,-2.75365,0.157923,-0.897491,-2.75365,0.157923,-0.897491,-0.202067,0.811551,0.214669,-0.414242,0.578669,0.115125,-0.235851,1
1.43098,-0.615097,-1.79891,-1.19756,2.63779,1.17546,-1.18625,1.43098,-0.615097,-1.79891,-1.19756,2.63779,1.17546,-1.18625,1.43823,-0.696011,-1.81583,-1.17048,2.57816,1.14359,-1.16941,-0.633933,0.760598,0.50003,-0.579548,0.940967,-0.429849,-0.513585,-0.633933,0.760598,0.50003,-0.579548,0.940967,-0.429849,-0.513585,0.326963,-0.509104,0.874436,0.745962,0.145333,-0.0142925,0.64978,-0.0794934,0.284425,0.246819,1.10046,-0.344012,1.97741,-2.69928,0.18439,-0.980461,-2.69928,0.18439,-0.980461,-0.0724534,0.809143,0.169186,-0.270794,0.596313,0.318726,-0.168389,1
1.45723,-0.606643,-1.82929,-1.17196,2.6484,1.19376,-1.19068,1.45723,-0.606643,-1.82929,-1.17196,2.6484,1.19376,-1.19068,1.42974,-0.68491,-1.80854,-1.17952,2.59231,1.13891,-1.17615,-0.546313,0.732752,0.477973,-0.607924,0.946985,-0.280719,-0.423763,-0.546313,0.732752,0.477973,-0.607924,0.946985,-0.280719,-0.423763,0.326258,-0.504746,0.877764,0.745952,0.147435,-0.0153277,0.649294,-0.0800906,0.617431,0.431408,1.07225,-0.342544,1.96591,-2.82048,0.146815,-1.15019,-2.82048,0.146815,-1.15019,0.274897,0.782672,-0.207524,0.0756395,0.560877,0.548495,-0.145234,1
1.45662,-0.603413,-1.82537,-1.18508,2.65672,1.19596,-1.18536,1.45662,-0.603413,-1.82537,-1.18508,2.65672,1.19596,-1.18536,1.42734,-0.681098,-1.80619,-1.18263,2.59717,1.13815,-1.17787,-0.481526,0.762443,0.46941,-0.622368,0.971015,-0.151173,-0.343237,-0.481526,0.762443,0.46941,-0.622368,0.971015,-0.151173,-0.343237,0.326171,-0.503048,0.878875,0.745686,0.147816,-0.0157689,0.649504,-0.0155029,0.349944,0.222956,1.04518,-0.341083,1.95361,-2.70686,0.146127,-1.22964,-2.70686,0.146127,-1.22964,0.292867,0.776853,-0.19176,-0.0245075,0.595498,0.578066,-0.0748661,1
1.44173,-0.593962,-1.82444,-1.20908,2.67182,1.16859,-1.20082,1.44173,-0.593962,-1.82444,-1.20908,2.67182,1.16859,-1.20082,1.4228,-0.673455,-1.80294,-1.18879,2.60706,1.13856,-1.18103,-0.444015,0.761305,0.262221,-0.606692,0.989404,0.102947,-0.312952,-0.444015,0.761305,0.262221,-0.606692,0.989404,0.102947,-0.312952,0.325782,-0.499854,0.880809,0.745465,0.148041,-0.0168031,0.64968,-0.0412876,0.312499,0.180166,1.01826,-0.338656,1.94123,-2.69226,0.242698,-1.2388,-2.69226,0.242698,-1.2388,0.189218,0.794934,-0.21501,-0.202922,0.64764,0.300393,-0.197875,1
1.42358,-0.580852,-1.81369,-1.18962,2.68329,1.1828,-1.21306,1.42358,-0.580852,-1.81369,-1.18962,2.68329,1.1828,-1.21306,1.41748,-0.661424,-1.80063,-1.19541,2.62134,1.14475,-1.18497,-0.341047,0.811692,0.107738,-0.390842,0.940293,0.495117,-0.248925,-0.341047,0.811692,0.107738,-0.390842,0.940293,0.495117,-0.248925,0.324297,-0.494896,0.884404,0.746122,0.145203,-0.0188536,0.649509,-0.187773,0.641258,0.488142,0.990041,-0.336695,1.92723,-2.82186,0.196081,-1.39954,-2.82186,0.196081,-1.39954,0.0609931,0.805711,-0.130602,0.0578704,0.619585,0.380439,-0.280903,1
1.39257,-0.576459,-1.79638,-1.19741,2.69428,1.17179,-1.21512,1.39257,-0.576459,-1.79638,-1.19741,2.69428,1.17179,-1.21512,1.41607,-0.65743,-1.80118,-1.19645,2.62596,1.14853,-1.1861,-0.280725,0.798637,-0.111552,-0.207955,0.924937,0.756115,-0.225872,-0.280725,0.798637,-0.111552,-0.207955,0.924937,0.756115,-0.225872,0.32331,-0.49354,0.885732,0.746883,0.143325,-0.0197925,0.649024,-0.159757,0.258543,0.255344,0.963165,-0.334429,1.91228,-2.68758,0.226653,-1.49465,-2.68758,0.226653,-1.49465,-0.235003,0.809716,0.0479907,-0.00961493,0.683202,0.232612,-0.2902,1
1.38051,-0.564068,-1.80474,-1.18173,2.70674,1.18078,-1.22579,1.38051,-0.564068,-1.80474,-1.18173,2.70674,1.18078,-1.22579,1.41536,-0.645082,-1.80649,-1.1975,2.63948,1.16239,-1.18846,0.00917394,0.828722,-0.415505,-0.0551395,0.899297,0.940739,-0.14776,0.00917394,0.828722,-0.415505,-0.0551395,0.899297,0.940739,-0.14776,0.320889,-0.489264,0.889794,0.749288,0.136405,-0.0224652,0.647654,-0.20683,0.536608,0.503119,0.936355,-0.332458,1.89644,-2.68101,0.197089,-1.58434,-2.68101,0.197089,-1.58434,-0.34842,0.810144,0.017511,0.1577,0.672573,0.183934,-0.373302,1
1.38769,-0.555852,-1.80631,-1.17285,2.71431,1.20622,-1.22636,1.38769,-0.555852,-1.80631,-1.17285,2.71431,1.20622,-1.22636,1.41704,-0.636041,-1.81133,-1.19815,2.64904,1.16946,-1.1911,0.195719,0.924091,-0.451265,-0.0692945,0.979778,0.659185,-0.30473,0.195719,0.924091,-0.451265,-0.0692945,0.979778,0.659185,-0.30473,0.320552,-0.485915,0.892433,0.750723,0.132904,-0.0234721,0.646684,0.0171967,0.342759,0.267662,0.90899,-0.331081,1.88006,-2.73648,0.137687,-1.63828,-2.73648,0.137687,-1.63828,-0.293442,0.801889,0.0502181,0.253044,0.652655,0.36752,-0.352603,1
1.39959,-0.54733,-1.81652,-1.17315,2.72635,1.21954,-1.22182,1.39959,-0.54733,-1.81652,-1.17315,2.72635,1.21954,-1.22182,1.41871,-0.626977,-1.81454,-1.19853,2.65946,1.17504,-1.19538,0.145888,0.882636,-0.278221,-0.018564,1.06058,0.507005,-0.467648,0.145888,0.882636,-0.278221,-0.018564,1.06058,0.507005,-0.467648,0.320363,-0.482307,0.895463,0.752117,0.129772,-0.0248207,0.64565,0.000918989,0.336122,0.299121,0.881781,-0.329248,1.86222,-2.72097,0.183302,-1.78354,-2.72097,0.183302,-1.78354,-0.191177,0.796473,-0.0198612,0.253716,0.668829,0.445022,-0.264394,1
1.40781,-0.543403,-1.81888,-1.19541,2.73081,1.22359,-1.22105,1.40781,-0.543403,-1.81888,-1.19541,2.73081,1.22359,-1.22105,1.41937,-0.622914,-1.81528,-1.19858,2.66489,1.1769,-1.19799,0.130517,0.812572,-0.148026,-0.011924,1.08552,0.372269,-0.521889,0.130517,0.812572,-0.148026,-0.011924,1.08552,0.372269,-0.521889,0.320272,-0.480666,0.896969,0.752705,0.128597,-0.0257532,0.645163,0.010186,0.32454,0.295829,0.854554,-0.327194,1.84384,-2.72264,0.205401,-1.83845,-2.72264,0.205401,-1.83845,-0.115573,0.795116,-0.0360296,0.0317108,0.659155,0.466872,-0.230685,1
1.44111,-0.535156,-1.82865,-1.18645,2.74712,1.23609,-1.22362,1.44111,-0.535156,-1.82865,-1.18645,2.74712,1.23609,-1.22362,1.42066,-0.612671,-1.81541,-1.19661,2.68206,1.18165,-1.20721,0.0660751,0.655412,0.00360126,0.190843,1.15789,0.313735,-0.635866,0.0660751,0.655412,0.00360126,0.190843,1.15789,0.313735,-0.635866,0.319032,-0.476792,0.901802,0.754687,0.124999,-0.0302409,0.643357,-0.145915,0.4732,0.655568,0.827278,-0.325981,1.82384,-2.72765,0.121298,-1.99991,-2.72765,0.121298,-1.99991,0.204449,0.775155,-0.132472,0.101578,0.650641,0.544399,-0.164124,1
1.44767,-0.533039,-1.82176,-1.21826,2.75613,1.23433,-1.22612,1.44767,-0.533039,-1.82176,-1.21826,2.75613,1.23433,-1.22612,1.42099,-0.609601,-1.81536,-1.19526,2.68785,1.18359,-1.21046,0.0659117,0.614034,0.00891605,0.268992,1.15863,0.387405,-0.65104,0.0659117,0.614034,0.00891605,0.268992,1.15863,0.387405,-0.65104,0.318272,-0.475744,0.903527,0.755524,0.123486,-0.0321108,0.642576,-0.105363,0.212792,0.339689,0.800811,-0.323611,1.80309,-2.64665,0.237033,-2.0748,-2.64665,0.237033,-2.0748,0.266765,0.765623,-0.0640076,-0.229972,0.682826,0.50745,-0.156582,1
1.45665,-0.526709,-1.81627,-1.21559,2.76673,1.23574,-1.24703,1.45665,-0.526709,-1.81627,-1.21559,2.76673,1.23574,-1.24703,1.42213,-0.603281,-1.81562,-1.19218,2.69919,1.1888,-1.2161,0.124333,0.643346,-0.0394632,0.327569,1.12657,0.581701,-0.524645,0.124333,0.643346,-0.0394632,0.327569,1.12657,0.581701,-0.524645,0.316661,-0.473385,0.90715,0.75703,0.119662,-0.0359713,0.641321,-0.116063,0.242054,0.364718,0.773312,-0.321795,1.7815,-2.7499,0.18152,-2.15913,-2.7499,0.18152,-2.15913,0.345229,0.76572,-0.00650596,-0.234164,0.675395,0.469379,-0.309308,1
1.46582,-0.517057,-1.8228,-1.18454,2.78248,1.25327,-1.25211,1.46582,-0.517057,-1.8228,-1.18454,2.78248,1.25327,-1.25211,1.42425,-0.59268,-1.81763,-1.18914,2.71535,1.20009,-1.2216,0.142463,0.722841,-0.157796,0.159858,1.06356,0.789156,-0.328871,0.142463,0.722841,-0.157796,0.159858,1.06356,0.789156,-0.328871,0.314467,-0.46896,0.912217,0.758659,0.112724,-0.0411929,0.640338,-0.17134,0.592062,0.63267,0.746818,-0.319992,1.75854,-2.64939,0.180364,-2.29613,-2.64939,0.180364,-2.29613,0.415743,0.756235,-0.0517057,0.0460834,0.67136,0.531778,-0.305104,1
1.4537,-0.509551,-1.83758,-1.17223,2.79284,1.2671,-1.2583,1.4537,-0.509551,-1.83758,-1.17223,2.79284,1.2671,-1.2583,1.42502,-0.584705,-1.81987,-1.18915,2.72573,1.20908,-1.22387,0.0776219,0.797485,-0.224147,-8.3885e-05,1.03857,0.89847,-0.227245,0.0776219,0.797485,-0.224147,-8.3885e-05,1.03857,0.89847,-0.227245,0.313158,-0.465567,0.915082,0.75954,0.107986,-0.0440157,0.639922,-0.164851,0.648589,0.554937,0.71964,-0.319037,1.73496,-2.71786,0.0954479,-2.35733,-2.71786,0.0954479,-2.35733,0.286726,0.751547,-0.177073,0.16917,0.671058,0.580191,-0.344311,1
1.41681,-0.501162,-1.80725,-1.22585,2.80333,1.22919,-1.24433,1.41681,-0.501162,-1.80725,-1.22585,2.80333,1.22919,-1.24433,1.4252,-0.580321,-1.82065,-1.19012,2.73088,1.21356,-1.22481,0.0352208,0.876878,-0.156379,-0.194883,1.02851,0.896196,-0.188891,0.0352208,0.876878,-0.156379,-0.194883,1.02851,0.896196,-0.188891,0.312774,-0.463501,0.916392,0.759745,0.105796,-0.0451314,0.639967,-0.0350485,0.39635,0.254061,0.693433,-0.317018,1.70991,-2.62067,0.201899,-2.50531,-2.62067,0.201899,-2.50531,-0.0839243,0.791595,0.134003,-0.357256,0.724556,0.156276,-0.195191,1
1.40183,-0.487606,-1.84818,-1.23901,2.81145,1.20997,-1.26359,1.40183,-0.487606,-1.84818,-1.23901,2.81145,1.20997,-1.26359,1.42354,-0.567481,-1.82213,-1.19488,2.74659,1.22589,-1.22975,-0.150834,0.835319,-0.102405,-0.342797,1.05499,0.801632,-0.375131,-0.150834,0.835319,-0.102405,-0.342797,1.05499,0.801632,-0.375131,0.311371,-0.45785,0.919611,0.761059,0.100484,-0.0483052,0.639029,-0.134472,0.682569,0.375579,0.666863,-0.314957,1.68478,-2.65698,0.206098,-2.51341,-2.65698,0.206098,-2.51341,-0.217088,0.798748,-0.260496,-0.441315,0.648563,-0.159155,-0.338406,1
1.43468,-0.478437,-1.84379,-1.24263,2.80693,1.22299,-1.25607,1.43468,-0.478437,-1.84379,-1.24263,2.80693,1.22299,-1.25607,1.42159,-0.559558,-1.82304,-1.1971,2.7574,1.23393,-1.23505,-0.188576,0.778622,-0.0951691,-0.190566,1.08173,0.809015,-0.561499,-0.188576,0.778622,-0.0951691,-0.190566,1.08173,0.809015,-0.561499,0.309714,-0.454827,0.921777,0.762893,0.0969518,-0.0509411,0.637181,-0.130963,0.284405,0.215525,0.639332,-0.312984,1.65819,-2.75311,0.197312,-2.6589,-2.75311,0.197312,-2.6589,0.130929,0.811213,-0.207497,-0.455297,0.495338,-0.109319,-0.2102,1
1.44467,-0.478368,-1.86345,-1.23089,2.81583,1.27698,-1.2667,1.44467,-0.478368,-1.86345,-1.23089,2.81583,1.27698,-1.2667,1.42071,-0.555862,-1.8239,-1.19769,2.7629,1.23807,-1.23806,-0.176032,0.739146,-0.172593,-0.117395,1.10078,0.828127,-0.601079,-0.176032,0.739146,-0.172593,-0.117395,1.10078,0.828127,-0.601079,0.308686,-0.453611,0.922843,0.764069,0.0951129,-0.0524616,0.635924,0,0,0,0.61228,-0.311158,1.63085,-2.70519,0.18259,-2.73418,-2.70519,0.18259,-2.73418,0.239609,0.774938,-0.395512,-0.332028,0.529326,0.389179,-0.286367,1
1.46297,-0.472735,-1.86212,-1.20209,2.84453,1.29913,-1.27145,1.46297,-0.472735,-1.86212,-1.20209,2.84453,1.29913,-1.27145,1.41944,-0.544611,-1.82542,-1.19812,2.77972,1.2455,-1.24527,-0.0558945,0.764858,-0.0590164,-0.0300385,1.12713,0.36773,-0.444429,-0.0558945,0.764858,-0.0590164,-0.0300385,1.12713,0.36773,-0.444429,0.306638,-0.449657,0.926613,0.766178,0.0911997,-0.05668,0.633593,-0.133211,0.569023,0.517315,0.586275,-0.309427,1.60233,-2.60053,0.173083,-2.85169,-2.60053,0.173083,-2.85169,0.435307,0.718755,-0.367072,-0.0397129,0.648124,0.536329,-0.261863,1
1.47167,-0.466208,-1.87741,-1.19285,2.85089,1.30115,-1.27677,1.47167,-0.466208,-1.87741,-1.19285,2.84842,1.30115,-1.27677,1.41949,-0.537165,-1.82576,-1.20099,2.79101,1.2443,-1.24981,0.00478769,0.744635,-0.0348142,-0.286915,1.1292,-0.119165,-0.4544,0.00478769,0.744635,-0.0348142,-0.286915,1.1292,-0.119165,-0.4544,0.307457,-0.446877,0.928136,0.766291,0.092447,-0.0579925,0.633158,0.168923,0.589424,0.308567,0.559648,-0.307598,1.57315,-2.66272,0.182927,-2.91818,-2.66272,0.182927,-2.91818,0.521752,0.709565,-0.516437,0.0813835,0.598803,0.568441,-0.269558,1
1.46755,-0.459178,-1.88436,-1.2005,2.86056,1.29093,-1.2769,1.46755,-0.459178,-1.88436,-1.2005,2.84842,1.29093,-1.2769,1.41987,-0.529686,-1.82795,-1.20655,2.80089,1.24284,-1.25382,0.0379121,0.747816,-0.218628,-0.556182,0.987597,-0.146921,-0.401172,0.0379121,0.747816,-0.218628,-0.556182,0.987597,-0.146921,-0.401172,0.30926,-0.44417,0.928362,0.766399,0.0949924,-0.0578099,0.632667,0.327402,0.574183,0.05029,0.533176,-0.305371,1.54281,-2.64716,0.222722,-3.03354,-2.64716,0.222722,-3.03354,0.476859,0.70508,-0.564128,0.060529,0.596698,0.480983,-0.230817,1
1.44654,-0.446009,-1.88736,-1.22071,2.86821,1.27446,-1.28858,1.44654,-0.446009,-1.88736,-1.22071,2.84842,1.27446,-1.28858,1.42011,-0.520781,-1.83261,-1.21213,2.80918,1.24567,-1.25789,0.0242261,0.890519,-0.465779,-0.558567,0.829127,0.28311,-0.407033,0.0242261,0.890519,-0.465779,-0.558567,0.829127,0.28311,-0.407033,0.310371,-0.440889,0.928788,0.767773,0.0952319,-0.0568521,0.63105,0.206993,0.647011,0.0809704,0.506674,-0.303756,1.51184,-2.65024,0.161508,-3.09736,-2.65024,0.161508,-3.09736,0.264297,0.747719,-0.547475,-0.0857037,0.590301,0.287905,-0.306899,1
1.40735,-0.437006,-1.89183,-1.24863,2.88202,1.25426,-1.29643,1.40735,-0.437006,-1.89183,-1.24863,2.84842,1.25426,-1.29643,1.42036,-0.511307,-1.83949,-1.21578,2.81776,1.25388,-1.26208,0.0249811,0.947396,-0.68847,-0.364357,0.858167,0.821813,-0.419173,0.0249811,0.947396,-0.68847,-0.364357,0.858167,0.821813,-0.419173,0.309862,-0.437727,0.929819,0.770403,0.0923885,-0.0569401,0.628253,-0.063005,0.593682,0.195159,0.480093,-0.302767,1.47931,-2.65804,0.0988841,-3.25334,-2.65804,0.0988841,-3.25334,-0.130076,0.743014,-0.523323,-0.328553,0.642586,0.00375169,-0.343425,1
1.39316,-0.427836,-1.89809,-1.25894,2.89403,1.22943,-1.30331,1.39316,-0.427836,-1.89809,-1.25894,2.84842,1.22943,-1.30331,1.42205,-0.502589,-1.84819,-1.21666,2.82709,1.26523,-1.26631,0.221427,0.84512,-0.914951,-0.018623,0.942284,1.17684,-0.420445,0.221427,0.84512,-0.914951,-0.018623,0.942284,1.17684,-0.420445,0.308321,-0.435151,0.931275,0.773541,0.0876189,-0.0585259,0.624925,-0.120619,0.218468,0.146826,0.453724,-0.300841,1.44624,-2.63687,0.192615,-3.30691,-2.63687,0.192615,-3.30691,-0.288835,0.747538,-0.499073,-0.422879,0.669367,-0.358032,-0.370007,1
1.40877,-0.427071,-1.90674,-1.25529,2.89862,1.25354,-1.30708,1.40877,-0.427071,-1.90674,-1.25529,2.84842,1.25354,-1.30708,1.42376,-0.498773,-1.85312,-1.21634,2.83175,1.27096,-1.26837,0.342206,0.763258,-0.987165,0.0635899,0.93113,1.14431,-0.41047,0.342206,0.763258,-0.987165,0.0635899,0.93113,1.14431,-0.41047,0.307569,-0.434126,0.931968,0.775062,0.0851717,-0.0595791,0.623278,-0.103899,0.183341,0.1335,0.42708,-0.299187,1.41171,-2.66449,0.165367,-3.45235,-2.66449,0.165367,-3.45235,-0.149858,0.717018,-0.536135,-0.389531,0.668717,-0.174146,-0.387197,1
1.46291,-0.427553,-1.92327,-1.24336,2.90754,1.31296,-1.31618,1.46291,-0.427553,-1.92327,-1.24336,2.84842,1.31296,-1.31618,1.42905,-0.491485,-1.86372,-1.21593,2.84008,1.27936,-1.27277,0.59315,0.727449,-1.0597,0.00472189,0.79048,0.72619,-0.457785,0.59315,0.727449,-1.0597,0.00472189,0.79048,0.72619,-0.457785,0.307331,-0.432009,0.932996,0.77772,0.0818588,-0.0606062,0.620305,0.0550013,0.214148,0.0860606,0.400444,-0.297978,1.37644,-2.66356,0.120962,-3.52731,-2.66356,0.120962,-3.52731,0.338547,0.639316,-0.595461,-0.27428,0.674649,0.336015,-0.434096,1
1.49665,-0.454106,-1.93323,-1.20662,2.90521,1.34284,-1.3289,1.49665,-0.454106,-1.93323,-1.20662,2.84842,1.34284,-1.3289,1.43576,-0.483367,-1.87381,-1.21711,2.84644,1.28279,-1.27801,0.673111,0.844405,-0.9913,-0.166429,0.585209,0.214799,-0.546866,0.673111,0.844405,-0.9913,-0.166429,0.585209,0.214799,-0.546866,0.309142,-0.428846,0.933839,0.779839,0.0808381,-0.059222,0.617907,0.21108,0.326177,0.0795768,0.374561,-0.296049,1.3402,-2.58834,0.19291,-3.62381,-2.58834,0.19291,-3.62381,0.608871,0.292609,-0.594139,0.104971,0.587623,0.600476,-0.5089,1
1.49843,-0.493553,-1.95205,-1.18531,2.88612,1.33691,-1.32848,1.49843,-0.493553,-1.95205,-1.18531,2.84842,1.33691,-1.32848,1.44496,-0.4702,-1.8863,-1.22286,2.852,1.2792,-1.28724,0.591806,0.87769,-0.792619,-0.431576,0.317352,-0.336907,-0.62934,0.591806,0.87769,-0.792619,-0.431576,0.317352,-0.336907,-0.62934,0.314514,-0.422929,0.934436,0.782495,0.0835211,-0.0529353,0.614755,0.672162,0.784072,0.0523994,0.348782,-0.294213,1.30265,-2.57783,0.183538,-3.75468,-2.57783,0.183538,-3.75468,0.534711,-0.233529,-0.657491,0.375525,0.341171,0.577092,-0.412442,1
1.50045,-0.492403,-1.95856,-1.19275,2.86487,1.32637,-1.31771,1.50045,-0.492403,-1.95856,-1.19275,2.84842,1.32637,-1.31771,1.44719,-0.466024,-1.89008,-1.2254,2.85294,1.2771,-1.29047,0.445453,0.835333,-0.756475,-0.506873,0.187112,-0.421028,-0.64714,0.445453,0.835333,-0.756475,-0.506873,0.187112,-0.421028,-0.64714,0.316328,-0.421145,0.934388,0.783544,0.0849105,-0.0502881,0.61345,0.309752,0.346824,-0.0108638,0.32272,-0.292525,1.26483,-2.6062,0.168842,-3.78228,-2.6062,0.168842,-3.78228,0.532586,-0.263794,-0.684812,0.326428,0.119363,0.492723,-0.272412,1
1.4592,-0.516638,-1.97585,-1.26155,2.88421,1.30953,-1.32317,1.4592,-0.516638,-1.97585,-1.26155,2.84842,1.30953,-1.32317,1.45118,-0.455035,-1.90149,-1.23197,2.85378,1.27659,-1.30055,0.0998467,0.335625,-0.387408,-0.186571,-0.00142852,0.10476,-0.345607,0.0998467,0.335625,-0.387408,-0.186571,-0.00142852,0.10476,-0.345607,0.319425,-0.416881,0.934182,0.788164,0.0860418,-0.0434174,0.607872,0.0973335,0.221469,-0.0127415,0.296338,-0.29045,1.22614,-2.63819,0.207505,-3.86884,-2.63819,0.207505,-3.86884,0.0801917,-0.616029,-0.743593,-0.295762,0.304277,0.329352,-0.226169,1
1.42032,-0.512934,-1.98259,-1.28942,2.86446,1.3236,-1.34818,1.42032,-0.512934,-1.98259,-1.28942,2.84842,1.3236,-1.34818,1.45285,-0.44936,-1.9099,-1.23428,2.85307,1.28332,-1.30795,0.167006,0.567448,-0.840562,-0.230703,-0.0710713,0.673149,-0.740218,0.167006,0.567448,-0.840562,-0.230703,-0.0710713,0.673149,-0.740218,0.319268,-0.414906,0.934256,0.792587,0.0830707,-0.0405395,0.602712,-0.0315385,0.321691,0.00172806,0.270392,-0.288754,1.18607,-2.59469,0.169599,-4.00763,-2.59469,0.169599,-4.00763,-0.325279,-0.635741,-0.726964,-0.55147,0.113822,0.402751,-0.402276,1
1.41838,-0.511981,-1.99043,-1.30216,2.84418,1.34597,-1.35662,1.41838,-0.511981,-1.99043,-1.30216,2.84418,1.34597,-1.35662,1.45512,-0.444133,-1.91914,-1.23376,2.85186,1.29413,-1.31484,0.227497,0.522734,-0.92417,0.0514304,-0.121827,1.08024,-0.688896,0.227497,0.522734,-0.92417,0.0514304,-0.121827,1.08024,-0.688896,0.31784,-0.412939,0.935196,0.7974,0.0771692,-0.0388535,0.597234,-0.234951,0.293066,0.168683,0.244637,-0.286932,1.14525,-2.57546,0.182182,-4.0818,-2.57546,0.182182,-4.0818,-0.367403,-0.67848,-0.712969,-0.683971,-0.07671,0.518396,-0.417821,1
1.41487,-0.512407,-1.99466,-1.30274,2.80674,1.36141,-1.34762,1.41487,-0.512407,-1.99466,-1.30274,2.80674,1.36141,-1.34762,1.45696,-0.441463,-1.92391,-1.23287,2.85113,1.29964,-1.31742,0.36611,0.533981,-0.955516,0.179232,-0.1449,1.10307,-0.515693,0.36611,0.533981,-0.955516,0.179232,-0.1449,1.10307,-0.515693,0.317201,-0.411734,0.935908,0.799448,0.0738522,-0.0380863,0.594961,0,0,0,0.218652,-0.285162,1.1034,-2.59848,0.177008,-4.18453,-2.59848,0.177008,-4.18453,-0.420892,-0.709443,-0.707469,-0.698744,-0.443895,0.617652,-0.302023,1
1.4264,-0.508931,-2.00486,-1.29912,2.79836,1.37416,-1.35298,1.4264,-0.508931,-2.00486,-1.29912,2.79836,1.37416,-1.35298,1.46187,-0.43632,-1.93413,-1.23101,2.84963,1.30803,-1.32139,0.524813,0.504812,-1.04711,0.169513,-0.145533,0.735048,-0.367188,0.524813,0.504812,-1.04711,0.169513,-0.145533,0.735048,-0.367188,0.316705,-0.409448,0.93714,0.802842,0.068516,-0.0360413,0.591144,-0.0088624,0.170775,0.100884,0.193208,-0.28272,1.06078,-2.54443,0.244224,-4.26213,-2.54443,0.244224,-4.26213,-0.354679,-0.726112,-0.707392,-0.681031,-0.51273,0.6613,-0.315929,1
1.45188,-0.502784,-2.01409,-1.30039,2.79422,1.38334,-1.36217,1.45188,-0.502784,-2.01409,-1.30039,2.79422,1.38334,-1.36217,1.46784,-0.431231,-1.94455,-1.23042,2.84834,1.31405,-1.3256,0.612176,0.511559,-1.03471,0.0023129,-0.125112,0.581761,-0.459752,0.612176,0.511559,-1.03471,0.0023129,-0.125112,0.581761,-0.459752,0.31727,-0.407103,0.937814,0.805745,0.0648654,-0.0333571,0.587753,0.0804463,0.203491,0.0427909,0.166948,-0.281902,1.01729,-2.62595,0.0818044,-4.34905,-2.62595,0.0818044,-4.34905,-0.159548,-0.715529,-0.695421,-0.699643,-0.541233,0.692874,-0.365717,1
1.43471,-0.501483,-2.02583,-1.30309,2.79312,1.38664,-1.36552,1.43471,-0.501483,-2.02583,-1.30309,2.79312,1.38664,-1.36552,1.47315,-0.426496,-1.95523,-1.23337,2.84697,1.32029,-1.33156,0.488921,0.453161,-1.0753,-0.400707,-0.145495,0.658254,-0.636911,0.488921,0.453161,-1.0753,-0.400707,-0.145495,0.658254,-0.636911,0.318444,-0.405128,0.937002,0.808984,0.0627231,-0.0300227,0.583703,0.108216,0.144688,-0.132435,0.14135,-0.280742,0.972579,-2.55988,0.115973,-4.47136,-2.55988,0.115973,-4.47136,-0.384388,-0.749873,-0.706031,-0.697217,-0.538498,0.663512,-0.339634,1
1.41997,-0.495791,-2.0353,-1.3143,2.79268,1.39495,-1.35838,1.41997,-0.495791,-2.0353,-1.3143,2.79268,1.39495,-1.35838,1.4765,-0.422552,-1.96511,-1.23968,2.84385,1.32859,-1.33802,0.271472,0.37813,-0.956655,-0.717407,-0.395259,0.891702,-0.624004,0.271472,0.37813,-0.956655,-0.717407,-0.395259,0.891702,-0.624004,0.319615,-0.403499,0.934812,0.812478,0.0608771,-0.0260292,0.579221,0.0955778,0.124733,-0.25536,0.115174,-0.279464,0.927281,-2.61751,0.127745,-4.52974,-2.61751,0.127745,-4.52974,-0.565247,-0.732387,-0.701973,-0.746149,-0.511749,0.663647,-0.203593,1
1.40518,-0.495844,-2.05253,-1.32748,2.78341,1.40885,-1.35181,1.40518,-0.495844,-2.05253,-1.32748,2.78341,1.40885,-1.35181,1.47599,-0.418924,-1.97878,-1.25463,2.83199,1.34546,-1.34616,-0.104323,0.204038,-0.896888,-1.04713,-0.887725,1.17629,-0.529224,-0.104323,0.204038,-0.896888,-1.04713,-0.887725,1.17629,-0.529224,0.320568,-0.402313,0.928915,0.818384,0.0576801,-0.0176008,0.571499,0.0327933,0.0210012,-0.857331,0.0893353,-0.27781,0.8806,-2.58391,0.165468,-4.66811,-2.58391,0.165468,-4.66811,-0.708082,-0.769197,-0.737448,-0.728566,-0.485724,0.633914,-0.0564883,1
1.40443,-0.49466,-2.05604,-1.33322,2.7783,1.41153,-1.35567,1.40443,-0.49466,-2.05604,-1.33322,2.7783,1.41153,-1.35567,1.4747,-0.418474,-1.98298,-1.26032,2.82656,1.35185,-1.34877,-0.256948,0.0899875,-0.839907,-1.13838,-1.08519,1.2781,-0.52238,-0.256948,0.0899875,-0.839907,-1.13838,-1.08519,1.2781,-0.52238,0.320628,-0.402319,0.926465,0.820502,0.0565221,-0.014447,0.568658,-0.0216655,-0.0508254,-0.495099,0.0638397,-0.276206,0.832961,-2.54956,0.160375,-4.76393,-2.54956,0.160375,-4.76393,-0.70275,-0.761853,-0.730614,-0.729037,-0.482622,0.596862,-0.0689951,1
1.39512,-0.497048,-2.07141,-1.35041,2.75962,1.43143,-1.36111,1.39512,-0.497048,-2.07141,-1.35041,2.75962,1.43143,-1.36111,1.4689,-0.419338,-1.99582,-1.27772,2.81,1.37106,-1.35614,-0.404792,-0.0902113,-0.854045,-1.14476,-1.08975,1.26854,-0.476224,-0.404792,-0.0902113,-0.854045,-1.14476,-1.08975,1.26854,-0.476224,0.319883,-0.404256,0.918085,0.827013,0.0539803,-0.0055336,0.559558,-0.200111,-0.390355,-1.14013,0.0369473,-0.276178,0.792851,-2.68924,0.00274479,-4.01099,-2.68924,0.00274479,-4.01099,-0.737775,-0.777099,-0.755907,-0.7269,-0.503711,0.603665,-0.0497795,1
1.40082,-0.382811,-2.0621,-1.21748,2.74218,1.45277,-1.39793,1.40082,-0.382811,-2.0621,-1.21748,2.74218,1.45277,-1.39793,1.46712,-0.420253,-1.99984,-1.28386,2.80506,1.37697,-1.35785,-0.35717,-0.182923,-0.80362,-1.22856,-0.986193,1.18147,-0.34177,-0.35717,-0.182923,-0.80362,-1.22856,-0.986193,1.18147,-0.34177,0.319762,-0.405243,0.914934,0.828689,0.0538293,-0.00292133,0.557108,-0.0624289,-0.224493,-0.631705,0.00117017,-0.286507,0.794111,-3.57772,-1.03289,0.12604,-3.57772,-1.03289,0.12604,-0.662945,0.374419,-0.622597,0.663777,-0.628801,0.75795,-0.400886,1
1.39234,-0.435924,-2.0729,-1.22427,2.73753,1.45836,-1.41035,1.39234,-0.435924,-2.0729,-1.22427,2.73753,1.45836,-1.41035,1.46373,-0.422183,-2.00824,-1.29563,2.79621,1.38796,-1.35945,-0.338834,-0.19734,-0.850777,-1.13343,-0.852068,1.08088,-0.111607,-0.338834,-0.19734,-0.850777,-1.13343,-0.852068,1.08088,-0.111607,0.31937,-0.407536,0.908691,0.831475,0.0539772,0.00186464,0.552931,-0.0907677,-0.261604,-0.612298,-0.0350459,-0.29591,0.795123,-3.62161,-0.940248,0.101101,-3.62161,-0.940248,0.101101,-0.713951,-0.137416,-0.646598,0.713667,-0.586824,0.703909,-0.509028,1
1.38122,-0.435165,-2.08891,-1.24308,2.72029,1.46354,-1.4046,1.38122,-0.435165,-2.08891,-1.24308,2.72029,1.46354,-1.4046,1.45913,-0.426072,-2.0205,-1.31255,2.7847,1.40292,-1.35992,-0.298334,-0.27892,-0.804525,-1.11881,-0.751375,0.977525,-0.0202109,-0.298334,-0.27892,-0.804525,-1.11881,-0.751375,0.977525,-0.0202109,0.318679,-0.411611,0.8992,0.834663,0.0553173,0.00795321,0.547919,-0.166548,-0.574973,-1.27091,-0.0713846,-0.306362,0.795252,-3.63387,-1.04526,0.0129402,-3.63387,-1.04526,0.0129402,-0.779127,-0.0909292,-0.684095,0.694777,-0.644085,0.60618,-0.446765,1
1.38085,-0.461617,-2.09254,-1.24662,2.71425,1.47077,-1.40497,1.38085,-0.461617,-2.09254,-1.24662,2.71425,1.47077,-1.40497,1.45738,-0.427803,-2.02459,-1.31783,2.78089,1.40782,-1.36016,-0.350116,-0.346137,-0.818459,-1.05562,-0.761238,0.979507,-0.0470153,-0.350116,-0.346137,-0.818459,-1.05562,-0.761238,0.979507,-0.0470153,0.318214,-0.41328,0.895998,0.835794,0.0558405,0.00977182,0.546109,-0.126773,-0.341168,-0.639409,-0.107486,-0.316074,0.79411,-3.61018,-0.971198,-0.114202,-3.61018,-0.971198,-0.114202,-0.765332,-0.338146,-0.679496,0.712084,-0.666432,0.629555,-0.448167,1
1.3769,-0.474336,-2.10055,-1.25528,2.70439,1.48104,-1.40934,1.3769,-0.474336,-2.10055,-1.25528,2.70439,1.48104,-1.40934,1.4532,-0.431703,-2.03235,-1.3264,2.77225,1.41825,-1.36268,-0.436225,-0.403219,-0.743088,-0.757937,-0.904112,1.07831,-0.34205,-0.436225,-0.403219,-0.743088,-0.757937,-0.904112,1.07831,-0.34205,0.316526,-0.416745,0.890259,0.838911,0.0556827,0.01325,0.541251,-0.21873,-0.36019,-0.536,-0.144981,-0.32597,0.792758,-3.74951,-0.989535,-0.135231,-3.74951,-0.989535,-0.135231,-0.762952,-0.426323,-0.681965,0.71124,-0.678586,0.627861,-0.466592,1
1.3678,-0.477273,-2.1127,-1.25819,2.68656,1.49543,-1.41866,1.3678,-0.477273,-2.1127,-1.25819,2.68656,1.49543,-1.41866,1.44578,-0.440764,-2.04306,-1.33043,2.75636,1.4352,-1.37364,-0.50459,-0.671519,-0.725927,-0.147664,-1.09394,1.12396,-0.820411,-0.50459,-0.671519,-0.725927,-0.147664,-1.09394,1.12396,-0.820411,0.311428,-0.423328,0.883972,0.846485,0.0516633,0.0170774,0.529624,-0.754008,-1.01344,-0.810704,-0.180904,-0.336715,0.789545,-3.59226,-1.07452,-0.321251,-3.59226,-1.07452,-0.321251,-0.779864,-0.365089,-0.696391,0.72244,-0.698023,0.602265,-0.450255,1
1.36243,-0.477734,-2.12194,-1.25676,2.67332,1.50164,-1.41954,1.36243,-0.477734,-2.12194,-1.25676,2.67332,1.50164,-1.41954,1.44094,-0.450128,-2.05108,-1.32738,2.74459,1.44549,-1.38302,-0.484217,-0.936358,-0.80126,0.304915,-1.17671,1.02878,-0.938294,-0.484217,-0.936358,-0.80126,0.304915,-1.17671,1.02878,-0.938294,0.306615,-0.42974,0.880503,0.852699,0.0482288,0.0185438,0.519841,-0.948941,-1.33262,-0.708197,-0.21707,-0.346253,0.785472,-3.61655,-0.953805,-0.407284,-3.61655,-0.953805,-0.407284,-0.785149,-0.276067,-0.708607,0.706228,-0.712728,0.561454,-0.365161,1
1.36053,-0.500533,-2.12558,-1.25377,2.66716,1.5104,-1.43054,1.36053,-0.500533,-2.12558,-1.25377,2.66716,1.5104,-1.43054,1.43872,-0.455272,-2.05528,-1.32413,2.73861,1.45008,-1.38743,-0.443607,-1.02879,-0.841769,0.650544,-1.19644,0.917367,-0.882972,-0.443607,-1.02879,-0.841769,0.650544,-1.19644,0.917367,-0.882972,0.303911,-0.433247,0.879176,0.855856,0.0462451,0.0190377,0.514791,-0.527341,-0.730654,-0.27121,-0.253323,-0.35589,0.780348,-3.62539,-0.963721,-0.512385,-3.62539,-0.963721,-0.512385,-0.781965,-0.452617,-0.702995,0.703554,-0.714548,0.603258,-0.431041,1
1.35637,-0.498412,-2.13799,-1.23932,2.64885,1.52114,-1.44202,1.35637,-0.498412,-2.13799,-1.23932,2.64885,1.52114,-1.44202,1.43334,-0.470157,-2.06813,-1.30942,2.72063,1.46247,-1.39892,-0.343936,-0.974954,-0.86362,1.04908,-1.19215,0.810596,-0.737678,-0.343936,-0.974954,-0.86362,1.04908,-1.19215,0.810596,-0.737678,0.295368,-0.443279,0.877073,0.864957,0.0387318,0.0202923,0.499938,-1.11726,-1.39235,-0.242581,-0.289119,-0.36639,0.774625,-3.57952,-1.04998,-0.572354,-3.57952,-1.04998,-0.572354,-0.769639,-0.282558,-0.698606,0.700952,-0.717821,0.586654,-0.431041,1
1.35253,-0.527608,-2.14702,-1.22871,2.63744,1.53223,-1.4501,1.35253,-0.527608,-2.14702,-1.22871,2.63744,1.53223,-1.4501,1.42973,-0.478955,-2.0771,-1.29891,2.70891,1.47059,-1.40558,-0.366649,-0.83896,-0.88523,1.05863,-1.16984,0.822351,-0.650657,-0.366649,-0.83896,-0.88523,1.05863,-1.16984,0.822351,-0.650657,0.289497,-0.449434,0.876171,0.870782,0.0332361,0.0214677,0.490074,-0.571598,-0.635229,-0.0771957,-0.325101,-0.376212,0.767343,-3.59826,-0.982183,-0.728154,-3.59826,-0.982183,-0.728154,-0.772056,-0.486535,-0.699206,0.702032,-0.714743,0.616404,-0.445211,1
1.35056,-0.533276,-2.15151,-1.22452,2.63206,1.53624,-1.45475,1.35056,-0.533276,-2.15151,-1.22452,2.63206,1.53624,-1.45475,1.42764,-0.482596,-2.0815,-1.29361,2.70301,1.4748,-1.40865,-0.418092,-0.728251,-0.880539,1.05979,-1.18052,0.842344,-0.61302,-0.418092,-0.728251,-0.880539,1.05979,-1.18052,0.842344,-0.61302,0.286473,-0.45211,0.876019,0.873645,0.0301051,0.0223007,0.485119,-0.589144,-0.587364,-0.0355904,-0.361808,-0.386117,0.760142,-3.67063,-0.990531,-0.720096,-3.67063,-0.990531,-0.720096,-0.770865,-0.506805,-0.700067,0.690947,-0.70953,0.6144,-0.461052,1
1.34037,-0.534982,-2.16754,-1.21159,2.61406,1.5459,-1.45825,1.34037,-0.534982,-2.16754,-1.21159,2.61406,1.5459,-1.45825,1.41835,-0.491593,-2.09603,-1.27978,2.68545,1.4881,-1.41776,-0.668469,-0.574794,-0.985961,0.8911,-1.16498,0.89125,-0.611052,-0.668469,-0.574794,-0.985961,0.8911,-1.16498,0.89125,-0.611052,0.276335,-0.460085,0.875238,0.882739,0.0208453,0.025937,0.468684,-1.37757,-1.16916,-0.126334,-0.397359,-0.396723,0.751459,-3.55512,-1.06057,-0.868368,-3.55512,-1.06057,-0.868368,-0.779795,-0.433887,-0.715152,0.68188,-0.713924,0.578013,-0.40494,1
1.33224,-0.550325,-2.17723,-1.20272,2.60283,1.55914,-1.46719,1.33224,-0.550325,-2.17723,-1.20272,2.60283,1.55914,-1.46719,1.41056,-0.496393,-2.10588,-1.27083,2.67378,1.49729,-1.42439,-0.801139,-0.463168,-0.997856,0.877381,-1.17567,0.926803,-0.678771,-0.801139,-0.463168,-0.997856,0.877381,-1.17567,0.926803,-0.678771,0.268913,-0.465044,0.874991,0.889056,0.014257,0.0288935,0.456664,-0.748442,-0.551003,-0.0297589,-0.432952,-0.407329,0.741589,-3.55929,-1.06064,-0.986934,-3.55929,-1.06064,-0.986934,-0.783217,-0.539322,-0.713553,0.68115,-0.709511,0.618505,-0.428017,1
1.32722,-0.555806,-2.18427,-1.20341,2.59708,1.55948,-1.46689,1.32722,-0.555806,-2.18427,-1.20341,2.59708,1.55948,-1.46689,1.40632,-0.498542,-2.11115,-1.26663,2.66784,1.502,-1.42795,-0.848109,-0.429873,-1.05484,0.840391,-1.18718,0.941684,-0.711138,-0.848109,-0.429873,-1.05484,0.840391,-1.18718,0.941684,-0.711138,0.265061,-0.467497,0.874788,0.892297,0.0109836,0.0306374,0.450273,-0.773389,-0.551344,-0.0414012,-0.468355,-0.416068,0.730444,-3.54029,-0.873893,-1.11458,-3.54029,-0.873893,-1.11458,-0.791076,-0.572639,-0.731209,0.632275,-0.707676,0.574748,-0.389365,1
