Afshin1997/kuka_rl_ros2/src/catch_and_throw/output_files/tm/nn_ema3.00_jvws1_realball_D24H14M38S50/recorded_data.csv
pure_target_joint_0,pure_target_joint_1,pure_target_joint_2,pure_target_joint_3,pure_target_joint_4,pure_target_joint_5,pure_target_joint_6,target_joint_0,target_joint_1,target_joint_2,target_joint_3,target_joint_4,target_joint_5,target_joint_6,pos_joint_0,pos_joint_1,pos_joint_2,pos_joint_3,pos_joint_4,pos_joint_5,pos_joint_6,vel_joint_0,vel_joint_1,vel_joint_2,vel_joint_3,vel_joint_4,vel_joint_5,vel_joint_6,vel_smooth_joint_0,vel_smooth_joint_1,vel_smooth_joint_2,vel_smooth_joint_3,vel_smooth_joint_4,vel_smooth_joint_5,vel_smooth_joint_6,ee_pos_x,ee_pos_y,ee_pos_z,ee_or_w,ee_or_x,ee_or_y,ee_or_z,ee_vel_x,ee_vel_y,ee_vel_z,ball_pos_x,ball_pos_y,ball_pos_z,ball_raw_vx,ball_raw_vy,ball_raw_vz,ball_ema_vx,ball_ema_vy,ball_ema_vz,action_0,action_1,action_2,action_3,action_4,action_5,action_6,command_published
1.70934,-1.01088,-1.78637,-1.16375,2.00656,1.18232,-0.943388,1.76251,-1.05125,-1.80791,-1.12862,1.95458,1.13324,-0.923035,1.78023,-1.0647,-1.81509,-1.11691,1.93725,1.11688,-0.916251,0,0,0,0,0,0,0,0,0,0,0,0,0,0,0.531027,-0.454488,0.694306,0.574559,0.175164,0.152554,0.78481,0,0,0,2.98028,-0.460825,0.17594,-3.65233,0.0575006,5.00425,-3.60686,0.0569776,5.04884,-0.708881,0.53817,0.287198,-0.468357,0.693151,0.654427,-0.271374,1
1.70943,-1.00745,-1.79091,-1.16086,2.00602,1.18219,-0.942783,1.72709,-1.02348,-1.79469,-1.15132,1.9891,1.16593,-0.936453,1.78023,-1.0647,-1.81509,-1.11691,1.93725,1.11688,-0.916251,0,0,0,0,0,0,0,0,0,0,0,0,0,0,0.531027,-0.454488,0.694306,0.574559,0.175164,0.152554,0.78481,0,0,0,2.94418,-0.460209,0.22485,-3.61013,0.0616729,4.89098,-3.63123,0.0595868,4.94761,-0.708032,0.572452,0.241835,-0.439508,0.687775,0.653094,-0.26532,1
1.70902,-0.99877,-1.79248,-1.16003,2.00819,1.18456,-0.940521,1.70931,-1.00614,-1.79017,-1.16138,2.0067,1.18281,-0.942369,1.77837,-1.06329,-1.81434,-1.11814,1.93907,1.1186,-0.916964,-0.372724,0.282965,0.151006,-0.246256,0.364453,0.344092,-0.142686,-0.372724,0.282965,0.151006,-0.246256,0.364453,0.344092,-0.142686,0.529903,-0.454547,0.695236,0.575047,0.174195,0.15184,0.784807,-0.205468,-0.00997894,0.175984,2.90875,-0.459784,0.272942,-3.54335,0.0424176,4.80917,-3.57674,0.0520453,4.85007,-0.693496,0.645152,0.218547,-0.418886,0.691197,0.65965,-0.235568,1
1.70302,-0.986386,-1.80257,-1.15906,2.01522,1.18471,-0.941131,1.70762,-0.997845,-1.79461,-1.16,2.00941,1.18401,-0.941239,1.77148,-1.05797,-1.81167,-1.12262,1.94579,1.12495,-0.919585,-1.04346,0.810538,0.399077,-0.674537,1.01791,0.963011,-0.396443,-1.04346,0.810538,0.399077,-0.674537,1.01791,0.963011,-0.396443,0.525748,-0.454755,0.698672,0.576892,0.170609,0.149271,0.784734,-0.576331,-0.0258334,0.492977,2.87365,-0.459277,0.320213,-3.50969,0.0507802,4.72714,-3.52652,0.0465989,4.76816,-0.684602,0.715798,0.0910138,-0.364472,0.694334,0.5976,-0.215463,1
1.6916,-0.975566,-1.80903,-1.16252,2.0253,1.19193,-0.947318,1.70167,-0.986777,-1.80166,-1.16017,2.01598,1.18648,-0.942526,1.76077,-1.04927,-1.80781,-1.12939,1.95627,1.13489,-0.923568,-1.20952,1.01371,0.414585,-0.751677,1.18526,1.1263,-0.441875,-1.20952,1.01371,0.414585,-0.751677,1.18526,1.1263,-0.441875,0.519251,-0.454977,0.704116,0.579859,0.164946,0.145466,0.784472,-0.674002,-0.0154762,0.593622,2.8377,-0.45832,0.3668,-3.59485,0.0956833,4.65869,-3.55227,0.0732318,4.69292,-0.691626,0.737048,-0.012201,-0.331216,0.69026,0.570401,-0.237502,1
1.6793,-0.964426,-1.81186,-1.16109,2.03541,1.19888,-0.953413,1.69138,-0.975486,-1.80812,-1.1613,2.02531,1.19186,-0.947295,1.75034,-1.0398,-1.80476,-1.13562,1.9666,1.14457,-0.927196,-1.0039,0.986177,0.238561,-0.572908,1.006,0.926946,-0.330066,-1.0039,0.986177,0.238561,-0.572908,1.006,0.926946,-0.330066,0.512868,-0.455023,0.709706,0.582952,0.159297,0.142186,0.783948,-0.568749,0.00220752,0.538253,2.80181,-0.457395,0.412262,-3.58891,0.0925034,4.54615,-3.59188,0.0940934,4.60242,-0.710363,0.753786,-0.070982,-0.254671,0.688063,0.543097,-0.262173,1
1.66953,-0.95401,-1.819,-1.15519,2.044,1.20633,-0.957708,1.67993,-0.964607,-1.81294,-1.15997,2.03503,1.199,-0.952963,1.7412,-1.03028,-1.80348,-1.1405,1.97582,1.15269,-0.930129,-0.929105,1.02245,0.0427461,-0.462359,0.943856,0.794274,-0.291353,-0.929105,1.02245,0.0427461,-0.462359,0.943856,0.794274,-0.291353,0.507273,-0.455057,0.71481,0.586062,0.154482,0.139989,0.782988,-0.526628,-0.0168016,0.501912,2.76642,-0.456791,0.456148,-3.53973,0.0603586,4.38862,-3.56432,0.076431,4.46738,-0.716661,0.76269,-0.155174,-0.14698,0.681712,0.536399,-0.275791,1
1.66063,-0.94353,-1.82819,-1.15106,2.05197,1.21318,-0.96003,1.66975,-0.953994,-1.81951,-1.15564,2.04384,1.20618,-0.957215,1.73224,-1.02042,-1.8038,-1.14453,1.98481,1.15999,-0.933101,-0.96027,1.05618,-0.101628,-0.393931,0.951877,0.749231,-0.333613,-0.96027,1.05618,-0.101628,-0.393931,0.951877,0.749231,-0.333613,0.501867,-0.45543,0.719601,0.589684,0.150257,0.138459,0.781361,-0.54081,-0.0680282,0.478841,2.73091,-0.456539,0.499231,-3.55086,0.025171,4.3083,-3.5453,0.0427648,4.34846,-0.716079,0.768936,-0.243898,-0.0652974,0.671659,0.531914,-0.269293,1
1.65106,-0.932854,-1.83626,-1.15197,2.05965,1.21775,-0.962892,1.66046,-0.943481,-1.82791,-1.15232,2.0519,1.21261,-0.960165,1.72289,-1.01033,-1.80516,-1.14774,1.9939,1.16709,-0.936525,-1.00972,1.07453,-0.182654,-0.287588,0.966663,0.750089,-0.386341,-1.00972,1.07453,-0.182654,-0.287588,0.966663,0.750089,-0.386341,0.496238,-0.456359,0.724291,0.5941,0.146242,0.137157,0.779003,-0.578198,-0.13077,0.482477,2.6954,-0.456163,0.54137,-3.55132,0.0376195,4.21391,-3.55109,0.0313953,4.26111,-0.718323,0.774717,-0.310996,-0.0423321,0.657551,0.506621,-0.263665,1
1.64125,-0.922005,-1.84234,-1.15663,2.0673,1.2206,-0.967161,1.651,-0.932811,-1.83576,-1.15291,2.05965,1.21732,-0.963244,1.71326,-1.0001,-1.8074,-1.14972,2.00302,1.1742,-0.940248,-1.02272,1.08362,-0.284521,-0.139087,0.959443,0.751493,-0.398781,-1.02272,1.08362,-0.284521,-0.139087,0.959443,0.751493,-0.398781,0.490311,-0.457892,0.729011,0.599319,0.142223,0.135933,0.775958,-0.605721,-0.193675,0.486067,2.65997,-0.455717,0.582598,-3.5429,0.0446409,4.12276,-3.54711,0.0411302,4.16834,-0.720134,0.780939,-0.349348,-0.0690846,0.642811,0.463943,-0.269129,1
1.63138,-0.911105,-1.84809,-1.15717,2.07386,1.22357,-0.973774,1.64124,-0.921992,-1.84226,-1.1556,2.06703,1.22063,-0.967747,1.70362,-0.989807,-1.8107,-1.15055,2.012,1.18125,-0.943939,-1.01425,1.08886,-0.404481,-0.0417098,0.937726,0.737048,-0.381384,-1.01425,1.08886,-0.404481,-0.0417098,0.937726,0.737048,-0.381384,0.484241,-0.459903,0.733653,0.60511,0.13829,0.134908,0.772345,-0.613013,-0.233168,0.469498,2.62417,-0.454912,0.622711,-3.57971,0.0804842,4.01132,-3.56131,0.0625625,4.06704,-0.722379,0.787013,-0.373923,-0.0662601,0.618593,0.423228,-0.298349,1
1.62179,-0.900493,-1.85434,-1.15735,2.08048,1.22932,-0.979424,1.63145,-0.911177,-1.84822,-1.15708,2.07388,1.22426,-0.973533,1.69402,-0.979454,-1.81495,-1.15096,2.02077,1.18799,-0.947496,-1.01118,1.09632,-0.489093,-0.0456793,0.913816,0.689268,-0.370139,-1.01118,1.09632,-0.489093,-0.0456793,0.913816,0.689268,-0.370139,0.478225,-0.462098,0.738055,0.611119,0.13466,0.134235,0.768362,-0.603445,-0.235891,0.439746,2.58851,-0.45406,0.661512,-3.56622,0.0852078,3.8801,-3.57296,0.082846,3.94571,-0.722279,0.789611,-0.393888,-0.0638487,0.597141,0.413252,-0.319275,1
1.61271,-0.889844,-1.86045,-1.15387,2.08728,1.23668,-0.983859,1.62192,-0.900484,-1.85431,-1.15644,2.08053,1.22972,-0.97912,1.68442,-0.969022,-1.81978,-1.15163,2.02929,1.19418,-0.951108,-1.01511,1.1054,-0.528247,-0.0931942,0.887043,0.62155,-0.391097,-1.01511,1.1054,-0.528247,-0.0931942,0.887043,0.62155,-0.391097,0.472374,-0.464216,0.742174,0.617139,0.131447,0.133979,0.76414,-0.588582,-0.219331,0.414066,2.55278,-0.453197,0.699273,-3.57265,0.0862569,3.7761,-3.56944,0.0857323,3.8281,-0.717177,0.791779,-0.406617,-0.0224007,0.579857,0.424981,-0.327512,1
1.6036,-0.879269,-1.86695,-1.14508,2.0943,1.24449,-0.988346,1.6127,-0.889862,-1.86055,-1.15255,2.08733,1.23679,-0.983872,1.67479,-0.958513,-1.82489,-1.15258,2.03753,1.19984,-0.955032,-1.01863,1.11261,-0.548302,-0.105795,0.854292,0.574173,-0.434865,-1.01863,1.11261,-0.548302,-0.105795,0.854292,0.574173,-0.434865,0.466662,-0.466201,0.746108,0.623226,0.128541,0.134093,0.759661,-0.582346,-0.209012,0.403683,2.51709,-0.452603,0.736105,-3.56867,0.0593901,3.68319,-3.57066,0.0728235,3.72964,-0.711876,0.792439,-0.420643,0.0749504,0.567681,0.446565,-0.33314,1
1.59399,-0.868815,-1.87388,-1.13875,2.10189,1.25107,-0.993114,1.60347,-0.879299,-1.86706,-1.1457,2.09444,1.24419,-0.988416,1.66515,-0.947956,-1.83018,-1.15341,2.04547,1.20528,-0.959306,-1.01614,1.11582,-0.567125,-0.0711568,0.8239,0.574565,-0.465719,-1.01614,1.11582,-0.567125,-0.0711568,0.8239,0.574565,-0.465719,0.460969,-0.468131,0.750003,0.629508,0.125671,0.134447,0.754885,-0.587528,-0.209286,0.406567,2.48146,-0.452046,0.771916,-3.5629,0.055781,3.58119,-3.56579,0.0575855,3.63219,-0.711584,0.791417,-0.43707,0.146567,0.564188,0.457942,-0.338077,1
1.58427,-0.858296,-1.87968,-1.13992,2.10998,1.2555,-0.997949,1.59396,-0.868799,-1.8736,-1.14063,2.10202,1.25053,-0.993131,1.65557,-0.93738,-1.83564,-1.1536,2.05317,1.21089,-0.963754,-1.00751,1.11687,-0.585383,0.0248625,0.802914,0.608803,-0.472861,-1.00751,1.11687,-0.585383,0.0248625,0.802914,0.608803,-0.472861,0.45515,-0.470122,0.754017,0.636067,0.122557,0.134862,0.749807,-0.606329,-0.223916,0.427539,2.44616,-0.451476,0.806217,-3.53036,0.0569612,3.43008,-3.54663,0.0563711,3.50564,-0.712964,0.790838,-0.44036,0.136793,0.568053,0.446061,-0.341956,1
1.57451,-0.847658,-1.885,-1.13844,2.11723,1.26016,-1.00313,1.58426,-0.858266,-1.87956,-1.13926,2.10977,1.25556,-0.998035,1.64605,-0.926801,-1.84129,-1.15267,2.06073,1.21683,-0.96824,-1.00082,1.11649,-0.605706,0.163904,0.792428,0.642941,-0.474214,-1.00082,1.11649,-0.605706,0.163904,0.792428,0.642941,-0.474214,0.449071,-0.472307,0.758298,0.643001,0.119028,0.13519,0.744383,-0.636099,-0.251898,0.460486,2.41108,-0.451114,0.839964,-3.508,0.0362456,3.37472,-3.51918,0.0466034,3.4024,-0.715436,0.791428,-0.437089,0.142342,0.56502,0.43334,-0.348891,1
1.56476,-0.837063,-1.89143,-1.13421,2.12445,1.26551,-1.00831,1.57451,-0.847669,-1.88528,-1.13775,2.11722,1.26034,-1.00313,1.63657,-0.916231,-1.84711,-1.15075,2.06824,1.22295,-0.972756,-1.00144,1.11487,-0.622584,0.237894,0.79382,0.648358,-0.478881,-1.00144,1.11487,-0.622584,0.237894,0.79382,0.648358,-0.478881,0.442742,-0.474673,0.762811,0.650252,0.115189,0.135416,0.738624,-0.654903,-0.264902,0.476094,2.37565,-0.450478,0.87295,-3.54311,0.0635773,3.29854,-3.52556,0.0499114,3.33663,-0.718126,0.791678,-0.443165,0.165424,0.562083,0.425656,-0.355511,1
1.55489,-0.82653,-1.89874,-1.12867,2.1313,1.27104,-1.01345,1.56473,-0.837079,-1.89165,-1.13388,2.12436,1.26556,-1.0083,1.62706,-0.905672,-1.85302,-1.14859,2.07579,1.22897,-0.977332,-1.00596,1.11425,-0.62387,0.219282,0.798735,0.624849,-0.486622,-1.00596,1.11425,-0.62387,0.219282,0.798735,0.624849,-0.486622,0.436334,-0.477025,0.767364,0.657567,0.111325,0.135633,0.732678,-0.654104,-0.25114,0.470314,2.33986,-0.449801,0.904732,-3.57907,0.0676274,3.17823,-3.56109,0.0656024,3.23839,-0.721688,0.791424,-0.45718,0.199203,0.55516,0.420692,-0.361158,1
1.54521,-0.816033,-1.90532,-1.12613,2.13889,1.2767,-1.01768,1.55494,-0.826539,-1.89855,-1.12942,2.13149,1.27108,-1.01322,1.61751,-0.895111,-1.85891,-1.14657,2.08334,1.23477,-0.981993,-1.01054,1.11511,-0.619781,0.207297,0.796323,0.600819,-0.496787,-1.01054,1.11511,-0.619781,0.207297,0.796323,0.600819,-0.496787,0.429941,-0.479242,0.771877,0.664813,0.107555,0.135908,0.726626,-0.654007,-0.236806,0.468494,2.30457,-0.448872,0.935247,-3.52914,0.0929713,3.05146,-3.55411,0.0802994,3.11485,-0.722985,0.790782,-0.464121,0.204388,0.555449,0.419296,-0.356862,1
1.53549,-0.805471,-1.91138,-1.1232,2.14693,1.28146,-1.02198,1.5452,-0.816017,-1.90519,-1.12603,2.139,1.27648,-1.0177,1.60791,-0.884544,-1.86483,-1.14441,2.09084,1.24042,-0.986748,-1.01495,1.11565,-0.630301,0.24742,0.787742,0.590965,-0.506517,-1.01495,1.11565,-0.630301,0.24742,0.787742,0.590965,-0.506517,0.423495,-0.481396,0.776422,0.672099,0.103779,0.13623,0.720384,-0.666016,-0.23793,0.477561,2.2693,-0.448087,0.964848,-3.52631,0.0784814,2.96013,-3.52772,0.0857264,3.0058,-0.724191,0.790732,-0.465505,0.212066,0.560854,0.410453,-0.352277,1
1.52582,-0.79499,-1.91811,-1.116,2.15391,1.28857,-1.02727,1.5355,-0.805491,-1.91155,-1.12213,2.14666,1.28205,-1.02222,1.59828,-0.873978,-1.8709,-1.14184,2.09827,1.24601,-0.99156,-1.01867,1.11502,-0.649973,0.291946,0.78069,0.58924,-0.50912,-1.01867,1.11502,-0.649973,0.291946,0.78069,0.58924,-0.50912,0.416925,-0.483564,0.781045,0.679508,0.099913,0.13658,0.713885,-0.679971,-0.241284,0.485361,2.23417,-0.447614,0.993449,-3.5131,0.0472993,2.86007,-3.5197,0.0628904,2.9101,-0.724559,0.789874,-0.472051,0.258433,0.556403,0.425611,-0.357079,1
1.51589,-0.784594,-1.92512,-1.10851,2.16139,1.29547,-1.03187,1.52576,-0.795011,-1.91818,-1.11593,2.15404,1.28852,-1.02709,1.58862,-0.863418,-1.87711,-1.13901,2.10568,1.25157,-0.996347,-1.02044,1.11409,-0.659964,0.30497,0.78316,0.585412,-0.501766,-1.02044,1.11409,-0.659964,0.30497,0.78316,0.585412,-0.501766,0.41026,-0.485705,0.785711,0.686951,0.0959879,0.136944,0.707199,-0.686575,-0.234116,0.487175,2.19907,-0.447014,1.02142,-3.51048,0.0599623,2.79729,-3.51179,0.0536308,2.82868,-0.727282,0.788243,-0.480142,0.304989,0.557142,0.439039,-0.355195,1
1.50558,-0.774246,-1.93227,-1.10113,2.16839,1.30144,-1.03711,1.5158,-0.784606,-1.92516,-1.10854,2.16127,1.29524,-1.03203,1.57895,-0.852866,-1.88337,-1.13601,2.11313,1.25712,-1.00108,-1.02104,1.11346,-0.662188,0.326245,0.788266,0.585926,-0.49704,-1.02104,1.11346,-0.662188,0.326245,0.788266,0.585926,-0.49704,0.403522,-0.487767,0.790418,0.69436,0.0920038,0.13729,0.700394,-0.694951,-0.225847,0.494208,2.16364,-0.446528,1.04841,-3.54273,0.0486195,2.69932,-3.5266,0.0542909,2.7483,-0.733605,0.786205,-0.488948,0.348846,0.552623,0.443234,-0.360376,1
1.49542,-0.763899,-1.93916,-1.09544,2.1753,1.30708,-1.04264,1.50562,-0.774246,-1.9322,-1.10155,2.16837,1.30136,-1.03718,1.56926,-0.842324,-1.88968,-1.13259,2.12058,1.26277,-1.0058,-1.0226,1.112,-0.669725,0.39177,0.786248,0.605229,-0.500419,-1.0226,1.112,-0.669725,0.39177,0.786248,0.605229,-0.500419,0.396634,-0.489786,0.795254,0.701825,0.0878229,0.137581,0.693397,-0.715632,-0.226736,0.513253,2.12826,-0.445888,1.07425,-3.53847,0.0640064,2.58307,-3.5406,0.056313,2.6412,-0.738416,0.784253,-0.494746,0.371559,0.547132,0.443097,-0.36838,1
1.48547,-0.753433,-1.94564,-1.0918,2.18299,1.31148,-1.04776,1.49548,-0.763869,-1.93906,-1.09595,2.17549,1.30677,-1.04254,1.55955,-0.831802,-1.8961,-1.1285,2.12801,1.26861,-1.01056,-1.0283,1.10926,-0.682986,0.469119,0.781753,0.626002,-0.504479,-1.0283,1.10926,-0.682986,0.469119,0.781753,0.626002,-0.504479,0.389505,-0.491819,0.800282,0.709448,0.0833343,0.137804,0.686111,-0.741715,-0.231505,0.534108,2.09329,-0.445325,1.09872,-3.49717,0.0563353,2.44761,-3.51782,0.0601709,2.51534,-0.740749,0.783696,-0.495398,0.366939,0.549772,0.428752,-0.371908,1
1.47555,-0.743021,-1.95236,-1.08663,2.19007,1.31715,-1.05316,1.48548,-0.753446,-1.9457,-1.09142,2.18284,1.3118,-1.04783,1.54976,-0.821308,-1.90263,-1.12378,2.13538,1.27456,-1.01538,-1.0374,1.10612,-0.695151,0.522544,0.77519,0.629961,-0.512382,-1.0374,1.10612,-0.695151,0.522544,0.77519,0.629961,-0.512382,0.382143,-0.493856,0.805472,0.717218,0.078592,0.137993,0.678513,-0.762529,-0.231307,0.547716,2.05805,-0.444768,1.1225,-3.52364,0.0556648,2.37832,-3.5104,0.0560001,2.41296,-0.742085,0.782876,-0.497337,0.371559,0.546853,0.425935,-0.377722,1
1.46554,-0.732626,-1.95913,-1.08034,2.19736,1.323,-1.0583,1.47553,-0.743025,-1.95237,-1.08635,2.19012,1.31719,-1.05309,1.5399,-0.810839,-1.90924,-1.11877,2.14271,1.28047,-1.02029,-1.04405,1.10396,-0.700721,0.536187,0.770588,0.618216,-0.522883,-1.04405,1.10396,-0.700721,0.536187,0.770588,0.618216,-0.522883,0.374645,-0.495825,0.810737,0.725037,0.0737378,0.138203,0.670659,-0.771136,-0.220036,0.551247,2.02288,-0.444045,1.14533,-3.51703,0.0723004,2.283,-3.52033,0.0639826,2.33066,-0.743573,0.782135,-0.498894,0.384278,0.546506,0.425338,-0.380111,1
1.45565,-0.722239,-1.966,-1.07394,2.20431,1.32918,-1.06381,1.46557,-0.732628,-1.95916,-1.08031,2.19727,1.32308,-1.05839,1.52999,-0.800384,-1.91588,-1.11374,2.15001,1.28624,-1.02528,-1.04625,1.10319,-0.700798,0.524705,0.77148,0.600769,-0.529928,-1.04625,1.10319,-0.700798,0.524705,0.77148,0.600769,-0.529928,0.367119,-0.49764,0.816003,0.732789,0.0688877,0.138461,0.662648,-0.770747,-0.200915,0.549122,1.98744,-0.443446,1.16721,-3.54428,0.0598758,2.18786,-3.53066,0.0660881,2.23543,-0.743475,0.781446,-0.501235,0.398021,0.543006,0.429424,-0.385288,1
1.44584,-0.711887,-1.97284,-1.06785,2.21099,1.33566,-1.06955,1.45567,-0.722248,-1.966,-1.07402,2.20424,1.32925,-1.06387,1.52008,-0.789935,-1.92252,-1.10876,2.15732,1.2919,-1.03033,-1.04706,1.10254,-0.701529,0.526756,0.770976,0.594587,-0.535072,-1.04706,1.10254,-0.701529,0.526756,0.770976,0.594587,-0.535072,0.359588,-0.499273,0.821265,0.740437,0.0640342,0.138758,0.654522,-0.773558,-0.182999,0.551205,1.95194,-0.442824,1.18788,-3.54997,0.0622779,2.06652,-3.54713,0.0610769,2.12719,-0.742413,0.780483,-0.503143,0.409072,0.536704,0.437636,-0.39221,1
1.43598,-0.701481,-1.97949,-1.06293,2.21814,1.34106,-1.07508,1.44582,-0.711873,-1.97279,-1.06814,2.21111,1.33539,-1.0695,1.51015,-0.779494,-1.92919,-1.10366,2.16461,1.29756,-1.03542,-1.04787,1.10151,-0.704433,0.548784,0.767784,0.59992,-0.539916,-1.04787,1.10151,-0.704433,0.548784,0.767784,0.59992,-0.539916,0.352004,-0.500737,0.826571,0.748017,0.0590793,0.139074,0.646249,-0.78202,-0.167802,0.558936,1.91635,-0.442165,1.20745,-3.5591,0.065884,1.95692,-3.55453,0.064081,2.01172,-0.74173,0.780131,-0.50308,0.4073,0.535344,0.435064,-0.39662,1
1.42633,-0.691086,-1.98609,-1.05832,2.22534,1.34722,-1.08054,1.43603,-0.701484,-1.97948,-1.06301,2.21815,1.34125,-1.07506,1.50023,-0.769064,-1.93588,-1.09835,2.17185,1.30329,-1.04057,-1.04732,1.10033,-0.707872,0.571783,0.761353,0.610192,-0.54747,-1.04732,1.10033,-0.707872,0.571783,0.761353,0.610192,-0.54747,0.344339,-0.502033,0.831948,0.755554,0.0539557,0.139408,0.637802,-0.790023,-0.151045,0.56674,1.88125,-0.441795,1.22585,-3.5096,0.0370055,1.83989,-3.53435,0.0514448,1.8984,-0.738943,0.779783,-0.502115,0.400242,0.534871,0.439279,-0.399669,1
1.41651,-0.680599,-1.99232,-1.05467,2.23378,1.35153,-1.08537,1.42629,-0.691063,-1.986,-1.05856,2.22565,1.34676,-1.08038,1.49031,-0.758644,-1.94259,-1.09288,2.17903,1.30911,-1.04581,-1.04563,1.09927,-0.709816,0.581376,0.754031,0.617663,-0.556783,-1.04563,1.09927,-0.709816,0.581376,0.754031,0.617663,-0.556783,0.336622,-0.503137,0.837374,0.763026,0.0486716,0.139777,0.629194,-0.79326,-0.130875,0.570529,1.84626,-0.440834,1.2435,-3.49911,0.096032,1.76566,-3.50436,0.0665188,1.80277,-0.73804,0.780448,-0.497227,0.382097,0.547538,0.424192,-0.395587,1
1.40684,-0.670089,-1.99889,-1.04928,2.24109,1.35702,-1.09063,1.41655,-0.680593,-1.9924,-1.05424,2.2335,1.35183,-1.08548,1.48042,-0.748232,-1.94931,-1.08741,2.18616,1.31496,-1.05111,-1.04322,1.09874,-0.708966,0.573538,0.75193,0.617858,-0.562909,-1.04322,1.09874,-0.708966,0.573538,0.75193,0.617858,-0.562909,0.328908,-0.504019,0.842807,0.77038,0.0432921,0.140192,0.620473,-0.79069,-0.10782,0.569528,1.81115,-0.440372,1.26013,-3.51087,0.0462323,1.66248,-3.50499,0.0711322,1.71407,-0.735786,0.781429,-0.495749,0.381325,0.549351,0.420586,-0.395168,1
1.39755,-0.659735,-2.0058,-1.04293,2.24774,1.36513,-1.09602,1.40693,-0.670128,-1.99897,-1.04904,2.24093,1.35767,-1.09066,1.47055,-0.737821,-1.95601,-1.08208,2.19332,1.32078,-1.05644,-1.04027,1.09897,-0.704777,0.552801,0.759759,0.610553,-0.562613,-1.04027,1.09897,-0.704777,0.552801,0.759759,0.610553,-0.562613,0.321247,-0.504668,0.84821,0.777558,0.0378978,0.140635,0.61171,-0.783747,-0.0834132,0.565476,1.77587,-0.439739,1.27545,-3.52778,0.0632495,1.53193,-3.51933,0.0547409,1.59721,-0.730022,0.78086,-0.497913,0.391545,0.544189,0.443444,-0.395735,1
1.38816,-0.649385,-2.01238,-1.03789,2.25573,1.37168,-1.10092,1.39752,-0.659736,-2.00572,-1.04326,2.24808,1.36474,-1.0959,1.46071,-0.727403,-1.96266,-1.07694,2.20059,1.32649,-1.06175,-1.0379,1.10023,-0.6991,0.533647,0.773486,0.595493,-0.55765,-1.0379,1.10023,-0.6991,0.533647,0.773486,0.595493,-0.55765,0.313663,-0.505087,0.853575,0.78453,0.0325436,0.141079,0.602951,-0.776503,-0.0602562,0.562557,1.74086,-0.439248,1.28989,-3.50133,0.0491321,1.44473,-3.51456,0.0561908,1.48833,-0.725417,0.780176,-0.497226,0.390462,0.551417,0.451896,-0.391658,1
1.37876,-0.638966,-2.01907,-1.03349,2.2636,1.37727,-1.10586,1.38816,-0.649368,-2.01241,-1.03805,2.2557,1.37144,-1.10093,1.4509,-0.716975,-1.96928,-1.07187,2.20793,1.33215,-1.06702,-1.03329,1.10111,-0.698012,0.536611,0.775634,0.599861,-0.555593,-1.03329,1.10111,-0.698012,0.536611,0.775634,0.599861,-0.555593,0.306125,-0.505284,0.858935,0.791324,0.0271631,0.141524,0.594172,-0.774551,-0.0380591,0.56524,1.70582,-0.43858,1.30363,-3.50342,0.0667959,1.37346,-3.50237,0.057964,1.4091,-0.721369,0.780092,-0.497962,0.383816,0.556748,0.451123,-0.388367,1
1.3691,-0.628497,-2.02594,-1.02908,2.27106,1.38197,-1.11094,1.3787,-0.638953,-2.01912,-1.03349,2.2635,1.37705,-1.10589,1.44115,-0.706547,-1.9759,-1.06671,2.21526,1.33798,-1.07228,-1.0253,1.10027,-0.700782,0.551303,0.771451,0.628891,-0.554985,-1.0253,1.10027,-0.700782,0.551303,0.771451,0.628891,-0.554985,0.29859,-0.505249,0.864326,0.797976,0.0216054,0.141982,0.585328,-0.775478,-0.0150367,0.569914,1.6707,-0.437931,1.31635,-3.51231,0.0649422,1.27186,-3.50786,0.0658691,1.32266,-0.720472,0.780501,-0.500363,0.37627,0.558055,0.439898,-0.386611,1
1.35966,-0.618008,-2.03264,-1.02499,2.27843,1.38725,-1.11595,1.36916,-0.628492,-2.0259,-1.02916,2.27104,1.38211,-1.11092,1.43147,-0.696129,-1.98255,-1.06149,2.2226,1.34402,-1.07752,-1.01799,1.0991,-0.701871,0.55095,0.778091,0.644484,-0.550232,-1.01799,1.0991,-0.701871,0.55095,0.778091,0.644484,-0.550232,0.291066,-0.504979,0.869733,0.80447,0.0158648,0.14244,0.576444,-0.77189,0.007703,0.569868,1.6356,-0.437263,1.32799,-3.51055,0.0667304,1.16388,-3.51143,0.0658363,1.21787,-0.718066,0.781209,-0.500898,0.364967,0.558338,0.432279,-0.384321,1
1.35055,-0.607569,-2.03899,-1.02163,2.28639,1.39327,-1.12058,1.35974,-0.618021,-2.03255,-1.02517,2.27858,1.38743,-1.11586,1.42184,-0.685716,-1.9892,-1.05634,2.23001,1.35007,-1.0827,-1.01418,1.09913,-0.70309,0.537117,0.787058,0.634017,-0.54507,-1.01418,1.09913,-0.70309,0.537117,0.787058,0.634017,-0.54507,0.283604,-0.504494,0.875112,0.810778,0.0100845,0.1429,0.567553,-0.763947,0.0284413,0.565575,1.60054,-0.436554,1.33842,-3.50602,0.0709206,1.04368,-3.50828,0.0688255,1.10378,-0.712967,0.781472,-0.49783,0.34714,0.563796,0.432012,-0.378746,1
1.34169,-0.597166,-2.04545,-1.01762,2.29424,1.40022,-1.12513,1.35061,-0.607578,-2.03902,-1.02147,2.28636,1.3935,-1.12056,1.41224,-0.675298,-1.99588,-1.05133,2.23748,1.35598,-1.08785,-1.01275,1.10014,-0.70561,0.521067,0.788803,0.614274,-0.542248,-1.01275,1.10014,-0.70561,0.521067,0.788803,0.614274,-0.542248,0.276236,-0.503815,0.880439,0.816904,0.00436809,0.143398,0.558646,-0.75484,0.0480765,0.560276,1.56532,-0.43599,1.34801,-3.52193,0.0564098,0.958335,-3.51397,0.0636652,1.00101,-0.705489,0.781318,-0.495774,0.33708,0.567562,0.442423,-0.3728,1
1.33315,-0.586824,-2.05194,-1.01355,2.30227,1.40794,-1.12965,1.34177,-0.597181,-2.04546,-1.01761,2.29428,1.40042,-1.12512,1.40267,-0.66487,-2.00256,-1.04649,2.24496,1.36175,-1.09297,-1.00891,1.10117,-0.704935,0.501119,0.790215,0.60377,-0.537915,-1.00891,1.10117,-0.704935,0.501119,0.790215,0.60377,-0.537915,0.268979,-0.502937,0.885705,0.822843,-0.00128126,0.143949,0.549734,-0.743449,0.0697827,0.554252,1.53038,-0.435728,1.35672,-3.49318,0.0262588,0.871217,-3.50755,0.0413343,0.914776,-0.695168,0.780462,-0.493858,0.329425,0.573094,0.461974,-0.366756,1
1.32435,-0.576382,-2.0582,-1.01027,2.31082,1.41394,-1.13399,1.33309,-0.586799,-2.05189,-1.01375,2.3024,1.40751,-1.1296,1.39315,-0.654437,-2.00922,-1.04186,2.25248,1.3675,-1.09803,-0.999902,1.10138,-0.700463,0.479237,0.796476,0.611112,-0.529686,-0.999902,1.10138,-0.700463,0.479237,0.796476,0.611112,-0.529686,0.261849,-0.501833,0.890906,0.828565,-0.00692214,0.144529,0.540874,-0.729995,0.0941478,0.54798,1.49529,-0.435237,1.36445,-3.50919,0.0490636,0.773537,-3.50118,0.0376612,0.822377,-0.688,0.780547,-0.489859,0.315831,0.583432,0.464374,-0.359654,1
1.31529,-0.56583,-2.06428,-1.0081,2.31925,1.41851,-1.13854,1.32429,-0.576355,-2.05816,-1.01055,2.31079,1.41358,-1.13404,1.38375,-0.644006,-2.01583,-1.03739,2.26006,1.37341,-1.103,-0.986619,1.10059,-0.696416,0.464949,0.804347,0.634715,-0.520106,-0.986619,1.10059,-0.696416,0.464949,0.804347,0.634715,-0.520106,0.254845,-0.500482,0.896051,0.834052,-0.012642,0.145105,0.53211,-0.717475,0.119312,0.54344,1.4604,-0.434791,1.37133,-3.48905,0.0445634,0.687242,-3.49912,0.0468135,0.730389,-0.684559,0.781761,-0.484513,0.29283,0.591841,0.451038,-0.355402,1
1.30614,-0.555295,-2.07035,-1.00656,2.32733,1.42346,-1.14296,1.31527,-0.565834,-2.06428,-1.00826,2.31916,1.41861,-1.1385,1.37447,-0.633584,-2.02241,-1.03304,2.26773,1.37954,-1.10788,-0.972674,1.09965,-0.692804,0.453405,0.814747,0.657519,-0.510707,-0.972674,1.09965,-0.692804,0.453405,0.814747,0.657519,-0.510707,0.247957,-0.498885,0.90115,0.839309,-0.0184871,0.145659,0.523451,-0.705118,0.143474,0.539405,1.42553,-0.434215,1.37723,-3.48743,0.0576645,0.589967,-3.48824,0.051114,0.638604,-0.683262,0.782885,-0.479411,0.264776,0.595912,0.439261,-0.350818,1
1.29749,-0.544755,-2.07601,-1.00475,2.33551,1.42977,-1.14715,1.30627,-0.555294,-2.07025,-1.0065,2.32735,1.4238,-1.1429,1.3653,-0.623163,-2.02894,-1.02886,2.27552,1.38575,-1.11267,-0.963939,1.10021,-0.686648,0.430349,0.828876,0.654219,-0.502256,-0.963939,1.10021,-0.686648,0.430349,0.828876,0.654219,-0.502256,0.241203,-0.497066,0.906191,0.844342,-0.0243754,0.146188,0.5149,-0.689825,0.164678,0.532561,1.39047,-0.433783,1.38184,-3.50554,0.0431418,0.46128,-3.49649,0.0504032,0.525624,-0.678082,0.784077,-0.470696,0.241111,0.599876,0.440225,-0.344751,1
1.28934,-0.534305,-2.08162,-1.00186,2.34383,1.43741,-1.15121,1.29761,-0.544778,-2.076,-1.00448,2.33554,1.4301,-1.14712,1.35618,-0.61273,-2.03541,-1.02497,2.28343,1.39183,-1.1174,-0.961521,1.10224,-0.678589,0.392749,0.839774,0.62952,-0.496071,-0.961521,1.10224,-0.678589,0.392749,0.839774,0.62952,-0.496071,0.234622,-0.495062,0.911141,0.849157,-0.0301564,0.146714,0.506456,-0.671193,0.183155,0.521582,1.35531,-0.433398,1.38572,-3.51617,0.0385612,0.388062,-3.51086,0.0408515,0.424671,-0.66843,0.784244,-0.462158,0.231159,0.603959,0.455797,-0.338149,1
1.28121,-0.523875,-2.08684,-1.00296,2.35339,1.44328,-1.15426,1.28934,-0.53431,-2.08153,-1.00286,2.34414,1.43696,-1.15096,1.34708,-0.602277,-2.04179,-1.02146,2.29141,1.39771,-1.12207,-0.959233,1.10425,-0.668914,0.351628,0.844714,0.613328,-0.489628,-0.959233,1.10425,-0.668914,0.351628,0.844714,0.613328,-0.489628,0.228238,-0.492886,0.915975,0.853758,-0.0357771,0.147268,0.498126,-0.651278,0.202129,0.509245,1.32064,-0.432866,1.38831,-3.46656,0.0532061,0.258875,-3.49137,0.0458837,0.323468,-0.658706,0.784013,-0.450517,0.184959,0.619749,0.455668,-0.321911,1
1.27282,-0.513293,-2.09177,-1.00472,2.36248,1.44826,-1.15742,1.28114,-0.523837,-2.08677,-1.00312,2.35327,1.44305,-1.15429,1.33804,-0.591809,-2.04807,-1.01826,2.29944,1.40357,-1.12666,-0.950069,1.10538,-0.656571,0.323958,0.848677,0.623611,-0.480757,-0.950069,1.10538,-0.656571,0.323958,0.848677,0.623611,-0.480757,0.222045,-0.490512,0.920707,0.858136,-0.0413428,0.147842,0.489934,-0.632745,0.224319,0.500993,1.28543,-0.432363,1.39006,-3.52114,0.0502884,0.174844,-3.49385,0.0517473,0.21686,-0.652139,0.78516,-0.437003,0.135434,0.630481,0.446875,-0.307593,1
1.2647,-0.502627,-2.09669,-1.00466,2.3708,1.45435,-1.16124,1.27289,-0.513272,-2.09176,-1.00426,2.36229,1.44853,-1.15758,1.32911,-0.581337,-2.05421,-1.01535,2.30753,1.40958,-1.13114,-0.934738,1.10527,-0.641943,0.293565,0.860319,0.643644,-0.465763,-0.934738,1.10527,-0.641943,0.293565,0.860319,0.643644,-0.465763,0.216043,-0.487918,0.925349,0.86227,-0.0469514,0.148399,0.481937,-0.611388,0.247189,0.491499,1.25033,-0.431837,1.39085,-3.51002,0.0525951,0.0796556,-3.51558,0.0514418,0.12725,-0.644092,0.787091,-0.424745,0.106895,0.632618,0.447667,-0.300971,1
1.25819,-0.492106,-2.1014,-1.01065,2.37968,1.46082,-1.16421,1.26511,-0.502663,-2.09663,-1.00617,2.37094,1.45444,-1.16103,1.32033,-0.570865,-2.06021,-1.01288,2.31579,1.41568,-1.13544,-0.920898,1.1053,-0.624283,0.22942,0.880969,0.643449,-0.442977,-0.920898,1.1053,-0.624283,0.22942,0.880969,0.643449,-0.442977,0.210293,-0.485125,0.929844,0.86612,-0.0524989,0.148915,0.474241,-0.580728,0.266147,0.471376,1.2155,-0.431412,1.39065,-3.48353,0.0425041,-0.0205755,-3.49678,0.0475496,0.0295401,-0.621341,0.787589,-0.411893,0.0223879,0.638963,0.451437,-0.287705,1
1.25295,-0.481525,-2.10572,-1.02073,2.38968,1.4652,-1.16555,1.25851,-0.492091,-2.1013,-1.01167,2.37996,1.4603,-1.1638,1.31165,-0.560383,-2.06602,-1.01106,2.32421,1.42171,-1.13954,-0.910999,1.10725,-0.604977,0.159729,0.895052,0.630508,-0.424044,-0.910999,1.10725,-0.604977,0.159729,0.895052,0.630508,-0.424044,0.204849,-0.482175,0.93414,0.869681,-0.0578407,0.149407,0.466891,-0.548534,0.282761,0.450048,1.18058,-0.430761,1.38921,-3.49146,0.0651032,-0.143313,-3.4875,0.0538036,-0.0819445,-0.586964,0.788576,-0.396923,-0.0966689,0.654704,0.43491,-0.260076,1
1.24784,-0.470591,-2.10955,-1.02785,2.39865,1.46836,-1.16821,1.25298,-0.481437,-2.1056,-1.01999,2.38942,1.46489,-1.16588,1.30311,-0.54988,-2.07167,-1.00991,2.3327,1.42768,-1.1435,-0.893189,1.10974,-0.586836,0.0878214,0.898677,0.629129,-0.41195,-0.893189,1.10974,-0.586836,0.0878214,0.898677,0.629129,-0.41195,0.199745,-0.479071,0.938223,0.872968,-0.0629697,0.149915,0.459878,-0.511726,0.30069,0.427129,1.14557,-0.430024,1.38684,-3.50142,0.0736922,-0.237083,-3.49644,0.0693977,-0.190198,-0.552717,0.792891,-0.378864,-0.179455,0.659444,0.406842,-0.247135,1
1.24206,-0.459897,-2.11512,-1.03137,2.40687,1.47261,-1.17296,1.24767,-0.470651,-2.10999,-1.02695,2.39846,1.46863,-1.16873,1.29484,-0.53936,-2.07713,-1.00974,2.34127,1.43362,-1.14728,-0.853919,1.11096,-0.568012,-0.0453388,0.909322,0.626882,-0.388238,-0.853919,1.11096,-0.568012,-0.0453388,0.909322,0.626882,-0.388238,0.195132,-0.475818,0.941981,0.875915,-0.0677846,0.150464,0.453364,-0.449698,0.316994,0.383072,1.11064,-0.429595,1.38337,-3.49244,0.0428677,-0.347757,-3.49693,0.0582799,-0.29242,-0.527796,0.794631,-0.379897,-0.21633,0.655994,0.389862,-0.256755,1
1.23638,-0.449134,-2.11901,-1.03649,2.41561,1.47681,-1.1777,1.24209,-0.45988,-2.1147,-1.03177,2.407,1.4726,-1.17296,1.28702,-0.52882,-2.0824,-1.011,2.34998,1.43942,-1.15079,-0.79999,1.11367,-0.545192,-0.211267,0.927102,0.598672,-0.354592,-0.79999,1.11367,-0.545192,-0.211267,0.927102,0.598672,-0.354592,0.191208,-0.472461,0.945276,0.878438,-0.0720448,0.151052,0.447593,-0.371472,0.329541,0.3295,1.07598,-0.429201,1.37912,-3.46653,0.0393659,-0.424862,-3.47949,0.0411168,-0.38631,-0.506425,0.79686,-0.36611,-0.254929,0.656346,0.373833,-0.269023,1
1.23,-0.438377,-2.12214,-1.04291,2.42524,1.47798,-1.18186,1.23621,-0.449135,-2.11882,-1.03682,2.41583,1.47605,-1.17755,1.27968,-0.518244,-2.08748,-1.01352,2.35879,1.44489,-1.1541,-0.752296,1.1186,-0.528889,-0.315611,0.932484,0.557986,-0.343936,-0.752296,1.1186,-0.528889,-0.315611,0.932484,0.557986,-0.343936,0.187953,-0.469035,0.948167,0.880604,-0.0757254,0.151678,0.442488,-0.311772,0.339467,0.295989,1.04143,-0.428748,1.37386,-3.45453,0.0452936,-0.525558,-3.46053,0.0423297,-0.47521,-0.496815,0.798678,-0.346607,-0.293871,0.66452,0.330927,-0.277588,1
1.22403,-0.42754,-2.12506,-1.05322,2.4345,1.47556,-1.18519,1.2301,-0.438357,-2.12209,-1.04388,2.42515,1.47708,-1.18165,1.27272,-0.507628,-2.09246,-1.01671,2.36759,1.45004,-1.15746,-0.7199,1.12225,-0.522675,-0.354126,0.926268,0.530181,-0.364224,-0.7199,1.12225,-0.522675,-0.354126,0.926268,0.530181,-0.364224,0.185149,-0.465547,0.950838,0.882593,-0.079061,0.15235,0.437685,-0.278205,0.347178,0.281792,1.00688,-0.428171,1.36762,-3.45505,0.0577599,-0.624013,-3.45479,0.0515267,-0.574785,-0.486839,0.800883,-0.325966,-0.365197,0.669068,0.255214,-0.277333,1
1.21882,-0.416531,-2.12749,-1.06502,2.44281,1.46965,-1.18853,1.22422,-0.427497,-2.12494,-1.05359,2.43426,1.47469,-1.18519,1.26599,-0.496984,-2.09733,-1.02024,2.37637,1.4549,-1.16103,-0.700122,1.12459,-0.505178,-0.389651,0.927459,0.497199,-0.388304,-0.700122,1.12459,-0.505178,-0.389651,0.927459,0.497199,-0.388304,0.182642,-0.462011,0.953388,0.884508,-0.0821879,0.153034,0.432979,-0.250786,0.352905,0.270011,0.972113,-0.427509,1.36056,-3.47698,0.0661403,-0.705957,-3.46602,0.0619501,-0.664985,-0.471715,0.804523,-0.301587,-0.447775,0.664422,0.147511,-0.274957,1
1.21309,-0.405467,-2.13016,-1.07438,2.45003,1.46488,-1.19073,1.21869,-0.416517,-2.12755,-1.06441,2.44254,1.46994,-1.18825,1.25942,-0.486316,-2.10195,-1.02428,2.38521,1.45922,-1.16476,-0.688966,1.12719,-0.473242,-0.460648,0.938526,0.41983,-0.397144,-0.688966,1.12719,-0.473242,-0.460648,0.938526,0.41983,-0.397144,0.180449,-0.458482,0.955787,0.886347,-0.0849273,0.153686,0.428435,-0.215057,0.352118,0.249382,0.937184,-0.427284,1.35251,-3.49292,0.0225455,-0.805509,-3.48495,0.0443429,-0.755733,-0.463246,0.808488,-0.282049,-0.50095,0.648195,0.0566346,-0.259794,1
1.20656,-0.394453,-2.13285,-1.08268,2.45702,1.45429,-1.19253,1.21289,-0.405479,-2.13016,-1.07411,2.44997,1.46343,-1.19063,1.25296,-0.475617,-2.10627,-1.02921,2.39413,1.46253,-1.16849,-0.675377,1.13099,-0.438839,-0.573072,0.943226,0.285797,-0.392488,-0.675377,1.13099,-0.438839,-0.573072,0.943226,0.285797,-0.392488,0.178699,-0.455058,0.957937,0.888081,-0.086894,0.15433,0.424197,-0.163999,0.342892,0.215969,0.902375,-0.42713,1.34329,-3.48094,0.0154018,-0.921893,-3.48693,0.0189736,-0.863701,-0.463923,0.811647,-0.26584,-0.53469,0.628853,-0.0824199,-0.240369,1
1.19735,-0.383401,-2.13447,-1.09101,2.46418,1.43755,-1.19378,1.20589,-0.394443,-2.13258,-1.08269,2.45706,1.45275,-1.19239,1.24665,-0.464874,-2.11026,-1.03521,2.403,1.46445,-1.17214,-0.657123,1.1366,-0.406321,-0.686373,0.929423,0.128894,-0.378489,-0.657123,1.1366,-0.406321,-0.686373,0.929423,0.128894,-0.378489,0.177498,-0.451805,0.95978,0.889697,-0.0878237,0.155054,0.420338,-0.108132,0.33168,0.181897,0.868179,-0.426552,1.33322,-3.41962,0.0578493,-1.00673,-3.45028,0.0366256,-0.964314,-0.493038,0.814728,-0.242058,-0.557996,0.611838,-0.269055,-0.216363,1
1.18937,-0.372405,-2.13085,-1.09817,2.47128,1.4247,-1.1982,1.19765,-0.383415,-2.13316,-1.09072,2.46416,1.43852,-1.19457,1.24047,-0.454078,-2.11398,-1.04205,2.41166,1.46486,-1.1756,-0.64816,1.14227,-0.380371,-0.753723,0.900594,-0.0337029,-0.353254,-0.64816,1.14227,-0.380371,-0.753723,0.900594,-0.0337029,-0.353254,0.176797,-0.448733,0.961382,0.891224,-0.0877252,0.155932,0.416784,-0.0674563,0.319709,0.161622,0.833538,-0.426355,1.32208,-3.46408,0.0196993,-1.11438,-3.44185,0.0387743,-1.06056,-0.511023,0.816725,-0.168721,-0.561206,0.596229,-0.401623,-0.225959,1
1.18194,-0.361809,-2.13354,-1.10574,2.47743,1.41606,-1.20484,1.18951,-0.372505,-2.13243,-1.09827,2.47104,1.42575,-1.19875,1.23424,-0.443233,-2.11746,-1.04934,2.42004,1.46345,-1.17878,-0.666254,1.14678,-0.35543,-0.783846,0.870202,-0.251512,-0.319929,-0.666254,1.14678,-0.35543,-0.783846,0.870202,-0.251512,-0.319929,0.17644,-0.445895,0.962866,0.892746,-0.0865785,0.156992,0.413354,-0.0452225,0.298555,0.154061,0.798812,-0.425536,1.3105,-3.47256,0.0818193,-1.15734,-3.46832,0.0507593,-1.13586,-0.522929,0.814244,-0.160786,-0.56399,0.573926,-0.473906,-0.260524,1
1.17173,-0.351371,-2.13401,-1.11554,2.48575,1.40998,-1.20164,1.18125,-0.361849,-2.13299,-1.1063,2.47797,1.4167,-1.20238,1.22772,-0.432352,-2.12053,-1.05683,2.42816,1.45982,-1.18172,-0.706723,1.15022,-0.296757,-0.796516,0.846203,-0.500728,-0.301987,-0.706723,1.15022,-0.296757,-0.796516,0.846203,-0.500728,-0.301987,0.176309,-0.443339,0.964342,0.894345,-0.0843028,0.158184,0.4099,-0.0299871,0.278135,0.156734,0.76463,-0.424775,1.29775,-3.41818,0.0760943,-1.27572,-3.44537,0.0789568,-1.21653,-0.559942,0.809803,-0.134813,-0.58713,0.575857,-0.498473,-0.199157,1
1.16198,-0.340901,-2.13425,-1.12316,2.49477,1.40433,-1.20157,1.17185,-0.351363,-2.13396,-1.11499,2.48592,1.41009,-1.20242,1.22087,-0.421453,-2.12297,-1.06437,2.43606,1.45424,-1.18472,-0.737308,1.15049,-0.222239,-0.796684,0.822272,-0.669507,-0.329743,-0.737308,1.15049,-0.222239,-0.796684,0.822272,-0.669507,-0.329743,0.176359,-0.44098,0.965868,0.896043,-0.0811427,0.15942,0.406335,-0.0147667,0.270873,0.162146,0.730311,-0.424364,1.28411,-3.43194,0.0411063,-1.36321,-3.42506,0.0586003,-1.31946,-0.588929,0.805516,-0.112817,-0.587854,0.587101,-0.49905,-0.168501,1
1.15424,-0.330456,-2.13869,-1.12949,2.50408,1.39742,-1.20572,1.16248,-0.340907,-2.1353,-1.12284,2.49484,1.40401,-1.20263,1.21376,-0.410579,-2.12491,-1.07197,2.44376,1.44761,-1.1879,-0.764113,1.14538,-0.189695,-0.80674,0.804162,-0.726483,-0.340267,-0.764113,1.14538,-0.189695,-0.80674,0.804162,-0.726483,-0.340267,0.176513,-0.438735,0.967382,0.897808,-0.0775179,0.160673,0.402635,-0.011123,0.262327,0.15428,0.695854,-0.424169,1.26882,-3.44566,0.0195533,-1.52993,-3.4388,0.0303298,-1.44657,-0.595141,0.801231,-0.137746,-0.575157,0.603173,-0.501889,-0.178181,1
1.14596,-0.320329,-2.14175,-1.13562,2.51488,1.3905,-1.20593,1.15411,-0.330535,-2.13835,-1.12944,2.50445,1.39742,-1.20473,1.20629,-0.399766,-2.12663,-1.07973,2.45141,1.44075,-1.19079,-0.809561,1.13768,-0.17229,-0.828949,0.811164,-0.720819,-0.273409,-0.809561,1.13768,-0.17229,-0.828949,0.811164,-0.720819,-0.273409,0.176631,-0.43661,0.968785,0.899545,-0.073664,0.161921,0.398967,-0.0227017,0.249992,0.138966,0.661111,-0.423879,1.2531,-3.47438,0.0289559,-1.57185,-3.46002,0.0242546,-1.55089,-0.603246,0.794373,-0.151239,-0.558891,0.634667,-0.502536,-0.151373,1
1.13712,-0.310153,-2.14447,-1.1426,2.52512,1.38355,-1.20475,1.14582,-0.320317,-2.14166,-1.13583,2.51474,1.39049,-1.20558,1.19844,-0.389022,-2.12823,-1.08758,2.45923,1.434,-1.19313,-0.845165,1.1309,-0.166306,-0.828723,0.83708,-0.704898,-0.223227,-0.845165,1.1309,-0.166306,-0.828723,0.83708,-0.704898,-0.223227,0.176607,-0.434605,0.970081,0.901217,-0.0697077,0.163081,0.395416,-0.0393107,0.239358,0.131129,0.62618,-0.423428,1.23609,-3.49306,0.0451624,-1.70053,-3.48372,0.0370592,-1.63619,-0.613199,0.788688,-0.162391,-0.550214,0.65893,-0.504561,-0.116189,1
1.12873,-0.299889,-2.14828,-1.14957,2.53465,1.378,-1.20499,1.13723,-0.310131,-2.14474,-1.1426,2.52494,1.3839,-1.2051,1.19039,-0.378344,-2.12996,-1.0953,2.46733,1.42733,-1.19524,-0.85293,1.1237,-0.197159,-0.802423,0.872393,-0.703189,-0.223085,-0.85293,1.1237,-0.197159,-0.802423,0.872393,-0.703189,-0.223085,0.176407,-0.43273,0.971332,0.902915,-0.0657249,0.164088,0.391791,-0.0570953,0.22516,0.128962,0.591193,-0.423427,1.21869,-3.4987,5.96046e-05,-1.74004,-3.49588,0.022611,-1.72029,-0.616677,0.784549,-0.183228,-0.542729,0.673142,-0.49337,-0.0974708,1
1.12044,-0.290002,-2.15216,-1.15626,2.54484,1.37324,-1.20495,1.12875,-0.299983,-2.1483,-1.1495,2.53482,1.3782,-1.20492,1.18229,-0.367743,-2.13198,-1.10277,2.47581,1.42064,-1.19722,-0.857215,1.11472,-0.22766,-0.776971,0.914952,-0.708731,-0.196419,-0.857215,1.11472,-0.22766,-0.776971,0.914952,-0.708731,-0.196419,0.176028,-0.431008,0.972566,0.904673,-0.0616981,0.164907,0.388029,-0.074302,0.209694,0.126859,0.556398,-0.423089,1.19979,-3.47953,0.033772,-1.89028,-3.48911,0.0169158,-1.81516,-0.618501,0.777408,-0.201855,-0.534858,0.690321,-0.47403,-0.0772289,1
1.11176,-0.280429,-2.15544,-1.16385,2.55539,1.36892,-1.20416,1.12034,-0.29008,-2.15201,-1.15648,2.54493,1.37335,-1.20476,1.17412,-0.357221,-2.13423,-1.11007,2.48464,1.41394,-1.19884,-0.867056,1.10683,-0.247014,-0.764478,0.947235,-0.706183,-0.147251,-0.867056,1.10683,-0.247014,-0.764478,0.947235,-0.706183,-0.147251,0.175488,-0.429434,0.973767,0.906431,-0.0575973,0.165542,0.384268,-0.0883714,0.196819,0.121671,0.521762,-0.422732,1.17981,-3.46354,0.0357777,-1.99826,-3.47153,0.0347748,-1.94427,-0.623593,0.767924,-0.212126,-0.537768,0.707501,-0.450245,-0.0532305,1
1.10314,-0.270907,-2.1615,-1.17167,2.56526,1.36587,-1.20579,1.11178,-0.280442,-2.15614,-1.16391,2.55522,1.36924,-1.20476,1.16588,-0.346771,-2.1367,-1.11728,2.49371,1.40736,-1.20007,-0.872615,1.09972,-0.272606,-0.757351,0.966145,-0.685398,-0.114028,-0.872615,1.09972,-0.272606,-0.757351,0.966145,-0.685398,-0.114028,0.174811,-0.427981,0.974907,0.908165,-0.0534596,0.166048,0.380535,-0.100628,0.185921,0.113722,0.487455,-0.42215,1.15849,-3.43076,0.0581563,-2.132,-3.44715,0.046967,-2.06513,-0.627429,0.758633,-0.248014,-0.543949,0.715482,-0.414848,-0.0571989,1
1.09467,-0.262021,-2.16827,-1.17912,2.57539,1.36456,-1.20753,1.10318,-0.271066,-2.16168,-1.17158,2.56533,1.3663,-1.20582,1.1576,-0.336406,-2.1394,-1.12443,2.50297,1.40104,-1.20102,-0.875591,1.08881,-0.296409,-0.753298,0.98637,-0.650724,-0.0879877,-0.875591,1.08881,-0.296409,-0.753298,0.98637,-0.650724,-0.0879877,0.174004,-0.426633,0.975962,0.909881,-0.0493497,0.166436,0.376803,-0.113001,0.175183,0.103917,0.452977,-0.421219,1.13639,-3.44778,0.0930667,-2.20978,-3.43927,0.0756115,-2.17089,-0.629231,0.743853,-0.288695,-0.546893,0.724281,-0.364773,-0.0651211,1
1.08661,-0.253663,-2.17787,-1.18346,2.58553,1.3656,-1.20972,1.09477,-0.262153,-2.16898,-1.17834,2.57539,1.36515,-1.20764,1.14927,-0.326162,-2.14235,-1.1316,2.51241,1.39509,-1.20176,-0.881306,1.07457,-0.324109,-0.75931,1.00623,-0.607546,-0.0705177,-0.881306,1.07457,-0.324109,-0.75931,1.00623,-0.607546,-0.0705177,0.173057,-0.425405,0.976901,0.911588,-0.0452866,0.166692,0.373055,-0.127279,0.161296,0.0892722,0.419188,-0.421329,1.11379,-3.37892,-0.0109226,-2.25979,-3.41335,0.0410721,-2.23479,-0.626629,0.724986,-0.355231,-0.518585,0.73117,-0.294874,-0.0795186,1
1.07787,-0.248246,-2.18954,-1.18628,2.59592,1.3737,-1.20878,1.08644,-0.254398,-2.17839,-1.18308,2.58559,1.36736,-1.20893,1.1409,-0.316065,-2.14568,-1.13885,2.522,1.38963,-1.20247,-0.886532,1.05763,-0.376064,-0.769367,1.01822,-0.548156,-0.078597,-0.886532,1.05763,-0.376064,-0.769367,1.01822,-0.548156,-0.078597,0.17193,-0.424336,0.977676,0.913331,-0.0412819,0.166837,0.369171,-0.147879,0.142428,0.0698704,0.385227,-0.420794,1.09028,-3.39604,0.0534266,-2.3509,-3.38748,0.021252,-2.30535,-0.630266,0.678198,-0.438574,-0.474305,0.739148,-0.159303,-0.0630298,1
1.06987,-0.245583,-2.20122,-1.19444,2.6062,1.39108,-1.21663,1.07806,-0.248934,-2.18954,-1.18761,2.59589,1.37602,-1.21097,1.1325,-0.306161,-2.14963,-1.14608,2.53169,1.38486,-1.20333,-0.886624,1.03434,-0.454643,-0.758343,1.02706,-0.463282,-0.1013,-0.886624,1.03434,-0.454643,-0.758343,1.02706,-0.463282,-0.1013,0.170536,-0.423455,0.978284,0.915175,-0.0374372,0.166893,0.364966,-0.180544,0.121121,0.0541149,0.351159,-0.420346,1.06509,-3.40689,0.0448465,-2.51869,-3.40147,0.0491366,-2.4348,-0.62626,0.605783,-0.515847,-0.483592,0.745043,0.0622178,-0.132953,1
1.06629,-0.255091,-2.21327,-1.19204,2.61751,1.40526,-1.23081,1.07098,-0.248626,-2.20131,-1.1918,2.60646,1.39028,-1.21821,1.1241,-0.296577,-2.15448,-1.15301,2.54147,1.38116,-1.20433,-0.885199,0.991334,-0.561935,-0.706811,1.03689,-0.324349,-0.10832,-0.885199,0.991334,-0.561935,-0.706811,1.03689,-0.324349,-0.10832,0.168695,-0.422776,0.978776,0.91716,-0.0339943,0.166818,0.360323,-0.236427,0.0955766,0.0453359,0.31675,-0.420043,1.03937,-3.44084,0.0302404,-2.57252,-3.42386,0.0375435,-2.54561,-0.578103,0.414857,-0.587967,-0.39036,0.760393,0.240959,-0.264818,1
1.06935,-0.333934,-2.22891,-1.20327,2.62655,1.42366,-1.25515,1.06795,-0.272425,-2.21417,-1.19545,2.61694,1.40632,-1.23335,1.11572,-0.287598,-2.16042,-1.15948,2.55135,1.37932,-1.20546,-0.885177,0.908711,-0.684533,-0.661305,1.04689,-0.0776925,-0.129619,-0.885177,0.908711,-0.684533,-0.661305,1.04689,-0.0776925,-0.129619,0.166182,-0.422352,0.979109,0.919307,-0.0312858,0.166515,0.355201,-0.31269,0.0589656,0.0213182,0.282174,-0.419863,1.0133,-3.45766,0.0180602,-2.60683,-3.44925,0.0241503,-2.58968,-0.463636,-0.463366,-0.684984,-0.43798,0.751985,0.44341,-0.496963,1
1.06747,-0.343051,-2.23831,-1.22306,2.6226,1.44567,-1.25677,1.06812,-0.316503,-2.22735,-1.20541,2.6233,1.42457,-1.24947,1.10747,-0.279861,-2.16746,-1.16552,2.56134,1.38016,-1.20732,-0.857675,0.73413,-0.795714,-0.617581,1.06052,0.237719,-0.255963,-0.857675,0.73413,-0.795714,-0.617581,1.06052,0.237719,-0.255963,0.162807,-0.422379,0.979085,0.92169,-0.0295632,0.165736,0.349494,-0.403651,-0.00969256,-0.0298547,0.249322,-0.41909,0.986729,-3.28514,0.0773191,-2.65717,-3.3714,0.0476897,-2.632,-0.399942,-0.6319,-0.708514,-0.575413,0.612677,0.65508,-0.494526,1
1.03657,-0.34054,-2.25235,-1.23318,2.63748,1.41606,-1.24896,1.06022,-0.340144,-2.23947,-1.22064,2.62731,1.43277,-1.25441,1.09988,-0.27614,-2.17556,-1.17114,2.57143,1.38387,-1.21108,-0.750364,0.0873119,-0.907591,-0.571294,1.06974,0.52763,-0.523382,-0.750364,0.0873119,-0.907591,-0.571294,1.06974,0.52763,-0.523382,0.157974,-0.42428,0.97788,0.924535,-0.0281549,0.163459,0.343107,-0.589982,-0.316484,-0.229062,0.232256,-0.416261,0.98685,-1.70658,0.282854,0.0120819,-2.49586,0.180086,-1.32254,-0.633059,-0.644004,-0.76798,-0.62033,0.660525,0.321892,-0.378803,1
1.04339,-0.273286,-2.17594,-1.12026,2.65672,1.37462,-1.18688,1.046,-0.324354,-2.22974,-1.20242,2.63857,1.4131,-1.23539,1.09354,-0.280035,-2.18464,-1.17703,2.58117,1.39026,-1.21721,-0.597357,-0.857114,-1.00398,-0.667019,0.99032,0.806313,-0.758186,-0.597357,-0.857114,-1.00398,-0.667019,0.99032,0.806313,-0.758186,0.151071,-0.430047,0.974084,0.927914,-0.0255568,0.158632,0.336389,-0.803459,-0.779173,-0.586561,0.225327,-0.411719,1.00677,-0.692967,0.454202,1.99184,-1.19977,0.368528,1.00196,-0.501454,0.0674913,0.0869574,0.567706,0.755572,-0.156363,0.303336,1
1.02759,-0.308606,-2.20553,-1.12448,2.66482,1.36684,-1.18906,1.03774,-0.298929,-2.20244,-1.14954,2.65394,1.38304,-1.20295,1.08764,-0.289788,-2.19442,-1.18429,2.58998,1.39796,-1.22416,-0.644479,-1.18354,-1.05879,-0.854435,0.877237,0.818125,-0.711053,-0.644479,-1.18354,-1.05879,-0.854435,0.877237,0.818125,-0.711053,0.142675,-0.439016,0.967725,0.931502,-0.0210097,0.152229,0.32968,-0.896005,-0.965696,-0.787747,0.21973,-0.406629,1.02671,-0.559688,0.508961,1.9945,-0.626327,0.481582,1.99317,-0.600465,-0.188184,-0.111086,0.598143,0.748311,-0.311143,0.350971,1
1.0019,-0.265607,-2.22723,-1.13806,2.67124,1.36966,-1.2415,1.02512,-0.289026,-2.20356,-1.12682,2.6644,1.36949,-1.20163,1.08068,-0.298161,-2.20238,-1.18962,2.59861,1.40283,-1.22819,-0.815051,-0.61562,-0.64313,-0.30088,0.939339,0.241521,-0.169318,-0.815051,-0.61562,-0.64313,-0.30088,0.939339,0.241521,-0.169318,0.134422,-0.446891,0.962601,0.934602,-0.0164499,0.146139,0.323869,-0.78533,-0.589201,-0.352539,0.214348,-0.401325,1.04603,-0.538203,0.530434,1.93162,-0.548945,0.519697,1.96306,-0.787788,0.325543,-0.248517,0.515604,0.726305,-0.331659,-0.133155,1
1.02932,-0.255721,-2.24928,-1.15036,2.68772,1.43565,-1.26025,1.01518,-0.273885,-2.22732,-1.13774,2.67375,1.38545,-1.23308,1.0729,-0.300707,-2.20496,-1.18661,2.60819,1.40171,-1.22621,-0.826494,0.0417777,0.0591333,0.871124,1.07529,-0.438936,0.546835,-0.826494,0.0417777,0.0591333,0.871124,1.07529,-0.438936,0.546835,0.127557,-0.450001,0.963108,0.936563,-0.0152204,0.140775,0.320626,-0.593785,-0.0370564,0.389897,0.208654,-0.396625,1.06402,-0.569344,0.470015,1.79906,-0.553773,0.500225,1.86534,-0.435834,0.449857,-0.44323,0.362451,0.795307,0.339389,-0.340336,1
1.02209,-0.281066,-2.24784,-1.18042,2.69944,1.42708,-1.20888,1.02066,-0.264529,-2.24341,-1.1548,2.68653,1.41701,-1.24272,1.06457,-0.299311,-2.20457,-1.17683,2.6184,1.39657,-1.22144,-0.927158,0.241734,0.0238781,1.17551,1.08105,-0.636322,0.465593,-0.927158,0.241734,0.0238781,1.17551,1.08105,-0.636322,0.465593,0.121299,-0.449821,0.967814,0.938097,-0.0167942,0.135954,0.318132,-0.636148,0.0777729,0.569448,0.2025,-0.391943,1.08116,-0.615415,0.468218,1.71444,-0.592379,0.469117,1.75675,-0.424825,0.182455,-0.432661,-0.0358834,0.810374,0.305176,0.125542,1
1.00425,-0.280813,-2.2425,-1.18148,2.70819,1.40732,-1.18425,1.01943,-0.274666,-2.24686,-1.17317,2.6987,1.42428,-1.21557,1.05566,-0.295669,-2.20687,-1.16802,2.62855,1.39285,-1.2208,-0.951523,0.512027,-0.480597,0.711637,1.06241,-0.173847,-0.288678,-0.951523,0.512027,-0.480597,0.711637,1.06241,-0.173847,-0.288678,0.114869,-0.448822,0.972615,0.94048,-0.0192312,0.132321,0.31244,-0.650033,0.123649,0.435549,0.196379,-0.387697,1.09742,-0.612167,0.424573,1.62518,-0.613791,0.446396,1.66981,-0.514171,0.148566,-0.356261,-0.134621,0.796409,0.144712,0.365426,1
0.97506,-0.269356,-2.26133,-1.12017,2.71412,1.35933,-1.18774,1.00141,-0.278012,-2.24854,-1.16589,2.70749,1.40026,-1.19128,1.04817,-0.290345,-2.21264,-1.16378,2.6389,1.39469,-1.22426,-0.646725,0.606791,-0.723255,0.210959,1.11942,0.524538,-0.433917,-0.646725,0.606791,-0.723255,0.210959,1.11942,0.524538,-0.433917,0.109198,-0.447239,0.975882,0.943181,-0.0226896,0.12979,0.305041,-0.50128,0.177758,0.25464,0.190774,-0.383247,1.11283,-0.560421,0.445044,1.54186,-0.586294,0.434808,1.58352,-0.731117,0.209888,-0.486972,0.436059,0.752207,-0.353648,0.365194,1
0.96285,-0.23841,-2.2777,-1.12258,2.71851,1.33749,-1.22576,0.979304,-0.264484,-2.26071,-1.1361,2.71374,1.36587,-1.19637,1.04256,-0.286267,-2.21913,-1.16392,2.64967,1.39991,-1.22508,-0.543575,0.272659,-0.651844,-0.217435,1.15232,0.573,0.223644,-0.543575,0.272659,-0.651844,-0.217435,1.15232,0.573,0.223644,0.104325,-0.446486,0.977006,0.944969,-0.0252431,0.1269,0.300487,-0.471834,-0.0263783,-0.0137009,0.185645,-0.378237,1.12672,-0.512928,0.500947,1.38855,-0.536674,0.472996,1.46521,-0.797098,0.478571,-0.585647,0.413446,0.688396,-0.624159,-0.00680177,1
0.958931,-0.242552,-2.2844,-1.13393,2.73036,1.3567,-1.25778,0.964923,-0.247182,-2.27528,-1.12481,2.72038,1.34775,-1.22426,1.03606,-0.284307,-2.22483,-1.165,2.66036,1.40224,-1.22063,-0.81437,0.147963,-0.557233,-0.0209059,1.10757,-0.0464014,0.689832,-0.81437,0.147963,-0.557233,-0.0209059,1.10757,-0.0464014,0.689832,0.0988828,-0.447416,0.97717,0.946116,-0.0250274,0.123238,0.298414,-0.610452,-0.134591,0.0286321,0.179686,-0.373754,1.13967,-0.59588,0.448275,1.29461,-0.554404,0.474611,1.34158,-0.771256,0.417548,-0.595714,0.310662,0.699992,-0.45533,-0.37148,1
0.968998,-0.242058,-2.28339,-1.17889,2.75075,1.41076,-1.19886,0.962428,-0.241393,-2.28247,-1.14233,2.7325,1.36541,-1.23505,1.02683,-0.28163,-2.23084,-1.16204,2.67041,1.39823,-1.21532,-1.11703,0.403015,-0.702237,0.609784,1.01833,-0.760596,0.445301,-1.11703,0.403015,-0.702237,0.609784,1.01833,-0.760596,0.445301,0.0920701,-0.448399,0.979091,0.947887,-0.0235966,0.11998,0.294208,-0.77462,-0.0243812,0.343793,0.174075,-0.368973,1.15132,-0.561094,0.478142,1.16549,-0.578487,0.463209,1.23005,-0.578298,0.39572,-0.525522,-0.168476,0.803339,0.125314,0.164566,1
0.977718,-0.235697,-2.27406,-1.19386,2.76141,1.43139,-1.18309,0.968661,-0.240591,-2.28131,-1.17139,2.74832,1.4024,-1.20965,1.01585,-0.276394,-2.23832,-1.15569,2.67974,1.38987,-1.21448,-1.19691,0.686611,-0.868708,0.725639,0.955078,-0.99002,-0.229968,-1.19691,0.686611,-0.868708,0.725639,0.955078,-0.99002,-0.229968,0.0846481,-0.448251,0.983036,0.950849,-0.0224535,0.11793,0.285438,-0.771677,0.0999629,0.47219,0.16863,-0.364106,1.16244,-0.54456,0.486666,1.112,-0.552827,0.482404,1.13874,-0.381276,0.406967,-0.357328,-0.381784,0.816675,0.415153,0.313854,1
0.952194,-0.242235,-2.27717,-1.17156,2.76959,1.41192,-1.17895,0.969157,-0.238922,-2.27717,-1.18454,2.76079,1.42136,-1.186,1.00544,-0.269964,-2.24644,-1.15138,2.68911,1.38334,-1.21756,-1.0109,0.67155,-0.846862,0.212583,1.01966,-0.421289,-0.410991,-1.0109,0.67155,-0.846862,0.212583,1.01966,-0.421289,-0.410991,0.0779724,-0.447457,0.986559,0.954072,-0.0218794,0.116381,0.27518,-0.632546,0.1051,0.275351,0.163494,-0.359556,1.1725,-0.513607,0.45501,1.00592,-0.529084,0.470838,1.05896,-0.532429,0.277289,-0.307242,-0.201802,0.80476,0.28579,0.386072,1
0.9204,-0.23929,-2.30361,-1.12159,2.77316,1.33532,-1.21041,0.950626,-0.239864,-2.283,-1.16464,2.76844,1.39764,-1.18785,0.997522,-0.264187,-2.2535,-1.15263,2.69942,1.38366,-1.21837,-0.678348,0.554596,-0.653638,-0.441024,1.14922,0.44062,0.205072,-0.678348,0.554596,-0.653638,-0.441024,1.14922,0.44062,0.205072,0.0729563,-0.446613,0.987848,0.956068,-0.0221152,0.114328,0.269024,-0.40901,0.0907945,0.00304599,0.158002,-0.355019,1.18153,-0.549209,0.453669,0.902843,-0.531408,0.454339,0.954384,-0.771223,0.248965,-0.501064,0.310377,0.737332,-0.483417,0.0796463,1
0.915354,-0.208458,-2.32129,-1.1199,2.77516,1.32314,-1.24177,0.927087,-0.232319,-2.30142,-1.13366,2.77277,1.35142,-1.21039,0.991823,-0.25931,-2.25861,-1.15775,2.71048,1.38939,-1.21415,-0.532754,0.479198,-0.436259,-0.629721,1.18256,0.75162,0.661622,-0.532754,0.479198,-0.436259,-0.629721,1.18256,0.75162,0.661622,0.0694372,-0.445693,0.987518,0.9566,-0.0231051,0.111656,0.26817,-0.29002,0.0997684,-0.0788987,0.151664,-0.350626,1.18996,-0.633806,0.439379,0.843203,-0.591508,0.446524,0.873023,-0.764693,0.508513,-0.626874,0.378501,0.646877,-0.662492,-0.276197,1
0.908184,-0.225212,-2.32915,-1.12773,2.7927,1.34356,-1.22934,0.914823,-0.220355,-2.31884,-1.12228,2.77905,1.33129,-1.23082,0.985358,-0.255346,-2.26292,-1.161,2.72131,1.39326,-1.20873,-0.816349,0.363887,-0.472,-0.0856667,1.10777,0.102767,0.49083,-0.816349,0.363887,-0.472,-0.0856667,1.10777,0.102767,0.49083,0.0653012,-0.445045,0.987648,0.957128,-0.0238252,0.108609,0.267475,-0.514146,0.0448397,0.0856572,0.146049,-0.346046,1.19719,-0.561476,0.457925,0.723016,-0.597641,0.448652,0.78311,-0.771738,0.301343,-0.662306,0.332634,0.713929,-0.497047,-0.206038,1
0.915665,-0.207682,-2.32057,-1.17395,2.81254,1.40673,-1.1753,0.911847,-0.216641,-2.32504,-1.13733,2.79328,1.35425,-1.21894,0.975962,-0.251468,-2.26886,-1.15847,2.73115,1.38927,-1.20694,-1.14878,0.45009,-0.765359,0.583028,0.978098,-0.889711,-0.0809094,-1.14878,0.45009,-0.765359,0.583028,0.978098,-0.889711,-0.0809094,0.058953,-0.444799,0.989833,0.959088,-0.0232058,0.105799,0.26157,-0.770958,0.046272,0.349533,0.140932,-0.341479,1.20336,-0.51167,0.456697,0.617242,-0.536573,0.457311,0.670129,-0.602967,0.437854,-0.517158,-0.154826,0.813901,0.174528,0.316382,1
0.929305,-0.209291,-2.31348,-1.19155,2.82119,1.42148,-1.17698,0.917205,-0.212467,-2.32094,-1.16679,2.80974,1.39462,-1.18923,0.964933,-0.246394,-2.27718,-1.15233,2.74011,1.37961,-1.20978,-1.17781,0.612036,-0.979172,0.706168,0.915274,-1.1359,-0.494609,-1.17781,0.612036,-0.979172,0.706168,0.915274,-1.1359,-0.494609,0.051442,-0.4443,0.993626,0.962249,-0.0217427,0.103774,0.25067,-0.794339,0.112782,0.437553,0.135278,-0.336922,1.20885,-0.565439,0.455761,0.548601,-0.538555,0.456229,0.582922,-0.356285,0.371025,-0.362994,-0.392194,0.810837,0.418684,0.327947,1
0.906573,-0.229864,-2.3261,-1.17611,2.82995,1.39344,-1.18337,0.920212,-0.214032,-2.3184,-1.18329,2.82122,1.41078,-1.17816,0.954635,-0.240815,-2.28613,-1.14792,2.74936,1.3724,-1.21272,-1.00566,0.56816,-0.914525,0.248961,1.03215,-0.426666,-0.146099,-1.00566,0.56816,-0.914525,0.248961,1.03215,-0.426666,-0.146099,0.0443887,-0.443395,0.996892,0.96514,-0.0208625,0.101927,0.240167,-0.681827,0.120005,0.25441,0.129822,-0.331864,1.21331,-0.545603,0.505796,0.4457,-0.555521,0.480779,0.49715,-0.480623,0.10951,-0.399652,-0.281898,0.805841,0.210445,0.293539,1
0.869971,-0.211165,-2.34784,-1.12677,2.8291,1.32141,-1.22553,0.903105,-0.220046,-2.32838,-1.16763,2.82755,1.38245,-1.19231,0.946672,-0.235559,-2.29345,-1.14891,2.75984,1.37303,-1.21084,-0.692588,0.542735,-0.646098,-0.420337,1.17282,0.50758,0.507752,-0.692588,0.542735,-0.646098,-0.420337,1.17282,0.50758,0.507752,0.0390517,-0.442204,0.99812,0.966611,-0.0213913,0.0996181,0.23512,-0.421185,0.138039,0.0097448,0.124503,-0.326928,1.21709,-0.531918,0.493553,0.378752,-0.53876,0.499675,0.412226,-0.76701,0.243935,-0.543852,0.221404,0.692609,-0.516149,-0.14693,1
0.86873,-0.205946,-2.36371,-1.1386,2.83844,1.31312,-1.23788,0.878812,-0.214535,-2.34637,-1.14206,2.83165,1.33735,-1.21808,0.941117,-0.231122,-2.29866,-1.15421,2.77099,1.37903,-1.20537,-0.491338,0.401669,-0.463987,-0.683472,1.18042,0.746313,0.639462,-0.491338,0.401669,-0.463987,-0.683472,1.18042,0.746313,0.639462,0.035399,-0.441176,0.997571,0.966946,-0.0225581,0.096761,0.234829,-0.301712,0.0740088,-0.127509,0.118824,-0.321878,1.21982,-0.567889,0.505066,0.27262,-0.549904,0.49931,0.325686,-0.723864,0.251758,-0.650434,0.156092,0.674454,-0.659068,-0.325154,1
0.859088,-0.213714,-2.36679,-1.15321,2.85399,1.32998,-1.20662,0.86663,-0.209193,-2.36051,-1.13929,2.8386,1.31941,-1.22698,0.935152,-0.228349,-2.30365,-1.15836,2.78167,1.38238,-1.20143,-0.753207,0.19515,-0.581247,-0.21807,1.07832,0.00159404,0.214398,-0.753207,0.19515,-0.581247,-0.21807,1.07832,0.00159404,0.214398,0.0309719,-0.441132,0.996918,0.967632,-0.0225477,0.0933178,0.233394,-0.558919,-0.0397341,-0.0280151,0.112626,-0.317128,1.22118,-0.619811,0.474942,0.135887,-0.59385,0.490004,0.204253,-0.760647,0.146352,-0.63142,0.0515032,0.723234,-0.523986,-0.0518167,1
0.876218,-0.18448,-2.35325,-1.17367,2.87249,1.38801,-1.17187,0.865781,-0.204463,-2.36263,-1.15467,2.84592,1.34027,-1.20575,0.926212,-0.226115,-2.31047,-1.15752,2.79124,1.37765,-1.20233,-1.11406,0.272166,-0.843853,0.363211,0.949723,-0.947196,-0.370211,-1.11406,0.272166,-0.843853,0.363211,0.949723,-0.947196,-0.370211,0.0242052,-0.44172,0.997879,0.969694,-0.0206274,0.0899074,0.226239,-0.808996,-0.0221549,0.20507,0.106534,-0.313047,1.22173,-0.609136,0.408173,0.0546932,-0.614473,0.441557,0.0952899,-0.499939,0.416355,-0.427869,-0.161509,0.812482,0.103601,0.304508,1
0.878911,-0.191934,-2.35436,-1.19244,2.88023,1.40994,-1.17536,0.872609,-0.193652,-2.35691,-1.17325,2.84842,1.37898,-1.18143,0.915486,-0.223246,-2.31911,-1.15415,2.80002,1.36773,-1.2064,-1.14827,0.330289,-0.9731,0.349076,0.906676,-1.13573,-0.483629,-1.14827,0.330289,-0.9731,0.349076,0.906676,-1.13573,-0.483629,0.0162505,-0.442311,0.999917,0.972536,-0.0174186,0.0869338,0.215202,-0.837167,-0.0148166,0.212941,0.100916,-0.308648,1.22157,-0.561857,0.43982,-0.015986,-0.585496,0.423996,0.0193536,-0.365747,0.313116,-0.352524,-0.382976,0.802054,0.422086,0.310408,1
0.85796,-0.214418,-2.37691,-1.164,2.8874,1.37703,-1.20025,0.873,-0.195692,-2.35972,-1.18064,2.84842,1.39623,-1.18071,0.905661,-0.219948,-2.32758,-1.1528,2.80848,1.3603,-1.20827,-0.937319,0.363945,-0.82387,-0.0438693,0.88001,-0.470641,0.0592492,-0.937319,0.363945,-0.82387,-0.0438693,0.88001,-0.470641,0.0592492,0.00912289,-0.442571,1.00132,0.974791,-0.0145993,0.0843474,0.206045,-0.648649,0.0308341,0.0815903,0.0954779,-0.304049,1.21992,-0.543773,0.459939,-0.165081,-0.552815,0.449879,-0.0905335,-0.477013,0.0553002,-0.493266,-0.111924,0.789165,0.167308,0.0801608,1
0.829057,-0.203668,-2.39046,-1.14305,2.88343,1.30554,-1.22678,0.855972,-0.20611,-2.37466,-1.16587,2.84842,1.36738,-1.20066,0.898433,-0.215726,-2.33396,-1.15513,2.8162,1.36038,-1.20521,-0.606948,0.51881,-0.539385,-0.425817,0.757117,0.437313,0.558848,-0.606948,0.51881,-0.539385,-0.425817,0.757117,0.437313,0.558848,0.00457129,-0.441675,1.00172,0.975756,-0.014168,0.0827336,0.202125,-0.30604,0.168788,0.000903447,0.0896325,-0.299586,1.21706,-0.584543,0.446272,-0.285327,-0.564158,0.453106,-0.225204,-0.693757,0.120576,-0.564961,0.120791,0.672228,-0.548426,-0.215738,1
0.821235,-0.213422,-2.40756,-1.14526,2.88654,1.30293,-1.21698,0.834327,-0.208794,-2.39135,-1.14884,2.84842,1.32276,-1.2177,0.893328,-0.211542,-2.33883,-1.15952,2.82262,1.3659,-1.20039,-0.477777,0.372531,-0.490934,-0.49642,0.606252,0.712865,0.462626,-0.477777,0.372531,-0.490934,-0.49642,0.606252,0.712865,0.462626,0.00178223,-0.440201,1.00134,0.976019,-0.0155445,0.0819598,0.201067,-0.266744,0.124366,-0.0787446,0.0841854,-0.294778,1.21338,-0.544703,0.480786,-0.367999,-0.564623,0.463529,-0.326663,-0.720927,-0.0188024,-0.687276,0.142607,0.639199,-0.629736,-0.165845,1
0.81179,-0.222915,-2.40962,-1.17977,2.89929,1.31763,-1.19238,0.820829,-0.213357,-2.4038,-1.15333,2.84842,1.30725,-1.21328,0.887487,-0.209479,-2.34456,-1.16217,2.82776,1.36891,-1.19857,-0.7407,0.0791885,-0.707293,-0.086944,0.485449,-0.0358719,-0.0491402,-0.7407,0.0791885,-0.707293,-0.086944,0.485449,-0.0358719,-0.0491402,-0.00241781,-0.439832,1.00082,0.976856,-0.0157709,0.0809019,0.197378,-0.584863,-0.0310577,-0.0356914,0.0783274,-0.290272,1.20867,-0.585806,0.450671,-0.471449,-0.565255,0.465728,-0.419724,-0.756968,-0.13436,-0.650532,-0.176002,0.715331,-0.512833,0.0618829,1
0.829774,-0.171759,-2.38117,-1.18022,2.91145,1.34765,-1.17109,0.818647,-0.207753,-2.40199,-1.17125,2.84842,1.32146,-1.19321,0.878931,-0.20909,-2.35232,-1.16112,2.83188,1.36391,-1.20078,-1.04833,0.00695185,-0.917334,0.288625,0.388717,-0.967303,-0.397675,-1.04833,0.00695185,-0.917334,0.288625,0.388717,-0.967303,-0.397675,-0.00927992,-0.440799,1.00106,0.978749,-0.0130939,0.0793074,0.18865,-0.836347,-0.100042,0.0735219,0.0731197,-0.285719,1.20321,-0.520772,0.45526,-0.546193,-0.553289,0.452965,-0.508821,-0.491571,0.373307,-0.28857,-0.191034,0.795764,-0.162639,0.296885,1
0.829751,-0.191738,-2.38816,-1.19686,2.914,1.37991,-1.18619,0.825272,-0.189543,-2.39003,-1.18427,2.84842,1.34821,-1.18019,0.868624,-0.209511,-2.3614,-1.15914,2.83517,1.35408,-1.20369,-1.12332,-0.0903934,-0.996443,0.136563,0.31126,-1.10061,-0.225515,-1.12332,-0.0903934,-0.996443,0.136563,0.31126,-1.10061,-0.225515,-0.0176641,-0.442706,1.0013,0.980993,-0.00800062,0.0774656,0.177728,-0.919343,-0.182739,-0.0242723,0.0677706,-0.281426,1.19631,-0.534904,0.429332,-0.689089,-0.527838,0.442296,-0.617641,-0.388723,0.177727,-0.267522,-0.377166,0.788263,0.258335,0.175001,1
0.80306,-0.197675,-2.40862,-1.15286,2.91509,1.33957,-1.21125,0.823084,-0.188228,-2.39153,-1.1817,2.84842,1.36176,-1.18868,0.858871,-0.209688,-2.36966,-1.15987,2.83781,1.34624,-1.20349,-0.945378,0.0454794,-0.75989,-0.26758,0.249238,-0.582579,0.241576,-0.945378,0.0454794,-0.75989,-0.26758,0.249238,-0.582579,0.241576,-0.0251878,-0.444661,1.00062,0.982638,-0.00262789,0.0759425,0.169255,-0.675077,-0.12043,-0.120496,0.0618001,-0.277007,1.18903,-0.597048,0.441831,-0.728059,-0.565976,0.435582,-0.708574,-0.558102,0.120128,-0.389561,0.0700618,0.772749,-0.0667136,-0.0775838,1
0.798165,-0.229388,-2.43354,-1.13337,2.91124,1.28772,-1.21853,0.808509,-0.204119,-2.40973,-1.15899,2.84842,1.33669,-1.2068,0.851552,-0.207387,-2.37485,-1.16351,2.83992,1.34412,-1.20007,-0.617696,0.419422,-0.356905,-0.487979,0.199583,0.0961659,0.467322,-0.617696,0.419422,-0.356905,-0.487979,0.199583,0.0961659,0.467322,-0.0292823,-0.444944,0.999823,0.983316,0.000270841,0.0757357,0.165388,-0.219839,0.105001,-0.0514163,0.0557403,-0.272524,1.18079,-0.605983,0.448349,-0.824404,-0.601515,0.44509,-0.776231,-0.533874,-0.220011,-0.586989,0.301405,0.713123,-0.563998,-0.184604,1
0.775472,-0.196797,-2.44484,-1.15511,2.90164,1.28389,-1.19235,0.793715,-0.213312,-2.43014,-1.14368,2.84842,1.29972,-1.21016,0.846085,-0.203693,-2.37803,-1.16737,2.84162,1.34636,-1.197,-0.540633,0.363511,-0.317234,-0.336746,0.159814,0.362062,0.195643,-0.540633,0.363511,-0.317234,-0.336746,0.159814,0.362062,0.195643,-0.031183,-0.44376,0.999514,0.983605,0.000426189,0.0765379,0.16329,-0.19778,0.14604,-0.0136352,0.0506461,-0.267944,1.17173,-0.509417,0.458023,-0.905716,-0.5577,0.453186,-0.86506,-0.706139,0.0689587,-0.668083,0.122654,0.600254,-0.624714,0.0465107,1
0.76767,-0.229497,-2.44905,-1.20119,2.91584,1.29883,-1.19009,0.779195,-0.21312,-2.44307,-1.16119,2.84842,1.28858,-1.19833,0.839969,-0.202283,-2.38263,-1.16784,2.84297,1.34679,-1.19725,-0.739455,-0.0431643,-0.636989,0.208058,0.127969,-0.237331,-0.224552,-0.739455,-0.0431643,-0.636989,0.208058,0.127969,-0.237331,-0.224552,-0.0350093,-0.443158,0.999615,0.984427,0.000628075,0.0767425,0.158155,-0.593579,0.00125342,0.0330667,0.0450242,-0.263459,1.16142,-0.562197,0.448504,-1.03126,-0.535807,0.453264,-0.968486,-0.722994,-0.27214,-0.664145,-0.333467,0.728734,-0.479569,0.07161,1
0.788523,-0.170542,-2.4122,-1.2013,2.92145,1.30869,-1.17202,0.774834,-0.206583,-2.43878,-1.1897,2.84842,1.29756,-1.18614,0.832145,-0.203615,-2.39018,-1.16447,2.84406,1.34089,-1.19951,-0.903261,-0.22792,-0.939173,0.488654,0.10247,-0.967627,-0.25052,-0.903261,-0.22792,-0.939173,0.488654,0.10247,-0.967627,-0.25052,-0.0420293,-0.443996,1.00007,0.985895,0.00326619,0.075781,0.14919,-0.865743,-0.106338,0.058987,0.0392707,-0.25896,1.1502,-0.575346,0.449902,-1.12214,-0.568771,0.449203,-1.0767,-0.436216,0.330733,-0.220191,-0.368356,0.773935,-0.322015,0.274847,1
0.782132,-0.178868,-2.44195,-1.20784,2.92098,1.32858,-1.20321,0.781712,-0.187362,-2.42885,-1.20291,2.84842,1.3112,-1.18433,0.82296,-0.205527,-2.3995,-1.16217,2.84492,1.33152,-1.20038,-1.02869,-0.178459,-1.02399,0.0228699,0.0820512,-1.00916,0.0483126,-1.02869,-0.178459,-1.02399,0.0228699,0.0820512,-1.00916,0.0483126,-0.0504956,-0.44589,0.999814,0.987414,0.00861217,0.0742991,0.139351,-0.908619,-0.173103,-0.107525,0.0340064,-0.254103,1.13834,-0.526434,0.485694,-1.18622,-0.55089,0.467798,-1.15418,-0.408285,0.266596,-0.424511,-0.45671,0.760535,-0.0293892,-0.0282605,1
0.752922,-0.170796,-2.44745,-1.18448,2.9196,1.27647,-1.17447,0.776427,-0.174768,-2.43589,-1.20037,2.84842,1.31058,-1.18823,0.813781,-0.206353,-2.40773,-1.16497,2.84562,1.32391,-1.19869,-0.915428,-0.00541316,-0.729847,-0.58119,0.0657014,-0.619204,0.295139,-0.915428,-0.00541316,-0.729847,-0.58119,0.0657014,-0.619204,0.295139,-0.0578706,-0.448127,0.998022,0.988466,0.0151909,0.072964,0.131837,-0.654612,-0.166477,-0.262827,0.0283631,-0.249023,1.12541,-0.564331,0.50794,-1.29251,-0.545382,0.496817,-1.23937,-0.608584,0.355569,-0.397181,-0.195155,0.739781,-0.474307,0.242205,1
0.744109,-0.185275,-2.47349,-1.15615,2.91755,1.2553,-1.16872,0.758021,-0.176434,-2.45258,-1.18324,2.84842,1.28421,-1.18022,0.806744,-0.204377,-2.41287,-1.17129,2.84618,1.32009,-1.196,-0.588347,0.399935,-0.375483,-0.743238,0.0526096,-0.209004,0.274214,-0.588347,0.399935,-0.375483,-0.743238,0.0526096,-0.209004,0.274214,-0.0617868,-0.449236,0.996044,0.988931,0.0203463,0.0726864,0.127739,-0.203006,0.0206556,-0.157731,0.0223314,-0.24429,1.11137,-0.603163,0.473288,-1.40457,-0.583747,0.490614,-1.34854,-0.626348,0.191025,-0.606169,0.151373,0.713695,-0.647876,0.272818,1
0.730973,-0.166531,-2.48651,-1.17891,2.92037,1.25575,-1.16787,0.743028,-0.176969,-2.47024,-1.16892,2.84842,1.26071,-1.16995,0.8012,-0.199663,-2.4168,-1.17732,2.84662,1.31825,-1.19409,-0.582265,0.585123,-0.448709,-0.541676,0.0421265,-0.180355,0.137675,-0.582265,0.585123,-0.448709,-0.541676,0.0421265,-0.180355,0.137675,-0.0633593,-0.448662,0.995234,0.989204,0.0233366,0.0736889,0.124504,-0.155578,0.149926,-0.0159002,0.0160503,-0.240082,1.09624,-0.628108,0.420816,-1.51265,-0.615636,0.447052,-1.45861,-0.702268,0.331316,-0.697133,-0.0158618,0.737418,-0.625003,0.262152,1
0.739251,-0.177405,-2.48649,-1.22759,2.9244,1.27196,-1.18303,0.736326,-0.173936,-2.48325,-1.18539,2.84842,1.25969,-1.17187,0.794328,-0.194877,-2.42236,-1.18011,2.84698,1.31395,-1.19208,-0.853368,0.433504,-0.710494,-0.0735279,0.0337322,-0.699102,0.278711,-0.853368,0.433504,-0.710494,-0.0735279,0.0337322,-0.699102,0.278711,-0.0662374,-0.447564,0.995612,0.98968,0.0261799,0.074757,0.119412,-0.459119,0.140652,0.0953096,0.0101501,-0.236408,1.08037,-0.59002,0.3674,-1.58669,-0.609064,0.394108,-1.54967,-0.55077,0.174718,-0.641361,-0.474815,0.774162,-0.419934,0.0904935,1
0.761805,-0.165024,-2.48579,-1.23223,2.92068,1.29231,-1.18693,0.74282,-0.171591,-2.48632,-1.21658,2.84842,1.27299,-1.18021,0.785517,-0.191258,-2.43024,-1.17923,2.84727,1.30555,-1.18863,-0.998669,0.335859,-0.940148,0.242246,0.0270107,-1.05405,0.439245,-0.998669,0.335859,-0.940148,0.242246,0.0270107,-1.05405,0.439245,-0.0715409,-0.446607,0.996865,0.990355,0.029977,0.0752119,0.112431,-0.66274,0.141812,0.17026,0.00473965,-0.23176,1.06361,-0.541049,0.464785,-1.67642,-0.565535,0.416093,-1.63155,-0.237119,0.262348,-0.555538,-0.530054,0.734104,-0.132452,0.0170211,1
0.742207,-0.165781,-2.49729,-1.19349,2.9195,1.32276,-1.16366,0.751267,-0.168308,-2.48884,-1.22139,2.84842,1.29483,-1.18014,0.776346,-0.188092,-2.43958,-1.17891,2.8475,1.29651,-1.18511,-0.940627,0.33274,-1.02657,-0.152351,0.0216285,-0.865401,0.3112,-0.940627,0.33274,-1.02657,-0.152351,0.0216285,-0.865401,0.3112,-0.0777348,-0.446017,0.997661,0.991048,0.0346596,0.0753412,0.104624,-0.654231,0.0832093,0.0125072,-0.000829148,-0.227387,1.04513,-0.55688,0.437357,-1.84762,-0.548965,0.451071,-1.76202,-0.34139,0.223109,-0.577134,-0.145861,0.720091,0.262494,0.214555,1
0.721302,-0.178773,-2.51387,-1.18946,2.92191,1.26893,-1.16024,0.74188,-0.16884,-2.49856,-1.20217,2.84842,1.30169,-1.16862,0.769054,-0.185025,-2.4486,-1.18348,2.84768,1.29057,-1.18335,-0.616619,0.315743,-0.886593,-0.77806,0.0173187,-0.413173,0.0737343,-0.616619,0.315743,-0.886593,-0.77806,0.0173187,-0.413173,0.0737343,-0.0828649,-0.446291,0.996534,0.99156,0.040045,0.0753421,0.0976127,-0.447225,-0.0267006,-0.229809,-0.00623553,-0.223269,1.02612,-0.540638,0.411785,-1.90152,-0.548759,0.424571,-1.87457,-0.477524,0.0625126,-0.652733,-0.0598206,0.742351,-0.216437,0.23114,1
0.69613,-0.221164,-2.5273,-1.19458,2.91048,1.22808,-1.1429,0.720235,-0.186123,-2.51309,-1.19175,2.84842,1.27218,-1.15676,0.764715,-0.182003,-2.45638,-1.19058,2.84783,1.28937,-1.18272,-0.316074,0.32186,-0.762876,-0.724094,0.0138671,0.128489,0.0606686,-0.316074,0.32186,-0.762876,-0.724094,0.0138671,0.128489,0.0606686,-0.0861103,-0.446632,0.994479,0.991847,0.0440946,0.0757091,0.0925333,-0.258277,0.0317983,-0.19827,-0.0124494,-0.218622,1.00526,-0.621384,0.464691,-2.08604,-0.581011,0.438238,-1.99378,-0.685847,-0.391609,-0.709223,-0.0400095,0.62654,-0.612821,0.398155,1
0.68508,-0.238747,-2.53706,-1.21307,2.88086,1.23751,-1.15033,0.699661,-0.214962,-2.52639,-1.19792,2.84842,1.24065,-1.14909,0.761048,-0.17933,-2.46387,-1.1947,2.84794,1.29118,-1.18099,-0.450514,0.246549,-0.815293,-0.175616,0.0111039,0.247073,0.290785,-0.450514,0.246549,-0.815293,-0.175616,0.0111039,0.247073,0.290785,-0.0890751,-0.445862,0.993508,0.992103,0.0453678,0.0766481,0.0883112,-0.376341,0.152193,-0.0121021,-0.0180642,-0.213769,0.984212,-0.561482,0.485352,-2.10449,-0.591433,0.475021,-2.09526,-0.759677,-0.594174,-0.731844,-0.183678,0.329216,-0.536712,0.306588,1
0.683043,-0.250156,-2.53536,-1.24612,2.88363,1.25963,-1.19118,0.687334,-0.237204,-2.53419,-1.21671,2.84842,1.24068,-1.15869,0.754952,-0.179057,-2.47231,-1.19509,2.84804,1.29017,-1.17728,-0.81597,-0.16607,-0.958319,0.0785545,0.0088913,-0.422879,0.48232,-0.81597,-0.16607,-0.958319,0.0785545,0.0088913,-0.422879,0.48232,-0.0947375,-0.445396,0.993058,0.99248,0.0472175,0.0765628,0.0830202,-0.793658,-0.000774965,-0.0768022,-0.0229208,-0.20925,0.962293,-0.485665,0.451894,-2.1919,-0.523573,0.468623,-2.14819,-0.719095,-0.710987,-0.630469,-0.510253,0.355944,-0.305379,-0.138989,1
0.677603,-0.226797,-2.5077,-1.25544,2.8896,1.2762,-1.156,0.682192,-0.241464,-2.52887,-1.24018,2.84842,1.25824,-1.17217,0.745871,-0.183498,-2.48184,-1.19507,2.84811,1.28327,-1.17238,-1.08609,-0.739512,-1.04707,-0.0669347,0.0071196,-1.00163,0.547408,-1.08609,-0.739512,-1.04707,-0.0669347,0.0071196,-1.00163,0.547408,-0.104618,-0.447479,0.99089,0.992932,0.0533857,0.0736737,0.0762082,-1.22081,-0.291128,-0.363948,-0.0292237,-0.205264,0.938662,-0.630289,0.398563,-2.3631,-0.557977,0.425228,-2.2775,-0.682678,-0.432989,-0.258636,-0.603621,0.414839,-0.0706317,0.163836,1
0.6616,-0.253903,-2.50814,-1.26143,2.88109,1.31671,-1.14859,0.674962,-0.239413,-2.51472,-1.2546,2.84842,1.28219,-1.16294,0.735367,-0.192106,-2.49153,-1.19762,2.84817,1.27478,-1.16875,-1.12894,-1.05993,-1.00267,-0.448679,0.00570093,-0.8014,0.236571,-1.12894,-1.05993,-1.00267,-0.448679,0.00570093,-0.8014,0.236571,-0.117337,-0.451927,0.985999,0.993326,0.0627888,0.0684815,0.0683466,-1.36609,-0.445388,-0.648626,-0.0354605,-0.200595,0.915443,-0.623679,0.466906,-2.32189,-0.626984,0.432734,-2.3425,-0.737665,-0.617964,-0.166071,-0.638132,0.329124,0.419354,0.201586,1
0.648773,-0.273701,-2.53236,-1.25953,2.8842,1.32012,-1.13468,0.662394,-0.252076,-2.51409,-1.25946,2.84842,1.30744,-1.14697,0.725255,-0.201541,-2.49947,-1.20389,2.84822,1.26983,-1.16816,-1.01211,-0.938329,-0.690859,-0.853024,0.00456495,-0.272372,-0.0942,-1.01211,-0.938329,-0.690859,-0.853024,0.00456495,-0.272372,-0.0942,-0.129579,-0.456883,0.979269,0.993553,0.0721862,0.0630054,0.0605958,-1.13188,-0.413659,-0.755965,-0.0400194,-0.1961,0.89085,-0.455892,0.449468,-2.45934,-0.539786,0.458187,-2.39061,-0.764817,-0.721603,-0.328864,-0.556366,0.359738,0.50289,0.334826,1
0.638617,-0.280549,-2.53677,-1.25804,2.87729,1.32623,-1.14535,0.649441,-0.270463,-2.52741,-1.25963,2.84842,1.3208,-1.14083,0.715914,-0.20928,-2.50384,-1.21264,2.84826,1.27004,-1.16799,-0.962492,-0.708221,-0.255726,-0.986348,0.00365532,0.285519,0.118678,-0.962492,-0.708221,-0.255726,-0.986348,0.00365532,0.285519,0.118678,-0.13918,-0.460838,0.972349,0.993594,0.0793422,0.0585882,0.0551618,-0.830076,-0.286891,-0.696827,-0.0443979,-0.190669,0.869556,-0.437844,0.543082,-2.12934,-0.446868,0.496275,-2.29434,-0.772973,-0.712688,-0.329302,-0.453982,0.290327,0.561886,0.22644,1
0.623881,-0.288496,-2.56596,-1.1957,2.87504,1.32321,-1.13635,0.637472,-0.280824,-2.54297,-1.24282,2.84842,1.32395,-1.14043,0.706432,-0.216616,-2.50594,-1.22151,2.84829,1.27512,-1.16531,-1.03503,-0.833418,-0.191326,-0.891832,0.00292695,0.759674,0.431028,-1.03503,-0.833418,-0.191326,-0.891832,0.00292695,0.759674,0.431028,-0.147605,-0.463716,0.965676,0.993585,0.0839409,0.0549076,0.0522239,-0.878048,-0.231306,-0.705468,-0.0406635,-0.173506,0.878279,0.373441,1.71634,0.872242,-0.0322014,1.12971,-0.628549,-0.825515,-0.718797,-0.600197,0.258137,0.267494,0.480962,0.289527,1
0.614928,-0.286175,-2.56625,-1.18462,2.90711,1.32013,-1.13032,0.625327,-0.285929,-2.55874,-1.20851,2.84842,1.3232,-1.1371,0.696295,-0.225616,-2.50897,-1.22909,2.84832,1.28296,-1.16101,-1.10122,-1.05407,-0.433423,-0.717784,0.00234372,0.889233,0.474292,-1.10122,-1.05407,-0.433423,-0.717784,0.00234372,0.889233,0.474292,-0.15732,-0.466167,0.958789,0.993648,0.0872608,0.0510949,0.0493898,-1.08944,-0.216617,-0.74427,-0.0364655,-0.156919,0.886345,0.419796,1.65872,0.8066,0.396618,1.68753,0.839421,-0.813662,-0.605591,-0.572773,0.444715,0.58791,0.371692,0.306823,1
0.605028,-0.296205,-2.57582,-1.18466,2.90975,1.31584,-1.12263,0.614691,-0.289262,-2.56857,-1.1874,2.84842,1.31983,-1.12991,0.6857,-0.235642,-2.51428,-1.23341,2.84834,1.29083,-1.15694,-1.13352,-1.06193,-0.674299,-0.221303,0.00187671,0.778329,0.388055,-1.13352,-1.06193,-0.674299,-0.221303,0.00187671,0.778329,0.388055,-0.168554,-0.467842,0.952617,0.993843,0.0895763,0.0473542,0.0448215,-1.20177,-0.0923211,-0.568152,-0.0317219,-0.140018,0.892862,0.474364,1.69004,0.651759,0.44708,1.67438,0.729179,-0.806722,-0.605632,-0.615462,0.487464,0.614154,0.250095,0.343145,1
0.593491,-0.299143,-2.58777,-1.18206,2.90904,1.30916,-1.11801,0.604619,-0.294432,-2.57642,-1.184,2.84842,1.31524,-1.1234,0.674813,-0.245181,-2.52165,-1.23168,2.84835,1.29735,-1.1533,-1.16308,-0.957695,-0.87158,0.544428,0.00150275,0.607429,0.380938,-1.16308,-0.957695,-0.87158,0.544428,0.00150275,0.607429,0.380938,-0.18048,-0.467766,0.948937,0.994233,0.0897789,0.0445285,0.0381899,-1.24998,0.110289,-0.231678,-0.0277564,-0.123088,0.898702,0.396544,1.69307,0.584024,0.435454,1.69156,0.617892,-0.813211,-0.539614,-0.661149,0.496126,0.606864,0.118095,0.352978,1
0.581531,-0.297632,-2.60032,-1.17244,2.9088,1.28662,-1.11509,0.593385,-0.298031,-2.58792,-1.18031,2.84842,1.3052,-1.11843,0.663833,-0.253651,-2.53008,-1.22484,2.84836,1.30215,-1.14932,-1.155,-0.836974,-0.904708,0.879991,0.00120331,0.415571,0.456191,-1.155,-0.836974,-0.904708,0.879991,0.00120331,0.415571,0.456191,-0.192345,-0.466098,0.947671,0.994717,0.0882434,0.0426731,0.030511,-1.2089,0.216943,-0.0534607,-0.023482,-0.106797,0.903633,0.427449,1.62912,0.493073,0.411996,1.6611,0.538549,-0.82302,-0.439809,-0.702468,0.524011,0.604315,-0.155225,0.34224,1
0.57059,-0.303468,-2.61046,-1.16466,2.91059,1.27846,-1.1107,0.581786,-0.299469,-2.59972,-1.1729,2.84842,1.29022,-1.11472,0.652982,-0.261291,-2.53857,-1.21702,2.84837,1.30519,-1.14477,-1.13669,-0.778915,-0.88945,0.776098,0.000963533,0.236333,0.502223,-1.13669,-0.778915,-0.88945,0.776098,0.000963533,0.236333,0.502223,-0.20381,-0.463971,0.947076,0.995111,0.0868583,0.0410482,0.0229192,-1.17077,0.215031,-0.0778126,-0.0191843,-0.0901367,0.90799,0.429761,1.66598,0.435656,0.428605,1.64755,0.464365,-0.823917,-0.421775,-0.718858,0.523605,0.622197,-0.267323,0.34066,1
0.560379,-0.31071,-2.61838,-1.16051,2.91344,1.27847,-1.10331,0.570773,-0.30382,-2.6099,-1.16557,2.84842,1.2805,-1.10995,0.642164,-0.268273,-2.54732,-1.21005,2.84838,1.30614,-1.13999,-1.1465,-0.699433,-0.954238,0.699184,0.000771573,-0.0220571,0.506569,-1.1465,-0.699433,-0.954238,0.699184,0.000771573,-0.0220571,0.506569,-0.21511,-0.461889,0.946312,0.995346,0.0866819,0.039212,0.015308,-1.16871,0.228467,-0.0864726,-0.0148995,-0.0737596,0.910898,0.428486,1.63771,0.290781,0.429124,1.65185,0.363219,-0.817848,-0.424372,-0.710556,0.49539,0.650541,-0.276692,0.366793,1
0.550829,-0.310794,-2.62484,-1.15858,2.91656,1.27832,-1.09632,0.560544,-0.308921,-2.61801,-1.16107,2.84842,1.27843,-1.10341,0.631224,-0.274354,-2.55665,-1.20335,2.84839,1.30437,-1.1353,-1.16201,-0.590314,-1.01222,0.715633,0.000617828,-0.33274,0.483668,-1.16201,-0.590314,-1.01222,0.715633,0.000617828,-0.33274,0.483668,-0.226356,-0.459667,0.945709,0.995428,0.0876773,0.0372107,0.00719676,-1.15609,0.264585,-0.0428015,-0.0108034,-0.0568164,0.913079,0.409603,1.69432,0.218147,0.419045,1.66602,0.254464,-0.803952,-0.3644,-0.681874,0.447661,0.681725,-0.260533,0.38985,1
0.540396,-0.315991,-2.63302,-1.15766,2.91724,1.27375,-1.08908,0.550608,-0.312072,-2.62527,-1.15884,2.84842,1.27721,-1.09626,0.620215,-0.279816,-2.56631,-1.19651,2.84839,1.30053,-1.1307,-1.16211,-0.564197,-1.02477,0.727235,0.000494718,-0.470787,0.487686,-1.16211,-0.564197,-1.02477,0.727235,0.000494718,-0.470787,0.487686,-0.237529,-0.457246,0.945343,0.995376,0.0894147,0.0350791,-0.00125869,-1.14946,0.284332,-0.0321893,-0.00645428,-0.0401236,0.914169,0.434917,1.66928,0.108999,0.42226,1.6818,0.163573,-0.79819,-0.361748,-0.667185,0.388467,0.68846,-0.267845,0.416159,1
0.528877,-0.323818,-2.64351,-1.1535,2.91566,1.26724,-1.08198,0.540125,-0.316648,-2.6336,-1.15685,2.84842,1.27326,-1.08911,0.609287,-0.285136,-2.57585,-1.18987,2.8484,1.29632,-1.12588,-1.14567,-0.559059,-0.991129,0.676994,0.000396139,-0.420593,0.528121,-1.14567,-0.559059,-0.991129,0.676994,0.000396139,-0.420593,0.528121,-0.248529,-0.454683,0.944931,0.995231,0.0913473,0.0328807,-0.00950252,-1.11962,0.297323,-0.0502279,-0.0026943,-0.0236372,0.91396,0.375998,1.64864,-0.0208735,0.405458,1.65896,0.0440627,-0.804101,-0.38682,-0.67668,0.363679,0.672626,-0.290777,0.439011,1
0.517621,-0.331621,-2.6539,-1.14694,2.91387,1.26088,-1.07669,0.528943,-0.323812,-2.64349,-1.1529,2.84842,1.26728,-1.08243,0.59853,-0.290206,-2.58501,-1.1839,2.8484,1.29263,-1.12065,-1.12637,-0.513944,-0.946273,0.589061,0.000317203,-0.362319,0.573308,-1.12637,-0.513944,-0.946273,0.589061,0.000317203,-0.362319,0.573308,-0.259124,-0.451971,0.944368,0.995022,0.0932229,0.0307426,-0.017195,-1.06658,0.312988,-0.0639662,0.00126488,-0.00769568,0.913067,0.395918,1.59415,-0.0893176,0.385958,1.6214,-0.0550956,-0.809089,-0.414147,-0.688894,0.369528,0.654644,-0.317453,0.439558,1
