Afshin1997/kuka_rl_ros2/src/catch_and_throw/output_files/tm/nn_ema5.00_jvws1_realball_D23H14M03S36/recorded_data.csv
pure_target_joint_0,pure_target_joint_1,pure_target_joint_2,pure_target_joint_3,pure_target_joint_4,pure_target_joint_5,pure_target_joint_6,target_joint_0,target_joint_1,target_joint_2,target_joint_3,target_joint_4,target_joint_5,target_joint_6,pos_joint_0,pos_joint_1,pos_joint_2,pos_joint_3,pos_joint_4,pos_joint_5,pos_joint_6,vel_joint_0,vel_joint_1,vel_joint_2,vel_joint_3,vel_joint_4,vel_joint_5,vel_joint_6,vel_smooth_joint_0,vel_smooth_joint_1,vel_smooth_joint_2,vel_smooth_joint_3,vel_smooth_joint_4,vel_smooth_joint_5,vel_smooth_joint_6,ee_pos_x,ee_pos_y,ee_pos_z,ee_or_w,ee_or_x,ee_or_y,ee_or_z,ee_vel_x,ee_vel_y,ee_vel_z,ball_pos_x,ball_pos_y,ball_pos_z,ball_raw_vx,ball_raw_vy,ball_raw_vz,ball_ema_vx,ball_ema_vy,ball_ema_vz,action_0,action_1,action_2,action_3,action_4,action_5,action_6,command_published
1.81194,-1.08301,-1.77929,-1.13316,2.01374,1.16467,-0.893483,1.81194,-1.08301,-1.77929,-1.13316,2.01374,1.16467,-0.893483,1.78024,-1.06466,-1.81522,-1.11702,1.93729,1.11684,-0.916241,0,0,0,0,0,0,0,0,0,0,0,0,0,0,0.531062,-0.454464,0.694251,0.57453,0.175235,0.152606,0.784806,0,0,0,0.91406,-0.00189255,0.342974,0.573616,-0.315831,-0.154635,0.549896,-0.288382,-0.401168,0.316985,-0.183509,0.359359,-0.161383,0.764492,0.478312,0.227583,1
1.81247,-1.08373,-1.77919,-1.13342,2.01373,1.1645,-0.894111,1.81247,-1.08373,-1.77919,-1.13342,2.01373,1.1645,-0.894111,1.78024,-1.06466,-1.81522,-1.11702,1.93729,1.11684,-0.916241,0,0,0,0,0,0,0,0,0,0,0,0,0,0,0.531062,-0.454464,0.694251,0.57453,0.175235,0.152606,0.784806,0,0,0,0.919466,-0.00509297,0.341325,0.545784,-0.323103,-0.166491,0.547227,-0.302038,-0.404565,0.322324,-0.190642,0.36035,-0.164005,0.764428,0.4766,0.221299,1
1.81304,-1.08409,-1.77885,-1.13322,2.01373,1.16417,-0.894491,1.81304,-1.08409,-1.77885,-1.13322,2.01373,1.16417,-0.894491,1.78024,-1.06466,-1.81522,-1.11702,1.93729,1.11684,-0.916241,0,0,0,0,0,0,0,0,0,0,0,0,0,0,0.531062,-0.454464,0.694251,0.57453,0.175235,0.152606,0.784806,0,0,0,0.924885,-0.00842164,0.339644,0.536799,-0.329704,-0.1665,0.546917,-0.314674,-0.409516,0.327961,-0.194258,0.363772,-0.162,0.764435,0.473276,0.217501,1
1.81345,-1.08481,-1.77867,-1.13286,2.01372,1.16384,-0.894815,1.81345,-1.08481,-1.77867,-1.13286,2.01372,1.16384,-0.894815,1.78024,-1.06466,-1.81522,-1.11702,1.93729,1.11684,-0.916241,0,0,0,0,0,0,0,0,0,0,0,0,0,0,0.531062,-0.454464,0.694251,0.57453,0.175235,0.152606,0.784806,0,0,0,0.930251,-0.011799,0.337896,0.557102,-0.35063,-0.181401,0.543925,-0.324994,-0.414996,0.332072,-0.201476,0.36557,-0.158431,0.76431,0.470028,0.21426,1
1.81364,-1.08528,-1.77862,-1.13297,2.0137,1.16356,-0.895092,1.81364,-1.08528,-1.77862,-1.13297,2.0137,1.16356,-0.895092,1.78024,-1.06466,-1.81522,-1.11702,1.93729,1.11684,-0.916241,0,0,0,0,0,0,0,0,0,0,0,0,0,0,0.531062,-0.454464,0.694251,0.57453,0.175235,0.152606,0.784806,0,0,0,0.935649,-0.0151614,0.336182,0.547078,-0.340783,-0.17374,0.53965,-0.332437,-0.420115,0.334012,-0.206142,0.366026,-0.159547,0.764061,0.467248,0.211495,1
1.8138,-1.08508,-1.77837,-1.13247,2.01369,1.16323,-0.895022,1.8138,-1.08508,-1.77837,-1.13247,2.01369,1.16323,-0.895022,1.78024,-1.06466,-1.81522,-1.11702,1.93729,1.11684,-0.916241,0,0,0,0,0,0,0,0,0,0,0,0,0,0,0.531062,-0.454464,0.694251,0.57453,0.175235,0.152606,0.784806,0,0,0,0.941018,-0.0184992,0.334482,0.521139,-0.323978,-0.165047,0.538692,-0.335523,-0.421474,0.335579,-0.204225,0.368547,-0.154497,0.764051,0.463955,0.212194,1
1.81384,-1.08528,-1.77844,-1.13245,2.0137,1.16314,-0.895089,1.81384,-1.08528,-1.77844,-1.13245,2.0137,1.16314,-0.895089,1.78024,-1.06466,-1.81522,-1.11702,1.93729,1.11684,-0.916241,0,0,0,0,0,0,0,0,0,0,0,0,0,0,0.531062,-0.454464,0.694251,0.57453,0.175235,0.152606,0.784806,0,0,0,0.946339,-0.0218244,0.332865,0.536783,-0.335438,-0.163124,0.536754,-0.335058,-0.419727,0.335941,-0.206174,0.367826,-0.154306,0.764092,0.463064,0.211519,1
1.81369,-1.08489,-1.77851,-1.13257,2.01369,1.16308,-0.894873,1.81369,-1.08489,-1.77851,-1.13257,2.01369,1.16308,-0.894873,1.78024,-1.06466,-1.81522,-1.11702,1.93729,1.11684,-0.916241,0,0,0,0,0,0,0,0,0,0,0,0,0,0,0.531062,-0.454464,0.694251,0.57453,0.175235,0.152606,0.784806,0,0,0,0.95155,-0.0249104,0.331439,0.510094,-0.302133,-0.139534,0.532867,-0.32886,-0.412313,0.334482,-0.202259,0.367106,-0.155539,0.764039,0.462468,0.213685,1
1.81368,-1.08465,-1.77855,-1.13222,2.0137,1.16312,-0.894635,1.81368,-1.08465,-1.77855,-1.13222,2.0137,1.16312,-0.894635,1.78024,-1.06466,-1.81522,-1.11702,1.93729,1.11684,-0.916241,0,0,0,0,0,0,0,0,0,0,0,0,0,0,0.531062,-0.454464,0.694251,0.57453,0.175235,0.152606,0.784806,0,0,0,0.956657,-0.0281022,0.330123,0.52072,-0.325397,-0.13418,0.525472,-0.322929,-0.4016,0.334343,-0.19991,0.36669,-0.152009,0.764124,0.462794,0.21606,1
1.81368,-1.08465,-1.77872,-1.13207,2.01369,1.16331,-0.894489,1.81368,-1.08465,-1.77872,-1.13207,2.01369,1.16331,-0.894489,1.78024,-1.06466,-1.81522,-1.11702,1.93729,1.11684,-0.916241,0,0,0,0,0,0,0,0,0,0,0,0,0,0,0.531062,-0.454464,0.694251,0.57453,0.175235,0.152606,0.784806,0,0,0,0.96162,-0.0311392,0.329021,0.491136,-0.300538,-0.109066,0.515218,-0.315578,-0.386624,0.334359,-0.199859,0.365008,-0.150527,0.764051,0.464745,0.217522,1
1.81359,-1.08417,-1.77885,-1.13187,2.01368,1.16342,-0.894112,1.81359,-1.08417,-1.77885,-1.13187,2.01368,1.16342,-0.894112,1.78024,-1.06466,-1.81522,-1.11702,1.93729,1.11684,-0.916241,0,0,0,0,0,0,0,0,0,0,0,0,0,0,0.531062,-0.454464,0.694251,0.57453,0.175235,0.152606,0.784806,0,0,0,0.966372,-0.0340335,0.328215,0.468786,-0.285534,-0.0794775,0.501362,-0.30647,-0.367165,0.333505,-0.195128,0.363779,-0.148503,0.763897,0.465804,0.221296,1
1.81374,-1.0839,-1.77897,-1.13145,2.01367,1.16357,-0.893797,1.81374,-1.0839,-1.77897,-1.13145,2.01367,1.16357,-0.893797,1.78024,-1.06466,-1.81522,-1.11702,1.93729,1.11684,-0.916241,0,0,0,0,0,0,0,0,0,0,0,0,0,0,0.531062,-0.454464,0.694251,0.57453,0.175235,0.152606,0.784806,0,0,0,0.970835,-0.036879,0.327747,0.45978,-0.29312,-0.0482602,0.482864,-0.298684,-0.342925,0.334966,-0.19243,0.362499,-0.144325,0.763823,0.467363,0.224447,1
1.81391,-1.08366,-1.77916,-1.13116,2.01365,1.16373,-0.893411,1.81391,-1.08366,-1.77916,-1.13116,2.01365,1.16373,-0.893411,1.78024,-1.06466,-1.81522,-1.11702,1.93729,1.11684,-0.916241,0,0,0,0,0,0,0,0,0,0,0,0,0,0,0.531062,-0.454464,0.694251,0.57453,0.175235,0.152606,0.784806,0,0,0,0.97496,-0.0396342,0.327584,0.412221,-0.27534,-0.0163328,0.458213,-0.288038,-0.313534,0.336667,-0.189971,0.360594,-0.141436,0.763636,0.468946,0.228302,1
1.81428,-1.08337,-1.77935,-1.1309,2.01363,1.16393,-0.893112,1.81428,-1.08337,-1.77935,-1.1309,2.01363,1.16393,-0.893112,1.78024,-1.06466,-1.81522,-1.11702,1.93729,1.11684,-0.916241,0,0,0,0,0,0,0,0,0,0,0,0,0,0,0.531062,-0.454464,0.694251,0.57453,0.175235,0.152606,0.784806,0,0,0,0.978868,-0.0423831,0.327656,0.382513,-0.269113,0.00710745,0.430827,-0.280884,-0.283618,0.340376,-0.18707,0.35873,-0.138811,0.763459,0.470901,0.231294,1
1.81481,-1.08334,-1.77961,-1.1307,2.01361,1.16417,-0.892907,1.81481,-1.08334,-1.77961,-1.1307,2.01361,1.16417,-0.892907,1.78024,-1.06466,-1.81522,-1.11702,1.93729,1.11684,-0.916241,0,0,0,0,0,0,0,0,0,0,0,0,0,0,0.531062,-0.454464,0.694251,0.57453,0.175235,0.152606,0.784806,0,0,0,0.982371,-0.0450901,0.327948,0.352399,-0.272313,0.0293981,0.400292,-0.276172,-0.25625,0.345731,-0.186784,0.356171,-0.136791,0.763245,0.473313,0.23334,1
1.81541,-1.08343,-1.7798,-1.13049,2.01359,1.16437,-0.892758,1.81541,-1.08343,-1.7798,-1.13049,2.01359,1.16437,-0.892758,1.78024,-1.06466,-1.81522,-1.11702,1.93729,1.11684,-0.916241,0,0,0,0,0,0,0,0,0,0,0,0,0,0,0.531062,-0.454464,0.694251,0.57453,0.175235,0.152606,0.784806,0,0,0,0.985631,-0.0478217,0.328409,0.335117,-0.280751,0.0473763,0.370018,-0.273412,-0.233104,0.351683,-0.187688,0.354201,-0.134775,0.762976,0.475277,0.234833,1
1.81602,-1.08336,-1.77986,-1.12999,2.01356,1.16445,-0.89256,1.81602,-1.08336,-1.77986,-1.12999,2.01356,1.16445,-0.89256,1.78024,-1.06466,-1.81522,-1.11702,1.93729,1.11684,-0.916241,0,0,0,0,0,0,0,0,0,0,0,0,0,0,0.531062,-0.454464,0.694251,0.57453,0.175235,0.152606,0.784806,0,0,0,0.988585,-0.0504689,0.329143,0.285138,-0.255518,0.07082,0.340136,-0.271079,-0.211278,0.357807,-0.187015,0.353665,-0.129751,0.762713,0.476108,0.23681,1
1.81655,-1.08353,-1.78006,-1.12979,2.01353,1.16448,-0.892502,1.81655,-1.08353,-1.78006,-1.12979,2.01353,1.16448,-0.892502,1.78024,-1.06466,-1.81522,-1.11702,1.93729,1.11684,-0.916241,0,0,0,0,0,0,0,0,0,0,0,0,0,0,0.531062,-0.454464,0.694251,0.57453,0.175235,0.152606,0.784806,0,0,0,0.991242,-0.0531661,0.329943,0.272331,-0.276518,0.082003,0.309628,-0.269448,-0.192318,0.363061,-0.188665,0.351608,-0.127742,0.762361,0.476399,0.237389,1
1.81702,-1.08337,-1.78015,-1.12976,2.0135,1.16447,-0.892308,1.81702,-1.08337,-1.78015,-1.12976,2.0135,1.16447,-0.892308,1.78024,-1.06466,-1.81522,-1.11702,1.93729,1.11684,-0.916241,0,0,0,0,0,0,0,0,0,0,0,0,0,0,0.531062,-0.454464,0.694251,0.57453,0.175235,0.152606,0.784806,0,0,0,0.993621,-0.055761,0.330945,0.237822,-0.259371,0.100162,0.28111,-0.266863,-0.174732,0.367756,-0.187048,0.350762,-0.127385,0.762084,0.476327,0.23933,1
1.81752,-1.08329,-1.78021,-1.12932,2.01348,1.16445,-0.892158,1.81752,-1.08329,-1.78021,-1.12932,2.01348,1.16445,-0.892158,1.78024,-1.06466,-1.81522,-1.11702,1.93729,1.11684,-0.916241,0,0,0,0,0,0,0,0,0,0,0,0,0,0,0.531062,-0.454464,0.694251,0.57453,0.175235,0.152606,0.784806,0,0,0,0.99575,-0.0584024,0.332082,0.21013,-0.260672,0.1122,0.252738,-0.264536,-0.158528,0.372822,-0.186252,0.350172,-0.123032,0.761895,0.476089,0.240835,1
1.81804,-1.0835,-1.78036,-1.12919,2.01345,1.16453,-0.892218,1.81804,-1.0835,-1.78036,-1.12919,2.01345,1.16453,-0.892218,1.78024,-1.06466,-1.81522,-1.11702,1.93729,1.11684,-0.916241,0,0,0,0,0,0,0,0,0,0,0,0,0,0,0.531062,-0.454464,0.694251,0.57453,0.175235,0.152606,0.784806,0,0,0,0.997604,-0.0610424,0.333464,0.189569,-0.26997,0.141291,0.225461,-0.263834,-0.142198,0.377955,-0.188361,0.348627,-0.12169,0.761635,0.476882,0.24023,1
1.81859,-1.0831,-1.78025,-1.12875,2.01343,1.1645,-0.892032,1.81859,-1.0831,-1.78025,-1.12875,2.01343,1.1645,-0.892032,1.78024,-1.06466,-1.81522,-1.11702,1.93729,1.11684,-0.916241,0,0,0,0,0,0,0,0,0,0,0,0,0,0,0.531062,-0.454464,0.694251,0.57453,0.175235,0.152606,0.784806,0,0,0,0.999148,-0.0636427,0.335151,0.149301,-0.251391,0.163185,0.197964,-0.262346,-0.120642,0.383528,-0.184413,0.349716,-0.117293,0.761444,0.476597,0.242096,1
1.8192,-1.08325,-1.78033,-1.12833,2.01341,1.16443,-0.892018,1.8192,-1.08325,-1.78033,-1.12833,2.01341,1.16443,-0.892018,1.78024,-1.06466,-1.81522,-1.11702,1.93729,1.11684,-0.916241,0,0,0,0,0,0,0,0,0,0,0,0,0,0,0.531062,-0.454464,0.694251,0.57453,0.175235,0.152606,0.784806,0,0,0,1.00043,-0.0661818,0.336994,0.127739,-0.252587,0.183251,0.170209,-0.260817,-0.0983324,0.389546,-0.185849,0.348936,-0.113105,0.761254,0.475888,0.242231,1
1.81972,-1.08308,-1.78026,-1.12827,2.0134,1.16431,-0.891776,1.81972,-1.08308,-1.78026,-1.12827,2.0134,1.16431,-0.891776,1.78024,-1.06466,-1.81522,-1.11702,1.93729,1.11684,-0.916241,0,0,0,0,0,0,0,0,0,0,0,0,0,0,0.531062,-0.454464,0.694251,0.57453,0.175235,0.152606,0.784806,0,0,0,1.0015,-0.0686146,0.339138,0.108559,-0.246957,0.21768,0.143315,-0.255636,-0.0735786,0.394742,-0.184176,0.34965,-0.112483,0.76112,0.474676,0.244651,1
1.82019,-1.08271,-1.78008,-1.1276,2.0134,1.16406,-0.89137,1.82019,-1.08271,-1.78008,-1.1276,2.0134,1.16406,-0.89137,1.78024,-1.06466,-1.81522,-1.11702,1.93729,1.11684,-0.916241,0,0,0,0,0,0,0,0,0,0,0,0,0,0,0.531062,-0.454464,0.694251,0.57453,0.175235,0.152606,0.784806,0,0,0,1.00232,-0.0710367,0.341524,0.0794138,-0.236216,0.232717,0.117776,-0.249605,-0.0489213,0.399494,-0.180531,0.351396,-0.105857,0.761122,0.472255,0.24871,1
1.82041,-1.0828,-1.7802,-1.12737,2.01342,1.16372,-0.89101,1.82041,-1.0828,-1.7802,-1.12737,2.01342,1.16372,-0.89101,1.78024,-1.06466,-1.81522,-1.11702,1.93729,1.11684,-0.916241,0,0,0,0,0,0,0,0,0,0,0,0,0,0,0.531062,-0.454464,0.694251,0.57453,0.175235,0.152606,0.784806,0,0,0,1.00288,-0.0732785,0.34415,0.0577104,-0.228047,0.267128,0.09354,-0.241267,-0.0247183,0.401632,-0.181433,0.350278,-0.103494,0.761286,0.468831,0.252311,1
1.82074,-1.08235,-1.77993,-1.12699,2.01345,1.16343,-0.890589,1.82074,-1.08235,-1.77993,-1.12699,2.01345,1.16343,-0.890589,1.78024,-1.06466,-1.81522,-1.11702,1.93729,1.11684,-0.916241,0,0,0,0,0,0,0,0,0,0,0,0,0,0,0.531062,-0.454464,0.694251,0.57453,0.175235,0.152606,0.784806,0,0,0,1.00333,-0.0755431,0.346863,0.0450506,-0.226106,0.270833,0.0718617,-0.233867,-0.0024935,0.405003,-0.176899,0.35294,-0.0997527,0.761602,0.465921,0.25652,1
1.821,-1.08206,-1.77991,-1.12645,2.01347,1.16316,-0.890282,1.821,-1.08206,-1.77991,-1.12645,2.01347,1.16316,-0.890282,1.78024,-1.06466,-1.81522,-1.11702,1.93729,1.11684,-0.916241,0,0,0,0,0,0,0,0,0,0,0,0,0,0,0.531062,-0.454464,0.694251,0.57453,0.175235,0.152606,0.784806,0,0,0,1.00363,-0.0776589,0.349712,0.0300346,-0.214259,0.288477,0.052774,-0.225951,0.0148562,0.407609,-0.17404,0.353123,-0.0943666,0.76182,0.463221,0.259587,1
1.82134,-1.08202,-1.77989,-1.12662,2.0135,1.16304,-0.89014,1.82134,-1.08202,-1.77989,-1.12662,2.0135,1.16304,-0.89014,1.78024,-1.06466,-1.81522,-1.11702,1.93729,1.11684,-0.916241,0,0,0,0,0,0,0,0,0,0,0,0,0,0,0.531062,-0.454464,0.694251,0.57453,0.175235,0.152606,0.784806,0,0,0,1.00361,-0.0798136,0.352769,-0.00199854,-0.211247,0.299796,0.0333738,-0.219342,0.030515,0.410969,-0.173543,0.353303,-0.0960789,0.762111,0.462027,0.261012,1
1.82168,-1.08156,-1.7797,-1.12623,2.01353,1.16285,-0.889876,1.82168,-1.08156,-1.7797,-1.12623,2.01353,1.16285,-0.889876,1.78024,-1.06466,-1.81522,-1.11702,1.93729,1.11684,-0.916241,0,0,0,0,0,0,0,0,0,0,0,0,0,0,0.531062,-0.454464,0.694251,0.57453,0.175235,0.152606,0.784806,0,0,0,1.00352,-0.0818649,0.35595,-0.0095752,-0.206468,0.320151,0.015409,-0.214432,0.0450621,0.414397,-0.168969,0.355238,-0.0921739,0.762406,0.460134,0.26365,1
1.82191,-1.08161,-1.77972,-1.12598,2.01355,1.16267,-0.889794,1.82191,-1.08161,-1.77972,-1.12598,2.01355,1.16267,-0.889794,1.78024,-1.06466,-1.81522,-1.11702,1.93729,1.11684,-0.916241,0,0,0,0,0,0,0,0,0,0,0,0,0,0,0.531062,-0.454464,0.694251,0.57453,0.175235,0.152606,0.784806,0,0,0,1.00335,-0.0838885,0.359135,-0.0165583,-0.202799,0.319156,-0.000839233,-0.208966,0.0578234,0.416723,-0.169449,0.355046,-0.0896174,0.762563,0.458291,0.264475,1
1.82213,-1.08123,-1.77952,-1.1258,2.01357,1.16248,-0.889571,1.82213,-1.08123,-1.77952,-1.1258,2.01357,1.16248,-0.889571,1.78024,-1.06466,-1.81522,-1.11702,1.93729,1.11684,-0.916241,0,0,0,0,0,0,0,0,0,0,0,0,0,0,0.531062,-0.454464,0.694251,0.57453,0.175235,0.152606,0.784806,0,0,0,1.00293,-0.0857702,0.362579,-0.0425961,-0.191786,0.351007,-0.0165772,-0.202975,0.0709972,0.418931,-0.16574,0.357009,-0.0878495,0.762816,0.456409,0.266703,1
1.82235,-1.08093,-1.77945,-1.12535,2.01359,1.16226,-0.889448,1.82235,-1.08093,-1.77945,-1.12535,2.01359,1.16226,-0.889448,1.78024,-1.06466,-1.81522,-1.11702,1.93729,1.11684,-0.916241,0,0,0,0,0,0,0,0,0,0,0,0,0,0,0.531062,-0.454464,0.694251,0.57453,0.175235,0.152606,0.784806,0,0,0,1.00237,-0.0878023,0.366134,-0.0567151,-0.203875,0.356679,-0.0307035,-0.198827,0.0835756,0.421068,-0.162676,0.357703,-0.0833029,0.763053,0.454253,0.26793,1
1.82269,-1.08105,-1.77948,-1.12549,2.01362,1.16219,-0.889547,1.82269,-1.08105,-1.77948,-1.12549,2.01362,1.16219,-0.889547,1.78024,-1.06466,-1.81522,-1.11702,1.93729,1.11684,-0.916241,0,0,0,0,0,0,0,0,0,0,0,0,0,0,0.531062,-0.454464,0.694251,0.57453,0.175235,0.152606,0.784806,0,0,0,1.00156,-0.0898044,0.369836,-0.079163,-0.196764,0.363852,-0.0489116,-0.197929,0.097712,0.424452,-0.163885,0.357466,-0.0847427,0.763268,0.45353,0.26694,1
1.82307,-1.0809,-1.77934,-1.12523,2.01363,1.16204,-0.889609,1.82307,-1.0809,-1.77934,-1.12523,2.01363,1.16204,-0.889609,1.78024,-1.06466,-1.81522,-1.11702,1.93729,1.11684,-0.916241,0,0,0,0,0,0,0,0,0,0,0,0,0,0,0.531062,-0.454464,0.694251,0.57453,0.175235,0.152606,0.784806,0,0,0,1.00063,-0.0919049,0.373596,-0.0931878,-0.211137,0.377883,-0.0680256,-0.200671,0.111789,0.428272,-0.162434,0.358838,-0.0821386,0.763443,0.451976,0.266318,1
1.82335,-1.08135,-1.77945,-1.12508,2.01363,1.16184,-0.889893,1.82335,-1.08135,-1.77945,-1.12508,2.01363,1.16184,-0.889893,1.78024,-1.06466,-1.81522,-1.11702,1.93729,1.11684,-0.916241,0,0,0,0,0,0,0,0,0,0,0,0,0,0,0.531062,-0.454464,0.694251,0.57453,0.175235,0.152606,0.784806,0,0,0,0.999468,-0.0939949,0.377347,-0.1168,-0.209243,0.375575,-0.0866163,-0.20552,0.11998,0.431032,-0.166906,0.35774,-0.0806017,0.763372,0.449987,0.263481,1
1.82346,-1.08137,-1.77936,-1.12484,2.01362,1.16153,-0.889935,1.82346,-1.08137,-1.77936,-1.12484,2.01362,1.16153,-0.889935,1.78024,-1.06466,-1.81522,-1.11702,1.93729,1.11684,-0.916241,0,0,0,0,0,0,0,0,0,0,0,0,0,0,0.531062,-0.454464,0.694251,0.57453,0.175235,0.152606,0.784806,0,0,0,0.998199,-0.096069,0.381023,-0.125289,-0.20476,0.362939,-0.104302,-0.20724,0.122897,0.432188,-0.167074,0.358644,-0.0782465,0.763293,0.446937,0.263057,1
1.82347,-1.08168,-1.77958,-1.12455,2.0136,1.16124,-0.890159,1.82347,-1.08168,-1.77958,-1.12455,2.0136,1.16124,-0.890159,1.78024,-1.06466,-1.81522,-1.11702,1.93729,1.11684,-0.916241,0,0,0,0,0,0,0,0,0,0,0,0,0,0,0.531062,-0.454464,0.694251,0.57453,0.175235,0.152606,0.784806,0,0,0,0.996911,-0.0982481,0.384583,-0.134056,-0.226766,0.370483,-0.117377,-0.210514,0.119223,0.432262,-0.170216,0.356463,-0.0752921,0.763121,0.444021,0.260819,1
1.82351,-1.0818,-1.7796,-1.12419,2.0136,1.16108,-0.890431,1.82351,-1.0818,-1.7796,-1.12419,2.0136,1.16108,-0.890431,1.78024,-1.06466,-1.81522,-1.11702,1.93729,1.11684,-0.916241,0,0,0,0,0,0,0,0,0,0,0,0,0,0,0.531062,-0.454464,0.694251,0.57453,0.175235,0.152606,0.784806,0,0,0,0.995526,-0.10048,0.388132,-0.1339,-0.215871,0.343269,-0.127739,-0.214031,0.113101,0.432679,-0.171383,0.356217,-0.0717458,0.763073,0.442399,0.258101,1
1.82336,-1.08169,-1.77974,-1.12363,2.01359,1.16086,-0.89053,1.82336,-1.08169,-1.77974,-1.12363,2.01359,1.16086,-0.89053,1.78024,-1.06466,-1.81522,-1.11702,1.93729,1.11684,-0.916241,0,0,0,0,0,0,0,0,0,0,0,0,0,0,0.531062,-0.454464,0.694251,0.57453,0.175235,0.152606,0.784806,0,0,0,0.99406,-0.102555,0.391665,-0.147957,-0.209261,0.35629,-0.134895,-0.2153,0.107443,0.431204,-0.170328,0.354869,-0.0661267,0.762977,0.440181,0.257115,1
1.82325,-1.08168,-1.77984,-1.1234,2.01359,1.16075,-0.890727,1.82325,-1.08168,-1.77984,-1.1234,2.01359,1.16075,-0.890727,1.78024,-1.06466,-1.81522,-1.11702,1.93729,1.11684,-0.916241,0,0,0,0,0,0,0,0,0,0,0,0,0,0,0.531062,-0.454464,0.694251,0.57453,0.175235,0.152606,0.784806,0,0,0,0.992614,-0.104729,0.395076,-0.146849,-0.220828,0.346444,-0.140218,-0.216261,0.101862,0.430054,-0.170206,0.353879,-0.0638449,0.763031,0.439148,0.255146,1
1.82308,-1.08137,-1.77992,-1.12322,2.0136,1.16072,-0.890715,1.82308,-1.08137,-1.77992,-1.12322,2.0136,1.16072,-0.890715,1.78024,-1.06466,-1.81522,-1.11702,1.93729,1.11684,-0.916241,0,0,0,0,0,0,0,0,0,0,0,0,0,0,0.531062,-0.454464,0.694251,0.57453,0.175235,0.152606,0.784806,0,0,0,0.991123,-0.106838,0.398287,-0.147938,-0.20926,0.318615,-0.144893,-0.214288,0.0935093,0.428401,-0.167097,0.353034,-0.062023,0.763123,0.438811,0.255259,1
1.8229,-1.08137,-1.78011,-1.12322,2.01361,1.16078,-0.890851,1.8229,-1.08137,-1.78011,-1.12322,2.01361,1.16078,-0.890851,1.78024,-1.06466,-1.81522,-1.11702,1.93729,1.11684,-0.916241,0,0,0,0,0,0,0,0,0,0,0,0,0,0,0.531062,-0.454464,0.694251,0.57453,0.175235,0.152606,0.784806,0,0,0,0.98958,-0.108966,0.401402,-0.156167,-0.215351,0.315324,-0.148304,-0.212548,0.0816259,0.426551,-0.167052,0.351188,-0.0620416,0.763213,0.439418,0.253905,1
1.82285,-1.08146,-1.78026,-1.1232,2.01361,1.16098,-0.891182,1.82285,-1.08146,-1.78026,-1.1232,2.01361,1.16098,-0.891182,1.78024,-1.06466,-1.81522,-1.11702,1.93729,1.11684,-0.916241,0,0,0,0,0,0,0,0,0,0,0,0,0,0,0.531062,-0.454464,0.694251,0.57453,0.175235,0.152606,0.784806,0,0,0,0.987844,-0.111168,0.404517,-0.174151,-0.220979,0.312415,-0.154657,-0.214646,0.0703094,0.426046,-0.168015,0.349622,-0.0617934,0.763256,0.441424,0.250588,1
1.82262,-1.08147,-1.78042,-1.12283,2.0136,1.161,-0.891325,1.82262,-1.08147,-1.78042,-1.12283,2.0136,1.161,-0.891325,1.78024,-1.06466,-1.81522,-1.11702,1.93729,1.11684,-0.916241,0,0,0,0,0,0,0,0,0,0,0,0,0,0,0.531062,-0.454464,0.694251,0.57453,0.175235,0.152606,0.784806,0,0,0,0.986066,-0.113325,0.407492,-0.176177,-0.213663,0.294817,-0.163749,-0.215222,0.0606213,0.423801,-0.168047,0.347997,-0.0581201,0.763146,0.441587,0.249164,1
1.8223,-1.08137,-1.78055,-1.12252,2.0136,1.1609,-0.89132,1.8223,-1.08137,-1.78055,-1.12252,2.0136,1.1609,-0.89132,1.78024,-1.06466,-1.81522,-1.11702,1.93729,1.11684,-0.916241,0,0,0,0,0,0,0,0,0,0,0,0,0,0,0.531062,-0.454464,0.694251,0.57453,0.175235,0.152606,0.784806,0,0,0,0.984093,-0.115329,0.410558,-0.200032,-0.203189,0.31086,-0.175732,-0.213404,0.0563101,0.420579,-0.167132,0.346786,-0.0549884,0.763062,0.440659,0.249211,1
1.82208,-1.0811,-1.78067,-1.12225,2.0136,1.16089,-0.891309,1.82208,-1.0811,-1.78067,-1.12225,2.0136,1.16089,-0.891309,1.78024,-1.06466,-1.81522,-1.11702,1.93729,1.11684,-0.916241,0,0,0,0,0,0,0,0,0,0,0,0,0,0,0.531062,-0.454464,0.694251,0.57453,0.175235,0.152606,0.784806,0,0,0,0.982069,-0.117474,0.41367,-0.203606,-0.215804,0.313094,-0.187719,-0.211765,0.0557629,0.41839,-0.164432,0.345554,-0.0523146,0.763138,0.440496,0.249321,1
1.82195,-1.08091,-1.78085,-1.1221,2.01362,1.16091,-0.891286,1.82195,-1.08091,-1.78085,-1.1221,2.01362,1.16091,-0.891286,1.78024,-1.06466,-1.81522,-1.11702,1.93729,1.11684,-0.916241,0,0,0,0,0,0,0,0,0,0,0,0,0,0,0.531062,-0.454464,0.694251,0.57453,0.175235,0.152606,0.784806,0,0,0,0.979697,-0.11957,0.41684,-0.231224,-0.204341,0.309054,-0.202893,-0.209516,0.0582454,0.417089,-0.162474,0.34371,-0.0508789,0.763277,0.440761,0.249555,1
1.82192,-1.08088,-1.78102,-1.122,2.01363,1.16097,-0.89136,1.82192,-1.08088,-1.78102,-1.122,2.01363,1.16097,-0.89136,1.78024,-1.06466,-1.81522,-1.11702,1.93729,1.11684,-0.916241,0,0,0,0,0,0,0,0,0,0,0,0,0,0,0.531062,-0.454464,0.694251,0.57453,0.175235,0.152606,0.784806,0,0,0,0.977273,-0.121651,0.419929,-0.245303,-0.210602,0.312536,-0.219806,-0.208935,0.0615529,0.416807,-0.162193,0.342051,-0.0498174,0.763407,0.441374,0.248813,1
1.82196,-1.08132,-1.78133,-1.12189,2.01362,1.16112,-0.891814,1.82196,-1.08132,-1.78133,-1.12189,2.01362,1.16112,-0.891814,1.78024,-1.06466,-1.81522,-1.11702,1.93729,1.11684,-0.916241,0,0,0,0,0,0,0,0,0,0,0,0,0,0,0.531062,-0.454464,0.694251,0.57453,0.175235,0.152606,0.784806,0,0,0,0.974851,-0.123936,0.422753,-0.24004,-0.226531,0.279953,-0.23279,-0.213928,0.0564907,0.417148,-0.166585,0.338975,-0.0487822,0.763351,0.442798,0.244267,1
1.82178,-1.08136,-1.7814,-1.12131,2.01361,1.16107,-0.892036,1.82178,-1.08136,-1.7814,-1.12131,2.01361,1.16107,-0.892036,1.78024,-1.06466,-1.81522,-1.11702,1.93729,1.11684,-0.916241,0,0,0,0,0,0,0,0,0,0,0,0,0,0,0.531062,-0.454464,0.694251,0.57453,0.175235,0.152606,0.784806,0,0,0,0.972369,-0.126139,0.425561,-0.249132,-0.22106,0.281763,-0.242459,-0.216974,0.0469414,0.415371,-0.167031,0.338197,-0.0429174,0.763165,0.442331,0.242052,1
1.82137,-1.08195,-1.78177,-1.12077,2.01357,1.16099,-0.892511,1.82137,-1.08195,-1.78177,-1.12077,2.01357,1.16099,-0.892511,1.78024,-1.06466,-1.81522,-1.11702,1.93729,1.11684,-0.916241,0,0,0,0,0,0,0,0,0,0,0,0,0,0,0.531062,-0.454464,0.694251,0.57453,0.175235,0.152606,0.784806,0,0,0,0.969915,-0.128465,0.428082,-0.248005,-0.235069,0.254842,-0.244688,-0.222789,0.0311641,0.41125,-0.172867,0.334509,-0.0375806,0.76281,0.441548,0.2373,1
1.82091,-1.08178,-1.78173,-1.11993,2.01355,1.16092,-0.892725,1.82091,-1.08178,-1.78173,-1.11993,2.01355,1.16092,-0.892725,1.78024,-1.06466,-1.81522,-1.11702,1.93729,1.11684,-0.916241,0,0,0,0,0,0,0,0,0,0,0,0,0,0,0.531062,-0.454464,0.694251,0.57453,0.175235,0.152606,0.784806,0,0,0,0.967439,-0.13073,0.430674,-0.242225,-0.221582,0.253606,-0.246042,-0.226866,0.018206,0.406674,-0.171215,0.334911,-0.0291605,0.762609,0.440849,0.235166,1
1.82031,-1.08166,-1.78216,-1.11941,2.01353,1.16092,-0.892897,1.82031,-1.08166,-1.78216,-1.11941,2.01353,1.16092,-0.892897,1.78024,-1.06466,-1.81522,-1.11702,1.93729,1.11684,-0.916241,0,0,0,0,0,0,0,0,0,0,0,0,0,0,0.531062,-0.454464,0.694251,0.57453,0.175235,0.152606,0.784806,0,0,0,0.965046,-0.133054,0.432979,-0.241327,-0.23433,0.232331,-0.245413,-0.228261,0.00564969,0.400718,-0.169949,0.330643,-0.0239316,0.762456,0.440849,0.233437,1
1.8199,-1.08114,-1.78218,-1.11912,2.01356,1.16114,-0.893048,1.8199,-1.08114,-1.78218,-1.11912,2.01356,1.16114,-0.893048,1.78024,-1.06466,-1.81522,-1.11702,1.93729,1.11684,-0.916241,0,0,0,0,0,0,0,0,0,0,0,0,0,0,0.531062,-0.454464,0.694251,0.57453,0.175235,0.152606,0.784806,0,0,0,0.962693,-0.135272,0.4353,-0.227887,-0.214807,0.224885,-0.242217,-0.228545,-0.00623786,0.396534,-0.164799,0.33044,-0.0210532,0.762691,0.442981,0.231934,1
1.81952,-1.08053,-1.78243,-1.11902,2.01358,1.16148,-0.893125,1.81952,-1.08053,-1.78243,-1.11902,2.01358,1.16148,-0.893125,1.78024,-1.06466,-1.81522,-1.11702,1.93729,1.11684,-0.916241,0,0,0,0,0,0,0,0,0,0,0,0,0,0,0.531062,-0.454464,0.694251,0.57453,0.175235,0.152606,0.784806,0,0,0,0.960352,-0.137489,0.437537,-0.240532,-0.227739,0.229767,-0.238733,-0.22589,-0.0146433,0.392798,-0.158696,0.327926,-0.0200494,0.762906,0.4464,0.231164,1
1.81933,-1.08008,-1.78252,-1.1191,2.01362,1.16189,-0.893354,1.81933,-1.08008,-1.78252,-1.1191,2.01362,1.16189,-0.893354,1.78024,-1.06466,-1.81522,-1.11702,1.93729,1.11684,-0.916241,0,0,0,0,0,0,0,0,0,0,0,0,0,0,0.531062,-0.454464,0.694251,0.57453,0.175235,0.152606,0.784806,0,0,0,0.957971,-0.139658,0.439763,-0.235821,-0.214948,0.220542,-0.236303,-0.222914,-0.0226405,0.390863,-0.154205,0.327038,-0.0208287,0.763332,0.450527,0.228876,1
1.81921,-1.07967,-1.78267,-1.11882,2.01365,1.16227,-0.89355,1.81921,-1.07967,-1.78267,-1.11882,2.01365,1.16227,-0.89355,1.78024,-1.06466,-1.81522,-1.11702,1.93729,1.11684,-0.916241,0,0,0,0,0,0,0,0,0,0,0,0,0,0,0.531062,-0.454464,0.694251,0.57453,0.175235,0.152606,0.784806,0,0,0,0.955569,-0.141858,0.441881,-0.239841,-0.219631,0.211446,-0.236758,-0.219951,-0.0273212,0.389671,-0.150083,0.325517,-0.0180069,0.763643,0.454348,0.22691,1
1.81893,-1.07977,-1.78293,-1.11887,2.01366,1.1625,-0.893809,1.81893,-1.07977,-1.78293,-1.11887,2.01366,1.1625,-0.893809,1.78024,-1.06466,-1.81522,-1.11702,1.93729,1.11684,-0.916241,0,0,0,0,0,0,0,0,0,0,0,0,0,0,0.531062,-0.454464,0.694251,0.57453,0.175235,0.152606,0.784806,0,0,0,0.953016,-0.143991,0.443985,-0.251766,-0.21026,0.20743,-0.241373,-0.21807,-0.0328746,0.386841,-0.151123,0.322984,-0.0185091,0.763743,0.4566,0.224321,1
1.81861,-1.0793,-1.78285,-1.11826,2.01367,1.16259,-0.89384,1.81861,-1.0793,-1.78285,-1.11826,2.01367,1.16259,-0.89384,1.78024,-1.06466,-1.81522,-1.11702,1.93729,1.11684,-0.916241,0,0,0,0,0,0,0,0,0,0,0,0,0,0,0.531062,-0.454464,0.694251,0.57453,0.175235,0.152606,0.784806,0,0,0,0.950391,-0.146162,0.44615,-0.262136,-0.21685,0.216276,-0.24876,-0.216779,-0.0355276,0.383642,-0.146409,0.323777,-0.0124408,0.763833,0.45753,0.22401,1
1.81823,-1.07961,-1.78339,-1.11814,2.01366,1.16277,-0.8942,1.81823,-1.07961,-1.78339,-1.11814,2.01366,1.16277,-0.8942,1.78024,-1.06466,-1.81522,-1.11702,1.93729,1.11684,-0.916241,0,0,0,0,0,0,0,0,0,0,0,0,0,0,0.531062,-0.454464,0.694251,0.57453,0.175235,0.152606,0.784806,0,0,0,0.947743,-0.148371,0.448111,-0.274192,-0.228807,0.203037,-0.256336,-0.217292,-0.0403603,0.37993,-0.149491,0.318323,-0.0112294,0.763734,0.459314,0.220408,1
1.81788,-1.07891,-1.78316,-1.11745,2.01367,1.16291,-0.894274,1.81788,-1.07891,-1.78316,-1.11745,2.01367,1.16291,-0.894274,1.78024,-1.06466,-1.81522,-1.11702,1.93729,1.11684,-0.916241,0,0,0,0,0,0,0,0,0,0,0,0,0,0,0.531062,-0.454464,0.694251,0.57453,0.175235,0.152606,0.784806,0,0,0,0.945052,-0.150556,0.450144,-0.257741,-0.209264,0.194704,-0.26306,-0.217768,-0.0434866,0.37636,-0.142494,0.320657,-0.00437424,0.763807,0.460679,0.219677,1
1.81752,-1.07912,-1.78391,-1.11698,2.01366,1.16317,-0.894717,1.81752,-1.07912,-1.78391,-1.11698,2.01366,1.16317,-0.894717,1.78024,-1.06466,-1.81522,-1.11702,1.93729,1.11684,-0.916241,0,0,0,0,0,0,0,0,0,0,0,0,0,0,0.531062,-0.454464,0.694251,0.57453,0.175235,0.152606,0.784806,0,0,0,0.942375,-0.152765,0.452047,-0.280483,-0.231419,0.199385,-0.266201,-0.219434,-0.0488224,0.372775,-0.144627,0.313126,0.000339095,0.763717,0.463363,0.21524,1
1.81703,-1.07876,-1.78374,-1.11683,2.01366,1.16344,-0.894986,1.81703,-1.07876,-1.78374,-1.11683,2.01366,1.16344,-0.894986,1.78024,-1.06466,-1.81522,-1.11702,1.93729,1.11684,-0.916241,0,0,0,0,0,0,0,0,0,0,0,0,0,0,0.531062,-0.454464,0.694251,0.57453,0.175235,0.152606,0.784806,0,0,0,0.939792,-0.155001,0.453758,-0.251027,-0.21728,0.16637,-0.265658,-0.220716,-0.0584712,0.367922,-0.140994,0.314806,0.00183715,0.763682,0.466072,0.212554,1
1.81658,-1.07815,-1.78424,-1.1157,2.01366,1.1637,-0.895177,1.81658,-1.07815,-1.78424,-1.1157,2.01366,1.1637,-0.895177,1.78024,-1.06466,-1.81522,-1.11702,1.93729,1.11684,-0.916241,0,0,0,0,0,0,0,0,0,0,0,0,0,0,0.531062,-0.454464,0.694251,0.57453,0.175235,0.152606,0.784806,0,0,0,0.937188,-0.157192,0.455454,-0.262053,-0.220538,0.1706,-0.263699,-0.22086,-0.0669923,0.363363,-0.134904,0.309835,0.0132042,0.763715,0.468613,0.210646,1
1.81603,-1.07858,-1.78459,-1.11608,2.01364,1.16413,-0.89583,1.81603,-1.07858,-1.78459,-1.11608,2.01364,1.16413,-0.89583,1.78024,-1.06466,-1.81522,-1.11702,1.93729,1.11684,-0.916241,0,0,0,0,0,0,0,0,0,0,0,0,0,0,0.531062,-0.454464,0.694251,0.57453,0.175235,0.152606,0.784806,0,0,0,0.934779,-0.159443,0.457051,-0.237171,-0.221561,0.157241,-0.257337,-0.222007,-0.0777789,0.357857,-0.13915,0.306376,0.00938846,0.763532,0.472966,0.204114,1
1.81551,-1.077,-1.78441,-1.11458,2.01366,1.16442,-0.895715,1.81551,-1.077,-1.78441,-1.11458,2.01366,1.16442,-0.895715,1.78024,-1.06466,-1.81522,-1.11702,1.93729,1.11684,-0.916241,0,0,0,0,0,0,0,0,0,0,0,0,0,0,0.531062,-0.454464,0.694251,0.57453,0.175235,0.152606,0.784806,0,0,0,0.932319,-0.161583,0.458491,-0.246357,-0.214387,0.144167,-0.251259,-0.220796,-0.0881931,0.352673,-0.12339,0.308138,0.0243599,0.763681,0.475866,0.205267,1
1.81474,-1.07781,-1.78549,-1.11551,2.01364,1.16481,-0.896366,1.81474,-1.07781,-1.78549,-1.11551,2.01364,1.16481,-0.896366,1.78024,-1.06466,-1.81522,-1.11702,1.93729,1.11684,-0.916241,0,0,0,0,0,0,0,0,0,0,0,0,0,0,0.531062,-0.454464,0.694251,0.57453,0.175235,0.152606,0.784806,0,0,0,0.929997,-0.163687,0.459922,-0.234314,-0.212197,0.144474,-0.244598,-0.21763,-0.0963541,0.345014,-0.131441,0.297381,0.0150361,0.76352,0.479723,0.198749,1
1.81441,-1.07546,-1.78438,-1.11418,2.0137,1.16514,-0.895981,1.81441,-1.07546,-1.78438,-1.11418,2.0137,1.16514,-0.895981,1.78024,-1.06466,-1.81522,-1.11702,1.93729,1.11684,-0.916241,0,0,0,0,0,0,0,0,0,0,0,0,0,0,0.531062,-0.454464,0.694251,0.57453,0.175235,0.152606,0.784806,0,0,0,0.927542,-0.165725,0.46149,-0.251352,-0.208702,0.160543,-0.240738,-0.213085,-0.100557,0.341691,-0.108034,0.30843,0.0283992,0.764074,0.482998,0.202604,1
1.81371,-1.07666,-1.78638,-1.11553,2.01368,1.1655,-0.896582,1.81371,-1.07666,-1.78638,-1.11553,2.01368,1.1655,-0.896582,1.78024,-1.06466,-1.81522,-1.11702,1.93729,1.11684,-0.916241,0,0,0,0,0,0,0,0,0,0,0,0,0,0,0.531062,-0.454464,0.694251,0.57453,0.175235,0.152606,0.784806,0,0,0,0.925195,-0.167608,0.463004,-0.23223,-0.186298,0.149792,-0.239445,-0.204705,-0.100942,0.334638,-0.11994,0.288447,0.0148678,0.76392,0.486594,0.196591,1
1.81369,-1.07344,-1.78406,-1.11391,2.01378,1.16585,-0.895906,1.81369,-1.07344,-1.78406,-1.11391,2.01378,1.16585,-0.895906,1.78024,-1.06466,-1.81522,-1.11702,1.93729,1.11684,-0.916241,0,0,0,0,0,0,0,0,0,0,0,0,0,0,0.531062,-0.454464,0.694251,0.57453,0.175235,0.152606,0.784806,0,0,0,0.922824,-0.169523,0.464486,-0.23052,-0.186207,0.14403,-0.237926,-0.198004,-0.0992765,0.334459,-0.0877567,0.311653,0.0310874,0.764958,0.490141,0.20335,1
1.81327,-1.07686,-1.78747,-1.11616,2.01372,1.16623,-0.896992,1.81327,-1.07686,-1.78747,-1.11616,2.01372,1.16623,-0.896992,1.78024,-1.06466,-1.81522,-1.11702,1.93729,1.11684,-0.916241,0,0,0,0,0,0,0,0,0,0,0,0,0,0,0.531062,-0.454464,0.694251,0.57453,0.175235,0.152606,0.784806,0,0,0,0.920414,-0.171447,0.46605,-0.249217,-0.198982,0.161811,-0.238831,-0.193187,-0.0974908,0.330262,-0.121961,0.277572,0.00856616,0.764307,0.49388,0.192492,1
1.81318,-1.07162,-1.78327,-1.11271,2.01384,1.16648,-0.895797,1.81318,-1.07162,-1.78327,-1.11271,2.01384,1.16648,-0.895797,1.78024,-1.06466,-1.81522,-1.11702,1.93729,1.11684,-0.916241,0,0,0,0,0,0,0,0,0,0,0,0,0,0,0.531062,-0.454464,0.694251,0.57453,0.175235,0.152606,0.784806,0,0,0,0.918026,-0.173264,0.467526,-0.228857,-0.174146,0.141406,-0.238132,-0.189183,-0.0988265,0.329429,-0.0695475,0.319521,0.0430962,0.765554,0.496448,0.204441,1
1.81246,-1.07852,-1.78926,-1.11711,2.01368,1.16652,-0.897799,1.81246,-1.07852,-1.78926,-1.11711,2.01368,1.16652,-0.897799,1.78024,-1.06466,-1.81522,-1.11702,1.93729,1.11684,-0.916241,0,0,0,0,0,0,0,0,0,0,0,0,0,0,0.531062,-0.454464,0.694251,0.57453,0.175235,0.152606,0.784806,0,0,0,0.915592,-0.175101,0.468945,-0.259344,-0.195662,0.151224,-0.240045,-0.187275,-0.100776,0.322136,-0.138541,0.259602,-0.00095455,0.763947,0.496864,0.184422,1
1.81183,-1.07027,-1.78227,-1.112,2.01388,1.16683,-0.895704,1.81183,-1.07027,-1.78227,-1.112,2.01388,1.16683,-0.895704,1.78024,-1.06466,-1.81522,-1.11702,1.93729,1.11684,-0.916241,0,0,0,0,0,0,0,0,0,0,0,0,0,0,0.531062,-0.454464,0.694251,0.57453,0.175235,0.152606,0.784806,0,0,0,0.913026,-0.17699,0.470387,-0.253016,-0.186295,0.142157,-0.244182,-0.185876,-0.103027,0.315883,-0.0560911,0.329569,0.0501852,0.765877,0.49992,0.205376,1
1.81042,-1.07835,-1.79146,-1.11568,2.0136,1.16658,-0.898331,1.81042,-1.07835,-1.79146,-1.11568,2.0136,1.16658,-0.898331,1.78024,-1.06466,-1.81522,-1.11702,1.93729,1.11684,-0.916241,0,0,0,0,0,0,0,0,0,0,0,0,0,0,0.531062,-0.454464,0.694251,0.57453,0.175235,0.152606,0.784806,0,0,0,0.910526,-0.178734,0.471715,-0.240515,-0.167733,0.127763,-0.247775,-0.182993,-0.108091,0.301792,-0.136918,0.237675,0.0133224,0.763131,0.497432,0.179099,1
1.80953,-1.07045,-1.78234,-1.11326,2.01391,1.16759,-0.896589,1.80953,-1.07045,-1.78234,-1.11326,2.01391,1.16759,-0.896589,1.78024,-1.06466,-1.81522,-1.11702,1.93729,1.11684,-0.916241,0,0,0,0,0,0,0,0,0,0,0,0,0,0,0.531062,-0.454464,0.694251,0.57453,0.175235,0.152606,0.784806,0,0,0,0.908005,-0.180481,0.473001,-0.2551,-0.176838,0.130095,-0.251083,-0.180665,-0.112809,0.292925,-0.0578662,0.32884,0.0375619,0.766167,0.50753,0.196523,1
1.80863,-1.07473,-1.79205,-1.11236,2.01358,1.16732,-0.897798,1.80863,-1.07473,-1.79205,-1.11236,2.01358,1.16732,-0.897798,1.78024,-1.06466,-1.81522,-1.11702,1.93729,1.11684,-0.916241,0,0,0,0,0,0,0,0,0,0,0,0,0,0,0.531062,-0.454464,0.694251,0.57453,0.175235,0.152606,0.784806,0,0,0,0.905468,-0.182263,0.474168,-0.24987,-0.17552,0.115015,-0.252682,-0.178155,-0.119404,0.283874,-0.100643,0.231724,0.0465821,0.762917,0.504797,0.184435,1
1.8077,-1.07286,-1.78461,-1.11697,2.01383,1.16852,-0.898208,1.8077,-1.07286,-1.78461,-1.11697,2.01383,1.16852,-0.898208,1.78024,-1.06466,-1.81522,-1.11702,1.93729,1.11684,-0.916241,0,0,0,0,0,0,0,0,0,0,0,0,0,0,0.531062,-0.454464,0.694251,0.57453,0.175235,0.152606,0.784806,0,0,0,0.903009,-0.183918,0.475306,-0.251826,-0.169448,0.116521,-0.250915,-0.173849,-0.127083,0.274553,-0.0820354,0.306174,0.000462616,0.76544,0.516842,0.180335,1
1.8094,-1.06717,-1.78925,-1.1069,2.01371,1.16894,-0.896028,1.8094,-1.06717,-1.78925,-1.1069,2.01371,1.16894,-0.896028,1.78024,-1.06466,-1.81522,-1.11702,1.93729,1.11684,-0.916241,0,0,0,0,0,0,0,0,0,0,0,0,0,0,0.531062,-0.454464,0.694251,0.57453,0.175235,0.152606,0.784806,0,0,0,0.900553,-0.185601,0.476397,-0.246837,-0.169176,0.109681,-0.249401,-0.171705,-0.133302,0.291626,-0.0250772,0.25969,0.101195,0.764239,0.521052,0.202128,1
1.80812,-1.08068,-1.79045,-1.12006,2.01361,1.16897,-0.901685,1.80812,-1.08068,-1.79045,-1.12006,2.01361,1.16897,-0.901685,1.78024,-1.06466,-1.81522,-1.11702,1.93729,1.11684,-0.916241,0,0,0,0,0,0,0,0,0,0,0,0,0,0,0.531062,-0.454464,0.694251,0.57453,0.175235,0.152606,0.784806,0,0,0,0.898059,-0.18718,0.477545,-0.241724,-0.153051,0.111215,-0.248053,-0.167349,-0.136829,0.278808,-0.16017,0.247715,-0.030398,0.763201,0.521317,0.145562,1
1.80562,-1.06033,-1.7831,-1.10182,2.01391,1.16901,-0.894408,1.80562,-1.06033,-1.7831,-1.10182,2.01391,1.16901,-0.894408,1.78024,-1.06466,-1.81522,-1.11702,1.93729,1.11684,-0.916241,0,0,0,0,0,0,0,0,0,0,0,0,0,0,0.531062,-0.454464,0.694251,0.57453,0.175235,0.152606,0.784806,0,0,0,0.895561,-0.188732,0.478666,-0.260566,-0.161907,0.116982,-0.247635,-0.162003,-0.137653,0.2538,0.043319,0.321227,0.152005,0.766162,0.521682,0.218336,1
1.80138,-1.08447,-1.79933,-1.1236,2.0132,1.1681,-0.903373,1.80138,-1.08447,-1.79933,-1.1236,2.0132,1.1681,-0.903373,1.78024,-1.06466,-1.81522,-1.11702,1.93729,1.11684,-0.916241,0,0,0,0,0,0,0,0,0,0,0,0,0,0,0.531062,-0.454464,0.694251,0.57453,0.175235,0.152606,0.784806,0,0,0,0.893064,-0.190198,0.479807,-0.255096,-0.14977,0.116475,-0.248815,-0.156921,-0.137305,0.21141,-0.198051,0.158917,-0.0658166,0.759089,0.512625,0.128681,1
1.79842,-1.0563,-1.77987,-1.10128,2.014,1.17047,-0.898706,1.79842,-1.0563,-1.77987,-1.10128,2.014,1.17047,-0.898706,1.78024,-1.06466,-1.81522,-1.11702,1.93729,1.11684,-0.916241,0,0,0,0,0,0,0,0,0,0,0,0,0,0,0.531062,-0.454464,0.694251,0.57453,0.175235,0.152606,0.784806,0,0,0,0.89044,-0.191628,0.480974,-0.253533,-0.138136,0.112816,-0.252216,-0.150725,-0.135848,0.181739,0.0836165,0.353491,0.157355,0.767091,0.536329,0.175349,1
1.79726,-1.08147,-1.80589,-1.12123,2.01261,1.17018,-0.904535,1.79726,-1.08147,-1.80589,-1.12123,2.01261,1.17018,-0.904535,1.78024,-1.06466,-1.81522,-1.11702,1.93729,1.11684,-0.916241,0,0,0,0,0,0,0,0,0,0,0,0,0,0,0.531062,-0.454464,0.694251,0.57453,0.175235,0.152606,0.784806,0,0,0,0.887779,-0.193063,0.482125,-0.271082,-0.146234,0.117206,-0.256816,-0.146627,-0.135325,0.170216,-0.168107,0.0933878,-0.0421602,0.753211,0.53345,0.117064,1
1.79023,-1.05858,-1.77988,-1.10499,2.01376,1.17101,-0.901889,1.79023,-1.05858,-1.77988,-1.10499,2.01376,1.17101,-0.901889,1.78024,-1.06466,-1.81522,-1.11702,1.93729,1.11684,-0.916241,0,0,0,0,0,0,0,0,0,0,0,0,0,0,0.531062,-0.454464,0.694251,0.57453,0.175235,0.152606,0.784806,0,0,0,0.884975,-0.194477,0.483247,-0.276243,-0.13934,0.110542,-0.264565,-0.14356,-0.135215,0.0998711,0.0607609,0.353481,0.120277,0.764745,0.541737,0.143522,1
1.79994,-1.07347,-1.80421,-1.11586,2.01248,1.17257,-0.905944,1.79994,-1.07347,-1.80421,-1.11586,2.01248,1.17257,-0.905944,1.78024,-1.06466,-1.81522,-1.11702,1.93729,1.11684,-0.916241,0,0,0,0,0,0,0,0,0,0,0,0,0,0,0.531062,-0.454464,0.694251,0.57453,0.175235,0.152606,0.784806,0,0,0,0.88213,-0.195932,0.484265,-0.284761,-0.145572,0.101971,-0.273325,-0.143174,-0.138097,0.196984,-0.0881165,0.110111,0.0115949,0.751932,0.55731,0.102971,1
1.78816,-1.06563,-1.78289,-1.10621,2.01362,1.17051,-0.904615,1.78816,-1.06563,-1.78289,-1.10621,2.01362,1.17051,-0.904615,1.78024,-1.06466,-1.81522,-1.11702,1.93729,1.11684,-0.916241,0,0,0,0,0,0,0,0,0,0,0,0,0,0,0.531062,-0.454464,0.694251,0.57453,0.175235,0.152606,0.784806,0,0,0,0.879025,-0.197436,0.485294,-0.303531,-0.147088,0.100563,-0.284789,-0.144864,-0.14219,0.0791385,-0.00966696,0.323295,0.108032,0.763323,0.536723,0.11626,1
1.79879,-1.06266,-1.79695,-1.11091,2.01277,1.17349,-0.900694,1.79879,-1.06266,-1.79695,-1.11091,2.01277,1.17349,-0.900694,1.78024,-1.06466,-1.81522,-1.11702,1.93729,1.11684,-0.916241,0,0,0,0,0,0,0,0,0,0,0,0,0,0,0.531062,-0.454464,0.694251,0.57453,0.175235,0.152606,0.784806,0,0,0,0.875868,-0.19904,0.486136,-0.323441,-0.164252,0.0862083,-0.297729,-0.149127,-0.149304,0.185455,0.0199679,0.182699,0.0610424,0.754827,0.566511,0.155472,1
1.79288,-1.07375,-1.79181,-1.1186,2.01333,1.1722,-0.90603,1.79288,-1.07375,-1.79181,-1.1186,2.01333,1.1722,-0.90603,1.78024,-1.06466,-1.81522,-1.11702,1.93729,1.11684,-0.916241,0,0,0,0,0,0,0,0,0,0,0,0,0,0,0.531062,-0.454464,0.694251,0.57453,0.175235,0.152606,0.784806,0,0,0,0.872503,-0.200683,0.486847,-0.341001,-0.166514,0.0721104,-0.312077,-0.155195,-0.159283,0.126399,-0.0908983,0.234185,-0.0158392,0.76039,0.553615,0.102111,1
1.79879,-1.06041,-1.78891,-1.10059,2.01328,1.17389,-0.898781,1.79879,-1.06041,-1.78891,-1.10059,2.01328,1.17389,-0.898781,1.78024,-1.06466,-1.81522,-1.11702,1.93729,1.11684,-0.916241,0,0,0,0,0,0,0,0,0,0,0,0,0,0,0.531062,-0.454464,0.694251,0.57453,0.175235,0.152606,0.784806,0,0,0,0.868962,-0.202482,0.487422,-0.35608,-0.180919,0.0577962,-0.328587,-0.16347,-0.171337,0.18544,0.0425589,0.263177,0.164303,0.759883,0.570478,0.174606,1
1.79426,-1.07884,-1.79969,-1.11755,2.01284,1.17238,-0.905498,1.79426,-1.07884,-1.79969,-1.11755,2.01284,1.17238,-0.905498,1.78024,-1.06466,-1.81522,-1.11702,1.93729,1.11684,-0.916241,0,0,0,0,0,0,0,0,0,0,0,0,0,0,0.531062,-0.454464,0.694251,0.57453,0.175235,0.152606,0.784806,0,0,0,0.865362,-0.204333,0.487874,-0.351926,-0.180895,0.0441802,-0.342327,-0.172346,-0.185541,0.140157,-0.141806,0.155308,-0.00531521,0.75546,0.555411,0.107429,1
1.79075,-1.06067,-1.78617,-1.09897,2.01336,1.17358,-0.903905,1.79075,-1.06067,-1.78617,-1.09897,2.01336,1.17358,-0.903905,1.78024,-1.06466,-1.81522,-1.11702,1.93729,1.11684,-0.916241,0,0,0,0,0,0,0,0,0,0,0,0,0,0,0.531062,-0.454464,0.694251,0.57453,0.175235,0.152606,0.784806,0,0,0,0.86178,-0.205948,0.488197,-0.361642,-0.163071,0.0326172,-0.353166,-0.174653,-0.198508,0.105056,0.0398958,0.290565,0.18045,0.760727,0.567389,0.123358,1
1.7913,-1.07409,-1.80414,-1.11838,2.0124,1.17339,-0.90617,1.7913,-1.07409,-1.80414,-1.11838,2.0124,1.17339,-0.90617,1.78024,-1.06466,-1.81522,-1.11702,1.93729,1.11684,-0.916241,0,0,0,0,0,0,0,0,0,0,0,0,0,0,0.531062,-0.454464,0.694251,0.57453,0.175235,0.152606,0.784806,0,0,0,0.858109,-0.207675,0.488531,-0.367077,-0.172672,0.0334099,-0.359701,-0.174489,-0.208572,0.110535,-0.0943042,0.110812,-0.0136725,0.751065,0.565483,0.100709,1
1.78374,-1.06113,-1.78688,-1.10188,2.01333,1.17321,-0.906431,1.78374,-1.06113,-1.78688,-1.10188,2.01333,1.17321,-0.906431,1.78024,-1.06466,-1.81522,-1.11702,1.93729,1.11684,-0.916241,0,0,0,0,0,0,0,0,0,0,0,0,0,0,0.531062,-0.454464,0.694251,0.57453,0.175235,0.152606,0.784806,0,0,0,0.854557,-0.209298,0.488802,-0.353322,-0.161472,0.0269992,-0.360627,-0.169735,-0.215817,0.0349701,0.0352951,0.283478,0.151372,0.760364,0.563683,0.0981034,1
1.79396,-1.06923,-1.80175,-1.1143,2.01235,1.17537,-0.906287,1.79396,-1.06923,-1.80175,-1.1143,2.01235,1.17537,-0.906287,1.78024,-1.06466,-1.81522,-1.11702,1.93729,1.11684,-0.916241,0,0,0,0,0,0,0,0,0,0,0,0,0,0,0.531062,-0.454464,0.694251,0.57453,0.175235,0.152606,0.784806,0,0,0,0.850916,-0.210701,0.489072,-0.358975,-0.13835,0.0265531,-0.361147,-0.160871,-0.219986,0.137224,-0.0457107,0.134765,0.027217,0.750577,0.585339,0.0995419,1
1.78176,-1.06495,-1.79005,-1.10453,2.01311,1.17301,-0.906134,1.78176,-1.06495,-1.79005,-1.10453,2.01311,1.17301,-0.906134,1.78024,-1.06466,-1.81522,-1.11702,1.93729,1.11684,-0.916241,0,0,0,0,0,0,0,0,0,0,0,0,0,0,0.531062,-0.454464,0.694251,0.57453,0.175235,0.152606,0.784806,0,0,0,0.847369,-0.212126,0.48929,-0.354531,-0.14243,0.0218253,-0.360147,-0.153831,-0.222728,0.0151907,-0.00288914,0.251693,0.124859,0.758256,0.56173,0.10107,1
1.78961,-1.06581,-1.79819,-1.11168,2.01255,1.17536,-0.903483,1.78961,-1.06581,-1.79819,-1.11168,2.01255,1.17536,-0.903483,1.78024,-1.06466,-1.81522,-1.11702,1.93729,1.11684,-0.916241,0,0,0,0,0,0,0,0,0,0,0,0,0,0,0.531062,-0.454464,0.694251,0.57453,0.175235,0.152606,0.784806,0,0,0,0.843668,-0.213404,0.489485,-0.370851,-0.128029,0.0195214,-0.360695,-0.142865,-0.226045,0.0936567,-0.0115274,0.170301,0.0533411,0.752588,0.585202,0.127577,1
1.78174,-1.06729,-1.79432,-1.10915,2.01274,1.1746,-0.904167,1.78174,-1.06729,-1.79432,-1.10915,2.01274,1.1746,-0.904167,1.78024,-1.06466,-1.81522,-1.11702,1.93729,1.11684,-0.916241,0,0,0,0,0,0,0,0,0,0,0,0,0,0,0.531062,-0.454464,0.694251,0.57453,0.175235,0.152606,0.784806,0,0,0,0.840171,-0.214704,0.489438,-0.35311,-0.131278,-0.00476281,-0.360208,-0.135151,-0.233162,0.0150032,-0.0262891,0.209048,0.0787086,0.754552,0.577667,0.12074,1
1.78604,-1.06687,-1.79608,-1.1083,2.01259,1.17609,-0.903347,1.78604,-1.06687,-1.79608,-1.1083,2.01259,1.17609,-0.903347,1.78024,-1.06466,-1.81522,-1.11702,1.93729,1.11684,-0.916241,0,0,0,0,0,0,0,0,0,0,0,0,0,0,0.531062,-0.454464,0.694251,0.57453,0.175235,0.152606,0.784806,0,0,0,0.836583,-0.216035,0.489347,-0.365252,-0.135517,-0.00927392,-0.35863,-0.132455,-0.243026,0.0580069,-0.0220511,0.191395,0.0872133,0.75299,0.592476,0.128944,1
1.78151,-1.06898,-1.79636,-1.10881,2.0124,1.17583,-0.903738,1.78151,-1.06898,-1.79636,-1.10881,2.0124,1.17583,-0.903738,1.78024,-1.06466,-1.81522,-1.11702,1.93729,1.11684,-0.916241,0,0,0,0,0,0,0,0,0,0,0,0,0,0,0.531062,-0.454464,0.694251,0.57453,0.175235,0.152606,0.784806,0,0,0,0.833098,-0.217329,0.489,-0.329245,-0.122261,-0.0327843,-0.356265,-0.130375,-0.257192,0.0127271,-0.0432068,0.18868,0.0820188,0.751139,0.589897,0.125032,1
1.781,-1.06669,-1.79563,-1.10682,2.01242,1.17624,-0.904557,1.781,-1.06669,-1.79563,-1.10682,2.01242,1.17624,-0.904557,1.78024,-1.06466,-1.81522,-1.11702,1.93729,1.11684,-0.916241,0,0,0,0,0,0,0,0,0,0,0,0,0,0,0.531062,-0.454464,0.694251,0.57453,0.175235,0.152606,0.784806,0,0,0,0.829508,-0.218707,0.488535,-0.378455,-0.14519,-0.0489427,-0.353936,-0.13231,-0.273375,0.00760345,-0.0202641,0.195901,0.101964,0.75135,0.59406,0.116842,1
1.78028,-1.06851,-1.79795,-1.10919,2.01224,1.17662,-0.9052,1.78028,-1.06851,-1.79795,-1.10919,2.01224,1.17662,-0.9052,1.78024,-1.06466,-1.81522,-1.11702,1.93729,1.11684,-0.916241,0,0,0,0,0,0,0,0,0,0,0,0,0,0,0.531062,-0.454464,0.694251,0.57453,0.175235,0.152606,0.784806,0,0,0,0.825952,-0.219851,0.48798,-0.347244,-0.111772,-0.0542296,-0.355121,-0.129656,-0.287268,0.000339035,-0.0385125,0.172728,0.078307,0.749512,0.597867,0.110415,1
1.77809,-1.0663,-1.79595,-1.10611,2.01226,1.17669,-0.905153,1.77809,-1.0663,-1.79595,-1.10611,2.01226,1.17669,-0.905153,1.78024,-1.06466,-1.81522,-1.11702,1.93729,1.11684,-0.916241,0,0,0,0,0,0,0,0,0,0,0,0,0,0,0.531062,-0.454464,0.694251,0.57453,0.175235,0.152606,0.784806,0,0,0,0.822355,-0.221112,0.487351,-0.356231,-0.124905,-0.062352,-0.35602,-0.126763,-0.30012,-0.0215261,-0.0163721,0.192716,0.10908,0.749669,0.598518,0.110885,1
1.779,-1.06844,-1.7988,-1.1093,2.01211,1.17714,-0.905804,1.779,-1.06844,-1.7988,-1.1093,2.01211,1.17714,-0.905804,1.78024,-1.06466,-1.81522,-1.11702,1.93729,1.11684,-0.916241,0,0,0,0,0,0,0,0,0,0,0,0,0,0,0.531062,-0.454464,0.694251,0.57453,0.175235,0.152606,0.784806,0,0,0,0.818712,-0.222331,0.486682,-0.368992,-0.12341,-0.0677052,-0.359244,-0.124087,-0.308201,-0.0123707,-0.0378093,0.164197,0.0771362,0.748203,0.603052,0.104377,1
1.77649,-1.06629,-1.79645,-1.10503,2.01211,1.17707,-0.905856,1.77649,-1.06629,-1.79645,-1.10503,2.01211,1.17707,-0.905856,1.78024,-1.06466,-1.81522,-1.11702,1.93729,1.11684,-0.916241,0,0,0,0,0,0,0,0,0,0,0,0,0,0,0.531062,-0.454464,0.694251,0.57453,0.175235,0.152606,0.784806,0,0,0,0.814916,-0.223559,0.485944,-0.381362,-0.123398,-0.0741062,-0.364244,-0.121847,-0.314802,-0.0374926,-0.0162661,0.187706,0.119834,0.748253,0.602359,0.103847,1
1.77727,-1.06862,-1.79974,-1.10893,2.01196,1.17749,-0.906515,1.77727,-1.06862,-1.79974,-1.10893,2.01196,1.17749,-0.906515,1.78024,-1.06466,-1.81522,-1.11702,1.93729,1.11684,-0.916241,0,0,0,0,0,0,0,0,0,0,0,0,0,0,0.531062,-0.454464,0.694251,0.57453,0.175235,0.152606,0.784806,0,0,0,0.811142,-0.224754,0.48509,-0.377437,-0.119473,-0.0854242,-0.370607,-0.122523,-0.321861,-0.0297296,-0.0396236,0.154823,0.0808987,0.746676,0.606546,0.0972605,1
1.77455,-1.0662,-1.79739,-1.10419,2.01194,1.17746,-0.906893,1.77455,-1.0662,-1.79739,-1.10419,2.01194,1.17746,-0.906893,1.78024,-1.06466,-1.81522,-1.11702,1.93729,1.11684,-0.916241,0,0,0,0,0,0,0,0,0,0,0,0,0,0,0.531062,-0.454464,0.694251,0.57453,0.175235,0.152606,0.784806,0,0,0,0.807224,-0.226025,0.484062,-0.385813,-0.1252,-0.101285,-0.378335,-0.122488,-0.331697,-0.0568902,-0.0153621,0.178359,0.128234,0.746548,0.606273,0.0934768,1
1.77552,-1.06898,-1.80129,-1.10853,2.01178,1.17784,-0.907369,1.77552,-1.06898,-1.80129,-1.10853,2.01178,1.17784,-0.907369,1.78024,-1.06466,-1.81522,-1.11702,1.93729,1.11684,-0.916241,0,0,0,0,0,0,0,0,0,0,0,0,0,0,0.531062,-0.454464,0.694251,0.57453,0.175235,0.152606,0.784806,0,0,0,0.803229,-0.22724,0.482906,-0.398291,-0.121112,-0.115236,-0.386573,-0.12284,-0.344349,-0.0472059,-0.0431648,0.139321,0.0848721,0.744862,0.610028,0.0887264,1
1.77251,-1.06607,-1.79831,-1.10343,2.01179,1.17786,-0.907802,1.77251,-1.06607,-1.79831,-1.10343,2.01179,1.17786,-0.907802,1.78024,-1.06466,-1.81522,-1.11702,1.93729,1.11684,-0.916241,0,0,0,0,0,0,0,0,0,0,0,0,0,0,0.531062,-0.454464,0.694251,0.57453,0.175235,0.152606,0.784806,0,0,0,0.79918,-0.228522,0.481568,-0.410265,-0.129915,-0.135565,-0.393842,-0.12412,-0.359373,-0.0772736,-0.0140749,0.169187,0.135875,0.744985,0.610196,0.084388,1
1.77442,-1.0695,-1.80331,-1.10824,2.01164,1.17806,-0.908205,1.77442,-1.0695,-1.80331,-1.10824,2.01164,1.17806,-0.908205,1.78024,-1.06466,-1.81522,-1.11702,1.93729,1.11684,-0.916241,0,0,0,0,0,0,0,0,0,0,0,0,0,0,0.531062,-0.454464,0.694251,0.57453,0.175235,0.152606,0.784806,0,0,0,0.795094,-0.229782,0.480161,-0.417657,-0.12879,-0.143763,-0.401396,-0.125536,-0.373513,-0.0582134,-0.0483887,0.119188,0.0877346,0.743534,0.612246,0.0803629,1
1.77096,-1.06572,-1.79886,-1.10297,2.01172,1.17812,-0.908637,1.77096,-1.06572,-1.79886,-1.10297,2.01172,1.17812,-0.908637,1.78024,-1.06466,-1.81522,-1.11702,1.93729,1.11684,-0.916241,0,0,0,0,0,0,0,0,0,0,0,0,0,0,0.531062,-0.454464,0.694251,0.57453,0.175235,0.152606,0.784806,0,0,0,0.790873,-0.230991,0.478734,-0.42537,-0.12183,-0.143826,-0.408374,-0.12474,-0.383994,-0.0928082,-0.0106279,0.163626,0.140454,0.744343,0.612781,0.0760443,1
1.77431,-1.0699,-1.80529,-1.10867,2.01159,1.1782,-0.908631,1.77431,-1.0699,-1.80529,-1.10867,2.01159,1.1782,-0.908631,1.78024,-1.06466,-1.81522,-1.11702,1.93729,1.11684,-0.916241,0,0,0,0,0,0,0,0,0,0,0,0,0,0,0.531062,-0.454464,0.694251,0.57453,0.175235,0.152606,0.784806,0,0,0,0.786666,-0.232248,0.477197,-0.411633,-0.123005,-0.150416,-0.41433,-0.124853,-0.392512,-0.0593125,-0.0524172,0.0993662,0.0834999,0.742962,0.613625,0.076102,1
1.77041,-1.06563,-1.79864,-1.10265,2.01176,1.17821,-0.90941,1.77041,-1.06563,-1.79864,-1.10265,2.01176,1.17821,-0.90941,1.78024,-1.06466,-1.81522,-1.11702,1.93729,1.11684,-0.916241,0,0,0,0,0,0,0,0,0,0,0,0,0,0,0.531062,-0.454464,0.694251,0.57453,0.175235,0.152606,0.784806,0,0,0,0.78231,-0.233567,0.475644,-0.442229,-0.133937,-0.157686,-0.421664,-0.125562,-0.398122,-0.0982905,-0.00973666,0.165802,0.143687,0.744687,0.613713,0.0683162,1
1.7749,-1.07043,-1.80695,-1.10892,2.01154,1.17823,-0.908859,1.7749,-1.07043,-1.80695,-1.10892,2.01154,1.17823,-0.908859,1.78024,-1.06466,-1.81522,-1.11702,1.93729,1.11684,-0.916241,0,0,0,0,0,0,0,0,0,0,0,0,0,0,0.531062,-0.454464,0.694251,0.57453,0.175235,0.152606,0.784806,0,0,0,0.777952,-0.23484,0.473868,-0.421271,-0.123043,-0.171585,-0.428473,-0.12693,-0.406761,-0.0534134,-0.0576988,0.0827726,0.0809672,0.742483,0.613924,0.0738233,1
1.76925,-1.06576,-1.79826,-1.10221,2.01179,1.1781,-0.909931,1.76925,-1.06576,-1.79826,-1.10221,2.01179,1.1781,-0.909931,1.78024,-1.06466,-1.81522,-1.11702,1.93729,1.11684,-0.916241,0,0,0,0,0,0,0,0,0,0,0,0,0,0,0.531062,-0.454464,0.694251,0.57453,0.175235,0.152606,0.784806,0,0,0,0.773551,-0.236282,0.471964,-0.457264,-0.149797,-0.197919,-0.433576,-0.131741,-0.418689,-0.109892,-0.0110137,0.169637,0.148062,0.745004,0.612624,0.0631034,1
1.77557,-1.07102,-1.80852,-1.10888,2.01147,1.17834,-0.909987,1.77557,-1.07102,-1.80852,-1.10888,2.01147,1.17834,-0.909987,1.78024,-1.06466,-1.81522,-1.11702,1.93729,1.11684,-0.916241,0,0,0,0,0,0,0,0,0,0,0,0,0,0,0.531062,-0.454464,0.694251,0.57453,0.175235,0.152606,0.784806,0,0,0,0.769202,-0.237652,0.469972,-0.419462,-0.132125,-0.192071,-0.436877,-0.135224,-0.431293,-0.0466935,-0.063614,0.0670528,0.0813988,0.741809,0.615033,0.0625374,1
1.76772,-1.06584,-1.79806,-1.10172,2.01177,1.17791,-0.910633,1.76772,-1.06584,-1.79806,-1.10172,2.01177,1.17791,-0.910633,1.78024,-1.06466,-1.81522,-1.11702,1.93729,1.11684,-0.916241,0,0,0,0,0,0,0,0,0,0,0,0,0,0,0.531062,-0.454464,0.694251,0.57453,0.175235,0.152606,0.784806,0,0,0,0.764725,-0.239101,0.467922,-0.453712,-0.146845,-0.207773,-0.439198,-0.138785,-0.443392,-0.125219,-0.0118184,0.171653,0.152919,0.744775,0.610729,0.056081,1
1.77583,-1.07132,-1.80954,-1.1091,2.01141,1.17837,-0.911059,1.77583,-1.07132,-1.80954,-1.1091,2.01141,1.17837,-0.911059,1.78024,-1.06466,-1.81522,-1.11702,1.93729,1.11684,-0.916241,0,0,0,0,0,0,0,0,0,0,0,0,0,0,0.531062,-0.454464,0.694251,0.57453,0.175235,0.152606,0.784806,0,0,0,0.760356,-0.240459,0.465699,-0.439912,-0.136694,-0.223802,-0.440176,-0.140551,-0.453798,-0.0440911,-0.0666142,0.0568729,0.0792137,0.741201,0.615347,0.0518186,1
1.76691,-1.06579,-1.79826,-1.10179,2.01174,1.17781,-0.911275,1.76691,-1.06579,-1.79826,-1.10179,2.01174,1.17781,-0.911275,1.78024,-1.06466,-1.81522,-1.11702,1.93729,1.11684,-0.916241,0,0,0,0,0,0,0,0,0,0,0,0,0,0,0.531062,-0.454464,0.694251,0.57453,0.175235,0.152606,0.784806,0,0,0,0.755965,-0.241796,0.463593,-0.430269,-0.131104,-0.206367,-0.440189,-0.138357,-0.460142,-0.133272,-0.0112531,0.169679,0.152226,0.74446,0.609719,0.0496616,1
1.77581,-1.07129,-1.80999,-1.10941,2.01139,1.17828,-0.910913,1.77581,-1.07129,-1.80999,-1.10941,2.01139,1.17828,-0.910913,1.78024,-1.06466,-1.81522,-1.11702,1.93729,1.11684,-0.916241,0,0,0,0,0,0,0,0,0,0,0,0,0,0,0.531062,-0.454464,0.694251,0.57453,0.175235,0.152606,0.784806,0,0,0,0.751728,-0.243005,0.461498,-0.42695,-0.121829,-0.211171,-0.43708,-0.134026,-0.46278,-0.044335,-0.0663356,0.0523658,0.0760927,0.740993,0.614465,0.0532786,1
1.76721,-1.06594,-1.79808,-1.10267,2.01178,1.17773,-0.911002,1.76721,-1.06594,-1.79808,-1.10267,2.01178,1.17773,-0.911002,1.78024,-1.06466,-1.81522,-1.11702,1.93729,1.11684,-0.916241,0,0,0,0,0,0,0,0,0,0,0,0,0,0,0.531062,-0.454464,0.694251,0.57453,0.175235,0.152606,0.784806,0,0,0,0.747588,-0.244243,0.459488,-0.413353,-0.123608,-0.200693,-0.429021,-0.128322,-0.460707,-0.130333,-0.0128007,0.171391,0.143427,0.744891,0.608973,0.0523969,1
1.77686,-1.07099,-1.80973,-1.10886,2.01141,1.17823,-0.910267,1.77686,-1.07099,-1.80973,-1.10886,2.01141,1.17823,-0.910267,1.78024,-1.06466,-1.81522,-1.11702,1.93729,1.11684,-0.916241,0,0,0,0,0,0,0,0,0,0,0,0,0,0,0.531062,-0.454464,0.694251,0.57453,0.175235,0.152606,0.784806,0,0,0,0.743482,-0.245443,0.457449,-0.394195,-0.115105,-0.19567,-0.421255,-0.124151,-0.456056,-0.0337909,-0.0632872,0.0549271,0.0815942,0.741205,0.613898,0.0597445,1
1.76764,-1.06637,-1.79754,-1.10308,2.01183,1.17756,-0.910102,1.76764,-1.06637,-1.79754,-1.10308,2.01183,1.17756,-0.910102,1.78024,-1.06466,-1.81522,-1.11702,1.93729,1.11684,-0.916241,0,0,0,0,0,0,0,0,0,0,0,0,0,0,0.531062,-0.454464,0.694251,0.57453,0.175235,0.152606,0.784806,0,0,0,0.739356,-0.246531,0.455513,-0.440896,-0.116291,-0.206888,-0.414655,-0.119059,-0.452088,-0.126031,-0.0171044,0.176792,0.139415,0.745365,0.607227,0.0613894,1
1.77734,-1.07092,-1.80977,-1.10905,2.01143,1.17816,-0.909796,1.77734,-1.07092,-1.80977,-1.10905,2.01143,1.17816,-0.909796,1.78024,-1.06466,-1.81522,-1.11702,1.93729,1.11684,-0.916241,0,0,0,0,0,0,0,0,0,0,0,0,0,0,0.531062,-0.454464,0.694251,0.57453,0.175235,0.152606,0.784806,0,0,0,0.73526,-0.247696,0.453478,-0.408083,-0.116139,-0.202788,-0.411685,-0.116692,-0.450139,-0.0290561,-0.0625611,0.0545823,0.079642,0.741455,0.613229,0.0644561,1
1.76786,-1.06676,-1.79767,-1.10324,2.01184,1.17748,-0.909893,1.76786,-1.06676,-1.79767,-1.10324,2.01184,1.17748,-0.909893,1.78024,-1.06466,-1.81522,-1.11702,1.93729,1.11684,-0.916241,0,0,0,0,0,0,0,0,0,0,0,0,0,0,0.531062,-0.454464,0.694251,0.57453,0.175235,0.152606,0.784806,0,0,0,0.73108,-0.248847,0.451378,-0.414859,-0.114221,-0.208379,-0.412377,-0.114615,-0.451898,-0.12379,-0.0209444,0.175576,0.13772,0.745543,0.606457,0.0634842,1
1.77728,-1.0712,-1.81034,-1.10925,2.01142,1.17816,-0.909555,1.77728,-1.0712,-1.81034,-1.10925,2.01142,1.17816,-0.909555,1.78024,-1.06466,-1.81522,-1.11702,1.93729,1.11684,-0.916241,0,0,0,0,0,0,0,0,0,0,0,0,0,0,0.531062,-0.454464,0.694251,0.57453,0.175235,0.152606,0.784806,0,0,0,0.726789,-0.249957,0.44927,-0.42495,-0.109916,-0.208794,-0.416616,-0.113459,-0.454937,-0.0296152,-0.065389,0.0487918,0.0776832,0.741304,0.613226,0.0668585,1
1.7678,-1.06692,-1.79816,-1.1036,2.01186,1.17747,-0.909835,1.7678,-1.06692,-1.79816,-1.1036,2.01186,1.17747,-0.909835,1.78024,-1.06466,-1.81522,-1.11702,1.93729,1.11684,-0.916241,0,0,0,0,0,0,0,0,0,0,0,0,0,0,0.531062,-0.454464,0.694251,0.57453,0.175235,0.152606,0.784806,0,0,0,0.722568,-0.251011,0.447202,-0.427212,-0.106669,-0.209371,-0.420461,-0.112213,-0.458314,-0.124437,-0.0225737,0.170589,0.134118,0.745712,0.606282,0.0640616,1
1.77741,-1.07156,-1.81157,-1.10997,2.01138,1.17822,-0.90932,1.77741,-1.07156,-1.81157,-1.10997,2.01138,1.17822,-0.90932,1.78024,-1.06466,-1.81522,-1.11702,1.93729,1.11684,-0.916241,0,0,0,0,0,0,0,0,0,0,0,0,0,0,0.531062,-0.454464,0.694251,0.57453,0.175235,0.152606,0.784806,0,0,0,0.71816,-0.252016,0.445088,-0.438621,-0.0999652,-0.210296,-0.427127,-0.108026,-0.459573,-0.0283654,-0.0689999,0.0365334,0.0704825,0.740956,0.613863,0.0692085,1
1.7681,-1.06692,-1.79848,-1.1039,2.01193,1.17745,-0.909204,1.7681,-1.06692,-1.79848,-1.1039,2.01193,1.17745,-0.909204,1.78024,-1.06466,-1.81522,-1.11702,1.93729,1.11684,-0.916241,0,0,0,0,0,0,0,0,0,0,0,0,0,0,0.531062,-0.454464,0.694251,0.57453,0.175235,0.152606,0.784806,0,0,0,0.713861,-0.25305,0.442897,-0.447892,-0.107722,-0.228256,-0.43066,-0.104631,-0.461441,-0.121431,-0.022613,0.167469,0.131214,0.746452,0.606158,0.0703706,1
1.77857,-1.07209,-1.81278,-1.11106,2.01137,1.17826,-0.909048,1.77857,-1.07209,-1.81278,-1.11106,2.01137,1.17826,-0.909048,1.78024,-1.06466,-1.81522,-1.11702,1.93729,1.11684,-0.916241,0,0,0,0,0,0,0,0,0,0,0,0,0,0,0.531062,-0.454464,0.694251,0.57453,0.175235,0.152606,0.784806,0,0,0,0.709424,-0.254112,0.440705,-0.44599,-0.106742,-0.220377,-0.434366,-0.103473,-0.464349,-0.0166737,-0.074332,0.0244318,0.0595341,0.740791,0.614178,0.0719277,1
1.769,-1.06679,-1.79845,-1.10366,2.01204,1.17734,-0.908325,1.769,-1.06679,-1.79845,-1.10366,2.01204,1.17734,-0.908325,1.78024,-1.06466,-1.81522,-1.11702,1.93729,1.11684,-0.916241,0,0,0,0,0,0,0,0,0,0,0,0,0,0,0.531062,-0.454464,0.694251,0.57453,0.175235,0.152606,0.784806,0,0,0,0.705056,-0.255082,0.438511,-0.432764,-0.0961897,-0.217344,-0.437597,-0.102386,-0.46764,-0.112453,-0.0213037,0.167721,0.133578,0.74753,0.604978,0.079157,1
1.77995,-1.0727,-1.81401,-1.11272,2.01137,1.17816,-0.908465,1.77995,-1.0727,-1.81401,-1.11272,2.01137,1.17816,-0.908465,1.78024,-1.06466,-1.81522,-1.11702,1.93729,1.11684,-0.916241,0,0,0,0,0,0,0,0,0,0,0,0,0,0,0.531062,-0.454464,0.694251,0.57453,0.175235,0.152606,0.784806,0,0,0,0.700691,-0.255893,0.436478,-0.426581,-0.0792423,-0.198725,-0.437412,-0.0978762,-0.466063,-0.00295461,-0.0803532,0.0121319,0.0429585,0.740848,0.613253,0.0777621,1
1.77069,-1.06582,-1.79848,-1.10357,2.01223,1.17721,-0.90675,1.77069,-1.06582,-1.79848,-1.10357,2.01223,1.17721,-0.90675,1.78024,-1.06466,-1.81522,-1.11702,1.93729,1.11684,-0.916241,0,0,0,0,0,0,0,0,0,0,0,0,0,0,0.531062,-0.454464,0.694251,0.57453,0.175235,0.152606,0.784806,0,0,0,0.696437,-0.256642,0.434194,-0.43337,-0.0763168,-0.2327,-0.435799,-0.0896716,-0.466344,-0.0955365,-0.0115993,0.167462,0.134509,0.749434,0.603725,0.0949086,1
1.7826,-1.07411,-1.816,-1.1158,2.0114,1.17793,-0.907169,1.7826,-1.07411,-1.816,-1.1158,2.0114,1.17793,-0.907169,1.78024,-1.06466,-1.81522,-1.11702,1.93729,1.11684,-0.916241,0,0,0,0,0,0,0,0,0,0,0,0,0,0,0.531062,-0.454464,0.694251,0.57453,0.175235,0.152606,0.784806,0,0,0,0.69214,-0.257384,0.432017,-0.428226,-0.0739241,-0.216931,-0.431861,-0.0810504,-0.466935,0.0235568,-0.0945017,-0.00776934,0.0121515,0.74111,0.610882,0.0907239,1
1.77434,-1.06459,-1.79793,-1.10266,2.01253,1.17707,-0.905099,1.77434,-1.06459,-1.79793,-1.10266,2.01253,1.17707,-0.905099,1.78024,-1.06466,-1.81522,-1.11702,1.93729,1.11684,-0.916241,0,0,0,0,0,0,0,0,0,0,0,0,0,0,0.531062,-0.454464,0.694251,0.57453,0.175235,0.152606,0.784806,0,0,0,0.687864,-0.258192,0.429637,-0.428553,-0.0809871,-0.238494,-0.429363,-0.0771087,-0.472101,-0.0590034,0.000710355,0.172889,0.143565,0.752379,0.602327,0.111426,1
1.78726,-1.07777,-1.81845,-1.1146,2.01143,1.17734,-0.907297,1.78726,-1.07777,-1.81845,-1.1146,2.01143,1.17734,-0.907297,1.78024,-1.06466,-1.81522,-1.11702,1.93729,1.11684,-0.916241,0,0,0,0,0,0,0,0,0,0,0,0,0,0,0.531062,-0.454464,0.694251,0.57453,0.175235,0.152606,0.784806,0,0,0,0.683617,-0.259181,0.427165,-0.420385,-0.0978718,-0.244625,-0.427231,-0.0812578,-0.481815,0.070188,-0.13113,-0.032239,0.0241824,0.741425,0.604999,0.0894394,1
1.77279,-1.06457,-1.79464,-1.10244,2.01286,1.17563,-0.903144,1.77279,-1.06457,-1.79464,-1.10244,2.01286,1.17563,-0.903144,1.78024,-1.06466,-1.81522,-1.11702,1.93729,1.11684,-0.916241,0,0,0,0,0,0,0,0,0,0,0,0,0,0,0.531062,-0.454464,0.694251,0.57453,0.175235,0.152606,0.784806,0,0,0,0.679389,-0.260294,0.424302,-0.413049,-0.108769,-0.27971,-0.426209,-0.0910115,-0.496338,-0.0745291,0.000905096,0.205805,0.145786,0.755745,0.587943,0.130972,1
1.79075,-1.07785,-1.81944,-1.11634,2.01143,1.1768,-0.910337,1.79075,-1.07785,-1.81944,-1.11634,2.01143,1.1768,-0.910337,1.78024,-1.06466,-1.81522,-1.11702,1.93729,1.11684,-0.916241,0,0,0,0,0,0,0,0,0,0,0,0,0,0,0.531062,-0.454464,0.694251,0.57453,0.175235,0.152606,0.784806,0,0,0,0.675059,-0.261161,0.421889,-0.441535,-0.0884128,-0.24612,-0.426378,-0.0965673,-0.505904,0.105039,-0.131849,-0.0421668,0.00677818,0.741434,0.5996,0.0590435,1
1.77253,-1.06325,-1.79463,-1.10077,2.01296,1.17479,-0.903519,1.77253,-1.06325,-1.79463,-1.10077,2.01296,1.17479,-0.903519,1.78024,-1.06466,-1.81522,-1.11702,1.93729,1.11684,-0.916241,0,0,0,0,0,0,0,0,0,0,0,0,0,0,0.531062,-0.454464,0.694251,0.57453,0.175235,0.152606,0.784806,0,0,0,0.670812,-0.261818,0.419367,-0.430015,-0.0664914,-0.25529,-0.426621,-0.092321,-0.508157,-0.077103,0.0140951,0.205906,0.162454,0.756723,0.579567,0.127221,1
1.78837,-1.07965,-1.82031,-1.12001,2.01137,1.17604,-0.910149,1.78837,-1.07965,-1.82031,-1.12001,2.01137,1.17604,-0.910149,1.78024,-1.06466,-1.81522,-1.11702,1.93729,1.11684,-0.916241,0,0,0,0,0,0,0,0,0,0,0,0,0,0,0.531062,-0.454464,0.694251,0.57453,0.175235,0.152606,0.784806,0,0,0,0.666629,-0.262396,0.416805,-0.432524,-0.0597516,-0.264959,-0.425525,-0.0795358,-0.506557,0.0813128,-0.149916,-0.0508229,-0.0299654,0.740856,0.592025,0.0609222,1
1.77486,-1.05951,-1.79548,-1.10271,2.01306,1.17533,-0.9027,1.77486,-1.05951,-1.79548,-1.10271,2.01306,1.17533,-0.9027,1.78024,-1.06466,-1.81522,-1.11702,1.93729,1.11684,-0.916241,0,0,0,0,0,0,0,0,0,0,0,0,0,0,0.531062,-0.454464,0.694251,0.57453,0.175235,0.152606,0.784806,0,0,0,0.662562,-0.263115,0.414248,-0.404797,-0.0715747,-0.254498,-0.420827,-0.0687569,-0.501916,-0.0537782,0.0514824,0.197472,0.143069,0.757659,0.584924,0.135409,1
1.79377,-1.0842,-1.823,-1.11977,2.01132,1.17568,-0.910334,1.79377,-1.0842,-1.823,-1.11977,2.01132,1.17568,-0.910334,1.78024,-1.06466,-1.81522,-1.11702,1.93729,1.11684,-0.916241,0,0,0,0,0,0,0,0,0,0,0,0,0,0,0.531062,-0.454464,0.694251,0.57453,0.175235,0.152606,0.784806,0,0,0,0.65861,-0.263745,0.411548,-0.385026,-0.0613336,-0.263061,-0.411475,-0.0646329,-0.508009,0.135301,-0.195417,-0.0777399,-0.0275353,0.740353,0.588428,0.0590677,1
1.77442,-1.06294,-1.79207,-1.10325,2.01303,1.17474,-0.89984,1.77442,-1.06294,-1.79207,-1.10325,2.01303,1.17474,-0.89984,1.78024,-1.06466,-1.81522,-1.11702,1.93729,1.11684,-0.916241,0,0,0,0,0,0,0,0,0,0,0,0,0,0,0.531062,-0.454464,0.694251,0.57453,0.175235,0.152606,0.784806,0,0,0,0.654736,-0.264403,0.408825,-0.386357,-0.0656133,-0.2715,-0.401716,-0.0651759,-0.513414,-0.0582055,0.0172133,0.231548,0.137707,0.75741,0.578983,0.164015,1
1.79137,-1.08357,-1.8229,-1.11922,2.01133,1.17464,-0.910461,1.79137,-1.08357,-1.8229,-1.11922,2.01133,1.17464,-0.910461,1.78024,-1.06466,-1.81522,-1.11702,1.93729,1.11684,-0.916241,0,0,0,0,0,0,0,0,0,0,0,0,0,0,0.531062,-0.454464,0.694251,0.57453,0.175235,0.152606,0.784806,0,0,0,0.651147,-0.265002,0.405926,-0.353626,-0.0590326,-0.285736,-0.387911,-0.0649893,-0.521819,0.111309,-0.189097,-0.0767969,-0.0219907,0.740386,0.577996,0.0578022,1
1.77442,-1.05997,-1.79193,-1.10323,2.0132,1.17446,-0.901647,1.77442,-1.05997,-1.79193,-1.10323,2.0132,1.17446,-0.901647,1.78024,-1.06466,-1.81522,-1.11702,1.93729,1.11684,-0.916241,0,0,0,0,0,0,0,0,0,0,0,0,0,0,0.531062,-0.454464,0.694251,0.57453,0.175235,0.152606,0.784806,0,0,0,0.647809,-0.265599,0.402814,-0.33072,-0.0591866,-0.308257,-0.3697,-0.0622511,-0.534904,-0.0581768,0.0468895,0.232936,0.137852,0.759065,0.576214,0.145938,1
1.79407,-1.08489,-1.824,-1.12307,2.01125,1.17473,-0.911483,1.79407,-1.08489,-1.824,-1.12307,2.01125,1.17473,-0.911483,1.78024,-1.06466,-1.81522,-1.11702,1.93729,1.11684,-0.916241,0,0,0,0,0,0,0,0,0,0,0,0,0,0,0.531062,-0.454464,0.694251,0.57453,0.175235,0.152606,0.784806,0,0,0,0.644528,-0.26627,0.399879,-0.33136,-0.0677886,-0.296441,-0.350899,-0.0624758,-0.54348,0.138295,-0.202256,-0.0877672,-0.060552,0.73959,0.578939,0.0475836,1
1.77679,-1.06045,-1.79041,-1.10324,2.01325,1.1744,-0.90102,1.77679,-1.06045,-1.79041,-1.10324,2.01325,1.1744,-0.90102,1.78024,-1.06466,-1.81522,-1.11702,1.93729,1.11684,-0.916241,0,0,0,0,0,0,0,0,0,0,0,0,0,0,0.531062,-0.454464,0.694251,0.57453,0.175235,0.152606,0.784806,0,0,0,0.641484,-0.266869,0.396714,-0.30555,-0.0601397,-0.317736,-0.331222,-0.0620216,-0.552697,-0.0345681,0.0421098,0.248181,0.137775,0.759605,0.575668,0.152217,1
1.79363,-1.08701,-1.82226,-1.11906,2.01132,1.17356,-0.911444,1.79363,-1.08701,-1.82226,-1.11906,2.01132,1.17356,-0.911444,1.78024,-1.06466,-1.81522,-1.11702,1.93729,1.11684,-0.916241,0,0,0,0,0,0,0,0,0,0,0,0,0,0,0.531062,-0.454464,0.694251,0.57453,0.175235,0.152606,0.784806,0,0,0,0.638612,-0.267426,0.393574,-0.286711,-0.0556002,-0.313459,-0.313941,-0.0611949,-0.558036,0.133859,-0.223461,-0.0704107,-0.0204605,0.740307,0.567201,0.0479672,1
1.77275,-1.05981,-1.78827,-1.10437,2.01324,1.17337,-0.899922,1.77275,-1.05981,-1.78827,-1.10437,2.01324,1.17337,-0.899922,1.78024,-1.06466,-1.81522,-1.11702,1.93729,1.11684,-0.916241,0,0,0,0,0,0,0,0,0,0,0,0,0,0,0.531062,-0.454464,0.694251,0.57453,0.175235,0.152606,0.784806,0,0,0,0.636169,-0.267795,0.390297,-0.245543,-0.0370363,-0.32931,-0.291954,-0.0554746,-0.563388,-0.0749126,0.0485511,0.269521,0.126475,0.75947,0.565349,0.163188,1
1.79154,-1.0852,-1.82421,-1.1281,2.01109,1.17388,-0.910201,1.79154,-1.0852,-1.82421,-1.1281,2.01109,1.17388,-0.910201,1.78024,-1.06466,-1.81522,-1.11702,1.93729,1.11684,-0.916241,0,0,0,0,0,0,0,0,0,0,0,0,0,0,0.531062,-0.454464,0.694251,0.57453,0.175235,0.152606,0.784806,0,0,0,0.633396,-0.268244,0.387098,-0.274871,-0.0444777,-0.317081,-0.275797,-0.0487202,-0.569784,0.112982,-0.205359,-0.089833,-0.110876,0.738032,0.570409,0.0604048,1
1.78152,-1.05653,-1.79104,-1.10427,2.01345,1.17529,-0.90185,1.78152,-1.05653,-1.79104,-1.10427,2.01345,1.17529,-0.90185,1.78024,-1.06466,-1.81522,-1.11702,1.93729,1.11684,-0.916241,0,0,0,0,0,0,0,0,0,0,0,0,0,0,0.531062,-0.454464,0.694251,0.57453,0.175235,0.152606,0.784806,0,0,0,0.630697,-0.268758,0.383954,-0.283279,-0.054042,-0.330084,-0.267892,-0.0459504,-0.569949,0.0127395,0.0812774,0.241804,0.127512,0.761598,0.58457,0.143912,1
1.79927,-1.09152,-1.82146,-1.11549,2.0113,1.17348,-0.911703,1.79927,-1.09152,-1.82146,-1.11549,2.0113,1.17348,-0.911703,1.78024,-1.06466,-1.81522,-1.11702,1.93729,1.11684,-0.916241,0,0,0,0,0,0,0,0,0,0,0,0,0,0,0.531062,-0.454464,0.694251,0.57453,0.175235,0.152606,0.784806,0,0,0,0.628313,-0.269063,0.380761,-0.234322,-0.0299308,-0.313823,-0.260702,-0.0423676,-0.569703,0.190262,-0.268576,-0.0623647,0.0152627,0.740153,0.56647,0.0453822,1
1.77154,-1.06494,-1.78488,-1.10632,2.01307,1.17236,-0.89602,1.77154,-1.06494,-1.78488,-1.10632,2.01307,1.17236,-0.89602,1.78024,-1.06466,-1.81522,-1.11702,1.93729,1.11684,-0.916241,0,0,0,0,0,0,0,0,0,0,0,0,0,0,0.531062,-0.454464,0.694251,0.57453,0.175235,0.152606,0.784806,0,0,0,0.625871,-0.269481,0.377816,-0.240879,-0.0412292,-0.290427,-0.256791,-0.0419158,-0.563001,-0.0870505,-0.00275235,0.303422,0.10699,0.757839,0.555221,0.202217,1
1.78838,-1.08276,-1.82279,-1.12841,2.01111,1.17296,-0.907745,1.78838,-1.08276,-1.82279,-1.12841,2.01111,1.17296,-0.907745,1.78024,-1.06466,-1.81522,-1.11702,1.93729,1.11684,-0.916241,0,0,0,0,0,0,0,0,0,0,0,0,0,0,0.531062,-0.454464,0.694251,0.57453,0.175235,0.152606,0.784806,0,0,0,0.623644,-0.269806,0.374855,-0.221389,-0.0323348,-0.294466,-0.243299,-0.0384772,-0.556256,0.0814136,-0.181,-0.0756314,-0.113883,0.738181,0.561219,0.084964,1
1.7845,-1.05546,-1.79285,-1.1036,2.01349,1.17582,-0.9031,1.7845,-1.05546,-1.79285,-1.1036,2.01349,1.17582,-0.9031,1.78024,-1.06466,-1.81522,-1.11702,1.93729,1.11684,-0.916241,0,0,0,0,0,0,0,0,0,0,0,0,0,0,0.531062,-0.454464,0.694251,0.57453,0.175235,0.152606,0.784806,0,0,0,0.62153,-0.270126,0.371924,-0.21317,-0.0321984,-0.295479,-0.230044,-0.0347757,-0.549672,0.0425503,0.0920145,0.223769,0.134136,0.761965,0.589828,0.131414,1
1.80113,-1.09197,-1.82049,-1.11528,2.01142,1.17391,-0.912012,1.80113,-1.09197,-1.82049,-1.11528,2.01142,1.17391,-0.912012,1.78024,-1.06466,-1.81522,-1.11702,1.93729,1.11684,-0.916241,0,0,0,0,0,0,0,0,0,0,0,0,0,0,0.531062,-0.454464,0.694251,0.57453,0.175235,0.152606,0.784806,0,0,0,0.619558,-0.270279,0.369231,-0.193844,-0.0151133,-0.264777,-0.218502,-0.0307715,-0.539519,0.208876,-0.273093,-0.0526398,0.0173509,0.74126,0.570731,0.0422906,1
1.77158,-1.06556,-1.78422,-1.10648,2.01301,1.17213,-0.893849,1.77158,-1.06556,-1.78422,-1.10648,2.01301,1.17213,-0.893849,1.78024,-1.06466,-1.81522,-1.11702,1.93729,1.11684,-0.916241,0,0,0,0,0,0,0,0,0,0,0,0,0,0,0.531062,-0.454464,0.694251,0.57453,0.175235,0.152606,0.784806,0,0,0,0.617451,-0.270502,0.366748,-0.213532,-0.0225967,-0.251572,-0.209253,-0.0251567,-0.527594,-0.0866611,-0.00895715,0.310083,0.105341,0.757234,0.552943,0.223925,1
1.78687,-1.08223,-1.82047,-1.12761,2.01109,1.1728,-0.906895,1.78687,-1.08223,-1.82047,-1.12761,2.01109,1.1728,-0.906895,1.78024,-1.06466,-1.81522,-1.11702,1.93729,1.11684,-0.916241,0,0,0,0,0,0,0,0,0,0,0,0,0,0,0.531062,-0.454464,0.694251,0.57453,0.175235,0.152606,0.784806,0,0,0,0.615914,-0.270742,0.364309,-0.152385,-0.023752,-0.241815,-0.195395,-0.0224811,-0.51267,0.0662631,-0.175679,-0.0524511,-0.105966,0.738033,0.559651,0.093459,1
1.78592,-1.05469,-1.79201,-1.10331,2.01342,1.17599,-0.903037,1.78592,-1.05469,-1.79201,-1.10331,2.01342,1.17599,-0.903037,1.78024,-1.06466,-1.81522,-1.11702,1.93729,1.11684,-0.916241,0,0,0,0,0,0,0,0,0,0,0,0,0,0,0.531062,-0.454464,0.694251,0.57453,0.175235,0.152606,0.784806,0,0,0,0.614604,-0.270674,0.362184,-0.132747,0.00692357,-0.215235,-0.174969,-0.0155854,-0.494007,0.0567701,0.0997456,0.232134,0.137018,0.761262,0.591522,0.132037,1
1.80089,-1.09084,-1.81756,-1.1169,2.01145,1.1739,-0.911066,1.80089,-1.09084,-1.81756,-1.1169,2.01145,1.1739,-0.911066,1.78024,-1.06466,-1.81522,-1.11702,1.93729,1.11684,-0.916241,0,0,0,0,0,0,0,0,0,0,0,0,0,0,0.531062,-0.454464,0.694251,0.57453,0.175235,0.152606,0.784806,0,0,0,0.613415,-0.270704,0.360056,-0.116346,-0.00301398,-0.208373,-0.15134,-0.0102144,-0.479139,0.206441,-0.261748,-0.0233612,0.00113864,0.741634,0.570652,0.0517518,1
1.77181,-1.06286,-1.78371,-1.10614,2.01305,1.17204,-0.893941,1.77181,-1.06286,-1.78371,-1.10614,2.01305,1.17204,-0.893941,1.78024,-1.06466,-1.81522,-1.11702,1.93729,1.11684,-0.916241,0,0,0,0,0,0,0,0,0,0,0,0,0,0,0.531062,-0.454464,0.694251,0.57453,0.175235,0.152606,0.784806,0,0,0,0.612273,-0.270603,0.358499,-0.116299,0.0102731,-0.158502,-0.128552,-0.00164688,-0.457512,-0.0843335,0.0179639,0.315181,0.108757,0.757613,0.552053,0.223004,1
1.78508,-1.08208,-1.81698,-1.1266,2.01101,1.17298,-0.905842,1.78508,-1.08208,-1.81698,-1.1266,2.01101,1.17298,-0.905842,1.78024,-1.06466,-1.81522,-1.11702,1.93729,1.11684,-0.916241,0,0,0,0,0,0,0,0,0,0,0,0,0,0,0.531062,-0.454464,0.694251,0.57453,0.175235,0.152606,0.784806,0,0,0,0.611357,-0.270557,0.357017,-0.092208,0.00469561,-0.149176,-0.114447,0.00440359,-0.432682,0.0483408,-0.17419,-0.0175969,-0.0957966,0.737252,0.561417,0.103991,1
1.78595,-1.05344,-1.79028,-1.10328,2.01327,1.17615,-0.902993,1.78595,-1.05344,-1.79028,-1.10328,2.01327,1.17615,-0.902993,1.78024,-1.06466,-1.81522,-1.11702,1.93729,1.11684,-0.916241,0,0,0,0,0,0,0,0,0,0,0,0,0,0,0.531062,-0.454464,0.694251,0.57453,0.175235,0.152606,0.784806,0,0,0,0.610445,-0.270387,0.356019,-0.089494,0.0167066,-0.0980023,-0.103753,0.00721514,-0.4037,0.057131,0.112252,0.249465,0.137377,0.759782,0.593085,0.132479,1
1.7996,-1.08881,-1.81462,-1.11923,2.01144,1.17416,-0.910077,1.7996,-1.08881,-1.81462,-1.11923,2.01144,1.17416,-0.910077,1.78024,-1.06466,-1.81522,-1.11702,1.93729,1.11684,-0.916241,0,0,0,0,0,0,0,0,0,0,0,0,0,0,0.531062,-0.454464,0.694251,0.57453,0.175235,0.152606,0.784806,0,0,0,0.609562,-0.270093,0.355199,-0.0893854,0.0297177,-0.0830003,-0.095346,0.0143969,-0.371951,0.193597,-0.241527,0.00606689,-0.0220927,0.74153,0.573231,0.0616405,1
1.77243,-1.05957,-1.78339,-1.10515,2.01309,1.17201,-0.894344,1.77243,-1.05957,-1.78339,-1.10515,2.01309,1.17201,-0.894344,1.78024,-1.06466,-1.81522,-1.11702,1.93729,1.11684,-0.916241,0,0,0,0,0,0,0,0,0,0,0,0,0,0,0.531062,-0.454464,0.694251,0.57453,0.175235,0.152606,0.784806,0,0,0,0.608809,-0.269817,0.354941,-0.075006,0.0275044,-0.0256543,-0.0872254,0.0203699,-0.339346,-0.0780978,0.0508724,0.318324,0.118634,0.757976,0.551726,0.218968,1
1.78255,-1.08106,-1.81219,-1.12422,2.01099,1.17285,-0.904728,1.78255,-1.08106,-1.81219,-1.12422,2.01099,1.17285,-0.904728,1.78024,-1.06466,-1.81522,-1.11702,1.93729,1.11684,-0.916241,0,0,0,0,0,0,0,0,0,0,0,0,0,0,0.531062,-0.454464,0.694251,0.57453,0.175235,0.152606,0.784806,0,0,0,0.608259,-0.269485,0.35512,-0.0552133,0.0332559,0.0179312,-0.0783265,0.0271267,-0.298723,0.0230404,-0.164027,0.0302897,-0.0719848,0.736985,0.56013,0.115133,1
1.78294,-1.05171,-1.78865,-1.10184,2.0129,1.17632,-0.903574,1.78294,-1.05171,-1.78865,-1.10184,2.0129,1.17632,-0.903574,1.78024,-1.06466,-1.81522,-1.11702,1.93729,1.11684,-0.916241,0,0,0,0,0,0,0,0,0,0,0,0,0,0,0.531062,-0.454464,0.694251,0.57453,0.175235,0.152606,0.784806,0,0,0,0.607958,-0.269023,0.355736,-0.0302921,0.0465822,0.0620676,-0.0627744,0.0333476,-0.256443,0.0269854,0.129467,0.265701,0.151808,0.756149,0.594851,0.126669,1
1.79631,-1.08452,-1.81088,-1.12232,2.0114,1.17463,-0.909016,1.79631,-1.08452,-1.81088,-1.12232,2.0114,1.17463,-0.909016,1.78024,-1.06466,-1.81522,-1.11702,1.93729,1.11684,-0.916241,0,0,0,0,0,0,0,0,0,0,0,0,0,0,0.531062,-0.454464,0.694251,0.57453,0.175235,0.152606,0.784806,0,0,0,0.607886,-0.268616,0.356782,-0.00708539,0.0402686,0.10365,-0.0420201,0.0374675,-0.210379,0.160719,-0.198611,0.043478,-0.053012,0.741093,0.577961,0.0722538,1
1.7755,-1.0532,-1.78274,-1.10503,2.0131,1.17293,-0.894666,1.7755,-1.0532,-1.78274,-1.10503,2.0131,1.17293,-0.894666,1.78024,-1.06466,-1.81522,-1.11702,1.93729,1.11684,-0.916241,0,0,0,0,0,0,0,0,0,0,0,0,0,0,0.531062,-0.454464,0.694251,0.57453,0.175235,0.152606,0.784806,0,0,0,0.608039,-0.268089,0.358515,0.0152437,0.0526481,0.172903,-0.0191212,0.0432491,-0.161899,-0.047369,0.114621,0.324871,0.119868,0.758114,0.560889,0.215755,1
1.78428,-1.07974,-1.80273,-1.1174,2.01123,1.1725,-0.904859,1.78428,-1.07974,-1.80273,-1.1174,2.01123,1.1725,-0.904859,1.78024,-1.06466,-1.81522,-1.11702,1.93729,1.11684,-0.916241,0,0,0,0,0,0,0,0,0,0,0,0,0,0,0.531062,-0.454464,0.694251,0.57453,0.175235,0.152606,0.784806,0,0,0,0.608504,-0.267471,0.36086,0.0469969,0.0624938,0.237072,0.00572205,0.0496346,-0.107402,0.0403468,-0.150774,0.124916,-0.00379287,0.739375,0.556658,0.11382,1
1.77826,-1.05202,-1.7844,-1.09897,2.0126,1.17511,-0.90296,1.77826,-1.05202,-1.7844,-1.09897,2.0126,1.17511,-0.90296,1.78024,-1.06466,-1.81522,-1.11702,1.93729,1.11684,-0.916241,0,0,0,0,0,0,0,0,0,0,0,0,0,0,0.531062,-0.454464,0.694251,0.57453,0.175235,0.152606,0.784806,0,0,0,0.60908,-0.266868,0.363885,0.0577754,0.0604339,0.3032,0.0286281,0.0545645,-0.0462314,-0.0197774,0.126425,0.308253,0.180485,0.753073,0.582688,0.132812,1
1.787,-1.07505,-1.80093,-1.11672,2.01139,1.17431,-0.907466,1.787,-1.07505,-1.80093,-1.11672,2.01139,1.17431,-0.907466,1.78024,-1.06466,-1.81522,-1.11702,1.93729,1.11684,-0.916241,0,0,0,0,0,0,0,0,0,0,0,0,0,0,0.531062,-0.454464,0.694251,0.57453,0.175235,0.152606,0.784806,0,0,0,0.609923,-0.266016,0.367641,0.0838024,0.0846797,0.373563,0.0511479,0.0642169,0.0208882,0.0676303,-0.103846,0.142927,0.00298554,0.740974,0.574717,0.087748,1
1.7784,-1.04965,-1.78287,-1.10153,2.01265,1.17443,-0.899561,1.7784,-1.04965,-1.78287,-1.10153,2.01265,1.17443,-0.899561,1.78024,-1.06466,-1.81522,-1.11702,1.93729,1.11684,-0.916241,0,0,0,0,0,0,0,0,0,0,0,0,0,0,0.531062,-0.454464,0.694251,0.57453,0.175235,0.152606,0.784806,0,0,0,0.610988,-0.264958,0.372066,0.1079,0.107181,0.448216,0.0731719,0.0771564,0.0888292,-0.0184471,0.15013,0.323521,0.154843,0.753653,0.575938,0.1668,1
1.78588,-1.06957,-1.79298,-1.10913,2.01162,1.17363,-0.904558,1.78588,-1.06957,-1.79298,-1.10913,2.01162,1.17363,-0.904558,1.78024,-1.06466,-1.81522,-1.11702,1.93729,1.11684,-0.916241,0,0,0,0,0,0,0,0,0,0,0,0,0,0,0.531062,-0.454464,0.694251,0.57453,0.175235,0.152606,0.784806,0,0,0,0.612223,-0.263738,0.377193,0.120161,0.118757,0.498972,0.0934529,0.093748,0.15846,0.0563427,-0.049126,0.222453,0.0788424,0.743289,0.567915,0.116836,1
1.77959,-1.05259,-1.7845,-1.10164,2.01251,1.17462,-0.901321,1.77959,-1.05259,-1.7845,-1.10164,2.01251,1.17462,-0.901321,1.78024,-1.06466,-1.81522,-1.11702,1.93729,1.11684,-0.916241,0,0,0,0,0,0,0,0,0,0,0,0,0,0,0.531062,-0.454464,0.694251,0.57453,0.175235,0.152606,0.784806,0,0,0,0.613694,-0.262595,0.38263,0.147472,0.114585,0.544875,0.115277,0.108244,0.220406,-0.0065371,0.12074,0.307195,0.153808,0.752177,0.57785,0.149197,1
1.78374,-1.06441,-1.78936,-1.10467,2.01199,1.17418,-0.904117,1.78374,-1.06441,-1.78936,-1.10467,2.01199,1.17418,-0.904117,1.78024,-1.06466,-1.81522,-1.11702,1.93729,1.11684,-0.916241,0,0,0,0,0,0,0,0,0,0,0,0,0,0,0.531062,-0.454464,0.694251,0.57453,0.175235,0.152606,0.784806,0,0,0,0.615659,-0.26107,0.388588,0.197879,0.153522,0.59999,0.141789,0.12256,0.27457,0.0349819,0.00246368,0.258645,0.123422,0.746979,0.573444,0.121239,1
1.77913,-1.05248,-1.78552,-1.10072,2.01242,1.17497,-0.901273,1.77913,-1.05248,-1.78552,-1.10072,2.01242,1.17497,-0.901273,1.78024,-1.06466,-1.81522,-1.11702,1.93729,1.11684,-0.916241,0,0,0,0,0,0,0,0,0,0,0,0,0,0,0.531062,-0.454464,0.694251,0.57453,0.175235,0.152606,0.784806,0,0,0,0.617575,-0.259568,0.395064,0.190516,0.149382,0.644031,0.166104,0.134485,0.323915,-0.0111067,0.121809,0.297035,0.162999,0.75128,0.581287,0.14968,1
1.78318,-1.05919,-1.78678,-1.10167,2.01217,1.17483,-0.904417,1.78318,-1.05919,-1.78678,-1.10167,2.01217,1.17483,-0.904417,1.78024,-1.06466,-1.81522,-1.11702,1.93729,1.11684,-0.916241,0,0,0,0,0,0,0,0,0,0,0,0,0,0,0.531062,-0.454464,0.694251,0.57453,0.175235,0.152606,0.784806,0,0,0,0.619746,-0.257985,0.401937,0.219296,0.159896,0.694298,0.189266,0.145321,0.369212,0.0293606,0.0547002,0.284484,0.153448,0.748831,0.579969,0.118244,1
1.78028,-1.05278,-1.78528,-1.1009,2.01233,1.17526,-0.902578,1.78028,-1.05278,-1.78528,-1.1009,2.01233,1.17526,-0.902578,1.78024,-1.06466,-1.81522,-1.11702,1.93729,1.11684,-0.916241,0,0,0,0,0,0,0,0,0,0,0,0,0,0,0.531062,-0.454464,0.694251,0.57453,0.175235,0.152606,0.784806,0,0,0,0.62218,-0.256408,0.408974,0.240049,0.155528,0.694038,0.210575,0.154577,0.410371,0.000356629,0.118773,0.299435,0.161178,0.750364,0.584256,0.136627,1
1.78279,-1.05464,-1.78482,-1.09977,2.01233,1.17501,-0.904553,1.78279,-1.05464,-1.78482,-1.09977,2.01233,1.17501,-0.904553,1.78024,-1.06466,-1.81522,-1.11702,1.93729,1.11684,-0.916241,0,0,0,0,0,0,0,0,0,0,0,0,0,0,0.531062,-0.454464,0.694251,0.57453,0.175235,0.152606,0.784806,0,0,0,0.625042,-0.254724,0.416082,0.282214,0.166076,0.700782,0.23371,0.158527,0.438986,0.0254726,0.10025,0.304051,0.17246,0.750437,0.581681,0.116877,1
1.78131,-1.05259,-1.78421,-1.10007,2.01232,1.17513,-0.903584,1.78131,-1.05259,-1.78421,-1.10007,2.01232,1.17513,-0.903584,1.78024,-1.06466,-1.81522,-1.11702,1.93729,1.11684,-0.916241,0,0,0,0,0,0,0,0,0,0,0,0,0,0,0.531062,-0.454464,0.694251,0.57453,0.175235,0.152606,0.784806,0,0,0,0.628398,-0.252652,0.423667,0.351835,0.217239,0.795268,0.269426,0.170941,0.463517,0.0106974,0.120721,0.310162,0.169499,0.750296,0.582891,0.12657,1
1.78182,-1.0514,-1.78327,-1.09921,2.01242,1.17461,-0.903307,1.78182,-1.0514,-1.78327,-1.09921,2.01242,1.17461,-0.903307,1.78024,-1.06466,-1.81522,-1.11702,1.93729,1.11684,-0.916241,0,0,0,0,0,0,0,0,0,0,0,0,0,0,0.531062,-0.454464,0.694251,0.57453,0.175235,0.152606,0.784806,0,0,0,0.632159,-0.250196,0.431543,0.370996,0.242184,0.776869,0.31045,0.19334,0.489057,0.015803,0.132599,0.319502,0.17811,0.751312,0.577761,0.129339,1
1.78276,-1.05111,-1.7825,-1.09906,2.01246,1.17439,-0.90332,1.78276,-1.05111,-1.7825,-1.09906,2.01246,1.17439,-0.90332,1.78024,-1.06466,-1.81522,-1.11702,1.93729,1.11684,-0.916241,0,0,0,0,0,0,0,0,0,0,0,0,0,0,0.531062,-0.454464,0.694251,0.57453,0.175235,0.152606,0.784806,0,0,0,0.636428,-0.248098,0.439051,0.412793,0.202965,0.726072,0.356127,0.211482,0.506148,0.0252212,0.135517,0.327242,0.179576,0.751666,0.575494,0.129208,1
1.78346,-1.05015,-1.78184,-1.09923,2.01255,1.17401,-0.90258,1.78346,-1.05015,-1.78184,-1.09923,2.01255,1.17401,-0.90258,1.78024,-1.06466,-1.81522,-1.11702,1.93729,1.11684,-0.916241,0,0,0,0,0,0,0,0,0,0,0,0,0,0,0.531062,-0.454464,0.694251,0.57453,0.175235,0.152606,0.784806,0,0,0,0.640922,-0.245519,0.446744,0.474227,0.272115,0.811694,0.397897,0.229641,0.517078,0.0321702,0.145079,0.333807,0.177918,0.752626,0.571754,0.136612,1
1.78496,-1.05035,-1.78094,-1.09927,2.01266,1.17353,-0.90195,1.78496,-1.05035,-1.78094,-1.09927,2.01266,1.17353,-0.90195,1.78024,-1.06466,-1.81522,-1.11702,1.93729,1.11684,-0.916241,0,0,0,0,0,0,0,0,0,0,0,0,0,0,0.531062,-0.454464,0.694251,0.57453,0.175235,0.152606,0.784806,0,0,0,0.645893,-0.242881,0.454348,0.506378,0.268657,0.774622,0.437539,0.242187,0.515638,0.0471754,0.143078,0.342835,0.177452,0.753713,0.566961,0.142916,1
1.78649,-1.05059,-1.78023,-1.09972,2.01276,1.17306,-0.900772,1.78649,-1.05059,-1.78023,-1.09972,2.01276,1.17306,-0.900772,1.78024,-1.06466,-1.81522,-1.11702,1.93729,1.11684,-0.916241,0,0,0,0,0,0,0,0,0,0,0,0,0,0,0.531062,-0.454464,0.694251,0.57453,0.175235,0.152606,0.784806,0,0,0,0.65115,-0.239857,0.461935,0.488644,0.281168,0.70528,0.474464,0.258956,0.510812,0.0624937,0.140722,0.34993,0.17294,0.754736,0.562189,0.154696,1
1.78741,-1.0506,-1.77945,-1.09946,2.01287,1.17235,-0.899301,1.78741,-1.0506,-1.77945,-1.09946,2.01287,1.17235,-0.899301,1.78024,-1.06466,-1.81522,-1.11702,1.93729,1.11684,-0.916241,0,0,0,0,0,0,0,0,0,0,0,0,0,0,0.531062,-0.454464,0.694251,0.57453,0.175235,0.152606,0.784806,0,0,0,0.656942,-0.236703,0.469356,0.582525,0.317195,0.746343,0.512553,0.284514,0.508006,0.0716974,0.140573,0.357783,0.175557,0.755835,0.555122,0.169407,1
1.78806,-1.0512,-1.7788,-1.099,2.01296,1.17177,-0.898333,1.78806,-1.0512,-1.7788,-1.099,2.01296,1.17177,-0.898333,1.78024,-1.06466,-1.81522,-1.11702,1.93729,1.11684,-0.916241,0,0,0,0,0,0,0,0,0,0,0,0,0,0,0.531062,-0.454464,0.694251,0.57453,0.175235,0.152606,0.784806,0,0,0,0.662809,-0.233464,0.476469,0.590823,0.326129,0.716325,0.548215,0.302871,0.494582,0.0782296,0.134565,0.36422,0.180153,0.756738,0.549342,0.179078,1
1.78837,-1.05181,-1.77842,-1.09849,2.01303,1.17128,-0.897839,1.78837,-1.05181,-1.77842,-1.09849,2.01303,1.17128,-0.897839,1.78024,-1.06466,-1.81522,-1.11702,1.93729,1.11684,-0.916241,0,0,0,0,0,0,0,0,0,0,0,0,0,0,0.531062,-0.454464,0.694251,0.57453,0.175235,0.152606,0.784806,0,0,0,0.669178,-0.230121,0.483338,0.644984,0.338506,0.695573,0.58229,0.319121,0.475142,0.0812541,0.128498,0.368028,0.185277,0.757405,0.544473,0.184019,1
1.78874,-1.05224,-1.77825,-1.09809,2.01308,1.17092,-0.897587,1.78874,-1.05224,-1.77825,-1.09809,2.01308,1.17092,-0.897587,1.78024,-1.06466,-1.81522,-1.11702,1.93729,1.11684,-0.916241,0,0,0,0,0,0,0,0,0,0,0,0,0,0,0.531062,-0.454464,0.694251,0.57453,0.175235,0.152606,0.784806,0,0,0,0.675684,-0.226603,0.48992,0.656851,0.355263,0.664539,0.613048,0.330893,0.449524,0.0849876,0.124181,0.369717,0.189285,0.757911,0.540799,0.186542,1
1.789,-1.05267,-1.7782,-1.09789,2.01312,1.1706,-0.897246,1.789,-1.05267,-1.7782,-1.09789,2.01312,1.1706,-0.897246,1.78024,-1.06466,-1.81522,-1.11702,1.93729,1.11684,-0.916241,0,0,0,0,0,0,0,0,0,0,0,0,0,0,0.531062,-0.454464,0.694251,0.57453,0.175235,0.152606,0.784806,0,0,0,0.682477,-0.222921,0.496206,0.691094,0.374581,0.639484,0.639448,0.344251,0.421498,0.0875343,0.119906,0.370234,0.191231,0.758358,0.537614,0.189957,1
1.78862,-1.05283,-1.77819,-1.09749,2.01316,1.17032,-0.896692,1.78862,-1.05283,-1.77819,-1.09749,2.01316,1.17032,-0.896692,1.78024,-1.06466,-1.81522,-1.11702,1.93729,1.11684,-0.916241,0,0,0,0,0,0,0,0,0,0,0,0,0,0,0.531062,-0.454464,0.694251,0.57453,0.175235,0.152606,0.784806,0,0,0,0.689253,-0.218795,0.502622,0.660815,0.4024,0.625734,0.661869,0.365397,0.401731,0.083828,0.118347,0.370296,0.195272,0.758722,0.534834,0.195492,1
1.78802,-1.05308,-1.77832,-1.09703,2.01318,1.17011,-0.896376,1.78802,-1.05308,-1.77832,-1.09703,2.01318,1.17011,-0.896376,1.78024,-1.06466,-1.81522,-1.11702,1.93729,1.11684,-0.916241,0,0,0,0,0,0,0,0,0,0,0,0,0,0,0.531062,-0.454464,0.694251,0.57453,0.175235,0.152606,0.784806,0,0,0,0.696207,-0.214813,0.508441,0.70825,0.405567,0.592681,0.676261,0.384257,0.37908,0.0778088,0.115809,0.369062,0.199877,0.758918,0.532746,0.198655,1
1.78781,-1.0534,-1.77848,-1.09681,2.0132,1.17002,-0.896379,1.78781,-1.0534,-1.77848,-1.09681,2.0132,1.17002,-0.896379,1.78024,-1.06466,-1.81522,-1.11702,1.93729,1.11684,-0.916241,0,0,0,0,0,0,0,0,0,0,0,0,0,0,0.531062,-0.454464,0.694251,0.57453,0.175235,0.152606,0.784806,0,0,0,0.703601,-0.210752,0.513936,0.745973,0.409626,0.554329,0.695646,0.398093,0.352676,0.0757293,0.112567,0.367399,0.202101,0.759096,0.531864,0.198626,1
1.78792,-1.05391,-1.7787,-1.09676,2.01322,1.16988,-0.896036,1.78792,-1.05391,-1.7787,-1.09676,2.01322,1.16988,-0.896036,1.78024,-1.06466,-1.81522,-1.11702,1.93729,1.11684,-0.916241,0,0,0,0,0,0,0,0,0,0,0,0,0,0,0.531062,-0.454464,0.694251,0.57453,0.175235,0.152606,0.784806,0,0,0,0.711351,-0.205995,0.519532,0.789568,0.484648,0.570153,0.720962,0.418934,0.329666,0.0767962,0.107505,0.365265,0.202572,0.759284,0.530441,0.202051,1
1.78849,-1.0545,-1.77884,-1.09703,2.01323,1.16979,-0.895917,1.78849,-1.0545,-1.77884,-1.09703,2.01323,1.16979,-0.895917,1.78024,-1.06466,-1.81522,-1.11702,1.93729,1.11684,-0.916241,0,0,0,0,0,0,0,0,0,0,0,0,0,0,0.531062,-0.454464,0.694251,0.57453,0.175235,0.152606,0.784806,0,0,0,0.718498,-0.20191,0.524385,0.695325,0.397431,0.472056,0.736351,0.425865,0.296159,0.082492,0.101561,0.363835,0.199827,0.759431,0.529549,0.203246,1
1.78896,-1.05502,-1.77911,-1.0972,2.01324,1.16964,-0.895503,1.78896,-1.05502,-1.77911,-1.0972,2.01324,1.16964,-0.895503,1.78024,-1.06466,-1.81522,-1.11702,1.93729,1.11684,-0.916241,0,0,0,0,0,0,0,0,0,0,0,0,0,0,0.531062,-0.454464,0.694251,0.57453,0.175235,0.152606,0.784806,0,0,0,0.725997,-0.197363,0.528999,0.752303,0.456231,0.46299,0.744773,0.437423,0.265647,0.0871456,0.0964514,0.361185,0.198184,0.759543,0.52798,0.207384,1
1.78912,-1.05536,-1.77932,-1.0971,2.01324,1.16947,-0.894972,1.78912,-1.05536,-1.77932,-1.0971,2.01324,1.16947,-0.894972,1.78024,-1.06466,-1.81522,-1.11702,1.93729,1.11684,-0.916241,0,0,0,0,0,0,0,0,0,0,0,0,0,0,0.531062,-0.454464,0.694251,0.57453,0.175235,0.152606,0.784806,0,0,0,0.733539,-0.192559,0.533372,0.732438,0.466553,0.424648,0.745214,0.450204,0.233392,0.0887912,0.0929814,0.359042,0.199155,0.759514,0.526355,0.212687,1
1.78932,-1.05591,-1.77964,-1.0972,2.01324,1.1694,-0.89459,1.78932,-1.05591,-1.77964,-1.0972,2.01324,1.1694,-0.89459,1.78024,-1.06466,-1.81522,-1.11702,1.93729,1.11684,-0.916241,0,0,0,0,0,0,0,0,0,0,0,0,0,0,0.531062,-0.454464,0.694251,0.57453,0.175235,0.152606,0.784806,0,0,0,0.740988,-0.187737,0.537403,0.772668,0.50017,0.418136,0.743139,0.45869,0.197291,0.0908052,0.0874604,0.355796,0.198157,0.759468,0.52558,0.216514,1
1.78905,-1.05624,-1.77998,-1.09707,2.01322,1.16922,-0.893755,1.78905,-1.05624,-1.77998,-1.09707,2.01322,1.16922,-0.893755,1.78024,-1.06466,-1.81522,-1.11702,1.93729,1.11684,-0.916241,0,0,0,0,0,0,0,0,0,0,0,0,0,0,0.531062,-0.454464,0.694251,0.57453,0.175235,0.152606,0.784806,0,0,0,0.748416,-0.182521,0.541325,0.724816,0.508845,0.382643,0.748267,0.484032,0.17284,0.0880929,0.0841893,0.352446,0.199444,0.759329,0.523823,0.22486,1
1.78879,-1.05629,-1.78034,-1.09705,2.01321,1.1691,-0.893089,1.78879,-1.05629,-1.78034,-1.09705,2.01321,1.1691,-0.893089,1.78024,-1.06466,-1.81522,-1.11702,1.93729,1.11684,-0.916241,0,0,0,0,0,0,0,0,0,0,0,0,0,0,0.531062,-0.454464,0.694251,0.57453,0.175235,0.152606,0.784806,0,0,0,0.755863,-0.177204,0.544877,0.763094,0.544865,0.363998,0.746096,0.503534,0.147077,0.0854618,0.083735,0.348838,0.19967,0.759253,0.522621,0.231521,1
1.78879,-1.05659,-1.78086,-1.09717,2.0132,1.16905,-0.892499,1.78879,-1.05659,-1.78086,-1.09717,2.0132,1.16905,-0.892499,1.78024,-1.06466,-1.81522,-1.11702,1.93729,1.11684,-0.916241,0,0,0,0,0,0,0,0,0,0,0,0,0,0,0.531062,-0.454464,0.694251,0.57453,0.175235,0.152606,0.784806,0,0,0,0.763285,-0.171576,0.548243,0.714016,0.541503,0.323882,0.743674,0.524978,0.122167,0.0854986,0.0807292,0.343611,0.198425,0.759112,0.522107,0.237424,1
1.78887,-1.05678,-1.78135,-1.0972,2.01319,1.16903,-0.891791,1.78887,-1.05678,-1.78135,-1.0972,2.01319,1.16903,-0.891791,1.78024,-1.06466,-1.81522,-1.11702,1.93729,1.11684,-0.916241,0,0,0,0,0,0,0,0,0,0,0,0,0,0,0.531062,-0.454464,0.694251,0.57453,0.175235,0.152606,0.784806,0,0,0,0.77078,-0.165704,0.551382,0.757076,0.593166,0.31703,0.744524,0.550117,0.0987647,0.0862848,0.0788445,0.338714,0.198168,0.759022,0.521928,0.244504,1
1.78881,-1.05711,-1.78186,-1.09738,2.01318,1.16905,-0.891148,1.78881,-1.05711,-1.78186,-1.09738,2.01318,1.16905,-0.891148,1.78024,-1.06466,-1.81522,-1.11702,1.93729,1.11684,-0.916241,0,0,0,0,0,0,0,0,0,0,0,0,0,0,0.531062,-0.454464,0.694251,0.57453,0.175235,0.152606,0.784806,0,0,0,0.777895,-0.159866,0.55423,0.733868,0.602125,0.293792,0.738738,0.568125,0.0731633,0.085647,0.0755206,0.333605,0.196341,0.758874,0.522155,0.250934,1
1.78845,-1.05723,-1.78253,-1.09781,2.01315,1.16908,-0.890284,1.78845,-1.05723,-1.78253,-1.09781,2.01315,1.16908,-0.890284,1.78024,-1.06466,-1.81522,-1.11702,1.93729,1.11684,-0.916241,0,0,0,0,0,0,0,0,0,0,0,0,0,0,0.531062,-0.454464,0.694251,0.57453,0.175235,0.152606,0.784806,0,0,0,0.784986,-0.153606,0.556861,0.692039,0.610898,0.256749,0.728564,0.589072,0.0495598,0.0820653,0.0743407,0.326951,0.192113,0.758655,0.522469,0.25957,1
1.78856,-1.05726,-1.78316,-1.09808,2.01315,1.16908,-0.889617,1.78856,-1.05726,-1.78316,-1.09808,2.01315,1.16908,-0.889617,1.78024,-1.06466,-1.81522,-1.11702,1.93729,1.11684,-0.916241,0,0,0,0,0,0,0,0,0,0,0,0,0,0,0.531062,-0.454464,0.694251,0.57453,0.175235,0.152606,0.784806,0,0,0,0.791817,-0.147428,0.559197,0.711647,0.643691,0.243388,0.712702,0.60394,0.0238714,0.0831359,0.0740406,0.320671,0.189322,0.758581,0.522467,0.266241,1
1.78881,-1.05765,-1.78404,-1.09875,2.01313,1.16908,-0.888896,1.78881,-1.05765,-1.78404,-1.09875,2.01313,1.16908,-0.888896,1.78024,-1.06466,-1.81522,-1.11702,1.93729,1.11684,-0.916241,0,0,0,0,0,0,0,0,0,0,0,0,0,0,0.531062,-0.454464,0.694251,0.57453,0.175235,0.152606,0.784806,0,0,0,0.798155,-0.141043,0.561329,0.60319,0.607571,0.202912,0.686724,0.617586,-0.0013783,0.0856623,0.0701053,0.311791,0.18266,0.75843,0.522428,0.273455,1
1.78896,-1.05758,-1.78485,-1.09944,2.01314,1.16903,-0.888026,1.78896,-1.05758,-1.78485,-1.09944,2.01314,1.16903,-0.888026,1.78024,-1.06466,-1.81522,-1.11702,1.93729,1.11684,-0.916241,0,0,0,0,0,0,0,0,0,0,0,0,0,0,0.531062,-0.454464,0.694251,0.57453,0.175235,0.152606,0.784806,0,0,0,0.804258,-0.134732,0.56326,0.621427,0.642714,0.19662,0.658938,0.628304,-0.0247183,0.0872042,0.0708079,0.303786,0.175732,0.758557,0.521938,0.282148,1
1.7886,-1.05714,-1.78555,-1.10022,2.01316,1.16883,-0.886921,1.7886,-1.05714,-1.78555,-1.10022,2.01316,1.16883,-0.886921,1.78024,-1.06466,-1.81522,-1.11702,1.93729,1.11684,-0.916241,0,0,0,0,0,0,0,0,0,0,0,0,0,0,0.531062,-0.454464,0.694251,0.57453,0.175235,0.152606,0.784806,0,0,0,0.809991,-0.12811,0.565176,0.579501,0.669338,0.193645,0.624495,0.636878,-0.0430729,0.0835505,0.0752466,0.296756,0.167993,0.758696,0.519926,0.293202,1
1.78844,-1.05604,-1.78604,-1.10113,2.01318,1.16859,-0.885739,1.78844,-1.05604,-1.78604,-1.10113,2.01318,1.16859,-0.885739,1.78024,-1.06466,-1.81522,-1.11702,1.93729,1.11684,-0.916241,0,0,0,0,0,0,0,0,0,0,0,0,0,0,0.531062,-0.454464,0.694251,0.57453,0.175235,0.152606,0.784806,0,0,0,0.815406,-0.121526,0.567035,0.545433,0.66306,0.1872,0.590146,0.647358,-0.0547841,0.0819555,0.0862122,0.291858,0.158901,0.758954,0.517567,0.30502,1
1.78885,-1.05526,-1.78657,-1.10231,2.01321,1.16837,-0.884652,1.78885,-1.05526,-1.78657,-1.10231,2.01321,1.16837,-0.884652,1.78024,-1.06466,-1.81522,-1.11702,1.93729,1.11684,-0.916241,0,0,0,0,0,0,0,0,0,0,0,0,0,0,0.531062,-0.454464,0.694251,0.57453,0.175235,0.152606,0.784806,0,0,0,0.820583,-0.114748,0.568662,0.515723,0.67523,0.162069,0.560049,0.657955,-0.0656118,0.0861005,0.0940014,0.286561,0.147118,0.759204,0.515358,0.315888,1
1.78929,-1.05451,-1.78712,-1.10386,2.01325,1.16819,-0.883442,1.78929,-1.05451,-1.78712,-1.10386,2.01325,1.16819,-0.883442,1.78024,-1.06466,-1.81522,-1.11702,1.93729,1.11684,-0.916241,0,0,0,0,0,0,0,0,0,0,0,0,0,0,0.531062,-0.454464,0.694251,0.57453,0.175235,0.152606,0.784806,0,0,0,0.825592,-0.107949,0.570115,0.489783,0.664865,0.142133,0.532613,0.66927,-0.0780478,0.090511,0.101545,0.280989,0.131543,0.759573,0.513558,0.32799,1
1.78954,-1.05345,-1.78756,-1.10548,2.01329,1.16794,-0.882029,1.78954,-1.05345,-1.78756,-1.10548,2.01329,1.16794,-0.882029,1.78024,-1.06466,-1.81522,-1.11702,1.93729,1.11684,-0.916241,0,0,0,0,0,0,0,0,0,0,0,0,0,0,0.531062,-0.454464,0.694251,0.57453,0.175235,0.152606,0.784806,0,0,0,0.830263,-0.100834,0.571526,0.475811,0.724787,0.143742,0.507305,0.681295,-0.0921919,0.0929318,0.112085,0.276651,0.11533,0.760013,0.511002,0.342125,1
1.79036,-1.05286,-1.78781,-1.10759,2.01333,1.16763,-0.880602,1.79036,-1.05286,-1.78781,-1.10759,2.01333,1.16763,-0.880602,1.78024,-1.06466,-1.81522,-1.11702,1.93729,1.11684,-0.916241,0,0,0,0,0,0,0,0,0,0,0,0,0,0,0.531062,-0.454464,0.694251,0.57453,0.175235,0.152606,0.784806,0,0,0,0.834664,-0.0938432,0.572694,0.433612,0.688763,0.115085,0.481951,0.692807,-0.108162,0.101159,0.118042,0.274099,0.0942932,0.760423,0.507965,0.356395,1
1.79154,-1.05219,-1.78811,-1.11025,2.01338,1.16734,-0.879174,1.79154,-1.05219,-1.78811,-1.11025,2.01338,1.16734,-0.879174,1.78024,-1.06466,-1.81522,-1.11702,1.93729,1.11684,-0.916241,0,0,0,0,0,0,0,0,0,0,0,0,0,0,0.531062,-0.454464,0.694251,0.57453,0.175235,0.152606,0.784806,0,0,0,0.838727,-0.0865722,0.573807,0.415815,0.744181,0.113829,0.453588,0.704578,-0.121311,0.112956,0.124673,0.271172,0.0676655,0.76086,0.504983,0.370671,1
1.79302,-1.05162,-1.78824,-1.11288,2.01343,1.167,-0.877981,1.79302,-1.05162,-1.78824,-1.11288,2.01343,1.167,-0.877981,1.78024,-1.06466,-1.81522,-1.11702,1.93729,1.11684,-0.916241,0,0,0,0,0,0,0,0,0,0,0,0,0,0,0.531062,-0.454464,0.694251,0.57453,0.175235,0.152606,0.784806,0,0,0,0.842481,-0.0794332,0.574905,0.374233,0.711569,0.109456,0.422422,0.712934,-0.131408,0.127739,0.130435,0.26983,0.0413718,0.761383,0.501669,0.382599,1
1.79461,-1.05115,-1.78827,-1.11551,2.01348,1.16683,-0.877077,1.79461,-1.05115,-1.78827,-1.11551,2.01348,1.16683,-0.877077,1.78024,-1.06466,-1.81522,-1.11702,1.93729,1.11684,-0.916241,0,0,0,0,0,0,0,0,0,0,0,0,0,0,0.531062,-0.454464,0.694251,0.57453,0.175235,0.152606,0.784806,0,0,0,0.845951,-0.0720392,0.575898,0.354438,0.755273,0.10147,0.391936,0.719996,-0.140461,0.143688,0.135149,0.269508,0.0150255,0.761911,0.499944,0.391642,1
1.79601,-1.05048,-1.78833,-1.11835,2.01353,1.16671,-0.876282,1.79601,-1.05048,-1.78833,-1.11835,2.01353,1.16671,-0.876282,1.78024,-1.06466,-1.81522,-1.11702,1.93729,1.11684,-0.916241,0,0,0,0,0,0,0,0,0,0,0,0,0,0,0.531062,-0.454464,0.694251,0.57453,0.175235,0.152606,0.784806,0,0,0,0.849151,-0.0646878,0.57694,0.303903,0.698138,0.0989728,0.361992,0.728439,-0.144167,0.157694,0.141817,0.268961,-0.0132861,0.762451,0.498685,0.399588,1
1.79767,-1.04985,-1.78825,-1.1208,2.0136,1.16662,-0.875656,1.79767,-1.04985,-1.78825,-1.1208,2.0136,1.16662,-0.875656,1.78024,-1.06466,-1.81522,-1.11702,1.93729,1.11684,-0.916241,0,0,0,0,0,0,0,0,0,0,0,0,0,0,0.531062,-0.454464,0.694251,0.57453,0.175235,0.152606,0.784806,0,0,0,0.852195,-0.0571832,0.57777,0.305254,0.752589,0.0832054,0.336069,0.735234,-0.150376,0.17428,0.148141,0.269778,-0.0378536,0.763085,0.497856,0.405854,1
1.79928,-1.04967,-1.78791,-1.12304,2.01365,1.16645,-0.875051,1.79928,-1.04967,-1.78791,-1.12304,2.01365,1.16645,-0.875051,1.78024,-1.06466,-1.81522,-1.11702,1.93729,1.11684,-0.916241,0,0,0,0,0,0,0,0,0,0,0,0,0,0,0.531062,-0.454464,0.694251,0.57453,0.175235,0.152606,0.784806,0,0,0,0.855027,-0.0496843,0.578495,0.285066,0.754894,0.0729752,0.313354,0.743537,-0.159478,0.190389,0.14993,0.27309,-0.0602231,0.76356,0.496164,0.411906,1
1.80059,-1.0496,-1.78741,-1.12535,2.01369,1.16626,-0.87448,1.80059,-1.0496,-1.78741,-1.12535,2.01369,1.16626,-0.87448,1.78024,-1.06466,-1.81522,-1.11702,1.93729,1.11684,-0.916241,0,0,0,0,0,0,0,0,0,0,0,0,0,0,0.531062,-0.454464,0.694251,0.57453,0.175235,0.152606,0.784806,0,0,0,0.857705,-0.0421703,0.5791,0.26356,0.739592,0.0596007,0.293826,0.747412,-0.170409,0.203513,0.150635,0.278125,-0.0833301,0.763976,0.49425,0.417614,1
1.80194,-1.04943,-1.78689,-1.12723,2.01372,1.16618,-0.874084,1.80194,-1.04943,-1.78689,-1.12723,2.01372,1.16618,-0.874084,1.78024,-1.06466,-1.81522,-1.11702,1.93729,1.11684,-0.916241,0,0,0,0,0,0,0,0,0,0,0,0,0,0,0.531062,-0.454464,0.694251,0.57453,0.175235,0.152606,0.784806,0,0,0,0.860306,-0.0345894,0.579663,0.251936,0.734191,0.0544637,0.278188,0.752097,-0.182245,0.21701,0.152294,0.28338,-0.102129,0.764321,0.493431,0.421571,1
1.80319,-1.04968,-1.78646,-1.1289,2.01374,1.16601,-0.87385,1.80319,-1.04968,-1.78646,-1.1289,2.01374,1.16601,-0.87385,1.78024,-1.06466,-1.81522,-1.11702,1.93729,1.11684,-0.916241,0,0,0,0,0,0,0,0,0,0,0,0,0,0,0.531062,-0.454464,0.694251,0.57453,0.175235,0.152606,0.784806,0,0,0,0.862744,-0.0270656,0.580082,0.234469,0.72349,0.0403563,0.263773,0.753302,-0.192071,0.229525,0.149816,0.287635,-0.11887,0.764465,0.491708,0.423917,1
1.80389,-1.04965,-1.7862,-1.13042,2.01375,1.16583,-0.873606,1.80389,-1.04965,-1.7862,-1.13042,2.01375,1.16583,-0.873606,1.78024,-1.06466,-1.81522,-1.11702,1.93729,1.11684,-0.916241,0,0,0,0,0,0,0,0,0,0,0,0,0,0,0.531062,-0.454464,0.694251,0.57453,0.175235,0.152606,0.784806,0,0,0,0.865001,-0.0193845,0.580465,0.234055,0.796567,0.0396408,0.249884,0.757043,-0.200783,0.236497,0.150136,0.290197,-0.134082,0.764651,0.489948,0.426347,1
1.80452,-1.04946,-1.78592,-1.13162,2.01377,1.16555,-0.873349,1.80452,-1.04946,-1.78592,-1.13162,2.01377,1.16555,-0.873349,1.78024,-1.06466,-1.81522,-1.11702,1.93729,1.11684,-0.916241,0,0,0,0,0,0,0,0,0,0,0,0,0,0,0.531062,-0.454464,0.694251,0.57453,0.175235,0.152606,0.784806,0,0,0,0.867138,-0.011786,0.580783,0.207496,0.737706,0.0308609,0.235629,0.759734,-0.208339,0.242741,0.152032,0.293086,-0.146063,0.764845,0.487097,0.428921,1
1.80523,-1.04938,-1.78575,-1.13289,2.01378,1.16528,-0.873087,1.80523,-1.04938,-1.78575,-1.13289,2.01378,1.16528,-0.873087,1.78024,-1.06466,-1.81522,-1.11702,1.93729,1.11684,-0.916241,0,0,0,0,0,0,0,0,0,0,0,0,0,0,0.531062,-0.454464,0.694251,0.57453,0.175235,0.152606,0.784806,0,0,0,0.869069,-0.00402699,0.580934,0.198783,0.799079,0.0155611,0.219196,0.764043,-0.217581,0.249921,0.152824,0.294748,-0.158688,0.764944,0.484396,0.43154,1
1.80985,-1.08532,-1.77309,-1.09158,2.01401,1.13709,-0.914898,1.80985,-1.08532,-1.77309,-1.09158,2.01401,1.13709,-0.914898,1.78024,-1.06466,-1.81522,-1.11702,1.93729,1.11684,-0.916241,0,0,0,0,0,0,0,0,0,0,0,0,0,0,0.531062,-0.454464,0.694251,0.57453,0.175235,0.152606,0.784806,0,0,0,0.921382,-0.00223724,0.560377,-0.107423,-0.645044,-0.0854739,-0.097878,-0.634129,-0.318259,0.296127,-0.206614,0.421375,0.254324,0.767198,0.202501,0.0134332,1
1.80967,-1.08457,-1.7736,-1.09267,2.01403,1.13741,-0.914386,1.80967,-1.08457,-1.7736,-1.09267,2.01403,1.13741,-0.914386,1.78024,-1.06466,-1.81522,-1.11702,1.93729,1.11684,-0.916241,0,0,0,0,0,0,0,0,0,0,0,0,0,0,0.531062,-0.454464,0.694251,0.57453,0.175235,0.152606,0.784806,0,0,0,0.920397,-0.00819606,0.559494,-0.0941959,-0.570174,-0.0844375,-0.0988328,-0.620662,-0.327301,0.294316,-0.199045,0.416218,0.243418,0.767395,0.205759,0.0185543,1
