Afshin1997/kuka_rl_ros2/src/catch_and_throw/output_files/tm/nn_ema7.00_jvws1_realball_D23H17M33S39/recorded_data.csv
pure_target_joint_0,pure_target_joint_1,pure_target_joint_2,pure_target_joint_3,pure_target_joint_4,pure_target_joint_5,pure_target_joint_6,target_joint_0,target_joint_1,target_joint_2,target_joint_3,target_joint_4,target_joint_5,target_joint_6,pos_joint_0,pos_joint_1,pos_joint_2,pos_joint_3,pos_joint_4,pos_joint_5,pos_joint_6,vel_joint_0,vel_joint_1,vel_joint_2,vel_joint_3,vel_joint_4,vel_joint_5,vel_joint_6,vel_smooth_joint_0,vel_smooth_joint_1,vel_smooth_joint_2,vel_smooth_joint_3,vel_smooth_joint_4,vel_smooth_joint_5,vel_smooth_joint_6,ee_pos_x,ee_pos_y,ee_pos_z,ee_or_w,ee_or_x,ee_or_y,ee_or_z,ee_vel_x,ee_vel_y,ee_vel_z,ball_pos_x,ball_pos_y,ball_pos_z,ball_raw_vx,ball_raw_vy,ball_raw_vz,ball_ema_vx,ball_ema_vy,ball_ema_vz,action_0,action_1,action_2,action_3,action_4,action_5,action_6,command_published
1.8212,-1.02631,-1.80171,-1.15962,2.00579,1.17688,-0.867933,1.79048,-1.0551,-1.81186,-1.12766,1.95438,1.13212,-0.904245,1.78024,-1.0647,-1.81524,-1.11701,1.93725,1.1172,-0.916349,0,0,0,0,0,0,0,0,0,0,0,0,0,0,0.531012,-0.454457,0.694253,0.574586,0.175066,0.152573,0.784808,0,0,0,2.99319,-0.44748,0.31706,-3.28374,0.182873,5.24509,-3.31546,0.16053,4.90011,0.409578,0.383871,0.13524,-0.426113,0.685358,0.59675,0.484157,1
1.81202,-1.03403,-1.8098,-1.09839,2.00132,1.17535,-0.861668,1.80866,-1.03784,-1.80712,-1.13366,1.98753,1.16158,-0.878471,1.78024,-1.0647,-1.81524,-1.11701,1.93725,1.1172,-0.916349,0,0,0,0,0,0,0,0,0,0,0,0,0,0,0.531012,-0.454457,0.694253,0.574586,0.175066,0.152573,0.784808,0,0,0,2.96194,-0.44616,0.367816,-3.12488,0.132012,5.07558,-3.27117,0.165463,4.97954,0.317792,0.30664,0.0543507,0.186157,0.640698,0.581488,0.546808,1
1.73228,-1.0337,-1.82754,-1.05885,1.98044,1.17763,-0.857198,1.79438,-1.03202,-1.81221,-1.10381,1.99722,1.1763,-0.862117,1.78024,-1.0647,-1.81524,-1.11701,1.93725,1.1172,-0.916349,-2.13511e-07,-6.6805e-07,-9.96322e-07,8.5936e-07,-1.30443e-07,-1.18829e-08,3.20573e-07,-2.13511e-07,-6.6805e-07,-9.96322e-07,8.5936e-07,-1.30443e-07,-1.18829e-08,3.20573e-07,0.531012,-0.454457,0.694253,0.574586,0.175066,0.152573,0.784808,-1.35888e-07,-7.97075e-07,-5.19733e-07,2.93057,-0.444515,0.417936,-3.13752,0.164488,5.01206,-3.22734,0.165685,4.98538,-0.479557,0.309976,-0.123042,0.581561,0.431918,0.604249,0.591505,1
1.82024,-0.989455,-1.75058,-1.12023,2.00486,1.18,-0.847369,1.77421,-1.02272,-1.80387,-1.08408,1.99177,1.17765,-0.855858,1.78521,-1.06001,-1.81377,-1.12045,1.94592,1.12483,-0.90991,0.720455,0.68109,0.204222,-0.405573,1.27806,1.12855,0.965559,0.720455,0.68109,0.204222,-0.405573,1.27806,1.12855,0.965559,0.531907,-0.44944,0.697304,0.568596,0.171411,0.149118,0.79062,0.169399,0.675745,0.433168,2.89862,-0.442689,0.467356,-3.19464,0.182644,4.94192,-3.19975,0.165574,4.94096,0.35032,0.7056,0.63186,0.00224502,0.589439,0.551709,0.625404,1
1.805,-0.988436,-1.75353,-1.10601,2.0158,1.18483,-0.835447,1.79444,-1.00026,-1.77056,-1.10133,2.00149,1.18062,-0.846846,1.78913,-1.05373,-1.81279,-1.11976,1.95755,1.13592,-0.899919,0.161131,0.666769,0.0177319,0.489851,1.21825,1.24017,1.16105,0.161131,0.666769,0.0177319,0.489851,1.21825,1.24017,1.16105,0.530855,-0.446254,0.70237,0.563229,0.165764,0.14342,0.796697,-0.226029,0.044403,0.575698,2.86581,-0.441327,0.51549,-3.28104,0.136134,4.81344,-3.19424,0.161611,4.86135,0.158694,0.652927,0.592634,0.13747,0.582478,0.489107,0.644727,1
1.77531,-0.982036,-1.75632,-1.1034,2.01875,1.19666,-0.824285,1.80139,-0.98709,-1.75349,-1.10891,2.0138,1.18658,-0.835637,1.79044,-1.04833,-1.81265,-1.1158,1.96741,1.14596,-0.890524,0.121086,0.501061,0.0133251,0.368112,0.915487,0.931957,0.872506,0.121086,0.501061,0.0133251,0.368112,0.915487,0.931957,0.872506,0.52839,-0.445911,0.707307,0.560473,0.160405,0.137944,0.800695,-0.172635,0.0359564,0.430751,2.83441,-0.439395,0.562527,-3.14031,0.193256,4.70372,-3.1891,0.162567,4.76484,-0.151311,0.662978,0.563333,0.124019,0.513374,0.507063,0.662399,1
1.74,-0.97056,-1.7567,-1.07179,2.03179,1.19781,-0.82018,1.7739,-0.980767,-1.75572,-1.09615,2.02127,1.19399,-0.826049,1.7864,-1.04197,-1.81047,-1.10791,1.97346,1.15384,-0.881909,-0.374631,0.591129,0.202705,0.732067,0.562186,0.731507,0.800117,-0.374631,0.591129,0.202705,0.732067,0.562186,0.731507,0.800117,0.523018,-0.44855,0.714233,0.561603,0.153967,0.133334,0.801947,-0.442003,-0.239485,0.615734,2.80298,-0.437977,0.608709,-3.14314,0.141761,4.61817,-3.18026,0.161525,4.66401,-0.46406,0.71408,0.537639,0.361201,0.583317,0.439706,0.617291,1
1.76585,-0.960477,-1.74499,-1.07164,2.04269,1.21379,-0.824879,1.75529,-0.970908,-1.75368,-1.07966,2.03126,1.20152,-0.822381,1.7884,-1.0316,-1.80055,-1.10628,1.98043,1.16049,-0.873195,0.185493,0.962631,0.921114,0.151983,0.646951,0.618133,0.809288,0.185493,0.962631,0.921114,0.151983,0.646951,0.618133,0.809288,0.52054,-0.442943,0.724434,0.556802,0.145066,0.129231,0.807606,-0.159609,0.500151,0.912275,2.7715,-0.436464,0.653873,-3.14829,0.151277,4.51639,-3.18123,0.162345,4.56746,-0.22552,0.711262,0.555534,0.346404,0.622628,0.532965,0.483156,1
1.77815,-0.950976,-1.73783,-1.07062,2.04705,1.22309,-0.814324,1.76246,-0.960623,-1.74613,-1.07142,2.04106,1.21212,-0.821066,1.79163,-1.02054,-1.78885,-1.10693,1.98872,1.16698,-0.863861,0.299736,1.02738,1.08617,-0.0608071,0.770293,0.602244,0.866875,0.299736,1.02738,1.08617,-0.0608071,0.770293,0.602244,0.866875,0.518651,-0.435379,0.73496,0.549844,0.136014,0.124782,0.814617,-0.102755,0.68102,0.941941,2.73985,-0.434961,0.69839,-3.16472,0.150359,4.45178,-3.17591,0.158792,4.47005,-0.134784,0.695646,0.510238,0.363092,0.583276,0.561146,0.49537,1
1.74857,-0.936788,-1.73,-1.06996,2.05578,1.2269,-0.798139,1.76768,-0.949804,-1.73766,-1.07071,2.04814,1.22172,-0.812917,1.78722,-1.01066,-1.78062,-1.10425,1.99681,1.17369,-0.854464,-0.409106,0.918009,0.764828,0.248884,0.751251,0.623566,0.872729,-0.409106,0.918009,0.764828,0.248884,0.751251,0.623566,0.872729,0.513148,-0.433918,0.744367,0.547583,0.128139,0.119954,0.818135,-0.44082,0.13301,0.843029,2.70806,-0.433131,0.742034,-3.17874,0.183025,4.36432,-3.16619,0.158349,4.37565,-0.386577,0.738679,0.506172,0.342939,0.589705,0.532083,0.563247,1
1.7301,-0.923772,-1.72291,-1.06476,2.06207,1.23068,-0.789348,1.75135,-0.937081,-1.73019,-1.06883,2.05517,1.22689,-0.799987,1.78024,-0.999409,-1.77292,-1.09704,2.00668,1.18202,-0.846315,-0.546095,1.19126,0.822743,0.786905,1.05594,0.924517,0.775513,-0.546095,1.19126,0.822743,0.786905,1.05594,0.924517,0.775513,0.505199,-0.434898,0.755477,0.548521,0.118516,0.11399,0.819808,-0.671575,-0.00681614,1.14632,2.6762,-0.431463,0.784395,-3.18646,0.166789,4.23611,-3.15956,0.16121,4.28361,-0.501416,0.756363,0.500033,0.3228,0.553953,0.486606,0.569676,1
1.74369,-0.915886,-1.71774,-1.05652,2.06912,1.24759,-0.782454,1.73812,-0.925055,-1.72339,-1.064,2.06226,1.23396,-0.789822,1.77582,-0.989769,-1.76626,-1.09068,2.01522,1.1895,-0.84004,-0.410378,0.895206,0.618273,0.591341,0.793514,0.694754,0.582781,-0.410378,0.895206,0.618273,0.591341,0.793514,0.694754,0.582781,0.498889,-0.434808,0.764985,0.548892,0.109843,0.108984,0.821447,-0.510708,0.00901585,0.854265,2.64466,-0.42988,0.825472,-3.15368,0.158229,4.10777,-3.16518,0.160379,4.18703,-0.32128,0.738832,0.485244,0.341565,0.538959,0.580908,0.575863,1
1.75271,-0.906963,-1.71097,-1.05172,2.07527,1.2563,-0.774479,1.74255,-0.915627,-1.71734,-1.05738,2.06889,1.24554,-0.782184,1.7738,-0.979837,-1.75915,-1.08572,2.0234,1.1975,-0.833299,-0.187973,0.92242,0.660041,0.460822,0.759875,0.74364,0.626033,-0.187973,0.92242,0.660041,0.460822,0.759875,0.74364,0.626033,0.493703,-0.432608,0.774357,0.547397,0.10075,0.104486,0.82419,-0.404399,0.195919,0.842839,2.5818,-0.426883,0.904883,-3.13227,0.106055,3.91085,-3.164,0.16439,3.983,-0.210919,0.728744,0.481805,0.339955,0.518635,0.587931,0.588207,1
1.72412,-0.895225,-1.7051,-1.04612,2.08948,1.25903,-0.766121,1.74331,-0.906259,-1.71119,-1.05152,2.07728,1.2548,-0.774383,1.76822,-0.969211,-1.75195,-1.08152,2.0313,1.20481,-0.825021,-0.51824,0.986837,0.668587,0.389795,0.733248,0.678257,0.768863,-0.51824,0.986837,0.668587,0.389795,0.733248,0.678257,0.768863,0.48714,-0.431443,0.783783,0.546362,0.0920599,0.100394,0.826398,-0.535571,0.102006,0.850603,2.55057,-0.425528,0.94301,-3.12383,0.13546,3.81264,-3.15511,0.158256,3.87478,-0.440944,0.739862,0.468556,0.354025,0.581777,0.542204,0.588997,1
1.70752,-0.881204,-1.69408,-1.04255,2.09807,1.25936,-0.759921,1.72712,-0.894654,-1.70381,-1.04662,2.08807,1.25843,-0.76666,1.76133,-0.956982,-1.74405,-1.07628,2.03988,1.21359,-0.815256,-0.576752,1.27018,0.820377,0.580559,0.891221,0.981115,1.01578,-0.576752,1.27018,0.820377,0.580559,0.891221,0.981115,1.01578,0.479263,-0.430223,0.794474,0.545372,0.081809,0.0960317,0.828646,-0.677517,0.173968,1.09059,2.51887,-0.424265,0.98009,-3.16966,0.126314,3.708,-3.1489,0.148079,3.76718,-0.538117,0.757782,0.499667,0.337381,0.581895,0.45762,0.553354,1
1.71546,-0.869853,-1.68512,-1.03796,2.10206,1.27429,-0.750088,1.71365,-0.881872,-1.6946,-1.04229,2.09692,1.26301,-0.759013,1.75676,-0.945458,-1.73659,-1.07081,2.0482,1.22277,-0.805999,-0.413204,1.20393,0.780096,0.592366,0.893078,0.983969,0.971027,-0.413204,1.20393,0.780096,0.592366,0.893078,0.983969,0.971027,0.47235,-0.428099,0.804585,0.543626,0.0714685,0.091838,0.831221,-0.606106,0.230368,1.03462,2.4874,-0.422694,1.01632,-3.14674,0.15716,3.62339,-3.14473,0.142688,3.6652,-0.413049,0.75605,0.514753,0.328497,0.538545,0.515286,0.559105,1
1.72438,-0.861956,-1.68308,-1.02951,2.10936,1.28805,-0.738585,1.7157,-0.870716,-1.68685,-1.03699,2.10289,1.274,-0.74967,1.75342,-0.935716,-1.73028,-1.06601,2.05543,1.23073,-0.798141,-0.310499,0.904682,0.586197,0.445128,0.671096,0.739395,0.72967,-0.310499,0.904682,0.586197,0.445128,0.671096,0.739395,0.72967,0.466608,-0.425979,0.813074,0.541831,0.0625395,0.0882773,0.833496,-0.458685,0.18468,0.769357,2.45593,-0.421245,1.0515,-3.14753,0.144878,3.51727,-3.14494,0.139372,3.56563,-0.290368,0.737604,0.472007,0.364975,0.539266,0.573262,0.595567,1
1.69965,-0.850924,-1.67771,-1.0256,2.12219,1.28918,-0.728687,1.71597,-0.861172,-1.68225,-1.03065,2.11074,1.2849,-0.738986,1.74688,-0.925511,-1.7237,-1.06119,2.06354,1.23761,-0.790318,-0.607001,0.947684,0.61088,0.447472,0.753328,0.639292,0.72657,-0.607001,0.947684,0.61088,0.447472,0.753328,0.639292,0.72657,0.459518,-0.42513,0.82177,0.541158,0.0540808,0.0845245,0.834913,-0.585892,0.0735,0.790031,2.4239,-0.420312,1.08569,-3.2021,0.0933141,3.41922,-3.15208,0.132166,3.46529,-0.472363,0.745867,0.45993,0.355967,0.586515,0.515677,0.616302,1
1.67829,-0.838356,-1.67261,-1.02467,2.13438,1.28545,-0.723788,1.70049,-0.85054,-1.67778,-1.02634,2.12203,1.28797,-0.729937,1.73862,-0.914666,-1.71647,-1.0565,2.07184,1.24392,-0.782538,-0.766907,1.00719,0.671796,0.436281,0.770255,0.586149,0.722506,-0.766907,1.00719,0.671796,0.436281,0.770255,0.586149,0.722506,0.451648,-0.424462,0.83083,0.540921,0.0455442,0.0809173,0.835932,-0.658026,0.057585,0.824961,2.39293,-0.418628,1.11885,-3.09799,0.168398,3.31641,-3.15321,0.136498,3.36669,-0.603357,0.763098,0.438559,0.318304,0.625445,0.415243,0.587494,1
1.68111,-0.827439,-1.66221,-1.01993,2.13755,1.29879,-0.716433,1.68433,-0.838769,-1.67129,-1.02371,2.13213,1.28972,-0.723174,1.73293,-0.903743,-1.70911,-1.05165,2.07955,1.2514,-0.774369,-0.529013,1.01434,0.683602,0.450123,0.716582,0.694147,0.758562,-0.529013,1.01434,0.683602,0.450123,0.716582,0.694147,0.758562,0.44464,-0.422264,0.839891,0.539382,0.0361442,0.0776149,0.837697,-0.572904,0.191523,0.825815,2.36177,-0.417136,1.15123,-3.11518,0.149146,3.2373,-3.14914,0.13869,3.26978,-0.518181,0.763041,0.468994,0.317201,0.579936,0.473881,0.579361,1
1.68426,-0.817479,-1.65589,-1.00998,2.14163,1.30919,-0.70577,1.68119,-0.827678,-1.66323,-1.01863,2.13778,1.29805,-0.715606,1.72871,-0.893163,-1.70243,-1.04643,2.0873,1.25972,-0.765576,-0.391455,0.982526,0.619937,0.48475,0.719828,0.773108,0.816629,-0.391455,0.982526,0.619937,0.48475,0.719828,0.773108,0.816629,0.438122,-0.41962,0.848566,0.537087,0.0265014,0.0743336,0.839827,-0.525437,0.23063,0.791619,2.33048,-0.415718,1.18247,-3.12886,0.141814,3.12436,-3.14074,0.140619,3.17249,-0.444503,0.756842,0.465461,0.364454,0.54326,0.494626,0.598056,1
1.67032,-0.806594,-1.64885,-1.01032,2.15542,1.30867,-0.693969,1.67999,-0.817248,-1.65571,-1.01255,2.14406,1.30646,-0.705486,1.7217,-0.882571,-1.69631,-1.04144,2.09593,1.26674,-0.756719,-0.651352,0.983728,0.569006,0.463568,0.801499,0.651819,0.822531,-0.651352,0.983728,0.569006,0.463568,0.801499,0.651819,0.822531,0.430695,-0.41829,0.856913,0.5358,0.0178756,0.0710368,0.841162,-0.616291,0.115533,0.763641,2.29935,-0.414249,1.21275,-3.11317,0.146908,3.02765,-3.13271,0.141295,3.0741,-0.51375,0.759769,0.474525,0.311196,0.594855,0.419294,0.627496,1
1.65446,-0.79464,-1.64185,-1.01819,2.1675,1.29911,-0.684531,1.66984,-0.806327,-1.64886,-1.0122,2.15499,1.30641,-0.69456,1.71241,-0.871685,-1.69009,-1.03703,2.10493,1.27245,-0.748382,-0.862382,1.01092,0.577431,0.409043,0.835277,0.530219,0.774193,-0.862382,1.01092,0.577431,0.409043,0.835277,0.530219,0.774193,0.422618,-0.417539,0.86516,0.535338,0.00996735,0.0680014,0.841837,-0.682268,0.0651148,0.756141,2.26848,-0.412792,1.24189,-3.08731,0.145718,2.91469,-3.12101,0.144265,2.97471,-0.579521,0.770447,0.482389,0.188405,0.625749,0.266542,0.638516,1
1.65019,-0.783591,-1.63414,-1.0146,2.17358,1.30436,-0.676933,1.65736,-0.794866,-1.64167,-1.01532,2.166,1.30281,-0.684991,1.70465,-0.860748,-1.68341,-1.03246,2.11309,1.27881,-0.740237,-0.720546,1.01565,0.619881,0.424807,0.758098,0.590843,0.756455,-0.720546,1.01565,0.619881,0.424807,0.758098,0.590843,0.756455,0.415029,-0.415695,0.87347,0.534207,0.00136228,0.0653253,0.842825,-0.633305,0.160166,0.763065,2.23734,-0.411191,1.27002,-3.11403,0.160033,2.81242,-3.11074,0.149712,2.87352,-0.544604,0.771574,0.492722,0.178635,0.604886,0.255449,0.633037,1
1.64472,-0.772505,-1.62845,-1.00424,2.17999,1.31035,-0.668446,1.64989,-0.783582,-1.63464,-1.01291,2.17366,1.30454,-0.676711,1.69852,-0.849937,-1.67653,-1.02751,2.12079,1.28568,-0.7316,-0.56924,1.00397,0.639401,0.459398,0.714649,0.638005,0.802036,-0.56924,1.00397,0.639401,0.459398,0.714649,0.638005,0.802036,0.407956,-0.413013,0.881738,0.532165,-0.00772031,0.0627989,0.844273,-0.582458,0.23389,0.760467,2.20612,-0.409648,1.29729,-3.1219,0.154364,2.72707,-3.11173,0.149126,2.77254,-0.538059,0.774328,0.480793,0.232677,0.592004,0.246707,0.631542,1
1.63595,-0.760822,-1.61884,-1.00802,2.19245,1.30143,-0.65895,1.6439,-0.772356,-1.62747,-1.00777,2.1815,1.30662,-0.668194,1.6914,-0.839099,-1.66965,-1.02371,2.12929,1.29083,-0.722395,-0.661957,1.00652,0.638552,0.353319,0.789458,0.478318,0.854878,-0.661957,1.00652,0.638552,0.353319,0.789458,0.478318,0.854878,0.401012,-0.410479,0.889624,0.529763,-0.0155622,0.060376,0.845851,-0.578376,0.225093,0.726574,2.17525,-0.408068,1.32349,-3.08723,0.157997,2.62018,-3.10827,0.151439,2.67035,-0.554422,0.782768,0.508123,0.156908,0.631631,0.105908,0.634452,1
1.62395,-0.747728,-1.60613,-1.02616,2.20565,1.2687,-0.650164,1.63514,-0.760469,-1.61807,-1.01161,2.19264,1.29548,-0.659127,1.68194,-0.826604,-1.66176,-1.0213,2.13943,1.29404,-0.711997,-0.98438,1.32132,0.83286,0.257842,1.05131,0.322566,1.08372,-0.98438,1.32132,0.83286,0.257842,1.05131,0.322566,1.08372,0.393497,-0.40756,0.89809,0.526863,-0.0226698,0.0581422,0.847656,-0.714789,0.30832,0.888744,2.14433,-0.406346,1.34909,-3.09141,0.172168,2.55975,-3.10365,0.155792,2.57405,-0.579951,0.788761,0.55629,-0.0485704,0.662218,-0.253414,0.618331,1
1.62199,-0.735241,-1.59649,-1.03621,2.21497,1.26671,-0.638473,1.62646,-0.74788,-1.6069,-1.02414,2.20468,1.27638,-0.649438,1.67318,-0.814418,-1.65407,-1.01853,2.14898,1.29693,-0.702094,-0.899363,1.29182,0.81691,0.330389,0.998729,0.297746,1.04114,-0.899363,1.29182,0.81691,0.330389,0.998729,0.297746,1.04114,0.386351,-0.404403,0.90631,0.524001,-0.0296468,0.0562191,0.849343,-0.684388,0.329363,0.875539,2.11324,-0.40483,1.3734,-3.10934,0.151613,2.43164,-3.10257,0.158112,2.47798,-0.511883,0.791762,0.575795,-0.176806,0.659914,-0.302231,0.636208,1
1.61975,-0.724922,-1.59171,-1.02837,2.22554,1.2588,-0.62892,1.62192,-0.735783,-1.59771,-1.03174,2.21529,1.26523,-0.639007,1.6659,-0.803964,-1.64746,-1.01586,2.15707,1.29934,-0.693669,-0.675851,0.970773,0.613889,0.24828,0.750522,0.223749,0.782396,-0.675851,0.970773,0.613889,0.24828,0.750522,0.223749,0.782396,0.380295,-0.401505,0.91333,0.521483,-0.0356985,0.0546873,0.850759,-0.510839,0.260586,0.649492,2.08214,-0.403387,1.39676,-3.11019,0.144273,2.33521,-3.1036,0.157993,2.38272,-0.461548,0.790417,0.557477,-0.125119,0.684752,-0.405335,0.647491,1
1.61529,-0.7143,-1.58602,-1.03459,2.23779,1.24792,-0.620483,1.61919,-0.724847,-1.59148,-1.03189,2.22596,1.25806,-0.629199,1.65826,-0.793155,-1.64015,-1.0148,2.16591,1.29838,-0.685084,-0.709921,1.00389,0.678398,0.098091,0.821017,-0.0891277,0.797239,-0.709921,1.00389,0.678398,0.098091,0.821017,-0.0891277,0.797239,0.374973,-0.398176,0.920223,0.518269,-0.0398707,0.0534003,0.852617,-0.455384,0.306996,0.637298,2.05127,-0.402021,1.41927,-3.08661,0.136647,2.25106,-3.10061,0.154539,2.28785,-0.429662,0.788546,0.541373,-0.197884,0.718866,-0.504631,0.646014,1
1.63271,-0.702595,-1.57648,-1.045,2.25149,1.23981,-0.61515,1.62076,-0.714029,-1.58506,-1.03564,2.23815,1.24861,-0.621259,1.64975,-0.780293,-1.63066,-1.01813,2.17695,1.29143,-0.674837,-0.854809,1.36705,1.01231,-0.417844,1.17732,-0.804643,1.10046,-0.854809,1.36705,1.01231,-0.417844,1.17732,-0.804643,1.10046,0.371073,-0.39298,0.927429,0.51251,-0.0408367,0.0527125,0.856088,-0.349921,0.593299,0.744026,2.02048,-0.400515,1.44086,-3.07932,0.150633,2.15974,-3.09667,0.151617,2.19268,-0.170429,0.776973,0.541863,-0.268695,0.74538,-0.516157,0.596869,1
1.65535,-0.693434,-1.57252,-1.0503,2.26298,1.22992,-0.606429,1.63401,-0.703231,-1.57787,-1.04373,2.25094,1.23937,-0.614303,1.64283,-0.769231,-1.62247,-1.02152,2.18648,1.28492,-0.665932,-0.642369,1.02731,0.760727,-0.314,0.88473,-0.604671,0.826972,-0.642369,1.02731,0.760727,-0.314,0.88473,-0.604671,0.826972,0.368199,-0.38814,0.933397,0.507106,-0.0412084,0.0523241,0.859307,-0.255664,0.456358,0.549188,1.98967,-0.399142,1.46154,-3.08102,0.137258,2.06747,-3.09434,0.147322,2.09844,0.12516,0.757965,0.499534,-0.287866,0.765011,-0.549922,0.595036,1
1.6369,-0.682307,-1.567,-1.04012,2.27236,1.22008,-0.595875,1.64508,-0.692943,-1.57213,-1.04643,2.26245,1.22994,-0.605971,1.63696,-0.7582,-1.61477,-1.02409,2.19629,1.27824,-0.656803,-0.545624,1.02442,0.715327,-0.239368,0.911256,-0.61992,0.847837,-0.545624,1.02442,0.715327,-0.239368,0.911256,-0.61992,0.847837,0.365647,-0.383184,0.93934,0.501447,-0.041516,0.0518448,0.862635,-0.22627,0.467738,0.546936,1.95852,-0.397751,1.48117,-3.11517,0.139132,1.9634,-3.09376,0.142984,2.00226,-0.000547869,0.758933,0.477732,-0.160288,0.760643,-0.581593,0.609285,1
1.59613,-0.669478,-1.5755,-1.03014,2.28122,1.21182,-0.586881,1.63132,-0.681882,-1.57051,-1.04017,2.27223,1.22048,-0.596265,1.63293,-0.747223,-1.60739,-1.02696,2.2067,1.27088,-0.64797,-0.373895,1.0195,0.685871,-0.2665,0.966194,-0.683874,0.820388,-0.373895,1.0195,0.685871,-0.2665,0.966194,-0.683874,0.820388,0.364073,-0.377618,0.94503,0.494988,-0.0412405,0.0512689,0.866405,-0.139318,0.526948,0.522918,1.92733,-0.396361,1.49968,-3.11832,0.138959,1.85035,-3.09488,0.141283,1.90687,-0.368016,0.777449,0.318825,-0.0317274,0.745209,-0.590563,0.610885,1
1.64013,-0.660451,-1.5624,-1.03988,2.29448,1.20557,-0.58112,1.61732,-0.670428,-1.5701,-1.03507,2.28232,1.21232,-0.587689,1.6332,-0.73629,-1.60005,-1.03113,2.21769,1.26305,-0.639603,0.0249556,1.01536,0.681179,-0.386898,1.02117,-0.72732,0.777052,0.0249556,1.01536,0.681179,-0.386898,1.02117,-0.72732,0.777052,0.364593,-0.370243,0.95027,0.486329,-0.040332,0.0506519,0.871374,0.0495228,0.697698,0.480539,1.9117,-0.384377,1.49165,-1.56369,1.19845,-0.802994,-2.93272,0.253986,1.53499,0.0692632,0.758393,0.376543,-0.0874994,0.76791,-0.574726,0.584828,1
1.66504,-0.653879,-1.55565,-1.02765,2.30532,1.20181,-0.575298,1.63536,-0.661065,-1.56399,-1.03438,2.29388,1.20619,-0.581105,1.63615,-0.725517,-1.59311,-1.03493,2.22882,1.25482,-0.631244,0.274111,1.00048,0.644463,-0.353228,1.03312,-0.764219,0.776254,0.274111,1.00048,0.644463,-0.353228,1.03312,-0.764219,0.776254,0.366102,-0.362123,0.95535,0.476632,-0.0391592,0.049986,0.876807,0.138314,0.768388,0.465594,1.86541,-0.393538,1.53378,-4.62867,-0.91612,4.21305,-2.99101,0.216094,1.52583,0.28886,0.716383,0.374637,0.0728473,0.765021,-0.530097,0.559461,1
1.6127,-0.638183,-1.55403,-1.04386,2.31522,1.18947,-0.560457,1.64573,-0.651598,-1.55693,-1.03476,2.30508,1.19966,-0.573043,1.63495,-0.714673,-1.58749,-1.03623,2.2396,1.24628,-0.622551,-0.111499,1.00714,0.521788,-0.120904,1.00199,-0.792595,0.807352,-0.111499,1.00714,0.521788,-0.120904,1.00199,-0.792595,0.807352,0.3656,-0.356287,0.960704,0.469753,-0.0380724,0.0495003,0.880587,-0.0475614,0.554025,0.491909,1.8338,-0.392135,1.54919,-3.16124,0.140235,1.54138,-3.05493,0.177571,1.51403,-0.222492,0.764898,0.33459,-0.0762404,0.75611,-0.568177,0.620942,1
1.57469,-0.625063,-1.56337,-1.01692,2.32388,1.18303,-0.550563,1.61628,-0.638827,-1.55677,-1.03307,2.31491,1.19094,-0.561694,1.63057,-0.703677,-1.58317,-1.03594,2.25022,1.23784,-0.613887,-0.406887,1.02119,0.401447,0.0269128,0.985863,-0.783787,0.804636,-0.406887,1.02119,0.401447,0.0269128,0.985863,-0.783787,0.804636,0.363691,-0.352105,0.966149,0.46513,-0.0370706,0.0492208,0.883095,-0.178571,0.398585,0.501166,1.80316,-0.391073,1.56372,-3.06402,0.106198,1.45283,-3.11034,0.136641,1.50242,-0.558813,0.786144,0.198046,0.190253,0.736572,-0.548095,0.633241,1
1.58677,-0.614265,-1.5544,-1.02911,2.33388,1.17672,-0.543669,1.58721,-0.625643,-1.55879,-1.0267,2.32421,1.18306,-0.551313,1.63176,-0.693087,-1.5784,-1.03556,2.26107,1.22998,-0.60574,0.110445,0.983525,0.442794,0.0359845,1.00759,-0.730494,0.75664,0.110445,0.983525,0.442794,0.0359845,1.00759,-0.730494,0.75664,0.363588,-0.345981,0.971486,0.458043,-0.0365075,0.048457,0.886857,-0.00726286,0.580363,0.491091,1.77235,-0.389479,1.57701,-3.08075,0.159428,1.32915,-3.15983,0.0986814,1.48979,-0.449869,0.788221,0.240014,0.0644551,0.728129,-0.532541,0.620711,1
1.64722,-0.605734,-1.5466,-1.02323,2.34223,1.18817,-0.539941,1.59886,-0.614831,-1.55469,-1.02459,2.33347,1.18116,-0.54446,1.63523,-0.682776,-1.57307,-1.03536,2.27201,1.22244,-0.597614,0.322364,0.957595,0.495568,0.0184378,1.01588,-0.699676,0.754662,0.322364,0.957595,0.495568,0.0184378,1.01588,-0.699676,0.754662,0.364189,-0.338934,0.976714,0.449598,-0.0361535,0.0474548,0.891237,0.0596294,0.667116,0.480848,1.74218,-0.387756,1.58972,-3.0175,0.172266,1.27149,-3.20151,0.0645454,1.48149,0.119885,0.770424,0.264644,0.121291,0.70226,-0.342693,0.576735,1
1.58708,-0.59367,-1.53821,-1.02472,2.35524,1.16102,-0.524211,1.61707,-0.60485,-1.54645,-1.02507,2.3434,1.17852,-0.53694,1.63052,-0.671854,-1.56902,-1.03479,2.28267,1.21462,-0.588687,-0.437327,1.01437,0.376126,0.0528022,0.990135,-0.727066,0.829067,-0.437327,1.01437,0.376126,0.0528022,0.990135,-0.727066,0.829067,0.362129,-0.334789,0.981904,0.444936,-0.035321,0.0472267,0.893619,-0.191586,0.393981,0.477616,1.71158,-0.386817,1.60101,-3.06001,0.0939131,1.12841,-3.24387,0.0246299,1.47073,-0.43447,0.781836,0.308092,0.100642,0.725753,-0.53593,0.644761,1
1.55693,-0.581256,-1.5374,-1.02241,2.36542,1.15113,-0.513694,1.59457,-0.593582,-1.5401,-1.02377,2.35454,1.16534,-0.525514,1.61976,-0.660369,-1.56648,-1.03278,2.29299,1.20677,-0.579399,-0.999539,1.06652,0.235985,0.186666,0.958822,-0.728187,0.862579,-0.999539,1.06652,0.235985,0.186666,0.958822,-0.728187,0.862579,0.357869,-0.333043,0.987277,0.443739,-0.034496,0.0475284,0.89423,-0.398367,0.169092,0.495458,1.68129,-0.385717,1.61179,-3.02886,0.109985,1.07777,-3.06356,0.13362,1.09884,-0.628338,0.791133,0.29076,0.103726,0.724274,-0.556421,0.657051,1
1.56764,-0.57022,-1.52889,-1.04314,2.37601,1.14655,-0.50684,1.56714,-0.581601,-1.53547,-1.02817,2.36552,1.15246,-0.51461,1.61457,-0.649052,-1.56355,-1.03074,2.30305,1.20041,-0.570716,-0.482252,1.051,0.271944,0.188954,0.93415,-0.591071,0.806364,-0.482252,1.051,0.271944,0.188954,0.93415,-0.591071,0.806364,0.355256,-0.32908,0.992588,0.440149,-0.03462,0.0476448,0.895991,-0.237901,0.371395,0.49007,1.6501,-0.385321,1.62153,-3.11912,0.0396699,0.97419,-3.0558,0.120776,1.00411,-0.469217,0.788317,0.346628,-0.123999,0.729544,-0.5386,0.638762,1
1.65454,-0.561951,-1.52466,-1.03479,2.38433,1.16118,-0.50563,1.58669,-0.570912,-1.52996,-1.03587,2.37544,1.15135,-0.508251,1.61519,-0.638067,-1.5593,-1.02934,2.31308,1.19497,-0.562322,0.0578298,1.02016,0.394521,0.13089,0.931165,-0.50511,0.779525,0.0578298,1.02016,0.394521,0.13089,0.931165,-0.50511,0.779525,0.354471,-0.322638,0.997802,0.433367,-0.0354071,0.047417,0.899273,-0.0630381,0.601091,0.480695,1.61976,-0.383796,1.63002,-3.03348,0.152445,0.848663,-3.05568,0.114953,0.907103,0.393557,0.761155,0.346387,-0.0545768,0.712484,-0.337862,0.566917,1
1.61444,-0.553343,-1.51883,-1.02132,2.39925,1.13273,-0.493184,1.62279,-0.561867,-1.52426,-1.03351,2.38598,1.15041,-0.502821,1.61007,-0.627012,-1.55453,-1.02795,2.32338,1.18761,-0.553174,-0.475787,1.02669,0.443008,0.128411,0.956792,-0.683906,0.849509,-0.475787,1.02669,0.443008,0.128411,0.956792,-0.683906,0.849509,0.352095,-0.318106,1.00308,0.428578,-0.0351855,0.0472877,0.90158,-0.216591,0.427363,0.485809,1.58906,-0.38246,1.63773,-3.07012,0.133613,0.771797,-3.05779,0.108834,0.81168,0.0437712,0.736681,0.35703,0.0663637,0.758698,-0.548765,0.599899,1
1.54218,-0.539611,-1.53806,-0.996635,2.4088,1.1248,-0.481796,1.6064,-0.552062,-1.52509,-1.01851,2.39791,1.13786,-0.493449,1.5994,-0.615726,-1.54979,-1.02801,2.33386,1.17887,-0.54359,-0.990645,1.04807,0.439801,-0.00503891,0.972595,-0.811182,0.890059,-0.990645,1.04807,0.439801,-0.00503891,0.972595,-0.811182,0.890059,0.348721,-0.315066,1.00796,0.425644,-0.0336395,0.0476741,0.903008,-0.319192,0.290272,0.448207,1.5587,-0.381141,1.64455,-3.03556,0.131926,0.681651,-3.06061,0.108864,0.714826,-0.572191,0.761151,0.117337,0.313717,0.749479,-0.540662,0.617938,1
1.53998,-0.526762,-1.5289,-1.01004,2.4186,1.11912,-0.471684,1.5597,-0.539832,-1.53096,-1.00616,2.40886,1.12537,-0.482115,1.59624,-0.604589,-1.54486,-1.02996,2.34419,1.17203,-0.534807,-0.293308,1.03428,0.457798,-0.181532,0.959775,-0.635092,0.815615,-0.293308,1.03428,0.457798,-0.181532,0.959775,-0.635092,0.815615,0.348105,-0.308833,1.01219,0.418999,-0.0325426,0.0481844,0.906123,-0.0610787,0.582439,0.387737,1.52826,-0.379768,1.65042,-3.0445,0.137264,0.58707,-3.05768,0.118431,0.621301,-0.562593,0.778263,0.159665,0.199179,0.7441,-0.529111,0.631238,1
1.64211,-0.520178,-1.51635,-1.02896,2.42395,1.15012,-0.471136,1.56606,-0.528328,-1.52805,-1.01142,2.41749,1.12829,-0.474075,1.60284,-0.593971,-1.53974,-1.03084,2.35458,1.16666,-0.526858,0.612861,0.986006,0.475567,-0.0819357,0.964459,-0.498995,0.738232,0.612861,0.986006,0.475567,-0.0819357,0.964459,-0.498995,0.738232,0.349882,-0.299584,1.01647,0.408424,-0.032673,0.048021,0.910943,0.167323,0.86396,0.393932,1.49755,-0.378384,1.65519,-3.07072,0.138474,0.476778,-3.05691,0.127721,0.52329,0.392659,0.737932,0.233968,0.0188597,0.693693,-0.165367,0.557221,1
1.62999,-0.512241,-1.52279,-1.01009,2.43874,1.12044,-0.461174,1.61354,-0.51984,-1.52109,-1.01951,2.42631,1.13495,-0.468783,1.60372,-0.583556,-1.5361,-1.02778,2.36535,1.1595,-0.518555,0.0822336,0.967243,0.338105,0.284541,1.00011,-0.664627,0.771074,0.0822336,0.967243,0.338105,0.284541,1.00011,-0.664627,0.771074,0.349071,-0.293796,1.02146,0.401813,-0.032651,0.0472989,0.913916,-0.0702464,0.546701,0.459318,1.46746,-0.376872,1.65909,-3.00959,0.151151,0.390184,-3.04692,0.138798,0.427562,0.262604,0.713154,0.133127,0.176877,0.733928,-0.390606,0.573808,1
1.52843,-0.499865,-1.5584,-0.981354,2.45114,1.10137,-0.448574,1.60763,-0.511131,-1.53008,-1.00762,2.43814,1.1231,-0.460515,1.59278,-0.57269,-1.53482,-1.02241,2.37616,1.15102,-0.509499,-1.01618,1.00913,0.118659,0.499034,1.00442,-0.787874,0.84102,-1.01618,1.00913,0.118659,0.499034,1.00442,-0.787874,0.84102,0.344553,-0.29294,1.02674,0.401708,-0.0319494,0.0469395,0.914006,-0.421163,0.0911693,0.487256,1.43738,-0.375756,1.66213,-3.00786,0.111651,0.30396,-3.04111,0.135914,0.334625,-0.643566,0.728249,-0.235771,0.410525,0.749821,-0.496441,0.609252,1
1.51547,-0.482593,-1.55504,-0.997069,2.45526,1.10029,-0.435879,1.55058,-0.498641,-1.54866,-0.992467,2.44907,1.10587,-0.44855,1.58614,-0.561665,-1.53314,-1.01968,2.38643,1.14537,-0.500695,-0.616709,1.02384,0.156348,0.253557,0.953799,-0.524508,0.817573,-0.616709,1.02384,0.156348,0.253557,0.953799,-0.524508,0.817573,0.341755,-0.289494,1.03131,0.398855,-0.0319795,0.0471444,0.915243,-0.255985,0.322711,0.421133,1.40706,-0.374342,1.66419,-3.03189,0.141335,0.205731,-3.03379,0.13579,0.239967,-0.706684,0.79072,-0.218967,0.22607,0.688315,-0.450805,0.648167,1
1.58432,-0.476782,-1.51295,-0.989459,2.46373,1.14666,-0.437821,1.53592,-0.485458,-1.54536,-0.991238,2.45635,1.11215,-0.439538,1.59295,-0.55127,-1.53015,-1.01964,2.39634,1.14278,-0.492764,0.632434,0.965304,0.27802,0.00376448,0.920316,-0.240457,0.736534,0.632434,0.965304,0.27802,0.00376448,0.920316,-0.240457,0.736534,0.343119,-0.280699,1.03506,0.388977,-0.0330898,0.047217,0.919442,0.135121,0.816167,0.345545,1.37652,-0.373148,1.66534,-3.05414,0.119379,0.115085,-3.03263,0.133778,0.145852,-0.0862998,0.744879,0.171979,0.301759,0.673835,0.0387572,0.549429,1
1.59586,-0.469517,-1.55615,-0.984369,2.4697,1.1443,-0.430373,1.56999,-0.476419,-1.53427,-0.990089,2.4631,1.13448,-0.435474,1.5966,-0.541295,-1.53013,-1.01665,2.40673,1.13789,-0.484749,0.33866,0.926401,0.00151306,0.277219,0.964719,-0.454348,0.744308,0.33866,0.926401,0.00151306,0.277219,0.964719,-0.454348,0.744308,0.34326,-0.274846,1.03897,0.382328,-0.0331571,0.046888,0.92224,0.0160371,0.548743,0.360886,1.34612,-0.371699,1.66539,-3.03954,0.144953,0.005126,-3.03171,0.132886,0.0510752,-0.00743601,0.717778,-0.260151,0.322811,0.629666,0.0641268,0.543767,1
1.52368,-0.458519,-1.55444,-1.01052,2.49143,1.09714,-0.418354,1.57493,-0.468584,-1.54492,-0.992179,2.47364,1.1331,-0.42923,1.58516,-0.530694,-1.53474,-1.01064,2.41725,1.12993,-0.475753,-1.06215,0.98444,-0.427587,0.558137,0.977242,-0.738979,0.835466,-1.06215,0.98444,-0.427587,0.558137,0.977242,-0.738979,0.835466,0.339253,-0.27573,1.04312,0.384736,-0.0314096,0.0471754,0.921285,-0.38763,-0.0730015,0.384433,1.31608,-0.370522,1.66452,-3.00399,0.117692,-0.0870228,-3.02835,0.130494,-0.0435753,-0.614827,0.721751,-0.19709,0.00121493,0.741763,-0.327878,0.573994,1
1.50217,-0.441636,-1.57087,-1.00951,2.49641,1.10518,-0.403803,1.53635,-0.457048,-1.55898,-1.00373,2.48724,1.11094,-0.417721,1.57292,-0.519452,-1.53737,-1.00582,2.42697,1.12551,-0.466753,-1.13644,1.04408,-0.245148,0.447823,0.902358,-0.410341,0.835868,-1.13644,1.04408,-0.245148,0.447823,0.902358,-0.410341,0.835868,0.334681,-0.275209,1.04738,0.386465,-0.0316505,0.0479669,0.920512,-0.424086,0.0480069,0.39456,1.2859,-0.369341,1.66268,-3.01802,0.118083,-0.183618,-3.02925,0.127512,-0.140147,-0.707528,0.77816,-0.334937,-0.036967,0.694386,-0.203335,0.629499,1
1.51081,-0.431803,-1.57477,-0.976903,2.49349,1.14547,-0.401462,1.50971,-0.443398,-1.56774,-1.00161,2.49443,1.11324,-0.406855,1.5722,-0.508757,-1.5366,-1.00191,2.43595,1.12774,-0.458979,-0.0676644,0.993241,0.0716467,0.363037,0.833986,0.206877,0.721949,-0.0676644,0.993241,0.0716467,0.363037,0.833986,0.206877,0.721949,0.332207,-0.269505,1.05166,0.38183,-0.0359362,0.0482167,0.922274,-0.196,0.517853,0.397249,1.25588,-0.368114,1.65982,-3.00213,0.122756,-0.286281,-3.02586,0.12698,-0.238419,-0.613884,0.769547,-0.381657,0.250059,0.575436,0.17731,0.575177,1
1.51139,-0.424296,-1.58773,-0.96243,2.50248,1.16418,-0.397184,1.5088,-0.432384,-1.57703,-0.981438,2.49647,1.14008,-0.400978,1.57288,-0.498773,-1.53867,-0.999491,2.44532,1.12907,-0.451586,0.0630473,0.92723,-0.191986,0.224579,0.869861,0.123717,0.68663,0.0630473,0.92723,-0.191986,0.224579,0.869861,0.123717,0.68663,0.331075,-0.264457,1.05483,0.37738,-0.0383968,0.0485674,0.923987,-0.086071,0.461027,0.294022,1.22554,-0.367051,1.65604,-3.03434,0.106293,-0.378239,-3.02164,0.122508,-0.336398,-0.61482,0.744772,-0.490545,0.370606,0.57168,0.35109,0.544015,1
1.49839,-0.413988,-1.59163,-0.997236,2.52412,1.15005,-0.384144,1.508,-0.423596,-1.58546,-0.97475,2.50564,1.15597,-0.394994,1.5638,-0.488404,-1.54372,-1.00054,2.45573,1.12457,-0.44317,-0.843112,0.963053,-0.468659,-0.0978452,0.967663,-0.418468,0.781631,-0.843112,0.963053,-0.468659,-0.0978452,0.967663,-0.418468,0.781631,0.329818,-0.263077,1.05667,0.377245,-0.0356495,0.0499265,0.924079,-0.139513,0.126827,0.169212,1.19524,-0.365816,1.65141,-3.02969,0.12351,-0.463033,-3.01858,0.12037,-0.432833,-0.654108,0.744154,-0.479161,0.0330874,0.683808,0.254815,0.590257,1
1.48394,-0.405533,-1.5994,-1.02863,2.53285,1.16443,-0.374863,1.49803,-0.414451,-1.5926,-0.996382,2.52089,1.15718,-0.385084,1.55035,-0.477219,-1.54969,-1.00081,2.46535,1.12175,-0.434145,-1.24842,1.03875,-0.554414,-0.0246575,0.893215,-0.261348,0.83816,-1.24842,1.03875,-0.554414,-0.0246575,0.893215,-0.261348,0.83816,0.327047,-0.262723,1.05875,0.379516,-0.0338714,0.051974,0.923103,-0.275943,0.0247547,0.19211,1.1648,-0.365016,1.64568,-3.04408,0.0799358,-0.572777,-3.02149,0.113398,-0.528561,-0.664121,0.716854,-0.497093,-0.278182,0.674996,0.426775,0.592819,1
1.47129,-0.393438,-1.61393,-1.01812,2.53199,1.17718,-0.36843,1.48439,-0.404623,-1.60109,-1.01815,2.53045,1.16402,-0.375575,1.54003,-0.466076,-1.55648,-0.995996,2.47309,1.12631,-0.425902,-0.959217,1.03481,-0.631173,0.447122,0.718192,0.422918,0.76552,-0.959217,1.03481,-0.631173,0.447122,0.718192,0.422918,0.76552,0.322307,-0.261624,1.06205,0.382384,-0.0377447,0.0538866,0.921659,-0.417687,0.0817283,0.309143,1.13434,-0.364199,1.63901,-3.04549,0.0816822,-0.666988,-3.02878,0.106842,-0.624814,-0.687341,0.726382,-0.574422,-0.221232,0.589025,0.508748,0.574721,1
1.46909,-0.383535,-1.62432,-1.0137,2.53346,1.18893,-0.366435,1.4739,-0.393986,-1.61289,-1.01964,2.53257,1.17693,-0.369539,1.53207,-0.455519,-1.56369,-0.990716,2.48118,1.13368,-0.418221,-0.739297,0.980483,-0.668885,0.490365,0.751461,0.684673,0.713386,-0.739297,0.980483,-0.668885,0.490365,0.751461,0.684673,0.713386,0.317592,-0.260115,1.06522,0.384495,-0.0431154,0.0553349,0.920458,-0.403196,0.11838,0.298771,1.10385,-0.363282,1.63136,-3.04978,0.0917047,-0.765157,-3.03563,0.10014,-0.721258,-0.629729,0.71984,-0.606321,-0.229818,0.522806,0.552472,0.517855,1
1.46942,-0.37621,-1.63224,-1.02565,2.5432,1.20087,-0.36198,1.46972,-0.38418,-1.6237,-1.01779,2.53553,1.18898,-0.36582,1.52361,-0.445313,-1.57087,-0.992124,2.49105,1.13952,-0.409985,-0.785637,0.947867,-0.667303,-0.130797,0.916642,0.542358,0.764819,-0.785637,0.947867,-0.667303,-0.130797,0.916642,0.542358,0.764819,0.31534,-0.258397,1.06637,0.384745,-0.0448994,0.0569409,0.92017,-0.199872,0.142552,0.108814,1.07344,-0.362023,1.62245,-3.04067,0.125927,-0.890553,-3.04142,0.0979449,-0.820927,-0.541871,0.691027,-0.61369,-0.335228,0.521531,0.613501,0.480055,1
1.46418,-0.366988,-1.6397,-1.03428,2.55865,1.20406,-0.356737,1.46803,-0.375736,-1.63212,-1.02482,2.54463,1.19868,-0.361783,1.51386,-0.4352,-1.57838,-0.998593,2.50084,1.14561,-0.401434,-0.905122,0.939142,-0.697434,-0.600763,0.909495,0.565568,0.794216,-0.905122,0.939142,-0.697434,-0.600763,0.909495,0.565568,0.794216,0.314625,-0.256627,1.06592,0.38449,-0.0445711,0.059317,0.920142,-0.0751988,0.144593,-0.0419824,1.04341,-0.360618,1.61276,-3.00295,0.140518,-0.969517,-3.03905,0.102204,-0.921686,-0.496815,0.682123,-0.613226,-0.35687,0.578127,0.584509,0.44697,1
1.44893,-0.358871,-1.65259,-1.04028,2.56544,1.21029,-0.352788,1.46168,-0.367264,-1.64106,-1.03362,2.55649,1.20482,-0.35706,1.50393,-0.424958,-1.58696,-1.00382,2.50873,1.15339,-0.393507,-0.922203,0.951256,-0.796533,-0.485806,0.732385,0.722917,0.736139,-0.922203,0.951256,-0.796533,-0.485806,0.732385,0.722917,0.736139,0.313362,-0.254971,1.06562,0.385671,-0.0453795,0.0624837,0.919399,-0.121166,0.125196,-0.02588,1.01396,-0.358887,1.60209,-2.94461,0.173062,-1.06647,-3.02682,0.113421,-1.02266,-0.550014,0.660864,-0.656372,-0.364581,0.567169,0.56902,0.40719,1
1.43847,-0.352756,-1.66321,-1.04817,2.57136,1.21688,-0.347262,1.45013,-0.359372,-1.65202,-1.04075,2.56522,1.21038,-0.352394,1.49543,-0.414823,-1.59609,-1.00729,2.51539,1.16224,-0.386626,-0.789505,0.94119,-0.848055,-0.322356,0.618562,0.821283,0.639039,-0.789505,0.94119,-0.848055,-0.322356,0.618562,0.821283,0.639039,0.31178,-0.253098,1.06568,0.387506,-0.0473691,0.0659116,0.918287,-0.14378,0.140909,0.0091558,0.984276,-0.357408,1.59076,-2.96881,0.147969,-1.13292,-3.00988,0.12898,-1.11851,-0.569626,0.62068,-0.671178,-0.408765,0.559757,0.546478,0.393639,1
1.43997,-0.343566,-1.67202,-1.05947,2.57861,1.22497,-0.342775,1.44146,-0.351987,-1.66276,-1.04902,2.57169,1.21726,-0.347522,1.48862,-0.405109,-1.60504,-1.01165,2.52265,1.17129,-0.380452,-0.632456,0.90217,-0.831746,-0.404443,0.674907,0.841175,0.573403,-0.632456,0.90217,-0.831746,-0.404443,0.674907,0.841175,0.573403,0.310851,-0.250965,1.06538,0.388534,-0.0491162,0.068916,0.91754,-0.083722,0.168278,-0.0246765,0.954143,-0.356343,1.57828,-3.01332,0.106439,-1.24847,-2.99722,0.137335,-1.21336,-0.486473,0.615431,-0.669801,-0.478211,0.559596,0.536803,0.376767,1
1.44238,-0.335787,-1.68119,-1.06858,2.58939,1.23368,-0.34194,1.4402,-0.343919,-1.67211,-1.05892,2.57949,1.22513,-0.343688,1.48192,-0.395704,-1.61399,-1.01711,2.53106,1.17963,-0.374639,-0.621832,0.873444,-0.831224,-0.507116,0.780864,0.773797,0.539874,-0.621832,0.873444,-0.831224,-0.507116,0.780864,0.773797,0.539874,0.310366,-0.249181,1.06468,0.389299,-0.0499791,0.0713604,0.916982,-0.0475134,0.142153,-0.0626977,0.924168,-0.355673,1.56475,-2.99746,0.0669867,-1.3527,-2.98844,0.133561,-1.30771,-0.395475,0.59917,-0.671933,-0.514695,0.583248,0.540556,0.326982,1
1.43134,-0.332762,-1.69168,-1.0738,2.59951,1.24306,-0.341186,1.43902,-0.336976,-1.68152,-1.06761,2.58922,1.23385,-0.341961,1.47402,-0.386675,-1.62345,-1.02299,2.53955,1.18727,-0.36911,-0.733874,0.838537,-0.877702,-0.545682,0.788472,0.709872,0.513404,-0.733874,0.838537,-0.877702,-0.545682,0.788472,0.709872,0.513404,0.309816,-0.248286,1.06369,0.390936,-0.0501092,0.073662,0.916096,-0.0598908,0.0625375,-0.0895441,0.894659,-0.354573,1.55025,-2.95088,0.110015,-1.44984,-2.98088,0.124224,-1.40151,-0.426765,0.539121,-0.682353,-0.508139,0.599578,0.5579,0.279242,1
1.41681,-0.330723,-1.70199,-1.08002,2.60664,1.25183,-0.338217,1.43047,-0.333009,-1.69164,-1.07405,2.59876,1.24291,-0.340632,1.46593,-0.378054,-1.63322,-1.02946,2.54754,1.19472,-0.363745,-0.751526,0.800571,-0.907295,-0.600937,0.741843,0.692142,0.498249,-0.751526,0.800571,-0.907295,-0.600937,0.741843,0.692142,0.498249,0.309452,-0.247815,1.06237,0.392904,-0.0497425,0.0760421,0.915079,-0.0473648,0.0238626,-0.1214,0.864921,-0.353513,1.53501,-2.97382,0.105995,-1.52439,-2.97923,0.113131,-1.49619,-0.491153,0.473314,-0.687773,-0.50563,0.591039,0.571115,0.255284,1
1.41989,-0.323124,-1.711,-1.08857,2.61387,1.26056,-0.334195,1.42121,-0.329333,-1.70167,-1.0806,2.60667,1.25182,-0.337954,1.45953,-0.369571,-1.64288,-1.03678,2.55548,1.20228,-0.358761,-0.59388,0.787827,-0.897679,-0.680064,0.737468,0.701743,0.462901,-0.59388,0.787827,-0.897679,-0.680064,0.737468,0.701743,0.462901,0.309749,-0.246894,1.06073,0.394115,-0.0491234,0.0783557,0.914396,0.0125782,0.0664894,-0.150268,0.834953,-0.352457,1.5187,-2.99683,0.105649,-1.63124,-2.98295,0.103038,-1.59186,-0.39647,0.464461,-0.68121,-0.517856,0.583866,0.582799,0.24565,1
1.43399,-0.318559,-1.72036,-1.09863,2.62247,1.26837,-0.334097,1.42264,-0.323883,-1.71109,-1.08894,2.61421,1.26033,-0.335176,1.45443,-0.36147,-1.65248,-1.04444,2.56387,1.21012,-0.354585,-0.473512,0.752277,-0.891759,-0.711485,0.778763,0.728621,0.387736,-0.473512,0.752277,-0.891759,-0.711485,0.778763,0.728621,0.387736,0.310332,-0.245933,1.0589,0.39499,-0.0485361,0.0802126,0.913889,0.0406941,0.0737011,-0.168804,0.805165,-0.351186,1.50153,-2.97881,0.127101,-1.71636,-2.982,0.102138,-1.68784,-0.204452,0.429109,-0.678781,-0.541841,0.586033,0.582438,0.204886,1
1.41751,-0.321478,-1.73117,-1.10855,2.63093,1.27372,-0.340404,1.42634,-0.32043,-1.72072,-1.09859,2.62243,1.26775,-0.335698,1.44848,-0.354397,-1.66221,-1.0518,2.57254,1.21827,-0.351118,-0.553107,0.656877,-0.903599,-0.683356,0.805371,0.756638,0.322031,-0.553107,0.656877,-0.903599,-0.683356,0.805371,0.756638,0.322031,0.310392,-0.246123,1.05693,0.396717,-0.0480578,0.081391,0.913061,-0.00598268,-0.0282059,-0.182737,0.775637,-0.350079,1.48332,-2.9528,0.110641,-1.8217,-2.97583,0.106726,-1.78171,-0.309668,0.329183,-0.689542,-0.567531,0.583862,0.554437,0.107136,1
1.39747,-0.328157,-1.7413,-1.11674,2.63937,1.27997,-0.347775,1.41662,-0.322418,-1.731,-1.10812,2.63092,1.27394,-0.34067,1.4417,-0.348168,-1.67202,-1.05896,2.58102,1.22661,-0.347846,-0.629253,0.57846,-0.910561,-0.66473,0.78764,0.774306,0.303819,-0.629253,0.57846,-0.910561,-0.66473,0.78764,0.774306,0.303819,0.310027,-0.247229,1.05482,0.399083,-0.0476094,0.0822144,0.91198,-0.0450598,-0.11031,-0.195508,0.746362,-0.34874,1.46438,-2.92744,0.133893,-1.89337,-2.96864,0.114693,-1.87306,-0.442351,0.200108,-0.692812,-0.577824,0.583476,0.533639,0.000716764,1
1.40045,-0.323836,-1.75038,-1.12388,2.64267,1.28983,-0.348782,1.40322,-0.325407,-1.74104,-1.11648,2.63808,1.28087,-0.346184,1.43697,-0.342132,-1.68173,-1.06641,2.58927,1.23499,-0.344697,-0.439876,0.560492,-0.90174,-0.692077,0.766051,0.778242,0.29242,-0.439876,0.560492,-0.90174,-0.692077,0.766051,0.778242,0.29242,0.310191,-0.247826,1.05257,0.400578,-0.0471391,0.0829692,0.91128,0.00486433,-0.0624458,-0.208353,0.717137,-0.347863,1.44428,-2.92251,0.0877351,-2.01011,-2.96071,0.114478,-1.96624,-0.365158,0.182962,-0.686517,-0.574664,0.533996,0.548412,-0.0408447,1
1.39087,-0.335289,-1.75909,-1.13122,2.6559,1.28424,-0.356792,1.39731,-0.32778,-1.75029,-1.12393,2.64515,1.28597,-0.350533,1.43303,-0.337004,-1.69279,-1.07568,2.59864,1.24396,-0.343123,-0.504041,0.447949,-1.17357,-0.996359,0.991411,0.920971,0.0753328,-0.504041,0.447949,-1.17357,-0.996359,0.991411,0.920971,0.0753328,0.310838,-0.249379,1.0494,0.402542,-0.0458869,0.0828931,0.910485,0.0276251,-0.255082,-0.362431,0.686798,-0.347323,1.42336,-3.03389,0.053969,-2.09246,-2.96001,0.107866,-2.06049,-0.421609,0.0171415,-0.663013,-0.555476,0.572559,0.402849,-0.136692,1
1.3881,-0.351537,-1.7714,-1.1434,2.65835,1.30486,-0.350267,1.39257,-0.336488,-1.75999,-1.13243,2.6532,1.29079,-0.353158,1.42895,-0.333379,-1.70229,-1.08374,2.60666,1.25141,-0.342513,-0.378776,0.336624,-0.881908,-0.748741,0.745023,0.692089,0.0566109,-0.378776,0.336624,-0.881908,-0.748741,0.745023,0.692089,0.0566109,0.311131,-0.251551,1.04649,0.404965,-0.044553,0.0824055,0.909521,0.0131389,-0.196179,-0.273076,0.657419,-0.346401,1.40142,-2.93795,0.0922024,-2.19402,-2.95655,0.100384,-2.15438,-0.408562,-0.181587,-0.691139,-0.596642,0.516815,0.534551,-0.0775379,1
1.37625,-0.364478,-1.78153,-1.15053,2.66419,1.31387,-0.354215,1.38583,-0.35071,-1.77085,-1.14214,2.6592,1.30196,-0.352885,1.42256,-0.331398,-1.71192,-1.09187,2.61447,1.25873,-0.343425,-0.59381,0.183982,-0.894399,-0.755597,0.725128,0.680036,-0.0847162,-0.59381,0.183982,-0.894399,-0.755597,0.725128,0.680036,-0.0847162,0.310638,-0.255661,1.04318,0.409312,-0.0428522,0.0812015,0.907763,-0.0629711,-0.369151,-0.310562,0.627728,-0.345544,1.37862,-2.96908,0.0857711,-2.27969,-2.95825,0.0917839,-2.24844,-0.463064,-0.330799,-0.696109,-0.58652,0.497208,0.551342,-0.1079,1
1.36981,-0.369898,-1.7916,-1.15952,2.66439,1.32338,-0.357571,1.3776,-0.362598,-1.78151,-1.15099,2.66278,1.31399,-0.354067,1.41628,-0.330499,-1.72145,-1.09984,2.6221,1.2655,-0.345192,-0.582738,0.0835003,-0.885616,-0.739798,0.708053,0.628639,-0.164031,-0.582738,0.0835003,-0.885616,-0.739798,0.708053,0.628639,-0.164031,0.309987,-0.260511,1.0397,0.414108,-0.0408815,0.0794522,0.905831,-0.0782283,-0.432309,-0.326925,0.5985,-0.344465,1.35484,-2.92284,0.107849,-2.37803,-2.95856,0.0882064,-2.34222,-0.464724,-0.393993,-0.701468,-0.5968,0.422965,0.578817,-0.123796,1
1.36248,-0.377357,-1.80214,-1.17269,2.6692,1.3311,-0.367557,1.36959,-0.370408,-1.79172,-1.16056,2.66555,1.32293,-0.359229,1.41039,-0.331987,-1.73103,-1.10794,2.62983,1.27179,-0.347172,-0.547257,-0.138238,-0.889432,-0.752175,0.717908,0.583769,-0.183864,-0.547257,-0.138238,-0.889432,-0.752175,0.717908,0.583769,-0.183864,0.309157,-0.266976,1.03566,0.41893,-0.0383287,0.0764308,0.903984,-0.0952786,-0.569978,-0.381997,0.569189,-0.343651,1.3296,-2.9311,0.0814408,-2.52364,-2.95667,0.0851593,-2.44271,-0.479079,-0.453703,-0.711072,-0.647457,0.393753,0.593101,-0.203858,1
1.35035,-0.393324,-1.81198,-1.18402,2.67312,1.33591,-0.385383,1.36128,-0.379484,-1.80196,-1.17223,2.66898,1.33037,-0.369517,1.40429,-0.33664,-1.74093,-1.11644,2.63713,1.27929,-0.348592,-0.566903,-0.432149,-0.919164,-0.789324,0.677838,0.696388,-0.131877,-0.566903,-0.432149,-0.919164,-0.789324,0.677838,0.696388,-0.131877,0.307747,-0.275609,1.0307,0.423777,-0.0356894,0.0721416,0.902184,-0.14633,-0.759819,-0.471072,0.539676,-0.342491,1.30416,-2.95131,0.115961,-2.54439,-2.95187,0.0907042,-2.53733,-0.539336,-0.566835,-0.710487,-0.675847,0.359951,0.566284,-0.367911,1
1.33884,-0.403321,-1.82226,-1.19471,2.66767,1.34001,-0.392016,1.35051,-0.391831,-1.81209,-1.18386,2.67078,1.33573,-0.382585,1.39766,-0.343091,-1.75101,-1.12503,2.6435,1.28791,-0.349952,-0.615874,-0.599113,-0.936753,-0.797547,0.592143,0.801112,-0.126383,-0.615874,-0.599113,-0.936753,-0.797547,0.592143,0.801112,-0.126383,0.305745,-0.28542,1.02517,0.429044,-0.0332653,0.0674446,0.900148,-0.199205,-0.865578,-0.524446,0.510065,-0.341993,1.27721,-2.96103,0.0497907,-2.69464,-2.94366,0.0917997,-2.63559,-0.588205,-0.602293,-0.712457,-0.696856,0.241719,0.520962,-0.420638,1
1.32783,-0.409751,-1.83418,-1.2069,2.64285,1.34699,-0.394738,1.33896,-0.402429,-1.82267,-1.19509,2.66283,1.34073,-0.391038,1.39068,-0.34988,-1.76113,-1.13386,2.64898,1.29662,-0.352258,-0.647775,-0.630481,-0.939433,-0.820207,0.508782,0.808301,-0.214107,-0.647775,-0.630481,-0.939433,-0.820207,0.508782,0.808301,-0.214107,0.303557,-0.295374,1.01936,0.434996,-0.030726,0.0629614,0.897703,-0.218283,-0.879532,-0.549555,0.480312,-0.34094,1.24962,-2.9753,0.10528,-2.7591,-2.9481,0.0909192,-2.73171,-0.628485,-0.598708,-0.730464,-0.730448,-0.0612824,0.503728,-0.424805,1
1.32003,-0.416884,-1.84533,-1.21819,2.62259,1.35689,-0.397584,1.32863,-0.409926,-1.83399,-1.20668,2.64399,1.34772,-0.394769,1.38337,-0.357237,-1.77128,-1.14339,2.65395,1.305,-0.356547,-0.678519,-0.683283,-0.942462,-0.885617,0.461607,0.779153,-0.398358,-0.678519,-0.683283,-0.942462,-0.885617,0.461607,0.779153,-0.398358,0.301315,-0.305698,1.01307,0.441966,-0.0276703,0.058376,0.894703,-0.227349,-0.910484,-0.594847,0.450398,-0.340263,1.22098,-2.99142,0.0677228,-2.8641,-2.95531,0.0876712,-2.82765,-0.633417,-0.596464,-0.740543,-0.747947,-0.313619,0.51889,-0.410374,1
1.30402,-0.428507,-1.8568,-1.22666,2.63186,1.35919,-0.401312,1.31798,-0.418006,-1.84541,-1.21749,2.62997,1.35499,-0.397805,1.37521,-0.365835,-1.78142,-1.15345,2.65813,1.31264,-0.363018,-0.758621,-0.798455,-0.941923,-0.934008,0.388428,0.709237,-0.600964,-0.758621,-0.798455,-0.941923,-0.934008,0.388428,0.709237,-0.600964,0.298776,-0.316962,1.00617,0.450326,-0.0238451,0.0534735,0.890942,-0.26076,-0.991296,-0.651696,0.421169,-0.339329,1.19153,-2.92294,0.0934362,-2.94515,-2.96049,0.0847667,-2.9204,-0.711895,-0.626725,-0.753794,-0.732112,-0.262742,0.465527,-0.382942,1
1.29386,-0.442006,-1.86719,-1.2363,2.64892,1.35388,-0.409976,1.30548,-0.428976,-1.85653,-1.22695,2.63381,1.35729,-0.402546,1.3662,-0.374929,-1.79167,-1.1638,2.6593,1.31962,-0.369982,-0.836494,-0.844621,-0.952037,-0.961002,0.108413,0.648288,-0.646727,-0.836494,-0.844621,-0.952037,-0.961002,0.108413,0.648288,-0.646727,0.29611,-0.328369,0.99887,0.459591,-0.0193219,0.0497037,0.886528,-0.282028,-1.00909,-0.688649,0.392178,-0.338361,1.16104,-2.89903,0.0967443,-3.04846,-2.95611,0.0854381,-3.01131,-0.723371,-0.670772,-0.755165,-0.724966,-0.103797,0.342549,-0.399946,1
1.28754,-0.454242,-1.8764,-1.24848,2.65759,1.34887,-0.418549,1.29482,-0.441691,-1.86689,-1.23693,2.64682,1.35396,-0.409953,1.35686,-0.383627,-1.80219,-1.17446,2.6555,1.3266,-0.376142,-0.867048,-0.807762,-0.976658,-0.989652,-0.353339,0.648507,-0.572115,-0.867048,-0.807762,-0.976658,-0.989652,-0.353339,0.648507,-0.572115,0.293675,-0.338909,0.991328,0.469133,-0.0143755,0.0484908,0.881678,-0.272187,-0.944876,-0.707885,0.363276,-0.337342,1.12915,-2.89021,0.101978,-3.18979,-2.94327,0.0868708,-3.11238,-0.693224,-0.706153,-0.74214,-0.740198,0.0209354,0.222685,-0.42407,1
1.27931,-0.463016,-1.8859,-1.26003,2.65435,1.35927,-0.424322,1.28706,-0.453377,-1.87647,-1.24832,2.65461,1.35272,-0.417849,1.3472,-0.392171,-1.81293,-1.18515,2.64915,1.33366,-0.381526,-0.897479,-0.793503,-0.997609,-0.993182,-0.589106,0.655203,-0.499995,-0.897479,-0.793503,-0.997609,-0.993182,-0.589106,0.655203,-0.499995,0.291139,-0.349056,0.98363,0.478674,-0.00922843,0.0485539,0.876601,-0.287343,-0.915855,-0.72098,0.334421,-0.336,1.09673,-2.88557,0.134152,-3.2415,-2.92581,0.0967094,-3.20832,-0.678938,-0.708449,-0.729701,-0.748831,0.0519441,0.256094,-0.42796,1
1.2707,-0.472274,-1.89643,-1.27126,2.6465,1.37457,-0.432837,1.27921,-0.463137,-1.88616,-1.25995,2.6532,1.3605,-0.425007,1.33683,-0.401318,-1.82376,-1.19554,2.64534,1.33953,-0.38675,-0.962868,-0.84949,-1.00633,-0.964848,-0.354192,0.545396,-0.48517,-0.962868,-0.84949,-1.00633,-0.964848,-0.354192,0.545396,-0.48517,0.287848,-0.360145,0.975786,0.488178,-0.00359961,0.0469998,0.87147,-0.355162,-0.988038,-0.735797,0.306094,-0.334887,1.06306,-2.83262,0.111327,-3.36708,-2.90179,0.102408,-3.30915,-0.661315,-0.709564,-0.726657,-0.757226,0.0116287,0.350417,-0.460873,1
1.26454,-0.482271,-1.90768,-1.28197,2.6577,1.38785,-0.438777,1.27131,-0.472459,-1.89661,-1.27113,2.65126,1.37407,-0.432193,1.32639,-0.411351,-1.83448,-1.20583,2.64571,1.34312,-0.392516,-0.969651,-0.93183,-0.995451,-0.9554,0.0342455,0.332892,-0.535556,-0.969651,-0.93183,-0.995451,-0.9554,0.0342455,0.332892,-0.535556,0.28401,-0.372398,0.967676,0.49746,0.00299454,0.0427902,0.866426,-0.402254,-1.07165,-0.762821,0.278078,-0.334009,1.03047,-2.80165,0.0878155,-3.259,-2.87452,0.107175,-3.3885,-0.618528,-0.7092,-0.732014,-0.761412,0.119921,0.44737,-0.46261,1
1.25274,-0.491598,-1.91901,-1.2933,2.66746,1.38862,-0.444395,1.26313,-0.482104,-1.9077,-1.28212,2.65734,1.38472,-0.438697,1.31662,-0.421796,-1.84492,-1.21639,2.64792,1.3455,-0.398812,-0.907734,-0.969972,-0.969134,-0.980787,0.205513,0.221722,-0.584692,-0.907734,-0.969972,-0.969134,-0.980787,0.205513,0.221722,-0.584692,0.280157,-0.384815,0.959257,0.506261,0.0101731,0.0373278,0.861512,-0.400631,-1.07462,-0.791683,0.256788,-0.331623,1.03636,-2.12903,0.23852,0.589347,-2.78045,0.122415,-3.03117,-0.638756,-0.698028,-0.740887,-0.769168,0.195368,0.431117,-0.455829,1
1.23899,-0.48669,-1.92967,-1.30286,2.63885,1.38156,-0.450801,1.25225,-0.488039,-1.91884,-1.29286,2.65787,1.38666,-0.444592,1.30732,-0.43207,-1.85517,-1.22721,2.64923,1.34923,-0.405322,-0.863307,-0.954188,-0.951825,-1.00548,0.121768,0.346032,-0.604604,-0.863307,-0.954188,-0.951825,-1.00548,0.121768,0.346032,-0.604604,0.276257,-0.396499,0.950654,0.514766,0.0167896,0.0323946,0.856554,-0.400877,-1.01194,-0.806763,0.23516,-0.329089,1.04525,-2.16279,0.253466,0.88892,-2.6442,0.147304,-2.34,-0.683264,-0.546199,-0.745017,-0.756476,-0.103801,0.323306,-0.454791,1
1.21994,-0.39926,-1.93992,-1.29774,2.60216,1.36519,-0.437818,1.23767,-0.46606,-1.92957,-1.29919,2.63683,1.37923,-0.445954,1.29837,-0.442107,-1.86547,-1.23813,2.64974,1.3554,-0.412,-0.831097,-0.932163,-0.956508,-1.01359,0.04687,0.573242,-0.620174,-0.831097,-0.932163,-0.956508,-1.01359,0.04687,0.573242,-0.620174,0.272067,-0.407415,0.941944,0.523123,0.0222632,0.0280799,0.851503,-0.42026,-0.948934,-0.815028,0.215031,-0.32628,1.05345,-2.01286,0.280896,0.819337,-2.47344,0.17954,-1.47411,-0.784334,0.42847,-0.74458,-0.596094,-0.475778,0.0978276,-0.258177,1
1.20906,-0.397744,-1.94597,-1.23891,2.60746,1.33742,-0.400848,1.22198,-0.420739,-1.93887,-1.28431,2.61266,1.36234,-0.431821,1.28961,-0.452047,-1.87596,-1.24906,2.65163,1.36269,-0.418635,-0.813381,-0.9231,-0.974759,-1.01543,0.175483,0.676728,-0.616143,-0.813381,-0.9231,-0.974759,-1.01543,0.175483,0.676728,-0.616143,0.267432,-0.418146,0.933117,0.531241,0.0271408,0.0231762,0.846468,-0.453638,-0.929554,-0.825428,0.194187,-0.32322,1.06112,-2.08444,0.306019,0.76685,-2.30624,0.215983,-0.597479,-0.805506,0.543035,-0.700071,0.101544,-0.441692,-0.25268,0.177868,1
1.19719,-0.408147,-1.95545,-1.2034,2.65738,1.32293,-0.39784,1.20881,-0.400724,-1.94683,-1.24474,2.61861,1.34074,-0.409339,1.28033,-0.460992,-1.88662,-1.25995,2.65318,1.36865,-0.425086,-0.862241,-0.830681,-0.989624,-1.01081,0.144027,0.553257,-0.599082,-0.862241,-0.830681,-0.989624,-1.01081,0.144027,0.553257,-0.599082,0.262685,-0.428411,0.924472,0.539522,0.0325872,0.0187668,0.841131,-0.469175,-0.887211,-0.806654,0.173467,-0.319675,1.06698,-2.07195,0.354427,0.586379,-2.16936,0.259128,0.121879,-0.831387,0.52845,-0.688276,0.565461,0.0420558,-0.457141,0.272461,1
1.1857,-0.398177,-1.96288,-1.22283,2.68818,1.3159,-0.385621,1.19729,-0.403054,-1.95493,-1.21714,2.6526,1.3248,-0.395537,1.26973,-0.462252,-1.89729,-1.2697,2.64911,1.37128,-0.430272,-0.984607,-0.116952,-0.99122,-0.905738,-0.377284,0.244258,-0.481624,-0.984607,-0.116952,-0.99122,-0.905738,-0.377284,0.244258,-0.481624,0.25918,-0.434283,0.918662,0.548419,0.0385391,0.0204663,0.835064,-0.381244,-0.524202,-0.537232,0.153127,-0.316592,1.07157,-2.03407,0.308368,0.45954,-2.08024,0.292915,0.515723,-0.840222,0.640745,-0.655828,0.468656,0.390692,-0.55378,0.446508,1
1.1747,-0.379299,-1.96993,-1.24042,2.66274,1.31246,-0.389247,1.18583,-0.39595,-1.96278,-1.22237,2.67412,1.3168,-0.389582,1.25786,-0.451935,-1.90763,-1.27333,2.64005,1.36906,-0.430657,-1.10188,0.958102,-0.959632,-0.337221,-0.841435,-0.206311,-0.0357568,-1.10188,0.958102,-0.959632,-0.337221,-0.841435,-0.206311,-0.0357568,0.256585,-0.433965,0.918937,0.557292,0.0429527,0.029757,0.828671,-0.312976,-0.00988697,0.0305355,0.13194,-0.313815,1.07644,-2.11866,0.277627,0.486302,-2.07205,0.303653,0.465696,-0.831591,0.726361,-0.623032,0.329131,0.226832,-0.566007,0.414097,1
1.16235,-0.368826,-1.98081,-1.22897,2.63196,1.30212,-0.394126,1.17436,-0.3814,-1.97088,-1.23316,2.6614,1.31073,-0.38956,1.24567,-0.439208,-1.91737,-1.26622,2.63473,1.36202,-0.425359,-1.132,1.18192,-0.904761,0.659903,-0.494826,-0.653505,0.492024,-1.132,1.18192,-0.904761,0.659903,-0.494826,-0.653505,0.492024,0.251714,-0.433199,0.924076,0.565585,0.0443751,0.0381198,0.822612,-0.498453,0.0339123,0.483347,0.111088,-0.31104,1.07943,-2.08519,0.277582,0.298941,-2.06949,0.306086,0.367719,-0.833223,0.703814,-0.634378,0.372505,-0.0276934,-0.599001,0.312333,1
1.15046,-0.356887,-1.98473,-1.19799,2.67224,1.29888,-0.388163,1.16246,-0.368459,-1.97907,-1.22409,2.64972,1.30389,-0.391415,1.23365,-0.430223,-1.9267,-1.25403,2.63917,1.35277,-0.417948,-1.11671,0.834414,-0.867012,1.13296,0.412574,-0.859067,0.688273,-1.11671,0.834414,-0.867012,1.13296,0.412574,-0.859067,0.688273,0.244062,-0.435489,0.930102,0.573102,0.0442772,0.0398463,0.817316,-0.72131,-0.206763,0.563149,0.0914158,-0.307103,1.08126,-1.96722,0.393689,0.183761,-2.06632,0.313397,0.262626,-0.831908,0.733362,-0.58023,0.56035,0.330769,-0.538894,0.29785,1
1.13986,-0.344691,-1.98375,-1.19363,2.68998,1.28885,-0.364872,1.15078,-0.356823,-1.9835,-1.20465,2.66661,1.29718,-0.383831,1.22176,-0.421705,-1.93567,-1.24616,2.64785,1.34383,-0.410898,-1.10371,0.790997,-0.832644,0.730551,0.806716,-0.830209,0.654656,-1.10371,0.790997,-0.832644,0.730551,0.806716,-0.830209,0.654656,0.236978,-0.43818,0.934523,0.579423,0.0454805,0.0391179,0.812817,-0.665762,-0.225652,0.412975,0.0716145,-0.303685,1.08294,-1.98014,0.341752,0.167465,-2.04949,0.318931,0.163911,-0.819047,0.770139,-0.480817,0.525243,0.421291,-0.549821,0.460264,1
1.12802,-0.337122,-1.99947,-1.21257,2.68243,1.27416,-0.364827,1.13955,-0.345848,-1.98793,-1.19946,2.68366,1.28768,-0.370683,1.20998,-0.411688,-1.94442,-1.24293,2.65122,1.3356,-0.405595,-1.09392,0.930223,-0.812736,0.299978,0.312698,-0.763853,0.492467,-1.09392,0.930223,-0.812736,0.299978,0.312698,-0.763853,0.492467,0.232019,-0.439247,0.93768,0.58579,0.0485864,0.0414921,0.80794,-0.493293,-0.0906439,0.298204,0.0508199,-0.300817,1.08324,-2.07945,0.286806,0.0295758,-2.04104,0.318216,0.0725857,-0.81958,0.745665,-0.550506,0.303553,0.31212,-0.614477,0.407685,1
1.11479,-0.333574,-2.01816,-1.20674,2.67425,1.26795,-0.374013,1.12767,-0.338127,-2.00021,-1.20638,2.68228,1.27628,-0.367134,1.19817,-0.400945,-1.95303,-1.23825,2.65085,1.32772,-0.402071,-1.09671,0.997708,-0.799596,0.434801,-0.0345819,-0.731866,0.327268,-1.09671,0.997708,-0.799596,0.434801,-0.0345819,-0.731866,0.327268,0.22726,-0.439253,0.941606,0.593316,0.0510835,0.0460845,0.802024,-0.479953,-0.00756455,0.370489,0.0297608,-0.298173,1.08306,-2.10592,0.264463,-0.0176907,-2.04218,0.316459,-0.0158651,-0.833852,0.67371,-0.65126,0.315077,0.234054,-0.597747,0.280587,1
1.10317,-0.321177,-2.02456,-1.18297,2.68934,1.26633,-0.37418,1.11519,-0.331362,-2.01509,-1.20225,2.68007,1.2691,-0.371758,1.1864,-0.38998,-1.9606,-1.2299,2.65477,1.32013,-0.397538,-1.09382,1.01833,-0.703263,0.775453,0.363685,-0.704893,0.420985,-1.09382,1.01833,-0.703263,0.775453,0.363685,-0.704893,0.420985,0.221256,-0.438889,0.94725,0.600372,0.0510911,0.0488925,0.796588,-0.570083,0.0305576,0.527311,0.0098591,-0.295431,1.08175,-1.99017,0.274125,-0.130439,-2.0339,0.311329,-0.110066,-0.832246,0.688023,-0.639523,0.469275,0.345723,-0.537979,0.23358,1
1.09192,-0.30641,-2.02625,-1.16906,2.69528,1.25677,-0.360296,1.10326,-0.320585,-2.02338,-1.18543,2.68705,1.26435,-0.370667,1.17475,-0.379012,-1.96739,-1.22233,2.66195,1.31207,-0.390864,-1.08119,1.01855,-0.630562,0.702505,0.666908,-0.748943,0.619798,-1.08119,1.01855,-0.630562,0.702505,0.666908,-0.748943,0.619798,0.215336,-0.438504,0.952781,0.605829,0.0511596,0.0499638,0.792375,-0.55424,0.0426059,0.515233,-0.0110028,-0.292567,1.07979,-2.08619,0.2864,-0.196326,-2.04014,0.300974,-0.192188,-0.828302,0.726018,-0.588573,0.532679,0.333379,-0.553016,0.305683,1
1.0799,-0.298538,-2.03809,-1.17795,2.69639,1.24327,-0.347877,1.09173,-0.308134,-2.02879,-1.17476,2.69407,1.25578,-0.360662,1.16305,-0.368851,-1.97555,-1.21837,2.667,1.30317,-0.384967,-1.08656,0.943599,-0.757449,0.368162,0.469196,-0.826047,0.547668,-1.08656,0.943599,-0.757449,0.368162,0.469196,-0.826047,0.547668,0.210229,-0.438975,0.956453,0.611594,0.0538231,0.0513078,0.787669,-0.498259,-0.0287115,0.345278,-0.0318834,-0.289244,1.07596,-2.08806,0.332341,-0.383532,-2.05748,0.289994,-0.284669,-0.831494,0.703131,-0.625434,0.404213,0.293908,-0.599048,0.370896,1
1.06795,-0.294111,-2.05234,-1.18357,2.70095,1.23591,-0.346926,1.07992,-0.299399,-2.0387,-1.17713,2.69725,1.2448,-0.350744,1.15116,-0.359534,-1.98538,-1.21436,2.67025,1.2947,-0.381684,-1.10464,0.865279,-0.912507,0.371886,0.301689,-0.786504,0.304866,-1.10464,0.865279,-0.912507,0.371886,0.301689,-0.786504,0.304866,0.204651,-0.440074,0.959642,0.619133,0.0568173,0.0531785,0.781421,-0.547887,-0.0863667,0.301782,-0.0503904,-0.285713,1.07065,-1.8507,0.353074,-0.530934,-2.04352,0.295243,-0.395385,-0.832041,0.654232,-0.669673,0.307899,0.307034,-0.587905,0.347577,1
1.05593,-0.289185,-2.06233,-1.1682,2.71281,1.2321,-0.348802,1.06794,-0.293986,-2.05128,-1.17832,2.70278,1.2368,-0.347633,1.13926,-0.349854,-1.99482,-1.20717,2.67442,1.28716,-0.378946,-1.10546,0.898982,-0.877173,0.667678,0.387897,-0.70069,0.254279,-1.10546,0.898982,-0.877173,0.667678,0.387897,-0.70069,0.254279,0.198215,-0.440361,0.964286,0.627132,0.057621,0.055135,0.77482,-0.612606,-0.0186693,0.435295,-0.0714552,-0.283965,1.06609,-2.10648,0.174853,-0.455356,-2.03168,0.291657,-0.493041,-0.833205,0.606698,-0.675033,0.38978,0.383886,-0.550641,0.301442,1
1.04398,-0.282824,-2.0709,-1.15754,2.71234,1.22553,-0.355848,1.05595,-0.288826,-2.06197,-1.16938,2.70973,1.23141,-0.350094,1.12744,-0.339486,-2.00326,-1.19912,2.67931,1.27936,-0.374402,-1.09692,0.962937,-0.783992,0.748116,0.453533,-0.724172,0.422006,-1.09692,0.962937,-0.783992,0.748116,0.453533,-0.724172,0.422006,0.191956,-0.439761,0.969648,0.634067,0.0577767,0.0570519,0.769004,-0.590559,0.0606238,0.500923,-0.0937375,-0.281295,1.06018,-2.22824,0.266925,-0.591111,-2.04468,0.287211,-0.589638,-0.834665,0.566615,-0.67639,0.415769,0.330364,-0.538283,0.185544,1
1.0325,-0.272612,-2.08024,-1.16172,2.70904,1.21488,-0.356039,1.0441,-0.281861,-2.07109,-1.16125,2.71163,1.22451,-0.354134,1.11563,-0.329523,-2.01207,-1.19365,2.68377,1.27077,-0.368523,-1.09687,0.925226,-0.817818,0.507455,0.414206,-0.797619,0.546044,-1.09687,0.925226,-0.817818,0.507455,0.414206,-0.797619,0.546044,0.186299,-0.439668,0.973841,0.640192,0.0596564,0.0585503,0.763654,-0.544168,0.0222415,0.393582,-0.114167,-0.277255,1.05214,-2.043,0.404051,-0.804198,-2.06115,0.294116,-0.692591,-0.831298,0.569118,-0.681735,0.319344,0.252689,-0.558981,0.12483,1
1.02059,-0.266687,-2.09019,-1.16152,2.71861,1.20391,-0.334393,1.03239,-0.273684,-2.08039,-1.16063,2.71226,1.2148,-0.35058,1.10378,-0.320692,-2.02181,-1.18984,2.68849,1.26233,-0.363331,-1.10088,0.820226,-0.904936,0.353882,0.438729,-0.784182,0.482147,-1.10088,0.820226,-0.904936,0.353882,0.438729,-0.784182,0.482147,0.180438,-0.440527,0.976964,0.646589,0.0624198,0.0592158,0.757971,-0.565794,-0.0565562,0.294726,-0.133367,-0.273495,1.04371,-1.91997,0.376013,-0.842869,-2.0536,0.305762,-0.794059,-0.831854,0.540043,-0.68378,0.283198,0.301207,-0.584213,0.289375,1
1.00845,-0.274392,-2.10071,-1.14962,2.73233,1.19672,-0.320946,1.02054,-0.270095,-2.09033,-1.1586,2.71965,1.20485,-0.336443,1.09189,-0.312772,-2.03179,-1.18476,2.69377,1.25465,-0.360041,-1.10393,0.735478,-0.926941,0.472399,0.490197,-0.71366,0.305509,-1.10393,0.735478,-0.926941,0.472399,0.490197,-0.71366,0.305509,0.173774,-0.441574,0.980325,0.653865,0.0641917,0.0594505,0.751535,-0.631856,-0.0740702,0.315772,-0.154434,-0.270941,1.03442,-2.10663,0.255343,-0.92901,-2.05827,0.307337,-0.887244,-0.834432,0.383799,-0.68917,0.351335,0.385618,-0.579257,0.390956,1
0.996907,-0.314107,-2.11279,-1.14678,2.73685,1.19532,-0.335067,1.0086,-0.282395,-2.1011,-1.15189,2.73003,1.19817,-0.327838,1.08001,-0.30509,-2.04156,-1.17892,2.69821,1.24716,-0.358573,-1.10313,0.713449,-0.907049,0.542571,0.412323,-0.695557,0.136344,-1.10313,0.713449,-0.907049,0.542571,0.412323,-0.695557,0.136344,0.167003,-0.442315,0.983945,0.661841,0.0655297,0.0600913,0.744353,-0.640598,-0.0490494,0.339617,-0.193415,-0.266301,1.01359,-1.91742,0.259596,-1.10497,-2.02555,0.300352,-1.07971,-0.831083,-0.0901691,-0.712296,0.321386,0.386418,-0.518344,0.23506,1
0.98325,-0.27611,-2.123,-1.14033,2.74694,1.19401,-0.353734,0.996378,-0.294679,-2.11232,-1.14588,2.73824,1.19534,-0.336203,1.0666,-0.296807,-2.05254,-1.1741,2.70268,1.23779,-0.354705,-1.41486,0.820442,-1.16095,0.476124,0.521016,-1.01163,0.560889,-1.41486,0.820442,-1.16095,0.476124,0.521016,-1.01163,0.560889,0.159783,-0.44352,0.987233,0.669719,0.0683938,0.060382,0.736989,-0.797675,-0.129899,0.323885,-0.193415,-0.266301,1.01359,-1.91742,0.259596,-1.10497,-2.02555,0.300352,-1.07971,-0.833513,0.20697,-0.704614,0.337728,0.44258,-0.437763,0.00971215,1
0.970226,-0.266956,-2.13256,-1.13031,2.7577,1.17486,-0.322266,0.983408,-0.283321,-2.12284,-1.13944,2.74711,1.18955,-0.3412,1.05356,-0.291806,-2.06336,-1.16935,2.70828,1.22871,-0.349021,-1.38101,0.289052,-1.1591,0.536475,0.667996,-0.938223,0.650604,-1.38101,0.289052,-1.1591,0.536475,0.667996,-0.938223,0.650604,0.151517,-0.446327,0.989554,0.676508,0.071279,0.0585079,0.730638,-0.978178,-0.373463,0.186534,-0.214268,-0.262926,1.00222,-2.08524,0.337577,-1.13637,-2.00343,0.291475,-1.16445,-0.833381,0.248503,-0.691948,0.390423,0.494207,-0.538586,0.267551,1
0.959876,-0.283869,-2.14383,-1.13792,2.73617,1.16122,-0.320342,0.970895,-0.273473,-2.13298,-1.13472,2.74963,1.17624,-0.329652,1.04239,-0.289467,-2.07274,-1.16501,2.71369,1.22112,-0.343756,-1.0378,0.217216,-0.871035,0.403148,0.501984,-0.705053,0.488914,-1.0378,0.217216,-0.871035,0.403148,0.501984,-0.705053,0.488914,0.143542,-0.449641,0.99107,0.682112,0.0736017,0.055696,0.7254,-0.741747,-0.26452,0.141563,-0.234624,-0.259803,0.988663,-2.03561,0.312263,-1.35617,-2.00769,0.279046,-1.25084,-0.825137,0.0559837,-0.710859,0.270948,0.224797,-0.599037,0.23414,1
0.948993,-0.327025,-2.15448,-1.17475,2.73421,1.16012,-0.309017,0.959743,-0.29043,-2.14367,-1.14522,2.74106,1.16435,-0.317992,1.03095,-0.290762,-2.08258,-1.16026,2.71979,1.21472,-0.341879,-1.06197,-0.1203,-0.913556,0.441695,0.566776,-0.594991,0.174328,-1.06197,-0.1203,-0.913556,0.441695,0.566776,-0.594991,0.174328,0.133757,-0.454729,0.99159,0.689036,0.07538,0.0511896,0.718977,-0.898323,-0.419167,0.0460366,-0.275178,-0.254889,0.959824,-2.12078,0.215241,-1.44011,-2.01035,0.279883,-1.44835,-0.819622,-0.362627,-0.718998,-0.144943,0.144196,-0.545934,0.328624,1
0.936942,-0.289954,-2.16332,-1.16889,2.7568,1.15248,-0.301155,0.948701,-0.306968,-2.15403,-1.16408,2.74035,1.15849,-0.309883,1.01914,-0.288913,-2.09258,-1.15508,2.72658,1.20846,-0.341711,-1.09741,0.171757,-0.929165,0.480573,0.630549,-0.580825,0.0156785,-1.09741,0.171757,-0.929165,0.480573,0.630549,-0.580825,0.0156785,0.124504,-0.457865,0.993287,0.696729,0.0763355,0.0480394,0.711642,-0.848839,-0.249721,0.156929,-0.295411,-0.251729,0.944502,-2.02335,0.315991,-1.53224,-2.02406,0.286481,-1.54262,-0.821969,-0.0104144,-0.707422,-0.138045,0.302216,-0.559854,0.405553,1
0.92528,-0.276317,-2.17034,-1.16113,2.77875,1.14086,-0.286184,0.937039,-0.295813,-2.16287,-1.16841,2.75664,1.15148,-0.299378,1.00715,-0.285076,-2.10262,-1.15002,2.73231,1.20045,-0.338714,-1.11345,0.356359,-0.932454,0.470024,0.531966,-0.74376,0.278309,-1.11345,0.356359,-0.932454,0.470024,0.531966,-0.74376,0.278309,0.116057,-0.459945,0.995546,0.703531,0.0781093,0.0458067,0.704872,-0.782298,-0.153882,0.211387,-0.316096,-0.248169,0.926733,-2.06848,0.35601,-1.77693,-2.03887,0.291803,-1.64589,-0.818683,0.0875847,-0.677146,-0.111055,0.464423,-0.595924,0.525293,1
0.914449,-0.32673,-2.18362,-1.18211,2.74969,1.13252,-0.333708,0.925488,-0.29233,-2.17191,-1.16831,2.766,1.14168,-0.301808,0.995367,-0.286406,-2.11282,-1.14883,2.73448,1.19148,-0.333564,-1.09411,-0.123565,-0.947383,0.110696,0.202041,-0.833152,0.478251,-1.09411,-0.123565,-0.947383,0.110696,0.202041,-0.833152,0.478251,0.10711,-0.465418,0.994478,0.70918,0.083292,0.0416798,0.698848,-0.841212,-0.440584,-0.0961459,-0.334887,-0.244525,0.908347,-1.8791,0.364426,-1.83859,-2.0223,0.299227,-1.75434,-0.809178,-0.403234,-0.707988,-0.332797,0.152039,-0.589658,-0.00144423,1
0.910334,-0.323893,-2.19582,-1.2216,2.7123,1.15022,-0.355549,0.916128,-0.313417,-2.18335,-1.18674,2.74761,1.13903,-0.327287,0.98377,-0.291516,-2.12306,-1.15262,2.73594,1.18328,-0.327679,-1.07705,-0.474565,-0.95092,-0.351911,0.135333,-0.761547,0.546547,-1.07705,-0.474565,-0.95092,-0.351911,0.135333,-0.761547,0.546547,0.0977607,-0.473583,0.990121,0.713749,0.0908344,0.0352699,0.693591,-0.880712,-0.663603,-0.401858,-0.354271,-0.242634,0.889756,-1.93841,0.189038,-1.85912,-2.00605,0.297356,-1.84847,-0.734355,-0.323763,-0.727564,-0.689842,-0.236415,-0.330617,-0.2787,1
0.899935,-0.329331,-2.20407,-1.22552,2.71617,1.18223,-0.328688,0.908763,-0.325961,-2.19483,-1.21271,2.72261,1.1538,-0.343373,0.972156,-0.292584,-2.13296,-1.15654,2.74109,1.17538,-0.320645,-1.07852,-0.0991592,-0.91861,-0.364526,0.477747,-0.733867,0.653167,-1.07852,-0.0991592,-0.91861,-0.364526,0.477747,-0.733867,0.653167,0.0892213,-0.479453,0.987138,0.717502,0.096968,0.029088,0.689161,-0.796583,-0.462674,-0.272485,-0.374741,-0.240048,0.870569,-2.04697,0.258641,-1.91863,-1.99991,0.295335,-1.94022,-0.722209,-0.367465,-0.711098,-0.689777,-0.24917,0.0684962,-0.0804287,1
0.892364,-0.347532,-2.21603,-1.22838,2.76109,1.21139,-0.325637,0.900642,-0.332521,-2.205,-1.22526,2.72643,1.18152,-0.33464,0.960558,-0.292521,-2.14264,-1.15947,2.74728,1.167,-0.315964,-1.07708,0.00587372,-0.898951,-0.271608,0.57496,-0.777792,0.434754,-1.07708,0.00587372,-0.898951,-0.271608,0.57496,-0.777792,0.434754,0.0806644,-0.484428,0.984943,0.722001,0.102323,0.0230522,0.683896,-0.792334,-0.384422,-0.198732,-0.394049,-0.237041,0.849875,-1.93082,0.300699,-2.06939,-1.9766,0.294432,-2.03818,-0.681935,-0.550109,-0.733936,-0.689111,0.138095,0.443839,-0.0967276,1
0.901488,-0.34015,-2.22552,-1.23959,2.77343,1.21717,-0.336503,0.896538,-0.341136,-2.21541,-1.23047,2.75294,1.20554,-0.329116,0.949516,-0.297714,-2.15275,-1.16625,2.74736,1.16005,-0.318778,-1.02542,-0.482282,-0.939694,-0.62934,0.00760983,-0.645666,-0.261344,-1.02542,-0.482282,-0.939694,-0.62934,0.00760983,-0.645666,-0.261344,0.0716724,-0.492313,0.979141,0.728723,0.110466,0.0170017,0.675627,-0.847101,-0.633485,-0.531033,-0.413972,-0.234064,0.829175,-1.99231,0.297688,-2.07001,-1.96944,0.284742,-2.11954,-0.480282,-0.424362,-0.727662,-0.733461,0.260721,0.571165,-0.177254,1
0.890533,-0.326437,-2.23313,-1.25263,2.76256,1.20848,-0.353707,0.896468,-0.338567,-2.22505,-1.24005,2.76763,1.21355,-0.338087,0.939388,-0.304734,-2.16321,-1.17779,2.74121,1.1585,-0.32489,-0.940563,-0.651936,-0.971142,-1.07236,-0.571097,-0.144366,-0.567653,-0.940563,-0.651936,-0.971142,-1.07236,-0.571097,-0.144366,-0.567653,0.0637183,-0.500742,0.970606,0.735994,0.119884,0.0132748,0.666157,-0.768308,-0.686443,-0.781858,-0.434708,-0.231194,0.806132,-2.07355,0.287017,-2.30429,-1.9778,0.276572,-2.20009,-0.488548,-0.21703,-0.699161,-0.748358,0.213544,0.499868,-0.288161,1
0.860932,-0.373089,-2.243,-1.26553,2.6991,1.15517,-0.378929,0.885872,-0.341529,-2.23369,-1.25259,2.74942,1.19733,-0.355711,0.929759,-0.31164,-2.1736,-1.18959,2.73754,1.16422,-0.327314,-0.894242,-0.641318,-0.964345,-1.09545,-0.341081,0.531283,-0.225023,-0.894242,-0.641318,-0.964345,-1.09545,-0.341081,0.531283,-0.225023,0.0553179,-0.507768,0.962188,0.741514,0.12571,0.0100135,0.65898,-0.791645,-0.581506,-0.775064,-0.453899,-0.227763,0.783015,-1.91915,0.343075,-2.31173,-1.98979,0.282677,-2.28798,-0.68827,-0.614493,-0.693993,-0.7594,-0.384337,-0.0905087,-0.516157,1
0.851808,-0.368434,-2.25553,-1.27125,2.69349,1.14638,-0.367802,0.866051,-0.360262,-2.24366,-1.26373,2.71357,1.1663,-0.369842,0.921503,-0.31897,-2.18399,-1.19975,2.74137,1.17449,-0.327762,-0.766726,-0.680759,-0.965081,-0.943484,0.35558,0.953772,-0.0416032,-0.766726,-0.680759,-0.965081,-0.943484,0.35558,0.953772,-0.0416032,0.045764,-0.513874,0.95452,0.745571,0.127209,0.00470723,0.654155,-0.863008,-0.51322,-0.713584,-0.475046,-0.225774,0.757413,-2.11468,0.198944,-2.56023,-2.00464,0.289281,-2.39957,-0.696942,-0.494635,-0.715378,-0.715024,-0.478745,-0.281028,-0.400402,1
0.847238,-0.38144,-2.26478,-1.2799,2.72123,1.15721,-0.354445,0.852947,-0.372849,-2.25471,-1.27198,2.70183,1.15129,-0.367244,0.915281,-0.323841,-2.19419,-1.20976,2.74789,1.1842,-0.330328,-0.577782,-0.45229,-0.947685,-0.930104,0.606133,0.901576,-0.238318,-0.577782,-0.45229,-0.947685,-0.930104,0.606133,0.901576,-0.238318,0.0377153,-0.518577,0.947835,0.749528,0.127945,-0.000415805,0.649491,-0.719253,-0.392145,-0.621972,-0.49327,-0.222605,0.734044,-1.82242,0.316842,-2.33689,-1.9911,0.289869,-2.48808,-0.680427,-0.575989,-0.705895,-0.701322,-0.266625,-0.269815,-0.241174,1
