Afshin1997/kuka_rl_ros2/src/catch_and_throw/output_files/tm/nn_ema7.00_jvws1_realball_D29H10M13S31/recorded_data.csv
pure_target_joint_0,pure_target_joint_1,pure_target_joint_2,pure_target_joint_3,pure_target_joint_4,pure_target_joint_5,pure_target_joint_6,target_joint_0,target_joint_1,target_joint_2,target_joint_3,target_joint_4,target_joint_5,target_joint_6,pos_joint_0,pos_joint_1,pos_joint_2,pos_joint_3,pos_joint_4,pos_joint_5,pos_joint_6,vel_joint_0,vel_joint_1,vel_joint_2,vel_joint_3,vel_joint_4,vel_joint_5,vel_joint_6,vel_smooth_joint_0,vel_smooth_joint_1,vel_smooth_joint_2,vel_smooth_joint_3,vel_smooth_joint_4,vel_smooth_joint_5,vel_smooth_joint_6,ee_pos_x,ee_pos_y,ee_pos_z,ee_or_w,ee_or_x,ee_or_y,ee_or_z,eep_vel_x,eep_vel_y,eep_vel_z,ee_vel_offset_x,ee_vel_offset_y,ee_vel_offset_z,ball_pos_x,ball_pos_y,ball_pos_z,ball_raw_vx,ball_raw_vy,ball_raw_vz,ball_ema_vx,ball_ema_vy,ball_ema_vz,action_0,action_1,action_2,action_3,action_4,action_5,action_6,command_published
1.82627,-1.06013,-1.7769,-1.06205,2.00569,1.18717,-0.985114,1.82627,-1.06013,-1.7769,-1.06205,2.00569,1.18717,-0.985114,1.78083,-1.07189,-1.81515,-1.11983,1.93716,1.11684,-0.916293,0,-2.39771e-05,0,3.59547e-05,0,3.59547e-05,5.99099e-05,0,-2.39771e-05,0,3.59547e-05,0,3.59547e-05,5.99099e-05,0.533599,-0.455482,0.692009,0.572497,0.178252,0.150822,0.785955,-7.90192e-06,-1.85858e-05,-2.8581e-06,-9.80753e-06,-1.94201e-05,-1.85857e-06,2.95838,-0.498427,0.219346,-3.42011,0.0998735,5.33071,-3.42011,0.0893743,5.33071,0.454421,0.117605,0.382483,0.577808,0.68531,0.703356,-0.688211,1
1.82732,-1.06423,-1.7825,-1.06201,2.00764,1.18596,-0.985793,1.82732,-1.06423,-1.7825,-1.06201,2.00764,1.18596,-0.985793,1.78083,-1.07189,-1.81515,-1.11983,1.93716,1.11684,-0.916293,5.99317e-05,2.39771e-05,0,0,0,3.59547e-05,0,5.99317e-05,2.39771e-05,0,0,0,3.59547e-05,0,0.533599,-0.455482,0.692009,0.572497,0.178251,0.150822,0.785955,2.20206e-05,3.95551e-05,1.5161e-05,2.03134e-05,4.23627e-05,1.59249e-05,2.92405,-0.49734,0.271722,-3.43282,0.108781,5.23767,-3.43282,0.107049,5.23767,0.464941,0.0766588,0.326493,0.578211,0.704834,0.691215,-0.694996,1
1.81699,-1.06701,-1.78185,-1.06546,2.00867,1.18506,-0.984326,1.81699,-1.06701,-1.78185,-1.06546,2.00867,1.18506,-0.984326,1.78083,-1.07189,-1.81515,-1.11983,1.93716,1.11684,-0.916293,0,-1.1977e-05,2.39759e-05,8.3883e-05,-1.91982e-05,0,0,0,-1.1977e-05,2.39759e-05,8.3883e-05,-1.91982e-05,0,0,0.533599,-0.455482,0.692009,0.572497,0.178252,0.150822,0.785955,-1.28972e-05,-2.70813e-05,2.14379e-05,-1.50736e-05,-2.77731e-05,2.25698e-05,2.88887,-0.495908,0.322774,-3.51727,0.143152,5.1051,-3.51727,0.118909,5.1051,0.361581,0.0488429,0.332974,0.543664,0.715126,0.682209,-0.680322,1
1.82108,-1.05175,-1.77982,-1.06186,2.00712,1.185,-0.985231,1.82108,-1.05175,-1.77982,-1.06186,2.00712,1.185,-0.985231,1.78083,-1.07182,-1.81506,-1.11978,1.93725,1.11695,-0.916415,0.00143807,0.0135539,0.0168614,0.00479357,0.0179855,0.0228534,-0.0242795,0.00143807,0.0135539,0.0168614,0.00479357,0.0179855,0.0228534,-0.0242795,0.533557,-0.455465,0.692105,0.572557,0.17814,0.150771,0.785947,-0.00480495,0.0053944,0.0162245,-0.0067455,0.00561699,0.017202,2.85449,-0.494676,0.3733,-3.43871,0.123218,5.05267,-3.43871,0.122087,5.05267,0.402546,0.200621,0.352433,0.579194,0.698705,0.680492,-0.688164,1
1.73356,-1.05261,-1.77266,-1.04844,2.00942,1.1857,-0.992251,1.73356,-1.05261,-1.77266,-1.04844,2.00942,1.1857,-0.992251,1.78078,-1.07128,-1.81333,-1.1184,1.9403,1.12006,-0.919991,-0.0108335,0.0581581,0.230859,0.1971,0.449101,0.44524,-0.520032,-0.0108335,0.0581581,0.230859,0.1971,0.449101,0.44524,-0.520032,0.532515,-0.455744,0.6937,0.574186,0.175917,0.148724,0.785649,-0.11349,-0.0433776,0.193254,-0.149273,-0.0536174,0.21152,2.82046,-0.493465,0.422366,-3.40257,0.121135,4.90659,-3.40257,0.122499,4.90659,-0.472185,0.18675,0.406654,0.69962,0.691274,0.656402,-0.722606,1
1.7103,-1.03622,-1.75617,-1.03615,2.02339,1.19457,-1.00993,1.7103,-1.03622,-1.75617,-1.03615,2.02339,1.19457,-1.00993,1.7819,-1.07277,-1.80808,-1.11173,1.95729,1.13472,-0.937482,0.160161,-0.182608,0.422574,0.598351,1.44002,1.20544,-1.42483,0.160161,-0.182608,0.422574,0.598351,1.44002,1.20544,-1.42483,0.530061,-0.457461,0.696322,0.578576,0.171221,0.142285,0.784658,-0.197115,-0.171164,0.237407,-0.271346,-0.208393,0.274153,2.78687,-0.492337,0.470262,-3.35965,0.112784,4.78961,-3.35965,0.12092,4.78961,-0.715999,0.365478,0.519107,0.755824,0.660977,0.598501,-0.7245,1
1.70206,-1.03679,-1.74801,-1.03109,2.02673,1.19969,-1.01831,1.70206,-1.03679,-1.74801,-1.03109,2.02673,1.19969,-1.01831,1.78326,-1.07396,-1.80569,-1.10797,1.96545,1.14127,-0.945175,0.271448,-0.238325,0.478076,0.751538,1.6316,1.30934,-1.53843,0.271448,-0.238325,0.478076,0.751538,1.6316,1.30934,-1.53843,0.52701,-0.460222,0.699688,0.584516,0.164797,0.131793,0.783463,-0.20514,-0.236014,0.301372,-0.309295,-0.29299,0.349379,2.75302,-0.491114,0.517393,-3.38457,0.122228,4.71311,-3.38457,0.122815,4.71311,-0.811965,0.371701,0.576815,0.768819,0.612783,0.584232,-0.731311,1
1.7051,-1.03004,-1.7432,-1.02223,2.0435,1.2114,-1.03227,1.7051,-1.03004,-1.7432,-1.02223,2.0435,1.2114,-1.03227,1.78729,-1.07644,-1.80061,-1.09876,1.98213,1.1545,-0.960171,0.438049,-0.233447,0.520942,0.972965,1.64261,1.30251,-1.46125,0.438049,-0.233447,0.520942,0.972965,1.64261,1.30251,-1.46125,0.524117,-0.463129,0.703589,0.590501,0.157806,0.119926,0.78232,-0.173294,-0.226417,0.358254,-0.284949,-0.284161,0.405416,2.71891,-0.490015,0.563877,-3.41086,0.109974,4.64833,-3.41086,0.121076,4.64833,-0.821928,0.464019,0.574129,0.765251,0.613737,0.569019,-0.720992,1
1.70972,-1.02917,-1.73951,-1.01212,2.0585,1.22256,-1.04515,1.70972,-1.02917,-1.73951,-1.01212,2.0585,1.22256,-1.04515,1.792,-1.07781,-1.7948,-1.08839,1.99633,1.16638,-0.973066,0.47013,-0.106298,0.596729,1.05279,1.33482,1.14145,-1.22882,0.47013,-0.106298,0.596729,1.05279,1.33482,1.14145,-1.22882,0.521405,-0.465333,0.708372,0.59591,0.15043,0.109081,0.781257,-0.163633,-0.161271,0.451276,-0.271658,-0.204953,0.49322,2.6852,-0.489028,0.6092,-3.37079,0.0986397,4.53232,-3.37079,0.115399,4.53232,-0.822799,0.486379,0.552927,0.762681,0.621667,0.561869,-0.720793,1
1.713,-1.02279,-1.73822,-1.00052,2.06585,1.23255,-1.05433,1.713,-1.02279,-1.73822,-1.00052,2.06585,1.23255,-1.05433,1.79616,-1.07828,-1.78846,-1.07723,2.00716,1.1763,-0.98386,0.389526,-0.0262808,0.656085,1.14855,1.01447,0.948554,-1.04502,0.389526,-0.0262808,0.656085,1.14855,1.01447,0.948554,-1.04502,0.51853,-0.467338,0.713727,0.601123,0.14303,0.099732,0.779902,-0.202083,-0.17427,0.516432,-0.304168,-0.207344,0.553137,2.65017,-0.487924,0.653649,-3.50366,0.110412,4.44491,-3.50366,0.11232,4.44491,-0.8316,0.554893,0.502403,0.767096,0.58682,0.562463,-0.704726,1
1.71581,-1.02045,-1.73063,-0.988986,2.07455,1.24073,-1.06439,1.71581,-1.02045,-1.73063,-0.988986,2.07455,1.24073,-1.06439,1.79925,-1.07821,-1.78133,-1.06579,2.01621,1.18521,-0.994522,0.289161,0.0101264,0.722309,1.14462,0.88338,0.875428,-1.08862,0.289161,0.0101264,0.722309,1.14462,0.88338,0.875428,-1.08862,0.51513,-0.469466,0.719532,0.606748,0.135467,0.0910408,0.777957,-0.250811,-0.189903,0.544862,-0.351902,-0.219135,0.578464,2.61604,-0.486963,0.69639,-3.41308,0.0961155,4.27411,-3.41308,0.108628,4.27411,-0.834405,0.577542,0.506992,0.768021,0.583454,0.555211,-0.698671,1
1.71861,-1.01775,-1.72064,-0.977786,2.08447,1.24928,-1.07496,1.71861,-1.01775,-1.72064,-0.977786,2.08447,1.24928,-1.07496,1.80195,-1.07773,-1.77358,-1.05425,2.02516,1.19361,-1.00617,0.267781,0.0617773,0.791192,1.14492,0.905009,0.829457,-1.1829,0.267781,0.0617773,0.791192,1.14492,0.905009,0.829457,-1.1829,0.511415,-0.471603,0.725662,0.612776,0.12784,0.0823035,0.775493,-0.274138,-0.177364,0.586174,-0.377634,-0.206686,0.617743,2.58236,-0.486288,0.738146,-3.36766,0.0674695,4.17564,-3.36766,0.101923,4.17564,-0.833405,0.599819,0.529396,0.764641,0.5931,0.556733,-0.687948,1
1.72135,-1.01518,-1.71301,-0.966692,2.09372,1.25767,-1.08633,1.72135,-1.01518,-1.71301,-0.966692,2.09372,1.25767,-1.08633,1.8047,-1.07679,-1.76568,-1.04307,2.03468,1.20167,-1.01836,0.273318,0.109389,0.78254,1.12066,0.974401,0.804614,-1.23411,0.273318,0.109389,0.78254,1.12066,0.974401,0.804614,-1.23411,0.507668,-0.473508,0.731888,0.618719,0.120392,0.0734254,0.772853,-0.278775,-0.161247,0.595213,-0.382614,-0.191757,0.624035,2.54849,-0.485554,0.779228,-3.38695,0.0733972,4.10814,-3.38695,0.093565,4.10814,-0.833476,0.6161,0.526644,0.763818,0.590437,0.560061,-0.679701,1
1.72391,-1.01269,-1.70567,-0.955796,2.10328,1.26744,-1.09839,1.72391,-1.01269,-1.70567,-0.955796,2.10328,1.26744,-1.09839,1.80716,-1.07498,-1.75842,-1.03194,2.04514,1.21005,-1.0309,0.240015,0.20308,0.701768,1.09146,1.06239,0.850992,-1.25217,0.240015,0.20308,0.701768,1.09146,1.06239,0.850992,-1.25217,0.503589,-0.475446,0.738296,0.624886,0.11291,0.0644065,0.769819,-0.307796,-0.156462,0.609097,-0.412982,-0.185944,0.635505,2.51471,-0.484279,0.819595,-3.37758,0.127581,4.03674,-3.37758,0.0921148,4.03674,-0.832544,0.622896,0.527516,0.761421,0.581386,0.57388,-0.67488,1
1.72643,-1.00863,-1.69943,-0.945458,2.11286,1.27746,-1.10984,1.72643,-1.00863,-1.69943,-0.945458,2.11286,1.27746,-1.10984,1.80953,-1.07204,-1.75189,-1.02119,2.05573,1.21858,-1.04304,0.228965,0.330469,0.641153,1.08052,1.05006,0.851915,-1.19569,0.228965,0.330469,0.641153,1.08052,1.05006,0.851915,-1.19569,0.499404,-0.476972,0.744924,0.630861,0.105326,0.0557879,0.766687,-0.324832,-0.120429,0.652004,-0.42954,-0.143684,0.675862,2.48086,-0.482961,0.858114,-3.38538,0.131798,3.85187,-3.38538,0.0960825,3.85187,-0.830958,0.634127,0.524593,0.757337,0.571345,0.588845,-0.668036,1
1.72819,-1.00474,-1.69342,-0.935294,2.12162,1.28688,-1.12118,1.72819,-1.00474,-1.69342,-0.935294,2.12162,1.28688,-1.12118,1.81122,-1.06815,-1.74571,-1.01063,2.06594,1.22706,-1.05442,0.151424,0.397934,0.609437,1.03486,1.00747,0.84709,-1.12375,0.151424,0.397934,0.609437,1.03486,1.00747,0.84709,-1.12375,0.494827,-0.478362,0.751842,0.636767,0.0975707,0.0475834,0.763377,-0.361766,-0.115976,0.662933,-0.465026,-0.13483,0.684098,2.44796,-0.482096,0.895653,-3.28991,0.0864863,3.75389,-3.28991,0.0982146,3.75389,-0.83033,0.634067,0.522948,0.7534,0.556796,0.598249,-0.66758,1
1.7285,-0.998244,-1.69281,-0.924503,2.12712,1.29463,-1.13051,1.7285,-0.998244,-1.69281,-0.924503,2.12712,1.29463,-1.13051,1.81209,-1.06387,-1.73958,-1.00043,2.0757,1.23522,-1.06535,0.0586642,0.440287,0.622105,1.02599,0.965531,0.81164,-1.08307,0.0586642,0.440287,0.622105,1.02599,0.965531,0.81164,-1.08307,0.489889,-0.4798,0.758776,0.642619,0.0899112,0.0396548,0.759858,-0.41125,-0.132978,0.680708,-0.514038,-0.149359,0.699448,2.41362,-0.480826,0.932804,-3.43449,0.127006,3.71515,-3.43449,0.104968,3.71515,-0.835959,0.656256,0.4677,0.759254,0.514177,0.594083,-0.651616,1
1.72804,-0.992864,-1.68654,-0.914644,2.13432,1.30331,-1.14073,1.72804,-0.992864,-1.68654,-0.914644,2.13432,1.30331,-1.14073,1.81165,-1.05914,-1.73296,-0.990363,2.08516,1.24357,-1.07628,-0.0723865,0.485553,0.679235,1.0034,0.948561,0.852387,-1.1055,-0.0723865,0.485553,0.679235,1.0034,0.948561,0.852387,-1.1055,0.484148,-0.481463,0.766,0.64876,0.0819159,0.0316631,0.755909,-0.490586,-0.153462,0.712368,-0.597959,-0.167307,0.729533,2.37998,-0.479897,0.969006,-3.36382,0.0928819,3.62019,-3.36382,0.110053,3.62019,-0.836154,0.662759,0.464177,0.757187,0.491621,0.597383,-0.644502,1
1.7265,-0.986722,-1.67992,-0.904565,2.1422,1.31263,-1.15129,1.7265,-0.986722,-1.67992,-0.904565,2.1422,1.31263,-1.15129,1.81008,-1.05387,-1.7256,-0.980036,2.09489,1.25257,-1.0879,-0.188025,0.53566,0.755684,1.05181,0.985933,0.919776,-1.18021,-0.188025,0.53566,0.755684,1.05181,0.985933,0.919776,-1.18021,0.477437,-0.483358,0.773724,0.655406,0.0732706,0.0231701,0.751357,-0.586578,-0.187522,0.765996,-0.703063,-0.200416,0.781756,2.34638,-0.478922,1.00391,-3.3601,0.0975043,3.49087,-3.3601,0.109986,3.49087,-0.835841,0.671515,0.456796,0.754709,0.473089,0.600599,-0.633959,1
1.72371,-0.981272,-1.67332,-0.894788,2.14919,1.32188,-1.16312,1.72371,-0.981272,-1.67332,-0.894788,2.14919,1.32188,-1.16312,1.80738,-1.04854,-1.71792,-0.969822,2.1048,1.26208,-1.1,-0.288875,0.527271,0.761401,1.01105,0.985799,0.953812,-1.21008,-0.288875,0.527271,0.761401,1.01105,0.985799,0.953812,-1.21008,0.469966,-0.485581,0.781446,0.662391,0.0643973,0.0143095,0.746248,-0.639387,-0.213313,0.744612,-0.757322,-0.225581,0.75751,2.31312,-0.477945,1.03766,-3.3252,0.0976712,3.37429,-3.3252,0.10456,3.37429,-0.836708,0.672638,0.446019,0.750338,0.443888,0.597963,-0.63126,1
1.72005,-0.974951,-1.66826,-0.885075,2.15489,1.33089,-1.17426,1.72005,-0.974951,-1.66826,-0.885075,2.15489,1.33089,-1.17426,1.80382,-1.0432,-1.71059,-0.959617,2.1141,1.27146,-1.11165,-0.385674,0.547225,0.720845,1.02971,0.908829,0.928021,-1.14559,-0.385674,0.547225,0.720845,1.02971,0.908829,0.928021,-1.14559,0.46208,-0.488066,0.788924,0.669469,0.0556396,0.00573358,0.740731,-0.691666,-0.244561,0.737566,-0.807306,-0.252222,0.747543,2.2798,-0.477093,1.07036,-3.33276,0.085181,3.27026,-3.33276,0.0993108,3.27026,-0.837707,0.682494,0.423365,0.745422,0.407919,0.594364,-0.626136,1
1.7153,-0.967268,-1.66276,-0.875515,2.15928,1.33903,-1.18391,1.7153,-0.967268,-1.66276,-0.875515,2.15928,1.33903,-1.18391,1.79914,-1.03706,-1.70359,-0.94967,2.12241,1.28059,-1.12269,-0.492624,0.642418,0.697979,0.981017,0.81418,0.912729,-1.09681,-0.492624,0.642418,0.697979,0.981017,0.81418,0.912729,-1.09681,0.453673,-0.49041,0.796598,0.676642,0.0466651,-0.00209308,0.734829,-0.742062,-0.220865,0.766667,-0.855096,-0.219273,0.774238,2.24652,-0.47609,1.10234,-3.32775,0.100341,3.19772,-3.32775,0.0979789,3.19772,-0.838394,0.697909,0.408321,0.741551,0.368683,0.584344,-0.61225,1
1.70942,-0.959558,-1.65532,-0.866309,2.16437,1.34787,-1.19395,1.70942,-0.959558,-1.65532,-0.866309,2.16437,1.34787,-1.19395,1.79328,-1.03022,-1.69666,-0.939679,2.1303,1.29006,-1.13372,-0.622129,0.686857,0.689302,1.01004,0.786281,0.954375,-1.10992,-0.622129,0.686857,0.689302,1.01004,0.786281,0.954375,-1.10992,0.444496,-0.492757,0.804545,0.68414,0.0372148,-0.00967679,0.728336,-0.828147,-0.250574,0.785869,-0.944049,-0.243748,0.791077,2.2137,-0.475203,1.13369,-3.28178,0.0886768,3.13532,-3.28178,0.0939649,3.13532,-0.838609,0.70662,0.413437,0.733698,0.340653,0.578152,-0.602236,1
1.70225,-0.953076,-1.65197,-0.856193,2.16928,1.35774,-1.20532,1.70225,-0.953076,-1.65197,-0.856193,2.16928,1.35774,-1.20532,1.78645,-1.02371,-1.69003,-0.929608,2.138,1.29969,-1.14504,-0.688798,0.634556,0.658621,1.01115,0.764708,0.96461,-1.13763,-0.688798,0.634556,0.658621,1.01115,0.764708,0.96461,-1.13763,0.434784,-0.495529,0.812107,0.691991,0.0278626,-0.0172797,0.721161,-0.862554,-0.286295,0.737601,-0.977196,-0.278697,0.739954,2.18003,-0.474036,1.16412,-3.36688,0.116709,3.0425,-3.36688,0.0959826,3.0425,-0.84196,0.706345,0.380646,0.734147,0.312801,0.580481,-0.602734,1
1.69511,-0.946292,-1.64705,-0.845999,2.17463,1.36689,-1.21623,1.69511,-0.946292,-1.64705,-0.845999,2.17463,1.36689,-1.21623,1.77944,-1.0173,-1.68347,-0.919069,2.14537,1.3094,-1.15653,-0.70753,0.649106,0.656356,1.0729,0.727815,0.969404,-1.15132,-0.70753,0.649106,0.656356,1.0729,0.727815,0.969404,-1.15132,0.424794,-0.498326,0.819557,0.699936,0.018406,-0.0248993,0.713534,-0.89646,-0.285086,0.747003,-1.01245,-0.273176,0.746736,2.14639,-0.473105,1.19327,-3.36452,0.0930756,2.915,-3.36452,0.0969928,2.915,-0.843328,0.710096,0.364164,0.730701,0.292659,0.57486,-0.596992,1
1.68738,-0.939033,-1.64403,-0.836352,2.17845,1.37443,-1.22597,1.68738,-0.939033,-1.64403,-0.836352,2.17845,1.37443,-1.22597,1.77193,-1.01078,-1.67737,-0.908585,2.15201,1.31885,-1.16778,-0.764744,0.64539,0.591113,1.0496,0.645189,0.933426,-1.10786,-0.764744,0.64539,0.591113,1.0496,0.645189,0.933426,-1.10786,0.414616,-0.501034,0.826817,0.707901,0.00901885,-0.0320002,0.705529,-0.912493,-0.287164,0.713906,-1.02239,-0.269973,0.711316,2.11312,-0.472036,1.22123,-3.3273,0.106904,2.79653,-3.3273,0.0991305,2.79653,-0.845455,0.717451,0.333348,0.722334,0.264395,0.555737,-0.581879,1
1.67934,-0.932114,-1.63824,-0.826587,2.18256,1.38138,-1.23493,1.67934,-0.932114,-1.63824,-0.826587,2.18256,1.38138,-1.23493,1.76401,-1.00437,-1.67117,-0.897838,2.15788,1.32809,-1.17837,-0.802424,0.644935,0.633837,1.07626,0.576523,0.924079,-1.05036,-0.802424,0.644935,0.633837,1.07626,0.576523,0.924079,-1.05036,0.404159,-0.50371,0.83397,0.715689,-0.000436472,-0.0388723,0.697336,-0.94665,-0.277642,0.720287,-1.05698,-0.255932,0.715229,2.0797,-0.471368,1.24797,-3.34122,0.0668496,2.67439,-3.34122,0.0977923,2.67439,-0.846713,0.722522,0.329319,0.71251,0.246839,0.532856,-0.565595,1
1.67063,-0.92505,-1.63671,-0.816245,2.18396,1.38849,-1.24429,1.67063,-0.92505,-1.63671,-0.816245,2.18396,1.38849,-1.24429,1.75552,-0.99782,-1.66524,-0.887191,2.16333,1.33742,-1.18892,-0.867518,0.6601,0.574259,1.07591,0.538223,0.937073,-1.06092,-0.867518,0.6601,0.574259,1.07591,0.538223,0.937073,-1.06092,0.393408,-0.506263,0.840996,0.723503,-0.00998072,-0.0454556,0.688751,-0.98202,-0.279963,0.704144,-1.08975,-0.252773,0.696855,2.04632,-0.470625,1.27428,-3.33836,0.0742495,2.63078,-3.33836,0.0930874,2.63078,-0.848883,0.727699,0.285268,0.709468,0.206357,0.510724,-0.553652,1
1.66153,-0.918332,-1.63187,-0.806322,2.18826,1.39635,-1.25538,1.66153,-0.918332,-1.63187,-0.806322,2.18826,1.39635,-1.25538,1.74644,-0.991104,-1.65951,-0.875945,2.16861,1.34713,-1.19973,-0.910888,0.66934,0.579951,1.11923,0.527121,0.982001,-1.08539,-0.910888,0.66934,0.579951,1.11923,0.527121,0.982001,-1.08539,0.382063,-0.508864,0.848048,0.731591,-0.0198862,-0.0520655,0.679462,-1.02983,-0.277671,0.708098,-1.14008,-0.246038,0.697975,2.01312,-0.469768,1.29947,-3.31955,0.0857115,2.51831,-3.31955,0.0888003,2.51831,-0.849029,0.727718,0.276391,0.69623,0.196447,0.492156,-0.556464,1
1.6528,-0.911753,-1.63336,-0.797278,2.19126,1.40503,-1.26608,1.6528,-0.911753,-1.63336,-0.797278,2.19126,1.40503,-1.26608,1.73778,-0.98456,-1.65401,-0.865196,2.17353,1.35675,-1.21043,-0.854252,0.649566,0.528265,1.06716,0.47629,0.94823,-1.05668,-0.854252,0.649566,0.528265,1.06716,0.47629,0.94823,-1.05668,0.371112,-0.51099,0.854738,0.739206,-0.0295672,-0.0583869,0.670292,-0.979605,-0.232881,0.666003,-1.08307,-0.198523,0.654056,1.97961,-0.468616,1.32332,-3.35107,0.115168,2.38501,-3.35107,0.086943,2.38501,-0.849849,0.728072,0.206452,0.679188,0.177272,0.48285,-0.556488,1
1.64382,-0.904137,-1.63592,-0.789808,2.19079,1.40789,-1.27306,1.64382,-0.904137,-1.63592,-0.789808,2.19079,1.40789,-1.27306,1.72881,-0.977824,-1.64943,-0.85423,2.17789,1.36575,-1.22041,-0.905951,0.684691,0.447253,1.09356,0.42149,0.885039,-0.977411,-0.905951,0.684691,0.447253,1.09356,0.42149,0.885039,-0.977411,0.360125,-0.513037,0.86126,0.746751,-0.0390181,-0.0640115,0.660865,-1.00413,-0.229803,0.66378,-1.101,-0.189507,0.650434,1.94656,-0.467404,1.34598,-3.30567,0.121206,2.26643,-3.30567,0.0912209,2.26643,-0.849924,0.736873,0.135082,0.644218,0.128956,0.421492,-0.526528,1
1.63551,-0.896209,-1.64429,-0.785082,2.18455,1.41403,-1.27844,1.63551,-0.896209,-1.64429,-0.785082,2.18455,1.41403,-1.27844,1.72022,-0.970675,-1.64484,-0.843738,2.18167,1.37411,-1.22969,-0.846043,0.71652,0.458158,1.03815,0.360822,0.826749,-0.915658,-0.846043,0.71652,0.458158,1.03815,0.360822,0.826749,-0.915658,0.349548,-0.514333,0.867847,0.753644,-0.0483573,-0.0690641,0.651853,-0.955484,-0.152257,0.667585,-1.04679,-0.108206,0.652871,1.91396,-0.466598,1.36769,-3.26009,0.0806361,2.17144,-3.26009,0.0937504,2.17144,-0.847127,0.744663,0.00551129,0.586564,0.0287841,0.399227,-0.487494,1
1.62632,-0.889217,-1.66061,-0.776814,2.17306,1.41903,-1.28568,1.62632,-0.889217,-1.66061,-0.776814,2.17306,1.41903,-1.28568,1.7112,-0.963823,-1.64097,-0.833266,2.18494,1.38214,-1.2387,-0.923699,0.674037,0.358236,1.05525,0.318696,0.800132,-0.900462,-0.923699,0.674037,0.358236,1.05525,0.318696,0.800132,-0.900462,0.338932,-0.515741,0.87402,0.760581,-0.0573849,-0.0736385,0.642496,-0.98637,-0.193995,0.617349,-1.07111,-0.1471,0.601678,1.88035,-0.46561,1.38881,-3.36052,0.0987649,2.11197,-3.36052,0.0988938,2.11197,-0.848801,0.746054,-0.196318,0.56452,-0.11886,0.368903,-0.469844,1
1.61779,-0.881841,-1.66356,-0.772376,2.16584,1.4267,-1.2909,1.61779,-0.881841,-1.66356,-0.772376,2.16584,1.4267,-1.2909,1.70238,-0.956768,-1.63756,-0.822836,2.18801,1.38993,-1.2478,-0.859117,0.721374,0.340416,1.0338,0.300998,0.773384,-0.914603,-0.859117,0.721374,0.340416,1.0338,0.300998,0.773384,-0.914603,0.328501,-0.516784,0.880119,0.76737,-0.066309,-0.0778631,0.632995,-0.947571,-0.124294,0.629647,-1.02874,-0.0738939,0.612617,1.84755,-0.464756,1.40883,-3.28002,0.085476,2.00124,-3.28002,0.0997957,2.00124,-0.845879,0.749274,-0.259993,0.504608,-0.22173,0.36776,-0.431006,1
1.60873,-0.874949,-1.66958,-0.761726,2.15936,1.43259,-1.2986,1.60873,-0.874949,-1.66958,-0.761726,2.15936,1.43259,-1.2986,1.69375,-0.949737,-1.63544,-0.81283,2.19053,1.39745,-1.25701,-0.875224,0.692541,0.149224,1.0036,0.234349,0.73959,-0.920559,-0.875224,0.692541,0.149224,1.0036,0.234349,0.73959,-0.920559,0.318563,-0.517558,0.885795,0.774157,-0.0748506,-0.0812603,0.623277,-0.920236,-0.138107,0.562813,-0.989306,-0.083565,0.546483,1.81479,-0.463817,1.42788,-3.27556,0.0938892,1.90527,-3.27556,0.0977496,1.90527,-0.850163,0.747886,-0.341393,0.511044,-0.311676,0.351402,-0.415929,1
1.60011,-0.867644,-1.68135,-0.752533,2.15091,1.43544,-1.3021,1.60011,-0.867644,-1.68135,-0.752533,2.15091,1.43544,-1.3021,1.68512,-0.942628,-1.63522,-0.802862,2.19151,1.40457,-1.26588,-0.847038,0.729954,-0.00674696,0.990306,0.0524226,0.699575,-0.871413,-0.847038,0.729954,-0.00674696,0.990306,0.0524226,0.699575,-0.871413,0.309074,-0.518121,0.891094,0.781181,-0.0831496,-0.0831648,0.613128,-0.874365,-0.0922156,0.547256,-0.930384,-0.0270285,0.532024,1.78208,-0.462771,1.4461,-3.27151,0.104547,1.82234,-3.27151,0.0948332,1.82234,-0.850104,0.749836,-0.461275,0.503298,-0.406027,0.30873,-0.362163,1
1.5918,-0.859433,-1.69391,-0.746985,2.14195,1.42943,-1.29857,1.5918,-0.859433,-1.69391,-0.746985,2.14195,1.42943,-1.29857,1.67665,-0.934828,-1.63714,-0.793612,2.1902,1.41118,-1.27406,-0.856924,0.787645,-0.269183,0.921254,-0.192702,0.652394,-0.800492,-0.856924,0.787645,-0.269183,0.921254,-0.192702,0.652394,-0.800492,0.30044,-0.51788,0.896239,0.788245,-0.091379,-0.0828138,0.602877,-0.814097,-0.0456071,0.514593,-0.849519,0.0340449,0.502167,1.74966,-0.461702,1.46326,-3.2415,0.106877,1.71598,-3.2415,0.0948317,1.71598,-0.84856,0.753947,-0.567734,0.466271,-0.482474,0.182471,-0.245054,1
1.58333,-0.851587,-1.70504,-0.74634,2.13435,1.41594,-1.30055,1.58333,-0.851587,-1.70504,-0.74634,2.13435,1.41594,-1.30055,1.66784,-0.926823,-1.64146,-0.784666,2.18645,1.4176,-1.28154,-0.880521,0.80924,-0.470382,0.8842,-0.431959,0.644245,-0.728049,-0.880521,0.80924,-0.470382,0.8842,-0.431959,0.644245,-0.728049,0.29232,-0.51735,0.900987,0.79566,-0.0995626,-0.0802691,0.592088,-0.778312,-0.0191931,0.480619,-0.796935,0.0733525,0.469825,1.71708,-0.460396,1.47977,-3.25844,0.130597,1.65044,-3.25844,0.101445,1.65044,-0.845107,0.75236,-0.635789,0.383253,-0.521066,-0.0166373,-0.190129,1
1.5754,-0.843623,-1.7127,-0.767949,2.1299,1.40177,-1.31026,1.5754,-0.843623,-1.7127,-0.767949,2.1299,1.40177,-1.31026,1.65904,-0.918433,-1.64716,-0.776623,2.1807,1.42398,-1.28837,-0.88734,0.851004,-0.611553,0.787585,-0.622456,0.635832,-0.672491,-0.88734,0.851004,-0.611553,0.787585,-0.622456,0.635832,-0.672491,0.284919,-0.516132,0.905534,0.802928,-0.107816,-0.0759607,0.581303,-0.722413,0.036672,0.459609,-0.725728,0.139185,0.449751,1.68439,-0.459501,1.49532,-3.26928,0.0895888,1.55524,-3.26928,0.104149,1.55524,-0.836444,0.748104,-0.655381,0.0867422,-0.507974,-0.222068,-0.218853,1
1.56667,-0.835393,-1.7198,-0.800698,2.125,1.39281,-1.31381,1.56667,-0.835393,-1.7198,-0.800698,2.125,1.39281,-1.31381,1.64976,-0.910058,-1.65436,-0.768545,2.17353,1.43008,-1.29471,-0.936114,0.827048,-0.750159,0.811325,-0.745172,0.600132,-0.617713,-0.936114,0.827048,-0.750159,0.811325,-0.745172,0.600132,-0.617713,0.277689,-0.514924,0.909793,0.810406,-0.115945,-0.0703271,0.569959,-0.726613,0.0116714,0.424332,-0.71734,0.119098,0.414684,1.65147,-0.458785,1.50976,-3.29202,0.0715345,1.44393,-3.29202,0.103278,1.44393,-0.830939,0.746657,-0.65437,-0.321526,-0.485289,-0.372623,-0.191036,1
1.55925,-0.827217,-1.72286,-0.82095,2.13081,1.3817,-1.30554,1.55925,-0.827217,-1.72286,-0.82095,2.13081,1.3817,-1.30554,1.6407,-0.901945,-1.66254,-0.760906,2.16523,1.43474,-1.29971,-0.895028,0.808584,-0.842308,0.741746,-0.857344,0.405113,-0.451517,-0.895028,0.808584,-0.842308,0.741746,-0.857344,0.405113,-0.451517,0.271224,-0.513686,0.913709,0.81749,-0.123238,-0.0634497,0.559014,-0.642876,0.025498,0.391084,-0.615433,0.130328,0.383744,1.61857,-0.457719,1.523,-3.28972,0.106668,1.32366,-3.28972,0.101672,1.32366,-0.814521,0.747282,-0.603242,-0.600438,-0.344244,-0.530465,-0.0582834,1
1.55068,-0.817841,-1.72421,-0.817973,2.14241,1.37618,-1.28465,1.55068,-0.817841,-1.72421,-0.817973,2.14241,1.37618,-1.28465,1.63174,-0.89373,-1.67204,-0.753656,2.15615,1.43629,-1.30303,-0.897952,0.82209,-0.981089,0.715512,-0.917899,0.0738486,-0.298283,-0.897952,0.82209,-0.981089,0.715512,-0.917899,0.0738486,-0.298283,0.265667,-0.512558,0.9175,0.824255,-0.128937,-0.0549851,0.548595,-0.585217,0.00970621,0.378635,-0.535445,0.108194,0.375055,1.58568,-0.456592,1.53523,-3.28895,0.112706,1.22365,-3.28895,0.100422,1.22365,-0.810568,0.75889,-0.52169,-0.643171,-0.137401,-0.601077,0.18387,1
1.54113,-0.808025,-1.72252,-0.804364,2.16357,1.37068,-1.27476,1.54113,-0.808025,-1.72252,-0.804364,2.16357,1.37068,-1.27476,1.62331,-0.885504,-1.68243,-0.749017,2.14693,1.4347,-1.30592,-0.818519,0.821407,-1.05482,0.34851,-0.921504,-0.238947,-0.299805,-0.818519,0.821407,-1.05482,0.34851,-0.921504,-0.238947,-0.299805,0.261909,-0.511192,0.92082,0.830422,-0.132404,-0.0451205,0.53929,-0.381162,0.0685564,0.309095,-0.307488,0.152279,0.31087,1.55315,-0.455964,1.54668,-3.25336,0.0627846,1.14475,-3.25336,0.0950299,1.14475,-0.821827,0.774787,-0.400895,-0.553471,0.166404,-0.640185,0.311652,1
1.53113,-0.799331,-1.70244,-0.78398,2.18834,1.36055,-1.28298,1.53113,-0.799331,-1.70244,-0.78398,2.18834,1.36055,-1.28298,1.61455,-0.877064,-1.69334,-0.748774,2.13842,1.42954,-1.30894,-0.919632,0.858188,-1.10288,-0.0741362,-0.807929,-0.601132,-0.281109,-0.919632,0.858188,-1.10288,-0.0741362,-0.807929,-0.601132,-0.281109,0.26005,-0.509612,0.923521,0.835973,-0.133056,-0.0339573,0.531312,-0.259611,0.0869548,0.251053,-0.16304,0.152208,0.258301,1.52034,-0.455442,1.55726,-3.28075,0.0521839,1.0585,-3.28075,0.0861844,1.0585,-0.834218,0.777333,-0.0910276,-0.352061,0.499248,-0.689966,0.259632,1
1.51923,-0.794127,-1.68338,-0.762788,2.19119,1.35322,-1.29382,1.51923,-0.794127,-1.68338,-0.762788,2.19119,1.35322,-1.29382,1.60416,-0.868412,-1.70377,-0.753739,2.13289,1.42143,-1.30984,-1.0706,0.867236,-1.00664,-0.645343,-0.444041,-0.868506,-0.00981532,-1.0706,0.867236,-1.00664,-0.645343,-0.444041,-0.868506,-0.00981532,0.259273,-0.508207,0.925547,0.840196,-0.130861,-0.0226371,0.525769,-0.153161,0.100491,0.168536,-0.0471,0.137365,0.180351,1.48751,-0.454465,1.56645,-3.28326,0.0977129,0.918806,-3.28326,0.0841054,0.918806,-0.849319,0.742848,0.203945,-0.09049,0.582952,-0.682111,0.160229,1
1.50616,-0.786899,-1.68303,-0.756744,2.18939,1.34215,-1.29198,1.50616,-0.786899,-1.68303,-0.756744,2.18939,1.34215,-1.29198,1.59189,-0.859764,-1.71274,-0.762754,2.13177,1.41175,-1.3078,-1.289,0.864348,-0.86376,-0.950696,-0.0110258,-0.991803,0.268597,-1.289,0.864348,-0.86376,-0.950696,-0.0110258,-0.991803,0.268597,0.258581,-0.507276,0.927064,0.842887,-0.126553,-0.0126125,0.522845,-0.194435,0.0558387,0.129457,-0.0934367,0.069027,0.142761,1.45466,-0.453344,1.57462,-3.28474,0.11206,0.816536,-3.28474,0.0856461,0.816536,-0.857283,0.728644,0.297105,0.0601039,0.576176,-0.696007,0.158176,1
1.49247,-0.779973,-1.69209,-0.784934,2.1929,1.33094,-1.28279,1.49247,-0.779973,-1.69209,-0.784934,2.1929,1.33094,-1.28279,1.57809,-0.851307,-1.71964,-0.773123,2.13467,1.4018,-1.30331,-1.39147,0.834147,-0.627486,-1.04668,0.397062,-0.991396,0.505088,-1.39147,0.834147,-0.627486,-1.04668,0.397062,-0.991396,0.505088,0.256989,-0.506945,0.928518,0.844489,-0.121398,-0.0047472,0.521612,-0.262005,0.0242807,0.131144,-0.179269,0.0185875,0.143799,1.42237,-0.452425,1.58185,-3.22926,0.0918955,0.722814,-3.22926,0.0852645,0.722814,-0.856226,0.713339,0.275461,-0.118107,0.582298,-0.70855,0.205275,1
1.4788,-0.772762,-1.68711,-0.771684,2.20045,1.32099,-1.28198,1.4788,-0.772762,-1.68711,-0.771684,2.20045,1.32099,-1.28198,1.56453,-0.843677,-1.72309,-0.78178,2.14207,1.39173,-1.29793,-1.32987,0.738462,-0.242195,-0.79322,0.85326,-1.01171,0.518235,-1.32987,0.738462,-0.242195,-0.79322,0.85326,-1.01171,0.518235,0.25406,-0.507329,0.930484,0.845293,-0.116134,-0.000732183,0.521529,-0.374943,-0.0270974,0.204425,-0.327037,-0.0534379,0.215744,1.38952,-0.451608,1.58826,-3.28435,0.0817358,0.641108,-3.28435,0.086164,0.641108,-0.857291,0.709152,0.359864,0.100952,0.583806,-0.707423,0.15945,1
1.4674,-0.765269,-1.67929,-0.763351,2.21191,1.30917,-1.28315,1.4674,-0.765269,-1.67929,-0.763351,2.21191,1.30917,-1.28315,1.55262,-0.837153,-1.72277,-0.787041,2.15333,1.38125,-1.29456,-1.1364,0.615825,0.121104,-0.416774,1.20282,-1.05344,0.274661,-1.1364,0.615825,0.121104,-0.416774,1.20282,-1.05344,0.274661,0.249979,-0.508277,0.933286,0.845991,-0.111167,-0.000958092,0.521478,-0.449464,-0.0664663,0.289626,-0.435902,-0.109759,0.299566,1.35736,-0.450599,1.59372,-3.21672,0.10089,0.546682,-3.21672,0.0921498,0.546682,-0.852115,0.718845,0.434805,0.2369,0.585836,-0.720748,0.114097,1
1.45848,-0.757922,-1.66919,-0.752894,2.22357,1.29818,-1.27503,1.45848,-0.757922,-1.66919,-0.752894,2.22357,1.29818,-1.27503,1.54367,-0.831719,-1.71895,-0.788474,2.16588,1.37057,-1.29296,-0.807373,0.525965,0.462399,-0.0638176,1.23816,-1.08003,0.134934,-0.807373,0.525965,0.462399,-0.0638176,1.23816,-1.08003,0.134934,0.245545,-0.509158,0.936965,0.846397,-0.107095,-0.00426918,0.521656,-0.420407,-0.0217641,0.381497,-0.431719,-0.0697961,0.388814,1.32494,-0.449888,1.59818,-3.24124,0.0711143,0.445771,-3.24124,0.093322,0.445771,-0.851918,0.73797,0.497558,0.3558,0.576894,-0.723894,0.179307,1
1.45205,-0.752113,-1.66135,-0.743705,2.23469,1.28734,-1.26613,1.45205,-0.752113,-1.66135,-0.743705,2.23469,1.28734,-1.26613,1.53722,-0.827028,-1.71366,-0.787484,2.17699,1.35924,-1.29138,-0.607927,0.461656,0.521866,0.132693,1.06359,-1.14495,0.166046,-0.607927,0.461656,0.521866,0.132693,1.06359,-1.14495,0.166046,0.241594,-0.50977,0.941015,0.846429,-0.103488,-0.00813215,0.522285,-0.367883,-0.00931347,0.398562,-0.380327,-0.0553132,0.404849,1.29288,-0.449005,1.60202,-3.20637,0.0882864,0.384319,-3.20637,0.0897086,0.384319,-0.851733,0.749144,0.523041,0.437794,0.576906,-0.718994,0.252474,1
1.44691,-0.745105,-1.65113,-0.738953,2.24556,1.27656,-1.25389,1.44691,-0.745105,-1.65113,-0.738953,2.24556,1.27656,-1.25389,1.53188,-0.821573,-1.70806,-0.786041,2.18653,1.34778,-1.28957,-0.52527,0.587421,0.58047,0.141058,0.923844,-1.1494,0.181889,-0.52527,0.587421,0.58047,0.141058,0.923844,-1.1494,0.181889,0.238243,-0.509429,0.945553,0.846147,-0.100524,-0.0112631,0.523262,-0.314663,0.107719,0.471624,-0.325375,0.0715303,0.476114,1.26067,-0.448022,1.60437,-3.22089,0.0982463,0.234115,-3.22089,0.0875915,0.234115,-0.849695,0.764679,0.569319,0.470874,0.59027,-0.712275,0.356883,1
1.44055,-0.737797,-1.64357,-0.736183,2.25209,1.26566,-1.2488,1.44055,-0.737797,-1.64357,-0.736183,2.25209,1.26566,-1.2488,1.52547,-0.815129,-1.70184,-0.784111,2.19534,1.33605,-1.28767,-0.695956,0.645731,0.642939,0.236839,0.883879,-1.17693,0.205872,-0.695956,0.645731,0.642939,0.236839,0.883879,-1.17693,0.205872,0.234271,-0.508574,0.950768,0.846044,-0.0981942,-0.0139693,0.523806,-0.430472,0.105401,0.529572,-0.44235,0.0744277,0.532826,1.22856,-0.447056,1.60587,-3.21089,0.0966042,0.150275,-3.21089,0.0888252,0.150275,-0.849228,0.773315,0.582702,0.47928,0.567578,-0.7039,0.388682,1
1.43193,-0.732163,-1.64139,-0.737347,2.25384,1.25528,-1.24692,1.43193,-0.732163,-1.64139,-0.737347,2.25384,1.25528,-1.24692,1.51709,-0.809145,-1.695,-0.779801,2.20453,1.32373,-1.28486,-0.864882,0.572258,0.696579,0.489173,0.934307,-1.26147,0.311966,-0.864882,0.572258,0.696579,0.489173,0.934307,-1.26147,0.311966,0.22836,-0.508674,0.956324,0.846473,-0.0961072,-0.0174392,0.523395,-0.608377,-0.00260353,0.55257,-0.626636,-0.0371888,0.555241,1.19635,-0.445822,1.60694,-3.22138,0.123394,0.107408,-3.22138,0.0939514,0.107408,-0.851605,0.76982,0.536034,0.42454,0.493118,-0.684486,0.3794,1
1.42389,-0.727156,-1.63208,-0.742278,2.25866,1.24507,-1.23874,1.42389,-0.727156,-1.63208,-0.742278,2.25866,1.24507,-1.23874,1.50878,-0.803791,-1.68757,-0.773471,2.21443,1.31067,-1.28056,-0.807383,0.530709,0.759171,0.677776,1.00844,-1.30686,0.47629,-0.807383,0.530709,0.759171,0.677776,1.00844,-1.30686,0.47629,0.221637,-0.509352,0.962053,0.846646,-0.0939902,-0.0218533,0.523335,-0.654866,-0.0259998,0.577919,-0.681988,-0.0643535,0.579504,1.16447,-0.44528,1.60702,-3.18769,0.0542164,0.00789165,-3.18769,0.092982,0.00789165,-0.848887,0.766349,0.554918,0.311934,0.442367,-0.655968,0.418189,1
1.41704,-0.722827,-1.62184,-0.749324,2.26371,1.23632,-1.22784,1.41704,-0.722827,-1.62184,-0.749324,2.26371,1.23632,-1.22784,1.50156,-0.798433,-1.67984,-0.766162,2.22491,1.29737,-1.27454,-0.698772,0.541123,0.767944,0.730721,1.04889,-1.32279,0.634934,-0.698772,0.541123,0.767944,0.730721,1.04889,-1.32279,0.634934,0.215007,-0.509834,0.967977,0.846043,-0.0920624,-0.0267802,0.524421,-0.621585,0.00454509,0.589645,-0.652082,-0.0349886,0.59038,1.13215,-0.444699,1.60584,-3.23207,0.0581443,-0.118136,-3.23207,0.0900569,-0.118136,-0.84519,0.756061,0.580014,0.168372,0.388026,-0.610579,0.467016,1
1.41113,-0.718185,-1.61112,-0.774968,2.27013,1.227,-1.21764,1.41113,-0.718185,-1.61112,-0.774968,2.27013,1.227,-1.21764,1.49493,-0.792695,-1.67198,-0.759355,2.23513,1.28472,-1.26775,-0.653976,0.591504,0.805429,0.657847,1.00936,-1.2503,0.685638,-0.653976,0.591504,0.805429,0.657847,1.00936,-1.2503,0.685638,0.208822,-0.509665,0.973925,0.844839,-0.0905874,-0.0314847,0.526356,-0.57475,0.0786321,0.59903,-0.606018,0.0439262,0.598537,1.09966,-0.443982,1.60346,-3.24913,0.0717312,-0.238073,-3.24913,0.0839048,-0.238073,-0.837968,0.745101,0.60858,-0.156134,0.349982,-0.577227,0.501081,1
1.40513,-0.712986,-1.60014,-0.793029,2.27298,1.21955,-1.20856,1.40513,-0.712986,-1.60014,-0.793029,2.27298,1.21955,-1.20856,1.48812,-0.786161,-1.66374,-0.753324,2.2444,1.27275,-1.2611,-0.702775,0.67194,0.817389,0.586411,0.893121,-1.16671,0.65575,-0.702775,0.67194,0.817389,0.586411,0.893121,-1.16671,0.65575,0.202898,-0.508587,0.980092,0.843447,-0.089788,-0.0355365,0.528462,-0.566366,0.153414,0.618958,-0.594673,0.128433,0.617391,1.06768,-0.443338,1.60016,-3.19757,0.0643998,-0.329721,-3.19757,0.0761714,-0.329721,-0.829897,0.73174,0.636007,-0.397048,0.285783,-0.532016,0.525374,1
1.39808,-0.708025,-1.59467,-0.797768,2.2576,1.21887,-1.19982,1.39808,-0.708025,-1.59467,-0.797768,2.2576,1.21887,-1.19982,1.48024,-0.778799,-1.6558,-0.748301,2.25214,1.26163,-1.25466,-0.817509,0.75602,0.790569,0.473606,0.736524,-1.09254,0.644737,-0.817509,0.75602,0.790569,0.473606,0.736524,-1.09254,0.644737,0.197003,-0.506756,0.986335,0.842297,-0.0896364,-0.0383795,0.53012,-0.566663,0.218714,0.626262,-0.587416,0.204705,0.624458,1.03551,-0.442778,1.59589,-3.21711,0.055936,-0.427008,-3.21711,0.0682258,-0.427008,-0.821655,0.707739,0.611297,-0.494666,0.0545557,-0.427641,0.548401,1
1.39073,-0.702894,-1.58972,-0.803085,2.2369,1.22656,-1.19373,1.39073,-0.702894,-1.58972,-0.803085,2.2369,1.22656,-1.19373,1.47133,-0.771256,-1.64761,-0.745115,2.2586,1.2514,-1.24794,-0.912662,0.747091,0.829014,0.260064,0.616474,-1.00476,0.686405,-0.912662,0.747091,0.829014,0.260064,0.616474,-1.00476,0.686405,0.191413,-0.50441,0.99228,0.841034,-0.0897415,-0.0402654,0.531965,-0.528073,0.254068,0.579791,-0.54259,0.244557,0.578423,1.00335,-0.442046,1.59077,-3.21636,0.0732481,-0.512457,-3.21636,0.0631993,-0.512457,-0.805987,0.68362,0.578912,-0.579703,-0.21701,-0.248448,0.542086,1
1.38128,-0.696182,-1.58784,-0.806301,2.22987,1.23807,-1.18659,1.38128,-0.696182,-1.58784,-0.806301,2.22987,1.23807,-1.18659,1.46144,-0.764138,-1.63916,-0.744614,2.26419,1.24174,-1.24045,-1.02253,0.705315,0.841417,-0.0119959,0.544762,-0.958333,0.771802,-1.02253,0.705315,0.841417,-0.0119959,0.544762,-0.958333,0.771802,0.186492,-0.501941,0.997494,0.839378,-0.0894363,-0.0413108,0.534545,-0.472597,0.259134,0.503431,-0.478273,0.249263,0.503543,0.970758,-0.441008,1.5847,-3.259,0.103733,-0.607061,-3.259,0.0690194,-0.607061,-0.801571,0.679559,0.513216,-0.616867,-0.343255,-0.036767,0.538594,1
1.371,-0.689157,-1.58058,-0.810948,2.23672,1.2512,-1.17782,1.371,-0.689157,-1.58058,-0.810948,2.23672,1.2512,-1.17782,1.45041,-0.757095,-1.63021,-0.746712,2.26934,1.23282,-1.23213,-1.11537,0.707688,0.927534,-0.292756,0.500642,-0.868453,0.848104,-1.11537,0.707688,0.927534,-0.292756,0.500642,-0.868453,0.848104,0.182086,-0.499157,1.0022,0.83727,-0.088953,-0.0416718,0.537894,-0.409584,0.309603,0.45872,-0.410618,0.301548,0.4594,0.93899,-0.439925,1.57743,-3.1768,0.108287,-0.727069,-3.1768,0.0769937,-0.727069,-0.794028,0.679377,0.496313,-0.642361,-0.326243,0.183802,0.543163,1
1.35862,-0.683503,-1.57228,-0.814542,2.24271,1.25381,-1.16817,1.35862,-0.683503,-1.57228,-0.814542,2.24271,1.25381,-1.16817,1.4388,-0.750145,-1.6206,-0.752396,2.27185,1.22512,-1.22317,-1.18748,0.675847,0.957745,-0.637354,0.134009,-0.715346,0.914999,-1.18748,0.675847,0.957745,-0.637354,0.134009,-0.715346,0.914999,0.179091,-0.495534,1.00624,0.834667,-0.0884819,-0.0402745,0.542107,-0.287646,0.37134,0.3758,-0.272593,0.375022,0.377913,0.907297,-0.439194,1.56948,-3.16937,0.0731081,-0.794983,-3.16937,0.081983,-0.794983,-0.801729,0.66642,0.483231,-0.621461,-0.291388,0.286881,0.550076,1
1.3465,-0.677986,-1.56185,-0.821693,2.23893,1.25579,-1.16244,1.3465,-0.677986,-1.56185,-0.821693,2.23893,1.25579,-1.16244,1.42629,-0.743349,-1.61087,-0.760194,2.26911,1.22078,-1.21359,-1.25382,0.698772,0.992511,-0.817989,-0.407416,-0.318354,0.967249,-1.25382,0.698772,0.992511,-0.817989,-0.407416,-0.318354,0.967249,0.176821,-0.49086,1.0097,0.832282,-0.0895413,-0.036385,0.545862,-0.228998,0.487136,0.344939,-0.205194,0.520174,0.345099,0.875797,-0.438561,1.56028,-3.15002,0.0633776,-0.919378,-3.15002,0.0843514,-0.919378,-0.797954,0.653638,0.490229,-0.61499,-0.301861,0.350009,0.511523,1
1.33383,-0.672153,-1.56306,-0.825622,2.2218,1.26561,-1.15869,1.33383,-0.672153,-1.56306,-0.825622,2.2218,1.26561,-1.15869,1.41373,-0.736059,-1.60143,-0.769462,2.26194,1.22063,-1.20391,-1.26445,0.72002,0.908935,-0.950891,-0.789675,0.0838158,0.966182,-1.26445,0.72002,0.908935,-0.950891,-0.789675,0.0838158,0.966182,0.175334,-0.484702,1.01288,0.830063,-0.0927226,-0.0302983,0.549072,-0.167426,0.56993,0.298253,-0.13733,0.627545,0.295834,0.844161,-0.43828,1.55022,-3.16353,0.0280559,-1.00621,-3.16353,0.0795655,-1.00621,-0.798947,0.639051,0.383666,-0.561597,-0.401355,0.449856,0.452233,1
1.32129,-0.667837,-1.56833,-0.836253,2.20706,1.2769,-1.15811,1.32129,-0.667837,-1.56833,-0.836253,2.20706,1.2769,-1.15811,1.40129,-0.729021,-1.59297,-0.779194,2.25374,1.22389,-1.1945,-1.22436,0.706739,0.830336,-0.959565,-0.800317,0.399085,0.925481,-1.22436,0.706739,0.830336,-0.959565,-0.800317,0.399085,0.925481,0.174,-0.478252,1.01549,0.827976,-0.0971459,-0.0237314,0.551775,-0.156278,0.58786,0.26043,-0.132575,0.654958,0.254752,0.812211,-0.437378,1.53964,-3.19499,0.0902146,-1.05834,-3.19499,0.0743739,-1.05834,-0.800074,0.611847,0.246389,-0.570595,-0.466807,0.530072,0.363954,1
1.31249,-0.660909,-1.56607,-0.853165,2.20597,1.28291,-1.16315,1.31249,-0.660909,-1.56607,-0.853165,2.20597,1.28291,-1.16315,1.38957,-0.721686,-1.58523,-0.788353,2.24735,1.22946,-1.18567,-1.14962,0.746851,0.760777,-0.907516,-0.590885,0.602821,0.875194,-1.14962,0.746851,0.760777,-0.907516,-0.590885,0.602821,0.875194,0.172514,-0.471566,1.01803,0.825715,-0.102525,-0.0179664,0.554401,-0.155679,0.611237,0.26205,-0.143357,0.680121,0.253337,0.780439,-0.436431,1.5276,-3.17727,0.0947237,-1.20414,-3.17727,0.0705088,-1.20414,-0.770814,0.607776,0.191583,-0.648118,-0.413818,0.534499,0.225221,1
1.30635,-0.657638,-1.56268,-0.864697,2.20758,1.29224,-1.17887,1.30635,-0.657638,-1.56268,-0.864697,2.20758,1.29224,-1.17887,1.37885,-0.714191,-1.57792,-0.797212,2.24256,1.2362,-1.17716,-1.054,0.740584,0.70916,-0.864132,-0.439381,0.683262,0.836843,-1.054,0.740584,0.70916,-0.864132,-0.439381,0.683262,0.836843,0.171232,-0.464721,1.0205,0.823094,-0.108272,-0.0128659,0.55734,-0.133485,0.607251,0.247809,-0.127806,0.673439,0.237522,0.749317,-0.435576,1.51479,-3.11214,0.0854999,-1.28051,-3.11214,0.0705698,-1.28051,-0.725059,0.56553,0.152393,-0.674851,-0.349801,0.560386,-0.0171683,1
1.30107,-0.659369,-1.60401,-0.873363,2.20362,1.30034,-1.19695,1.30107,-0.659369,-1.60401,-0.873363,2.20362,1.30034,-1.19695,1.36912,-0.707247,-1.57126,-0.805326,2.23793,1.24377,-1.16949,-0.934265,0.686461,0.650592,-0.810477,-0.499803,0.789169,0.741147,-0.934265,0.686461,0.650592,-0.810477,-0.499803,0.789169,0.741147,0.170075,-0.458167,1.02263,0.820605,-0.114188,-0.00809271,0.559913,-0.0963568,0.594099,0.21368,-0.0924723,0.662801,0.201661,0.717855,-0.435022,1.50113,-3.14619,0.055334,-1.36594,-3.14619,0.0726266,-1.36594,-0.680438,0.478775,-0.327513,-0.680369,-0.343112,0.565733,-0.274535,1
1.29826,-0.669124,-1.62754,-0.881675,2.19364,1.31261,-1.21282,1.29826,-0.669124,-1.62754,-0.881675,2.19364,1.31261,-1.21282,1.36062,-0.700277,-1.5664,-0.813548,2.23114,1.25258,-1.16333,-0.831989,0.70276,0.425642,-0.824128,-0.738841,0.907564,0.560912,-0.831989,0.70276,0.425642,-0.824128,-0.738841,0.907564,0.560912,0.169879,-0.451352,1.02429,0.818679,-0.120393,-0.0020238,0.561485,-0.0122065,0.606272,0.164964,0.00346663,0.685682,0.151264,0.68628,-0.434414,1.48677,-3.15753,0.0608623,-1.43588,-3.15753,0.0741371,-1.43588,-0.623557,0.311531,-0.611376,-0.681268,-0.375018,0.600266,-0.494973,1
1.29756,-0.68365,-1.63597,-0.889239,2.17085,1.32211,-1.21883,1.29756,-0.68365,-1.63597,-0.889239,2.17085,1.32211,-1.21883,1.35268,-0.692909,-1.56311,-0.821934,2.22296,1.26238,-1.16032,-0.782877,0.748409,0.31155,-0.855575,-0.826299,0.995267,0.196378,-0.782877,0.748409,0.31155,-0.855575,-0.826299,0.995267,0.196378,0.170323,-0.444231,1.02566,0.817783,-0.126866,0.0050182,0.561347,0.0416848,0.635943,0.14346,0.062836,0.721721,0.127502,0.654847,-0.43382,1.47106,-3.14327,0.059393,-1.5709,-3.14327,0.0739913,-1.5709,-0.551189,0.0925963,-0.728598,-0.673054,-0.5211,0.597307,-0.585104,1
1.29277,-0.691006,-1.63554,-0.899223,2.15996,1.33174,-1.22486,1.29277,-0.691006,-1.63554,-0.899223,2.15996,1.33174,-1.22486,1.34494,-0.685695,-1.56069,-0.831316,2.21551,1.27245,-1.16104,-0.783956,0.706775,0.200453,-0.969021,-0.709829,1.00152,-0.141813,-0.783956,0.706775,0.200453,-0.969021,-0.709829,1.00152,-0.141813,0.171276,-0.437357,1.02648,0.817716,-0.132835,0.0119111,0.559959,0.0801958,0.584714,0.0735158,0.104778,0.663383,0.0580023,0.623116,-0.433249,1.45436,-3.1731,0.0570655,-1.67035,-3.1731,0.0670361,-1.67035,-0.521662,-0.0531081,-0.748442,-0.679071,-0.555412,0.592974,-0.638147,1
1.27483,-0.690288,-1.63817,-0.905307,2.1527,1.3422,-1.23405,1.27483,-0.690288,-1.63817,-0.905307,2.1527,1.3422,-1.23405,1.33681,-0.679086,-1.5613,-0.841214,2.20938,1.28251,-1.16485,-0.813282,0.647368,-0.158088,-0.991012,-0.588354,1.03146,-0.479129,-0.813282,0.647368,-0.158088,-0.991012,-0.588354,1.03146,-0.479129,0.17234,-0.431792,1.02636,0.819001,-0.137607,0.0187447,0.556732,0.0760781,0.450611,-0.0266202,0.109748,0.522498,-0.0407436,0.591374,-0.432452,1.43658,-3.17423,0.0797302,-1.7776,-3.17423,0.0635436,-1.7776,-0.619794,-0.11202,-0.768731,-0.640937,-0.566801,0.596951,-0.692039,1
1.25991,-0.680897,-1.64463,-0.904173,2.14627,1.35465,-1.2444,1.25991,-0.680897,-1.64463,-0.904173,2.14627,1.35465,-1.2444,1.32914,-0.672539,-1.5662,-0.851503,2.20329,1.2936,-1.17295,-0.751046,0.660455,-0.614219,-1.04663,-0.629734,1.12857,-0.917439,-0.751046,0.660455,-0.614219,-1.04663,-0.629734,1.12857,-0.917439,0.174027,-0.427112,1.02524,0.822047,-0.141749,0.0263333,0.550865,0.144321,0.372977,-0.127129,0.194383,0.446799,-0.141418,0.560145,-0.431919,1.41786,-3.12287,0.0533342,-1.87283,-3.12287,0.0617042,-1.87283,-0.692315,-0.0835781,-0.784254,-0.526697,-0.570159,0.610474,-0.714523,1
1.24583,-0.68291,-1.65509,-0.891256,2.14847,1.36113,-1.25704,1.24583,-0.68291,-1.65509,-0.891256,2.14847,1.36113,-1.25704,1.32163,-0.665636,-1.57623,-0.861772,2.19573,1.30525,-1.18406,-0.758009,0.709436,-1.11916,-1.00043,-0.80118,1.17428,-1.15232,-0.758009,0.709436,-1.11916,-1.00043,-0.80118,1.17428,-1.15232,0.176353,-0.423267,1.02321,0.82688,-0.145247,0.0357438,0.542121,0.162192,0.285212,-0.202414,0.23527,0.365443,-0.218318,0.528825,-0.431374,1.39864,-3.13208,0.054419,-1.92196,-3.13208,0.0617948,-1.92196,-0.757986,-0.17274,-0.788617,-0.29484,-0.472674,0.558817,-0.729718,1
1.23826,-0.678527,-1.66873,-0.88408,2.14341,1.36942,-1.26802,1.23826,-0.678527,-1.66873,-0.88408,2.14341,1.36942,-1.26802,1.31429,-0.657834,-1.58906,-0.871658,2.18633,1.31694,-1.19603,-0.716135,0.801177,-1.31062,-0.988675,-0.984016,1.17064,-1.20616,-0.716135,0.801177,-1.31062,-0.988675,-0.984016,1.17064,-1.20616,0.179163,-0.419439,1.02093,0.832374,-0.148708,0.0468579,0.53183,0.210236,0.302999,-0.215507,0.297985,0.389735,-0.235226,0.496657,-0.430649,1.37833,-3.21678,0.0725091,-2.03103,-3.21678,0.0625541,-2.03103,-0.760259,-0.206931,-0.79677,-0.124223,-0.42917,0.5248,-0.719908,1
1.23208,-0.679377,-1.68256,-0.884141,2.13814,1.37914,-1.28093,1.23208,-0.679377,-1.68256,-0.884141,2.13814,1.37914,-1.28093,1.30724,-0.650165,-1.60255,-0.881328,2.17532,1.32884,-1.20818,-0.711078,0.730013,-1.35263,-0.945051,-1.12562,1.19583,-1.2148,-0.711078,0.730013,-1.35263,-0.945051,-1.12562,1.19583,-1.2148,0.182176,-0.41579,1.01831,0.837799,-0.152317,0.0586957,0.521006,0.191761,0.245441,-0.256872,0.284444,0.332035,-0.279901,0.465197,-0.429702,1.35674,-3.14593,0.0947297,-2.15888,-3.14593,0.0665393,-2.15888,-0.751565,-0.292121,-0.800089,-0.0281292,-0.371709,0.503015,-0.727479,1
1.22659,-0.682868,-1.69535,-0.903811,2.1317,1.38958,-1.29339,1.22659,-0.682868,-1.69535,-0.903811,2.1317,1.38958,-1.29339,1.29992,-0.643964,-1.61532,-0.89021,2.16381,1.34074,-1.22015,-0.732052,0.58659,-1.23851,-0.870838,-1.14434,1.18173,-1.18457,-0.732052,0.58659,-1.23851,-0.870838,-1.14434,1.18173,-1.18457,0.184493,-0.413127,1.0153,0.84304,-0.155876,0.069878,0.510003,0.127147,0.164349,-0.283556,0.214869,0.244078,-0.308008,0.434519,-0.429038,1.33429,-3.06782,0.0664175,-2.24493,-3.06782,0.0692975,-2.24493,-0.73333,-0.389033,-0.800301,-0.136011,-0.321138,0.488397,-0.732395,1
1.22122,-0.678828,-1.70598,-0.928309,2.13774,1.39705,-1.30633,1.22122,-0.678828,-1.70598,-0.928309,2.13774,1.39705,-1.30633,1.29274,-0.639528,-1.62636,-0.897113,2.15351,1.35185,-1.23155,-0.705975,0.391624,-1.0516,-0.608413,-0.973787,1.08066,-1.12872,-0.705975,0.391624,-1.0516,-0.608413,-0.973787,1.08066,-1.12872,0.185604,-0.411609,1.01241,0.84792,-0.15931,0.0791052,0.499395,-0.00248083,0.0492349,-0.257601,0.0678212,0.114981,-0.280234,0.403792,-0.428325,1.3108,-3.07271,0.0712663,-2.34846,-3.07271,0.0707649,-2.34846,-0.715202,-0.392997,-0.796199,-0.31196,-0.157791,0.451962,-0.747838,1
1.21174,-0.671589,-1.71471,-0.936308,2.16511,1.40262,-1.31753,1.21174,-0.671589,-1.71471,-0.936308,2.16511,1.40262,-1.31753,1.28619,-0.637036,-1.63626,-0.901333,2.14532,1.36185,-1.24269,-0.637342,0.202768,-0.985896,-0.355312,-0.770117,0.973684,-1.1112,-0.637342,0.202768,-0.985896,-0.355312,-0.770117,0.973684,-1.1112,0.185382,-0.411512,1.00974,0.852712,-0.162386,0.0859055,0.489012,-0.108774,-0.0805937,-0.246389,-0.0528626,-0.0297335,-0.265338,0.37288,-0.427782,1.28626,-3.09123,0.0542909,-2.45414,-3.09123,0.0718532,-2.45414,-0.744466,-0.345528,-0.784436,-0.34975,0.197886,0.40774,-0.748392,1
1.20127,-0.664473,-1.72339,-0.913203,2.17031,1.41324,-1.32968,1.20127,-0.664473,-1.72339,-0.913203,2.17031,1.41324,-1.32968,1.28076,-0.636214,-1.64599,-0.903637,2.13886,1.37109,-1.25404,-0.502535,0.04929,-0.97402,-0.213242,-0.614019,0.909642,-1.15184,-0.502535,0.04929,-0.97402,-0.213242,-0.614019,0.909642,-1.15184,0.18443,-0.412633,1.00705,0.857495,-0.165003,0.0908621,0.47877,-0.140368,-0.171814,-0.259523,-0.0948773,-0.132789,-0.274958,0.341546,-0.42725,1.26125,-3.13342,0.0532329,-2.50081,-3.13342,0.0695868,-2.50081,-0.7949,-0.282585,-0.773991,-0.095662,0.314476,0.421508,-0.756456,1
1.19555,-0.665776,-1.73292,-0.888239,2.16112,1.42702,-1.34156,1.19555,-0.665776,-1.73292,-0.888239,2.16112,1.42702,-1.34156,1.27664,-0.636239,-1.65614,-0.905861,2.13342,1.38001,-1.26621,-0.39758,-0.0181797,-1.03009,-0.218731,-0.51462,0.888179,-1.23166,-0.39758,-0.0181797,-1.03009,-0.218731,-0.51462,0.888179,-1.23166,0.183722,-0.414328,1.00406,0.862153,-0.167093,0.0950206,0.468768,-0.116478,-0.216274,-0.293283,-0.073553,-0.184637,-0.306502,0.310464,-0.426759,1.23531,-3.10818,0.0490427,-2.59471,-3.10818,0.0636754,-2.59471,-0.810899,-0.29538,-0.767807,0.176216,0.276941,0.470169,-0.753515,1
1.1916,-0.665046,-1.74429,-0.896032,2.15,1.43742,-1.35359,1.1916,-0.665046,-1.74429,-0.896032,2.15,1.43742,-1.35359,1.27268,-0.636875,-1.66666,-0.909225,2.12999,1.38872,-1.2787,-0.396118,-0.0755348,-1.05152,-0.382576,-0.263685,0.86439,-1.25166,-0.396118,-0.0755348,-1.05152,-0.382576,-0.263685,0.86439,-1.25166,0.183118,-0.416663,1.00058,0.866618,-0.168298,0.0983572,0.459321,-0.0972155,-0.267034,-0.352584,-0.0584606,-0.248243,-0.36102,0.279223,-0.426435,1.20807,-3.12412,0.032407,-2.72365,-3.12412,0.0551129,-2.72365,-0.810829,-0.281717,-0.776252,0.131939,0.200068,0.48696,-0.748851,1
1.18813,-0.67385,-1.75551,-0.945934,2.15633,1.43867,-1.36625,1.18813,-0.67385,-1.75551,-0.945934,2.15633,1.43867,-1.36625,1.26805,-0.637716,-1.67735,-0.914187,2.13099,1.39692,-1.29117,-0.49586,-0.085122,-1.07856,-0.519744,0.234502,0.794584,-1.24429,-0.49586,-0.085122,-1.07856,-0.519744,0.234502,0.794584,-1.24429,0.182189,-0.419738,0.996791,0.870897,-0.168208,0.100056,0.450814,-0.145264,-0.332524,-0.379685,-0.116511,-0.332357,-0.380458,0.248319,-0.425659,1.17996,-3.09035,0.0776827,-2.81154,-3.09035,0.0533568,-2.81154,-0.799182,-0.361335,-0.781642,-0.317474,0.253393,0.417531,-0.750761,1
1.18334,-0.686862,-1.76643,-0.97512,2.16345,1.43447,-1.37811,1.18334,-0.686862,-1.76643,-0.97512,2.16345,1.43447,-1.37811,1.26195,-0.639173,-1.68807,-0.919221,2.13691,1.405,-1.30374,-0.650549,-0.175517,-1.07572,-0.475523,0.690026,0.823405,-1.26624,-0.650549,-0.175517,-1.07572,-0.475523,0.690026,0.823405,-1.26624,0.179832,-0.423961,0.992968,0.875445,-0.167231,0.0994134,0.442433,-0.300154,-0.442474,-0.389485,-0.288167,-0.456887,-0.383886,0.217838,-0.424893,1.15104,-3.04814,0.076583,-2.89196,-3.04814,0.0548535,-2.89196,-0.78618,-0.476897,-0.783575,-0.558997,0.265363,0.294639,-0.74364,1
1.17519,-0.684366,-1.77637,-0.98195,2.16444,1.44319,-1.38986,1.17519,-0.684366,-1.77637,-0.98195,2.16444,1.44319,-1.38986,1.25463,-0.641666,-1.69931,-0.922207,2.14377,1.41369,-1.31682,-0.736366,-0.282546,-1.1274,-0.236216,0.638754,0.894602,-1.3214,-0.736366,-0.282546,-1.1274,-0.236216,0.638754,0.894602,-1.3214,0.175745,-0.429229,0.989195,0.880693,-0.166492,0.0977299,0.432561,-0.450065,-0.527804,-0.383,-0.441366,-0.540017,-0.378279,0.187147,-0.424208,1.12168,-3.06908,0.0684321,-2.93585,-3.06908,0.0590594,-2.93585,-0.794407,-0.427002,-0.770597,-0.597426,0.206691,0.295043,-0.730354,1
1.16718,-0.685133,-1.78832,-0.97992,2.16181,1.45558,-1.40292,1.16718,-0.685133,-1.78832,-0.97992,2.16181,1.45558,-1.40292,1.24763,-0.644866,-1.71104,-0.92257,2.1481,1.42314,-1.33025,-0.687879,-0.321278,-1.19982,0.0210198,0.384388,0.952137,-1.34697,-0.687879,-0.321278,-1.19982,0.0210198,0.384388,0.952137,-1.34697,0.170887,-0.434667,0.985578,0.88627,-0.166798,0.096496,0.42118,-0.511957,-0.538831,-0.356314,-0.499381,-0.540709,-0.355964,0.156088,-0.423684,1.09108,-3.10589,0.0524729,-3.05973,-3.10589,0.0619406,-3.05973,-0.804512,-0.402674,-0.772739,-0.573498,0.13711,0.324362,-0.726784,1
1.16114,-0.691306,-1.80152,-0.982422,2.16771,1.45953,-1.41617,1.16114,-0.691306,-1.80152,-0.982422,2.16771,1.45953,-1.41617,1.24123,-0.647678,-1.7239,-0.922451,2.15148,1.43169,-1.34376,-0.617161,-0.262137,-1.29785,-0.020133,0.332789,0.812859,-1.34985,-0.617161,-0.262137,-1.29785,-0.020133,0.332789,0.812859,-1.34985,0.166347,-0.440009,0.982001,0.891874,-0.166813,0.0961137,0.409262,-0.450693,-0.517488,-0.361266,-0.427998,-0.522026,-0.360278,0.124974,-0.423159,1.05892,-3.11142,0.0524431,-3.21587,-3.11142,0.0634078,-3.21587,-0.800874,-0.436274,-0.776217,-0.599709,0.162277,0.278321,-0.724103,1
1.15719,-0.699372,-1.81442,-0.990529,2.18753,1.44862,-1.42959,1.15719,-0.699372,-1.81442,-0.990529,2.18753,1.44862,-1.42959,1.23556,-0.649568,-1.73654,-0.925038,2.15499,1.43837,-1.35713,-0.567332,-0.167296,-1.2604,-0.359722,0.357985,0.620912,-1.33623,-0.567332,-0.167296,-1.2604,-0.359722,0.357985,0.620912,-1.33623,0.163348,-0.444758,0.978185,0.896874,-0.165536,0.0965643,0.39861,-0.29404,-0.450977,-0.401307,-0.261483,-0.464545,-0.397281,0.0951287,-0.422248,1.02534,-2.98451,0.0911325,-3.35799,-2.98451,0.067036,-3.35799,-0.783693,-0.498035,-0.778764,-0.654915,0.325429,0.102424,-0.724592,1
1.14877,-0.700713,-1.82258,-0.991502,2.19996,1.45746,-1.44289,1.14877,-0.700713,-1.82258,-0.991502,2.19996,1.45746,-1.44289,1.22893,-0.65123,-1.74884,-0.931787,2.15934,1.44685,-1.37082,-0.705759,-0.168926,-1.20565,-0.765151,0.467317,0.981641,-1.40072,-0.705759,-0.168926,-1.20565,-0.765151,0.467317,0.981641,-1.40072,0.161007,-0.4492,0.973372,0.901294,-0.163933,0.0972009,0.389033,-0.273247,-0.419087,-0.510922,-0.246899,-0.429887,-0.507954,0.0761471,-0.422747,1.00139,-1.89816,-0.0499517,-2.39478,-1.89816,0.0538291,-2.39478,-0.801575,-0.494832,-0.7374,-0.597158,0.406201,0.106089,-0.720683,1
1.14589,-0.718361,-1.81398,-1.00479,2.22491,1.4254,-1.43681,1.14589,-0.718361,-1.81398,-1.00479,2.22491,1.4254,-1.43681,1.21982,-0.652855,-1.76066,-0.941033,2.16318,1.45603,-1.38435,-0.981472,-0.148488,-1.1823,-0.998982,0.355451,0.829964,-1.32781,-0.981472,-0.148488,-1.1823,-0.998982,0.355451,0.829964,-1.32781,0.158283,-0.453713,0.967919,0.905646,-0.161956,0.0984997,0.379306,-0.313737,-0.443903,-0.563429,-0.271054,-0.462056,-0.558785,0.080058,-0.431866,0.993258,0.39109,-0.911865,-0.813472,0.39109,-0.0591513,-0.813472,-0.739353,-0.655058,-0.533174,-0.637559,0.617305,-0.3063,-0.524644,1
1.1681,-0.691901,-1.72026,-1.00468,2.22013,1.48252,-1.42098,1.1681,-0.691901,-1.72026,-1.00468,2.22013,1.48252,-1.42098,1.20912,-0.654591,-1.77189,-0.952605,2.16664,1.46265,-1.39724,-1.08945,-0.189895,-1.10385,-1.19455,0.347877,0.665872,-1.27276,-1.08945,-0.189895,-1.10385,-1.19455,0.347877,0.665872,-1.27276,0.155746,-0.458669,0.961977,0.909982,-0.158045,0.100558,0.369923,-0.311668,-0.471707,-0.61786,-0.263282,-0.501596,-0.609661,0.0947746,-0.435223,1.00125,1.47166,-0.335723,0.799191,1.47166,-0.174992,0.799191,-0.410246,-0.373101,0.516381,-0.520747,0.534906,0.198727,-0.23737,1
1.17843,-0.722608,-1.73977,-1.01167,2.22899,1.45822,-1.4216,1.17843,-0.722608,-1.73977,-1.01167,2.22899,1.45822,-1.4216,1.19758,-0.657381,-1.78342,-0.963978,2.1708,1.46778,-1.40959,-1.16712,-0.307727,-1.16989,-1.12672,0.444367,0.453842,-1.2311,-1.16712,-0.307727,-1.16989,-1.12672,0.444367,0.453842,-1.2311,0.152373,-0.464675,0.955672,0.914565,-0.152833,0.10219,0.360235,-0.412359,-0.585775,-0.654681,-0.362416,-0.63182,-0.641354,0.107743,-0.441414,1.00398,1.29688,-0.619051,0.272727,1.29688,-0.310488,0.272727,-0.191478,-0.652274,0.436472,-0.4769,0.581932,-0.0955439,-0.120065,1
1.23107,-0.710781,-1.74715,-1.00105,2.22708,1.50204,-1.45233,1.23107,-0.710781,-1.74715,-1.00105,2.22708,1.50204,-1.45233,1.187,-0.660676,-1.79485,-0.975766,2.17711,1.46982,-1.4218,-1.00777,-0.339737,-1.12574,-1.20643,0.708851,0.102779,-1.20821,-1.00777,-0.339737,-1.12574,-1.20643,0.708851,0.102779,-1.20821,0.149259,-0.471361,0.949236,0.919131,-0.14561,0.102874,0.351301,-0.3366,-0.612232,-0.66925,-0.292251,-0.680635,-0.648529,0.121241,-0.447042,1.00732,1.34977,-0.562868,0.334585,1.34977,-0.437348,0.334585,0.440716,-0.501054,0.47693,-0.252853,0.499662,0.322246,-0.305333,1
1.2267,-0.719569,-1.76967,-1.00118,2.2417,1.52453,-1.46862,1.2267,-0.719569,-1.76967,-1.00118,2.2417,1.52453,-1.46862,1.17777,-0.664192,-1.80457,-0.987381,2.18715,1.46805,-1.43181,-0.900649,-0.346221,-0.87952,-1.14958,1.09121,-0.226699,-0.888113,-0.900649,-0.346221,-0.87952,-1.14958,1.09121,-0.226699,-0.888113,0.146362,-0.478328,0.943319,0.923178,-0.136438,0.101631,0.344671,-0.320068,-0.592616,-0.59459,-0.29511,-0.679018,-0.567541,0.134622,-0.454028,1.00751,1.33805,-0.698537,0.018692,1.33805,-0.548135,0.018692,0.489356,-0.553772,0.348979,-0.137977,0.545541,0.564708,-0.368067,1
1.22922,-0.718924,-1.76329,-0.965781,2.25259,1.5242,-1.46715,1.22922,-0.718924,-1.76329,-0.965781,2.25259,1.5242,-1.46715,1.16952,-0.66736,-1.80914,-0.998273,2.19887,1.46735,-1.43677,-0.807325,-0.319543,-0.302178,-1.0486,1.169,0.0220875,-0.383313,-0.807325,-0.319543,-0.302178,-1.0486,1.169,0.0220875,-0.383313,0.143472,-0.483591,0.938696,0.925489,-0.128955,0.0982822,0.342316,-0.292453,-0.401979,-0.45091,-0.301597,-0.470243,-0.42796,0.14707,-0.460734,1.00773,1.24483,-0.670612,0.0223398,1.24483,-0.607509,0.0223398,0.597018,-0.51564,0.4585,0.324921,0.53714,0.568518,-0.303771,1
1.22389,-0.720696,-1.76021,-0.980363,2.27123,1.52014,-1.46439,1.22389,-0.720696,-1.76021,-0.980363,2.27123,1.52014,-1.46439,1.16165,-0.671969,-1.80688,-1.00736,2.20989,1.4699,-1.43888,-0.777376,-0.521099,0.4121,-0.858451,1.07084,0.318069,-0.198895,-0.777376,-0.521099,0.4121,-0.858451,1.07084,0.318069,-0.198895,0.139824,-0.487273,0.935181,0.926428,-0.124723,0.0923902,0.342986,-0.339941,-0.288703,-0.348069,-0.38664,-0.338091,-0.328588,0.159902,-0.467133,1.00711,1.28317,-0.639883,-0.062418,1.28317,-0.605127,-0.062418,0.622341,-0.487277,0.466692,0.26993,0.613398,0.502384,-0.25516,1
1.22095,-0.736177,-1.75895,-1.02881,2.28358,1.51998,-1.46355,1.22095,-0.736177,-1.75895,-1.02881,2.28358,1.51998,-1.46355,1.15467,-0.679311,-1.7977,-1.01343,2.21927,1.4751,-1.4423,-0.665524,-0.811652,1.05295,-0.530842,0.898187,0.59647,-0.405652,-0.665524,-0.811652,1.05295,-0.530842,0.898187,0.59647,-0.405652,0.135199,-0.489983,0.932647,0.926842,-0.12376,0.0835195,0.344487,-0.404645,-0.226615,-0.255744,-0.488134,-0.257493,-0.240392,0.173541,-0.472906,1.00563,1.3639,-0.577331,-0.147855,1.3639,-0.636349,-0.147855,0.66284,-0.56866,0.38746,-0.153783,0.643012,0.448844,-0.212557,1
1.20984,-0.757005,-1.77119,-1.04358,2.29036,1.52785,-1.48517,1.20984,-0.757005,-1.77119,-1.04358,2.29036,1.52785,-1.48517,1.14899,-0.689776,-1.78624,-1.01609,2.22793,1.48388,-1.44848,-0.532448,-1.11393,1.13734,-0.151772,0.864746,0.967846,-0.680062,-0.532448,-1.11393,1.13734,-0.151772,0.864746,0.967846,-0.680062,0.129142,-0.493028,0.930102,0.927475,-0.125317,0.072066,0.344808,-0.545158,-0.304876,-0.268778,-0.654958,-0.324478,-0.25759,0.199841,-0.484999,1.00267,1.30628,-0.600863,-0.158238,1.30628,-0.628461,-0.158238,0.608432,-0.672289,0.150491,-0.274939,0.624297,0.43969,-0.366901,1
1.20489,-0.766866,-1.75457,-1.04342,2.29861,1.53665,-1.49932,1.20489,-0.766866,-1.75457,-1.04342,2.29861,1.53665,-1.49932,1.14567,-0.701053,-1.77646,-1.01445,2.2367,1.49508,-1.45586,-0.258063,-1.10158,0.890881,0.253221,0.884381,1.14649,-0.730804,-0.258063,-1.10158,0.890881,0.253221,0.884381,1.14649,-0.730804,0.122243,-0.496304,0.927896,0.928357,-0.128767,0.0594985,0.343559,-0.568759,-0.31604,-0.215399,-0.686435,-0.323807,-0.210437,0.213283,-0.491871,0.999054,1.34416,-0.687116,-0.361419,1.34416,-0.621134,-0.361419,0.592188,-0.658126,0.218879,-0.28962,0.6191,0.415666,-0.434624,1
1.20594,-0.774597,-1.73917,-1.02845,2.31105,1.5443,-1.51368,1.20594,-0.774597,-1.73917,-1.02845,2.31105,1.5443,-1.51368,1.14531,-0.711194,-1.77043,-1.01038,2.24658,1.50628,-1.4619,0.0372839,-0.974438,0.518127,0.424264,1.02563,1.08227,-0.552774,0.0372839,-0.974438,0.518127,0.424264,1.02563,1.08227,-0.552774,0.115949,-0.499669,0.925939,0.92906,-0.132304,0.0472904,0.342207,-0.482082,-0.327843,-0.199415,-0.594761,-0.337781,-0.196851,0.225264,-0.496405,0.99803,1.19814,-0.453436,-0.102395,1.19814,-0.602079,-0.102395,0.606242,-0.634021,0.312564,-0.180676,0.644743,0.38021,-0.517771,1
1.20396,-0.765446,-1.73162,-0.971706,2.3205,1.56259,-1.53225,1.20396,-0.765446,-1.73162,-0.971706,2.3205,1.56259,-1.53225,1.14724,-0.719147,-1.7667,-1.00781,2.25758,1.51432,-1.46586,0.22948,-0.741494,0.339438,0.173608,1.11778,0.719287,-0.356456,0.22948,-0.741494,0.339438,0.173608,1.11778,0.719287,-0.356456,0.111894,-0.502725,0.92405,0.929177,-0.133857,0.0365024,0.342607,-0.246976,-0.270374,-0.200499,-0.340759,-0.2951,-0.195788,0.229138,-0.495376,1.00634,0.387383,0.102878,0.831276,0.387383,-0.516457,0.831276,0.567185,-0.46299,0.350864,0.361031,0.629192,0.482695,-0.663899,1
1.1899,-0.761381,-1.75255,-0.968381,2.33291,1.56241,-1.54134,1.1899,-0.761381,-1.75255,-0.968381,2.33291,1.56241,-1.54134,1.1496,-0.726359,-1.76483,-1.00898,2.26951,1.52077,-1.47004,0.224663,-0.721698,0.130194,-0.217317,1.21046,0.643874,-0.471712,0.224663,-0.721698,0.130194,-0.217317,1.21046,0.643874,-0.471712,0.109487,-0.506092,0.921134,0.929172,-0.133112,0.0267393,0.343811,-0.135431,-0.312461,-0.339997,-0.215393,-0.353535,-0.332137,0.230207,-0.49173,1.01662,0.106946,0.364572,1.02801,0.106946,-0.359462,1.02801,0.402933,-0.35022,0.122836,0.405976,0.633956,0.416466,-0.713016,1
1.17856,-0.762837,-1.77008,-1.00513,2.34529,1.54315,-1.54491,1.17856,-0.762837,-1.77008,-1.00513,2.34529,1.54315,-1.54491,1.15149,-0.73294,-1.76323,-1.01312,2.28195,1.52778,-1.47716,0.164612,-0.617701,0.202505,-0.468788,1.2452,0.727929,-0.780671,0.164612,-0.617701,0.202505,-0.468788,1.2452,0.727929,-0.780671,0.107888,-0.509197,0.917594,0.929399,-0.131747,0.0172232,0.344331,-0.0662849,-0.237354,-0.352118,-0.144882,-0.277922,-0.346105,0.23089,-0.487866,1.02617,0.068298,0.386414,0.955045,0.068298,-0.155694,0.955045,0.270659,-0.298975,-0.0684998,0.0798968,0.633411,0.153775,-0.677501,1
1.15665,-0.765379,-1.79437,-1.05073,2.36067,1.5288,-1.55351,1.15665,-0.765379,-1.79437,-1.05073,2.36067,1.5288,-1.55351,1.15169,-0.738692,-1.75961,-1.01768,2.29427,1.53556,-1.48698,-0.0278507,-0.58399,0.407083,-0.432956,1.22746,0.806927,-1.04681,-0.0278507,-0.58399,0.407083,-0.432956,1.22746,0.806927,-1.04681,0.105773,-0.511456,0.914622,0.929916,-0.131306,0.00734878,0.343455,-0.161249,-0.187566,-0.291187,-0.246276,-0.221008,-0.289292,0.230955,-0.484953,1.03399,0.0064671,0.291371,0.782073,0.0064671,0.0457982,0.782073,0.0495267,-0.266868,-0.347585,-0.330483,0.664075,-0.0675824,-0.665274,1
1.13042,-0.785515,-1.80436,-1.06305,2.37531,1.5314,-1.56718,1.13042,-0.785515,-1.80436,-1.06305,2.37531,1.5314,-1.56718,1.15157,-0.745378,-1.75449,-1.01996,2.30593,1.54472,-1.49908,0.0182396,-0.699144,0.543376,-0.144443,1.13813,0.944899,-1.24822,0.0182396,-0.699144,0.543376,-0.144443,1.13813,0.944899,-1.24822,0.1025,-0.51367,0.912015,0.930773,-0.132227,-0.00366158,0.340829,-0.246801,-0.198364,-0.24776,-0.344961,-0.222235,-0.251594,0.23131,-0.481739,1.04114,0.0354469,0.321364,0.714529,0.0354469,0.217177,0.714529,-0.21147,-0.401371,-0.498728,-0.4309,0.69374,-0.13321,-0.680966,1
1.09874,-0.781532,-1.7959,-1.05874,2.38076,1.55749,-1.58036,1.09874,-0.781532,-1.7959,-1.05874,2.38076,1.55749,-1.58036,1.1534,-0.753662,-1.75015,-1.01777,2.31631,1.55356,-1.51215,0.246462,-0.868824,0.35548,0.340596,1.00799,0.855882,-1.31275,0.246462,-0.868824,0.35548,0.340596,1.00799,0.855882,-1.31275,0.0985428,-0.516698,0.909587,0.931993,-0.133659,-0.0152426,0.336589,-0.309467,-0.316858,-0.244163,-0.408033,-0.339362,-0.250693,0.231717,-0.478849,1.04724,0.040704,0.289044,0.609803,0.040704,0.30972,0.609803,-0.546578,-0.278701,-0.457533,-0.409718,0.644425,0.039359,-0.68215,1
1.09721,-0.760805,-1.79846,-1.04857,2.39006,1.56779,-1.59242,1.09721,-0.760805,-1.79846,-1.04857,2.39006,1.56779,-1.59242,1.15861,-0.762348,-1.74947,-1.01172,2.32615,1.55934,-1.52481,0.616514,-0.846079,-0.036599,0.662269,0.985656,0.448475,-1.24614,0.616514,-0.846079,-0.036599,0.662269,0.985656,0.448475,-1.24614,0.0952547,-0.520878,0.907198,0.933557,-0.133749,-0.0259924,0.331523,-0.198973,-0.406469,-0.232865,-0.2808,-0.440224,-0.236375,0.231717,-0.47562,1.05282,1.19209e-05,0.322869,0.558245,1.19209e-05,0.325572,0.558245,-0.614029,0.0154267,-0.489912,-0.368447,0.639033,0.0845649,-0.676096,1
1.09603,-0.744599,-1.80288,-1.01792,2.40426,1.54345,-1.60468,1.09603,-0.744599,-1.80288,-1.01792,2.40426,1.54345,-1.60468,1.16667,-0.769125,-1.75356,-1.00485,2.33677,1.56006,-1.53665,0.854528,-0.619055,-0.526443,0.673103,1.09798,-0.0300797,-1.16616,0.854528,-0.619055,-0.526443,0.673103,1.09798,-0.0300797,-1.16616,0.0939645,-0.525647,0.905007,0.935399,-0.131038,-0.0345368,0.326595,-0.0249142,-0.43514,-0.22324,-0.0785981,-0.485188,-0.220046,0.232438,-0.472229,1.05767,0.0721633,0.33907,0.484979,0.0721633,0.318218,0.484979,-0.706436,0.245264,-0.49319,-0.130772,0.674894,-0.166118,-0.680364,1
1.1061,-0.748443,-1.80706,-1.01858,2.41581,1.53163,-1.61362,1.1061,-0.748443,-1.80706,-1.01858,2.41581,1.53163,-1.61362,1.17599,-0.773499,-1.76143,-1.00019,2.3491,1.55833,-1.548,0.942082,-0.37759,-0.869328,0.363377,1.27181,-0.205141,-1.11978,0.942082,-0.37759,-0.869328,0.363377,1.27181,-0.205141,-1.11978,0.0946491,-0.530347,0.902634,0.937269,-0.126136,-0.0412109,0.322363,0.15556,-0.39924,-0.260861,0.122181,-0.461324,-0.252842,0.233235,-0.468824,1.06123,0.0796795,0.340545,0.356162,0.0796795,0.316764,0.356162,-0.698856,0.250556,-0.456348,-0.183914,0.667042,-0.266943,-0.65624,1
1.11955,-0.777671,-1.80468,-1.0307,2.43052,1.52886,-1.62544,1.11955,-0.777671,-1.80468,-1.0307,2.43052,1.52886,-1.62544,1.18429,-0.775976,-1.77177,-1.00031,2.36235,1.55756,-1.559,0.775697,-0.210462,-1.06487,-0.140979,1.33541,-0.0117682,-1.10225,0.775697,-0.210462,-1.06487,-0.140979,1.33541,-0.0117682,-1.10225,0.0966505,-0.534559,0.899386,0.939029,-0.120174,-0.0461586,0.318828,0.235438,-0.339686,-0.359323,0.216219,-0.402514,-0.349816,0.23357,-0.465406,1.06472,0.033474,0.341806,0.348401,0.033474,0.325325,0.348401,-0.647458,-0.0169581,-0.329077,-0.303852,0.681756,-0.28696,-0.664398,1
1.14264,-0.796105,-1.7947,-1.04948,2.44143,1.52271,-1.63708,1.14264,-0.796105,-1.7947,-1.04948,2.44143,1.52271,-1.63708,1.19013,-0.777516,-1.7816,-1.00588,2.37549,1.55924,-1.57035,0.518857,-0.152939,-0.930949,-0.685086,1.29616,0.214716,-1.14339,0.518857,-0.152939,-0.930949,-0.685086,1.29616,0.214716,-1.14339,0.0992029,-0.537959,0.895215,0.940565,-0.114095,-0.0502284,0.315906,0.277804,-0.260229,-0.450454,0.2636,-0.32282,-0.441081,0.234621,-0.46226,1.06697,0.105149,0.314605,0.225329,0.105149,0.329001,0.225329,-0.474872,-0.185893,-0.131002,-0.436005,0.659358,-0.365276,-0.667305,1
1.15802,-0.801991,-1.79024,-1.06632,2.45439,1.52604,-1.64342,1.15802,-0.801991,-1.79024,-1.06632,2.45439,1.52604,-1.64342,1.19287,-0.779892,-1.7903,-1.01461,2.38773,1.56032,-1.58185,0.192163,-0.271293,-0.861718,-0.887519,1.20848,0.0339146,-1.15517,0.192163,-0.271293,-0.861718,-0.887519,1.20848,0.0339146,-1.15517,0.101204,-0.541754,0.890099,0.942297,-0.106779,-0.0536594,0.312723,0.165624,-0.335646,-0.541643,0.162268,-0.410012,-0.529387,0.236486,-0.459114,1.06713,0.186446,0.314522,0.0163674,0.186446,0.331238,0.0163674,-0.348543,-0.220991,0.000597373,-0.517116,0.666536,-0.342761,-0.6157,1
1.15388,-0.798287,-1.81544,-1.06265,2.47227,1.53716,-1.65725,1.15388,-0.798287,-1.81544,-1.06265,2.47227,1.53716,-1.65725,1.19341,-0.783288,-1.79816,-1.0229,2.39943,1.55833,-1.59347,0.0315418,-0.34932,-0.757446,-0.799437,1.15761,-0.272875,-1.15685,0.0315418,-0.34932,-0.757446,-0.799437,1.15761,-0.272875,-1.15685,0.102034,-0.546449,0.884843,0.944467,-0.0980145,-0.0568123,0.308461,0.0658285,-0.394628,-0.531119,0.0673892,-0.47819,-0.517977,0.237409,-0.455587,1.06687,0.0922948,0.352752,-0.0260353,0.0922948,0.33176,-0.0260353,-0.395287,-0.149986,-0.172816,-0.39748,0.72834,-0.211695,-0.637825,1
1.15476,-0.799552,-1.7931,-1.05315,2.48302,1.53592,-1.66611,1.15476,-0.799552,-1.7931,-1.05315,2.48302,1.53592,-1.66611,1.19405,-0.786727,-1.80464,-1.02911,2.41025,1.55381,-1.60462,0.085158,-0.34014,-0.607526,-0.544359,1.06078,-0.506849,-1.10016,0.085158,-0.34014,-0.607526,-0.544359,1.06078,-0.506849,-1.10016,0.102598,-0.55112,0.880396,0.946566,-0.0891073,-0.0597971,0.304134,0.0511214,-0.378225,-0.428099,0.0521826,-0.460199,-0.416814,0.238523,-0.451665,1.06585,0.111422,0.392213,-0.102031,0.111422,0.337351,-0.102031,-0.392887,-0.128241,0.115321,-0.240399,0.727722,-0.178881,-0.614885,1
1.15429,-0.789876,-1.79404,-1.05845,2.493,1.52789,-1.67599,1.15429,-0.789876,-1.79404,-1.05845,2.493,1.52789,-1.67599,1.1958,-0.789798,-1.80884,-1.03325,2.42063,1.54774,-1.61546,0.205535,-0.298954,-0.355904,-0.391163,1.04359,-0.640716,-1.08442,0.205535,-0.298954,-0.355904,-0.391163,1.04359,-0.640716,-1.08442,0.103438,-0.555198,0.877112,0.94826,-0.0807451,-0.0631707,0.300489,0.106508,-0.311596,-0.315179,0.100447,-0.391692,-0.306798,0.239069,-0.448693,1.06365,0.0545949,0.297192,-0.21981,0.0545949,0.337669,-0.21981,-0.415037,-0.00078485,0.148076,-0.251981,0.723703,-0.198472,-0.605211,1
1.15455,-0.799068,-1.82122,-1.06476,2.50616,1.50361,-1.68962,1.15455,-0.799068,-1.82122,-1.06476,2.50616,1.50361,-1.68962,1.19831,-0.792519,-1.81102,-1.03819,2.43167,1.54144,-1.62643,0.251375,-0.266931,-0.189883,-0.534318,1.13742,-0.588859,-1.1029,0.251375,-0.266931,-0.189883,-0.534318,1.13742,-0.588859,-1.1029,0.10507,-0.558659,0.874172,0.949423,-0.0723588,-0.0671137,0.298086,0.184214,-0.250821,-0.306412,0.171836,-0.333806,-0.300323,0.239157,-0.445701,1.06021,0.00876486,0.299212,-0.344002,0.00876486,0.334636,-0.344002,-0.437524,-0.0654865,-0.101965,-0.265635,0.744812,-0.378307,-0.631915,1
1.16169,-0.809375,-1.79562,-1.07456,2.51596,1.51564,-1.70051,1.16169,-0.809375,-1.79562,-1.07456,2.51596,1.51564,-1.70051,1.19983,-0.794707,-1.81308,-1.04503,2.44427,1.53719,-1.63756,0.106926,-0.186647,-0.209597,-0.725255,1.29538,-0.376194,-1.10956,0.106926,-0.186647,-0.209597,-0.725255,1.29538,-0.376194,-1.10956,0.10651,-0.56176,0.870893,0.950394,-0.064222,-0.0715548,0.295815,0.146164,-0.214348,-0.331896,0.12971,-0.295259,-0.328239,0.24019,-0.442676,1.05578,0.103378,0.302517,-0.443661,0.103378,0.330263,-0.443661,-0.381376,-0.146673,0.174614,-0.295234,0.716888,-0.215457,-0.629497,1
1.16858,-0.800915,-1.80417,-1.07688,2.52915,1.50741,-1.7142,1.16858,-0.800915,-1.80417,-1.07688,2.52915,1.50741,-1.7142,1.19887,-0.795287,-1.81442,-1.05237,2.45782,1.53425,-1.64841,-0.172709,-0.0207212,-0.0927842,-0.712851,1.36587,-0.279587,-1.08096,-0.172709,-0.0207212,-0.0927842,-0.712851,1.36587,-0.279587,-1.08096,0.10681,-0.564082,0.868321,0.951385,-0.0571558,-0.0761217,0.292924,0.00758997,-0.143622,-0.228467,-0.0140038,-0.213024,-0.227854,0.24029,-0.440004,1.05041,0.00994205,0.267109,-0.536835,0.00994205,0.318274,-0.536835,-0.302915,-0.0562801,0.102494,-0.245092,0.713343,-0.268466,-0.657863,1
1.15483,-0.818401,-1.81828,-1.099,2.54168,1.49406,-1.72001,1.15483,-0.818401,-1.81828,-1.099,2.54168,1.49406,-1.72001,1.19506,-0.795694,-1.81374,-1.05887,2.47156,1.53106,-1.65922,-0.436069,-0.0770365,0.100826,-0.648159,1.37001,-0.363922,-1.08467,-0.436069,-0.0770365,0.100826,-0.648159,1.37001,-0.363922,-1.08467,0.105344,-0.56627,0.866442,0.952505,-0.0507109,-0.0812632,0.289066,-0.15125,-0.170833,-0.197073,-0.178265,-0.240819,-0.198602,0.240895,-0.43631,1.04467,0.0604957,0.369421,-0.573993,0.0604957,0.311314,-0.573993,-0.402235,-0.227061,-0.0454077,-0.401282,0.701245,-0.370062,-0.607871,1
1.13549,-0.830477,-1.78691,-1.10064,2.55551,1.54073,-1.72475,1.13549,-0.830477,-1.78691,-1.10064,2.55551,1.54073,-1.72475,1.19051,-0.798177,-1.81268,-1.06517,2.48503,1.52557,-1.67031,-0.441078,-0.306025,0.0861447,-0.622117,1.34023,-0.59442,-1.11625,-0.441078,-0.306025,0.0861447,-0.622117,1.34023,-0.59442,-1.11625,0.103288,-0.569746,0.863705,0.95374,-0.0425446,-0.0865614,0.284739,-0.183508,-0.296233,-0.304207,-0.206707,-0.382759,-0.305874,0.241824,-0.433212,1.03783,0.0928938,0.309801,-0.684094,0.0928938,0.306497,-0.684094,-0.550145,-0.323005,0.257737,-0.354701,0.704802,0.151576,-0.544441,1
1.13312,-0.817441,-1.78133,-1.08027,2.57046,1.49662,-1.74256,1.13312,-0.817441,-1.78133,-1.08027,2.57046,1.49662,-1.74256,1.1867,-0.801787,-1.81276,-1.07149,2.49795,1.51987,-1.68152,-0.360339,-0.349565,-0.0150885,-0.639206,1.26813,-0.554428,-1.11496,-0.360339,-0.349565,-0.0150885,-0.639206,1.26813,-0.554428,-1.11496,0.101484,-0.573872,0.860119,0.954964,-0.0336353,-0.0915158,0.280246,-0.144369,-0.31388,-0.356938,-0.163299,-0.400535,-0.359531,0.242532,-0.429748,1.03021,0.0708282,0.34641,-0.761271,0.0708282,0.314916,-0.761271,-0.535831,-0.156542,0.314283,-0.0878478,0.725159,-0.232518,-0.610319,1
1.12073,-0.821635,-1.81357,-1.12583,2.58331,1.48464,-1.74382,1.12073,-0.821635,-1.81357,-1.12583,2.58331,1.48464,-1.74382,1.18288,-0.804129,-1.812,-1.0785,2.50974,1.51453,-1.69249,-0.40443,-0.203533,0.112223,-0.729007,1.15782,-0.537901,-1.09597,-0.40443,-0.203533,0.112223,-0.729007,1.15782,-0.537901,-1.09597,0.100308,-0.576999,0.857129,0.955948,-0.0254885,-0.0956656,0.276337,-0.0949634,-0.210698,-0.28132,-0.109428,-0.288743,-0.284556,0.243172,-0.426336,1.02235,0.0639737,0.341189,-0.786483,0.0639737,0.324073,-0.786483,-0.621511,-0.175067,-0.0157444,-0.47334,0.735658,-0.29894,-0.513271,1
1.11637,-0.838886,-1.77861,-1.14262,2.59503,1.49505,-1.74912,1.11637,-0.838886,-1.77861,-1.14262,2.59503,1.49505,-1.74912,1.17805,-0.806103,-1.81064,-1.08623,2.5214,1.50955,-1.70335,-0.501528,-0.206158,0.130511,-0.770773,1.17201,-0.449551,-1.07832,-0.501528,-0.206158,0.130511,-0.770773,1.17201,-0.449551,-1.07832,0.0988836,-0.579816,0.854221,0.956846,-0.0175615,-0.0996628,0.272404,-0.14484,-0.206295,-0.294024,-0.161748,-0.281866,-0.299078,0.24467,-0.423556,1.01276,0.149864,0.278053,-0.959074,0.149864,0.325922,-0.959074,-0.616817,-0.327831,0.320273,-0.563939,0.736255,-0.145061,-0.45764,1
1.14011,-0.80343,-1.74722,-1.13427,2.60765,1.5375,-1.77643,1.14011,-0.80343,-1.74722,-1.13427,2.60765,1.5375,-1.77643,1.17307,-0.808245,-1.80863,-1.09351,2.53359,1.50854,-1.7137,-0.502583,-0.207632,0.236239,-0.698374,1.23274,0.00751429,-1.02452,-0.502583,-0.207632,0.236239,-0.698374,1.23274,0.00751429,-1.02452,0.0967257,-0.58211,0.851363,0.957473,-0.0115355,-0.104934,0.268518,-0.201192,-0.147896,-0.260741,-0.238276,-0.206156,-0.270639,0.246441,-0.420581,1.00166,0.177032,0.297451,-1.10984,0.177032,0.323767,-1.10984,-0.329592,0.0481414,0.614176,-0.407611,0.740674,0.289546,-0.627271,1
1.11711,-0.852612,-1.766,-1.13443,2.61576,1.46263,-1.79169,1.11711,-0.852612,-1.766,-1.13443,2.61576,1.46263,-1.79169,1.16693,-0.81064,-1.80499,-1.09872,2.54635,1.50833,-1.72394,-0.656404,-0.271677,0.388586,-0.470081,1.2958,-0.0849583,-1.02247,-0.656404,-0.271677,0.388586,-0.470081,1.2958,-0.0849583,-1.02247,0.0930709,-0.584295,0.849227,0.958037,-0.00667659,-0.111502,0.263984,-0.36021,-0.186265,-0.198543,-0.408294,-0.243255,-0.211946,0.247352,-0.41746,0.989794,0.0911653,0.312141,-1.18666,0.0911653,0.314306,-1.18666,-0.49815,-0.419718,0.389978,-0.357185,0.694086,-0.457033,-0.677518,1
1.10691,-0.83781,-1.7579,-1.15536,2.62978,1.53113,-1.78403,1.10691,-0.83781,-1.7579,-1.15536,2.62978,1.53113,-1.78403,1.1603,-0.814698,-1.80102,-1.10243,2.55945,1.50484,-1.73352,-0.63935,-0.442564,0.386836,-0.340924,1.3081,-0.43481,-0.922161,-0.63935,-0.442564,0.386836,-0.340924,1.3081,-0.43481,-0.922161,0.0886105,-0.587723,0.846733,0.95852,-0.000210478,-0.118393,0.259273,-0.39763,-0.297008,-0.248229,-0.44223,-0.370127,-0.263237,0.248739,-0.413023,0.977304,0.138614,0.443721,-1.24897,0.138614,0.324645,-1.24897,-0.533894,-0.231119,0.431249,-0.529366,0.703347,0.262979,-0.505064,1
1.11223,-0.836929,-1.74042,-1.13525,2.6447,1.49058,-1.80364,1.11223,-0.836929,-1.74042,-1.13525,2.6447,1.49058,-1.80364,1.15489,-0.819755,-1.79901,-1.10674,2.57232,1.5001,-1.74156,-0.517119,-0.507604,0.132243,-0.486572,1.27699,-0.437977,-0.767788,-0.517119,-0.507604,0.132243,-0.486572,1.27699,-0.437977,-0.767788,0.0848923,-0.591991,0.843107,0.958753,0.00772714,-0.124531,0.255394,-0.312518,-0.347984,-0.38225,-0.345937,-0.429676,-0.396963,0.249053,-0.41075,0.963675,0.0314206,0.227252,-1.36293,0.0314206,0.320419,-1.36293,-0.426563,-0.171744,0.585948,-0.285102,0.723806,-0.0952516,-0.62075,1
1.11627,-0.822105,-1.76072,-1.17018,2.65442,1.49539,-1.81086,1.11627,-0.822105,-1.76072,-1.17018,2.65442,1.49539,-1.81086,1.14952,-0.823363,-1.79841,-1.11346,2.58497,1.49843,-1.74958,-0.55977,-0.2987,0.0697106,-0.728828,1.26577,-0.0881779,-0.84192,-0.55977,-0.2987,0.0697106,-0.728828,1.26577,-0.0881779,-0.84192,0.081934,-0.595317,0.839174,0.958947,0.0147808,-0.12986,0.251671,-0.253786,-0.222681,-0.363054,-0.285419,-0.289632,-0.377464,0.250046,-0.407549,0.948598,0.0993118,0.320062,-1.50769,0.0993118,0.319751,-1.50769,-0.332496,0.0125764,0.376866,-0.567175,0.694497,-0.0303376,-0.612848,1
1.10075,-0.846008,-1.75378,-1.17753,2.66996,1.50308,-1.82074,1.10075,-0.846008,-1.75378,-1.17753,2.66996,1.50308,-1.82074,1.14288,-0.82539,-1.79562,-1.12219,2.59767,1.49675,-1.75976,-0.69725,-0.205621,0.371862,-0.912662,1.27045,-0.231506,-1.07059,-0.69725,-0.205621,0.371862,-0.912662,1.27045,-0.231506,-1.07059,0.0793934,-0.597472,0.835995,0.959144,0.0216061,-0.134892,0.247749,-0.21729,-0.135313,-0.293054,-0.246936,-0.205695,-0.30861,0.250992,-0.404513,0.932963,0.0945717,0.303602,-1.5635,0.0945717,0.321072,-1.5635,-0.42126,-0.206181,0.418393,-0.553325,0.722951,0.0632505,-0.609783,1
1.0882,-0.849237,-1.73201,-1.17622,2.68641,1.52868,-1.83086,1.0882,-0.849237,-1.73201,-1.17622,2.68641,1.52868,-1.83086,1.13542,-0.829072,-1.78905,-1.13171,2.61042,1.49402,-1.77092,-0.751825,-0.432597,0.746121,-0.934544,1.28263,-0.220013,-1.12329,-0.751825,-0.432597,0.746121,-0.934544,1.28263,-0.220013,-1.12329,0.0766955,-0.599735,0.83264,0.958889,0.0291814,-0.141059,0.244507,-0.248425,-0.151566,-0.323083,-0.292073,-0.228646,-0.344799,0.251375,-0.401978,0.916211,0.0383914,0.25351,-1.67522,0.0383914,0.311338,-1.67522,-0.4722,-0.20165,0.570381,-0.445049,0.759897,0.346591,-0.599392,1
1.06971,-0.882488,-1.7242,-1.18294,2.69929,1.47648,-1.84083,1.06971,-0.882488,-1.7242,-1.18294,2.69929,1.47648,-1.84083,1.1279,-0.834898,-1.7799,-1.13953,2.62323,1.49416,-1.78223,-0.741495,-0.626449,0.951394,-0.741747,1.27722,0.0720595,-1.12902,-0.741495,-0.626449,0.951394,-0.741747,1.27722,0.0720595,-1.12902,0.0728022,-0.602059,0.829187,0.958238,0.0353012,-0.149494,0.241218,-0.343446,-0.166839,-0.32135,-0.409006,-0.233925,-0.349733,0.25215,-0.398683,0.898904,0.0774831,0.329536,-1.73074,0.0774831,0.302342,-1.73074,-0.581935,-0.475902,0.557085,-0.434034,0.76058,-0.176781,-0.585928,1
1.06646,-0.865838,-1.71107,-1.19902,2.71109,1.54352,-1.8535,1.06646,-0.865838,-1.71107,-1.19902,2.71109,1.54352,-1.8535,1.12187,-0.841807,-1.77062,-1.14613,2.63572,1.49397,-1.79331,-0.548134,-0.696999,0.899072,-0.626641,1.24299,-0.0646294,-1.09908,-0.548134,-0.696999,0.899072,-0.626641,1.24299,-0.0646294,-1.09908,0.069242,-0.604723,0.825532,0.957291,0.0416125,-0.158241,0.238373,-0.270269,-0.202362,-0.337228,-0.331759,-0.275071,-0.367538,0.253057,-0.395328,0.880634,0.0906497,0.335494,-1.82695,0.0906497,0.295675,-1.82695,-0.554092,-0.240319,0.595461,-0.528905,0.753755,0.49555,-0.601906,1
1.08321,-0.833721,-1.69811,-1.15501,2.72012,1.53562,-1.87354,1.08321,-0.833721,-1.69811,-1.15501,2.72012,1.53562,-1.87354,1.11788,-0.847963,-1.76282,-1.15256,2.64833,1.49424,-1.80411,-0.365139,-0.571287,0.738391,-0.667135,1.27243,0.0919289,-1.07769,-0.365139,-0.571287,0.738391,-0.667135,1.27243,0.0919289,-1.07769,0.0668545,-0.607126,0.821912,0.956185,0.0478732,-0.166432,0.23605,-0.153881,-0.149315,-0.327502,-0.211334,-0.216723,-0.357773,0.253717,-0.391946,0.862267,0.0660598,0.338176,-1.83666,0.0660598,0.309588,-1.83666,-0.34669,0.142418,0.647032,-0.0244202,0.717884,0.413801,-0.694212,1
1.07169,-0.885188,-1.80245,-1.20369,2.71447,1.47774,-1.88275,1.07169,-0.885188,-1.80245,-1.20369,2.71447,1.47774,-1.88275,1.11363,-0.85203,-1.75598,-1.16025,2.6617,1.49746,-1.81479,-0.4656,-0.357074,0.68837,-0.801355,1.36036,0.370771,-1.06336,-0.4656,-0.357074,0.68837,-0.801355,1.36036,0.370771,-1.06336,0.0647182,-0.608435,0.818722,0.955114,0.0528544,-0.174386,0.233566,-0.162989,-0.049589,-0.273135,-0.222679,-0.10423,-0.303532,0.255163,-0.388267,0.842859,0.144598,0.367889,-1.9408,0.144598,0.32011,-1.9408,-0.419417,-0.331575,-0.464704,-0.434379,0.527649,-0.197187,-0.679583,1
1.07955,-0.869544,-1.71912,-1.22005,2.71929,1.56998,-1.88458,1.07955,-0.869544,-1.71912,-1.22005,2.71929,1.56998,-1.88458,1.10749,-0.855221,-1.74846,-1.16897,2.67574,1.49906,-1.82515,-0.653689,-0.327929,0.779916,-0.87846,1.41411,0.0570076,-1.02216,-0.653689,-0.327929,0.779916,-0.87846,1.41411,0.0570076,-1.02216,0.062171,-0.609551,0.81585,0.953981,0.0584725,-0.18194,0.231081,-0.212647,-0.0589794,-0.254903,-0.26474,-0.124069,-0.286631,0.25687,-0.385693,0.821613,0.170648,0.257468,-2.12466,0.170648,0.323646,-2.12466,-0.279414,-0.143222,0.293447,-0.510822,0.435478,0.709225,-0.594224,1
1.05763,-0.891762,-1.73839,-1.22029,2.71889,1.56263,-1.88303,1.05763,-0.891762,-1.73839,-1.22029,2.71889,1.56263,-1.88303,1.10055,-0.859054,-1.73972,-1.17708,2.68959,1.49848,-1.83521,-0.70069,-0.404027,0.903854,-0.767452,1.37353,-0.0269759,-1.01512,-0.70069,-0.404027,0.903854,-0.767452,1.37353,-0.0269759,-1.01512,0.0591698,-0.610988,0.813124,0.952659,0.0647525,-0.189508,0.228767,-0.267557,-0.076825,-0.230639,-0.322769,-0.141589,-0.265327,0.25858,-0.383402,0.798685,0.170994,0.229111,-2.29273,0.170994,0.317041,-2.29273,-0.429159,-0.327082,0.0133055,-0.432036,0.292987,0.641529,-0.478131,1
1.04787,-0.892411,-1.77091,-1.22519,2.68298,1.57251,-1.90028,1.04787,-0.892411,-1.77091,-1.22519,2.68298,1.57251,-1.90028,1.09395,-0.863767,-1.73093,-1.18317,2.70257,1.50102,-1.84635,-0.629625,-0.497717,0.836707,-0.568315,1.25851,0.338702,-1.15026,-0.629625,-0.497717,0.836707,-0.568315,1.25851,0.338702,-1.15026,0.0552315,-0.61233,0.810466,0.951474,0.0693142,-0.198034,0.225114,-0.336018,-0.0896116,-0.242533,-0.403466,-0.13685,-0.279547,0.259328,-0.379735,0.775407,0.0748634,0.36661,-2.32785,0.0748634,0.310532,-2.32785,-0.460872,-0.286448,-0.399868,-0.420199,-0.195894,0.714848,-0.539245,1
1.02088,-0.880755,-1.75449,-1.22023,2.75186,1.5712,-1.92266,1.02088,-0.880755,-1.75449,-1.22023,2.75186,1.5712,-1.92266,1.0894,-0.869257,-1.72533,-1.18692,2.71318,1.50456,-1.85848,-0.390976,-0.549141,0.451531,-0.316352,0.984314,0.295896,-1.22296,-0.390976,-0.549141,0.451531,-0.316352,0.984314,0.295896,-1.22296,0.0514426,-0.614227,0.807305,0.950811,0.0733411,-0.205539,0.219847,-0.298778,-0.168192,-0.292083,-0.353438,-0.20831,-0.32394,0.260719,-0.376356,0.751979,0.139081,0.33794,-2.34282,0.139081,0.307869,-2.34282,-0.685167,-0.114975,-0.29161,-0.333176,0.386751,0.666454,-0.641836,1
1.0212,-0.881934,-1.78889,-1.22717,2.68778,1.57362,-1.92301,1.0212,-0.881934,-1.78889,-1.22717,2.68778,1.57362,-1.92301,1.08711,-0.873652,-1.72437,-1.19016,2.72069,1.50596,-1.87003,-0.193073,-0.384805,-0.0168494,-0.359674,0.674936,0.135503,-1.11595,-0.193073,-0.384805,-0.0168494,-0.359674,0.674936,0.135503,-1.11595,0.049331,-0.616408,0.803902,0.950809,0.0780169,-0.20966,0.214284,-0.14081,-0.168563,-0.325029,-0.164334,-0.205505,-0.344355,0.261591,-0.37358,0.72678,0.0871837,0.277603,-2.51983,0.0871837,0.303137,-2.51983,-0.659081,-0.0828244,-0.645171,-0.370167,-0.3291,0.676551,-0.529761,1
1.02051,-0.87453,-1.76701,-1.23814,2.7563,1.56756,-1.93864,1.02051,-0.87453,-1.76701,-1.23814,2.7563,1.56756,-1.93864,1.08474,-0.875519,-1.72701,-1.19555,2.72436,1.51157,-1.87964,-0.273379,-0.127467,-0.336573,-0.604955,0.234686,0.760526,-0.917068,-0.273379,-0.127467,-0.336573,-0.604955,0.234686,0.760526,-0.917068,0.0481505,-0.617173,0.800605,0.9516,0.0802515,-0.21103,0.208525,-0.106834,-0.0231887,-0.321168,-0.11831,-0.0236868,-0.326006,0.262633,-0.370763,0.700429,0.104174,0.281712,-2.63514,0.104174,0.299229,-2.63514,-0.642338,0.00988246,-0.399978,-0.425878,0.319395,0.559948,-0.590011,1
1.04797,-0.921537,-1.79399,-1.25395,2.75083,1.57783,-1.93733,1.04797,-0.921537,-1.79399,-1.25395,2.75083,1.57783,-1.93733,1.08047,-0.876228,-1.73238,-1.20289,2.72175,1.52494,-1.8882,-0.472118,-0.0691267,-0.587098,-0.772211,-0.421491,1.50778,-0.838521,-0.472118,-0.0691267,-0.587098,-0.772211,-0.421491,1.50778,-0.838521,0.0463366,-0.616288,0.79711,0.953569,0.0781139,-0.210252,0.200994,-0.196001,0.0761082,-0.370746,-0.201007,0.119797,-0.361461,0.263928,-0.367607,0.673159,0.129557,0.315636,-2.72701,0.129557,0.30604,-2.72701,-0.325,-0.453098,-0.616123,-0.510586,0.290864,0.528911,-0.491363,1
1.11291,-0.895491,-1.77998,-1.25321,2.75473,1.59501,-1.96096,1.11291,-0.895491,-1.77998,-1.25321,2.75473,1.59501,-1.96096,1.07482,-0.877226,-1.73913,-1.21106,2.71617,1.54192,-1.89682,-0.595379,-0.119749,-0.711449,-0.819849,-0.523522,1.71526,-0.88417,-0.595379,-0.119749,-0.711449,-0.819849,-0.523522,1.71526,-0.88417,0.0437151,-0.614991,0.793069,0.956052,0.0742279,-0.208716,0.192073,-0.288088,0.0619494,-0.439087,-0.293697,0.114066,-0.428556,0.264545,-0.36506,0.644657,0.0617087,0.254655,-2.85016,0.0617087,0.303127,-2.85016,0.3809,-0.182657,-0.408517,-0.42151,0.385667,0.530919,-0.641418,1
1.09445,-0.927354,-1.81755,-1.27246,2.75508,1.59744,-1.97322,1.09445,-0.927354,-1.81755,-1.27246,2.75508,1.59744,-1.97322,1.06838,-0.878967,-1.7475,-1.21925,2.71345,1.55693,-1.90639,-0.641531,-0.182416,-0.856078,-0.822594,-0.205443,1.40487,-0.982108,-0.641531,-0.182416,-0.856078,-0.822594,-0.205443,1.40487,-0.982108,0.0401835,-0.614849,0.788019,0.958385,0.0724369,-0.20771,0.181955,-0.348062,-0.0389642,-0.524739,-0.352168,-0.0091588,-0.519353,0.265362,-0.361692,0.616188,0.0816613,0.33679,-2.84689,0.0816613,0.295342,-2.84689,0.260742,-0.483868,-0.700543,-0.532123,0.416347,0.405085,-0.668257,1
1.04774,-0.926986,-1.8267,-1.28045,2.75889,1.60032,-1.98042,1.04774,-0.926986,-1.8267,-1.28045,2.75889,1.60032,-1.98042,1.06239,-0.880686,-1.75574,-1.2277,2.71463,1.56791,-1.91669,-0.592539,-0.178821,-0.830324,-0.853861,0.264465,1.0078,-1.03697,-0.592539,-0.178821,-0.830324,-0.853861,0.264465,1.0078,-1.03697,0.0369903,-0.615525,0.782706,0.960177,0.0734785,-0.2073,0.172301,-0.317825,-0.0958412,-0.546355,-0.324169,-0.0950966,-0.548799,0.266352,-0.358438,0.586993,0.0990033,0.325438,-2.91956,0.0990033,0.297264,-2.91956,-0.146448,-0.462996,-0.709574,-0.527454,0.442645,0.324068,-0.637352,1
1.0723,-0.88694,-1.83616,-1.29682,2.74218,1.61892,-1.98194,1.0723,-0.88694,-1.83616,-1.29682,2.74218,1.61892,-1.98194,1.05692,-0.883007,-1.76456,-1.23664,2.72165,1.57636,-1.92689,-0.519553,-0.235783,-0.867488,-0.90899,0.828332,0.805312,-1.02113,-0.519553,-0.235783,-0.867488,-0.90899,0.828332,0.805312,-1.02113,0.0336366,-0.617373,0.776399,0.961174,0.0775716,-0.208651,0.163072,-0.309945,-0.168864,-0.629009,-0.326898,-0.196214,-0.642674,0.267534,-0.354862,0.557252,0.118202,0.357527,-2.97412,0.118202,0.309706,-2.97412,0.153826,-0.0393316,-0.715953,-0.60179,0.20535,0.425656,-0.550508,1
1.08903,-0.915619,-1.84827,-1.31562,2.71261,1.63447,-2.00101,1.08903,-0.915619,-1.84827,-1.31562,2.71261,1.63447,-2.00101,1.05223,-0.885299,-1.77278,-1.24597,2.73192,1.5839,-1.93761,-0.473365,-0.240014,-0.843327,-0.946729,1.06503,0.750435,-1.09193,-0.473365,-0.240014,-0.843327,-0.946729,1.06503,0.750435,-1.09193,0.0306086,-0.619428,0.769906,0.961616,0.0830249,-0.211161,0.154312,-0.2899,-0.175833,-0.649484,-0.31251,-0.213394,-0.66849,0.269093,-0.351482,0.526434,0.155884,0.338003,-3.08172,0.155884,0.321257,-3.08172,0.367942,-0.303198,-0.754943,-0.696522,-0.193137,0.505721,-0.633996,1
1.00948,-0.933303,-1.86046,-1.32558,2.70476,1.65136,-2.0174,1.00948,-0.933303,-1.86046,-1.32558,2.70476,1.65136,-2.0174,1.0475,-0.88821,-1.78198,-1.25476,2.74217,1.59099,-1.94916,-0.456598,-0.291535,-0.919656,-0.857612,0.98601,0.683094,-1.16818,-0.456598,-0.291535,-0.919656,-0.857612,0.98601,0.683094,-1.16818,0.0271209,-0.621901,0.762942,0.962081,0.0889956,-0.213528,0.144517,-0.321505,-0.206228,-0.671493,-0.341861,-0.243233,-0.689927,0.271141,-0.349283,0.49346,0.204834,0.219893,-3.29744,0.204834,0.317693,-3.29744,-0.380141,-0.450925,-0.784809,-0.708155,-0.374119,0.603786,-0.682375,1
1.00595,-0.876115,-1.86519,-1.33349,2.69001,1.6522,-1.97305,1.00595,-0.876115,-1.86519,-1.33349,2.69001,1.6522,-1.97305,1.04382,-0.89119,-1.79144,-1.2631,2.75055,1.59695,-1.96062,-0.347084,-0.310183,-0.972568,-0.836508,0.785111,0.568546,-1.13002,-0.347084,-0.310183,-0.972568,-0.836508,0.785111,0.568546,-1.13002,0.0243688,-0.624324,0.756105,0.962589,0.0950185,-0.214803,0.135106,-0.251181,-0.207655,-0.680421,-0.261023,-0.245468,-0.694954,0.272759,-0.346223,0.459646,0.161776,0.30607,-3.38137,0.161776,0.315301,-3.38137,-0.378767,0.15075,-0.737503,-0.703918,-0.605343,0.552467,-0.124246,1
1.0367,-0.900909,-1.87892,-1.34662,2.68871,1.65009,-1.98058,1.0367,-0.900909,-1.87892,-1.34662,2.68871,1.65009,-1.98058,1.04064,-0.894861,-1.80207,-1.27144,2.75496,1.60296,-1.97125,-0.307595,-0.380317,-1.08661,-0.843303,0.283928,0.634461,-1.04523,-0.307595,-0.380317,-1.08661,-0.843303,0.283928,0.634461,-1.04523,0.0220514,-0.62672,0.748876,0.963399,0.100483,-0.21431,0.125845,-0.220461,-0.197268,-0.722778,-0.214963,-0.223701,-0.727747,0.273504,-0.343195,0.425195,0.0745267,0.302765,-3.44518,0.0745267,0.305356,-3.44518,-0.0393366,-0.0604797,-0.768529,-0.751748,-0.662483,0.471252,-0.0933026,1
1.01328,-0.927516,-1.88672,-1.34479,2.69453,1.64842,-2.02632,1.01328,-0.927516,-1.88672,-1.34479,2.69453,1.64842,-2.02632,1.03793,-0.898607,-1.81352,-1.28049,2.75229,1.61099,-1.98186,-0.262401,-0.373306,-1.16986,-0.925133,-0.448988,0.862466,-1.07788,-0.262401,-0.373306,-1.16986,-0.925133,-0.448988,0.862466,-1.07788,0.0207437,-0.628201,0.74173,0.964946,0.103801,-0.210968,0.116604,-0.135741,-0.117999,-0.723841,-0.108456,-0.121606,-0.713105,0.274697,-0.339997,0.390191,0.11926,0.319836,-3.50032,0.11926,0.299704,-3.50032,-0.246553,-0.289098,-0.732027,-0.643029,-0.577614,0.374208,-0.444569,1
0.989102,-0.944007,-1.89594,-1.34155,2.69037,1.64423,-2.03001,0.989102,-0.944007,-1.89594,-1.34155,2.69037,1.64423,-2.03001,1.03533,-0.902663,-1.826,-1.29076,2.74321,1.62166,-1.9925,-0.254395,-0.413885,-1.26286,-1.05526,-1.04348,1.12706,-1.0126,-0.254395,-0.413885,-1.26286,-1.05526,-1.04348,1.12706,-1.0126,0.0201738,-0.628852,0.734289,0.967136,0.10514,-0.20515,0.107268,-0.0834862,-0.0571193,-0.773406,-0.039211,-0.0434338,-0.751076,0.276105,-0.337024,0.353726,0.140777,0.297254,-3.64658,0.140777,0.294908,-3.64658,-0.462244,-0.413434,-0.69943,-0.507903,-0.528355,0.225675,-0.375187,1
0.989299,-0.935963,-1.90531,-1.3605,2.70051,1.67046,-2.03,0.989299,-0.935963,-1.90531,-1.3605,2.70051,1.67046,-2.03,1.0328,-0.906431,-1.83864,-1.30175,2.72987,1.63351,-1.99768,-0.257691,-0.362311,-1.26678,-1.10481,-1.40717,1.19031,-0.335491,-0.257691,-0.362311,-1.26678,-1.10481,-1.40717,1.19031,-0.335491,0.020289,-0.628746,0.727058,0.969403,0.104518,-0.197863,0.100914,-0.0383837,0.00236352,-0.744599,0.0193401,0.026529,-0.71483,0.277784,-0.333882,0.316563,0.167969,0.314179,-3.71622,0.167969,0.298373,-3.71622,-0.435056,-0.295322,-0.666694,-0.587563,-0.29362,0.369464,-0.323276,1
0.994724,-0.943931,-1.91965,-1.37839,2.69943,1.69183,-2.04093,0.994724,-0.943931,-1.91965,-1.37839,2.69943,1.69183,-2.04093,1.03042,-0.909982,-1.85094,-1.31304,2.71536,1.64438,-1.99774,-0.227,-0.351717,-1.21649,-1.11988,-1.43409,1.03,0.0454431,-0.227,-0.351717,-1.21649,-1.11988,-1.43409,1.03,0.0454431,0.0208838,-0.628442,0.719993,0.971396,0.103518,-0.190082,0.0976827,0.00413295,0.0102474,-0.731577,0.0676856,0.0275909,-0.70254,0.278663,-0.3319,0.277342,0.0879049,0.198218,-3.92209,0.0879049,0.296433,-3.92209,-0.356936,-0.339491,-0.687114,-0.653463,-0.159232,0.474564,-0.431878,1
0.985958,-0.958183,-1.93331,-1.39017,2.67803,1.70142,-2.03157,0.985958,-0.958183,-1.93331,-1.39017,2.67803,1.70142,-2.03157,1.02818,-0.913622,-1.863,-1.32393,2.70297,1.65249,-1.99883,-0.216634,-0.371191,-1.19813,-1.0698,-1.14666,0.733574,-0.19118,-0.216634,-0.371191,-1.19813,-1.0698,-1.14666,0.733574,-0.19118,0.0214237,-0.628657,0.712848,0.973075,0.104225,-0.182637,0.0943728,-0.0144117,-0.0382579,-0.74183,0.0458791,-0.0392617,-0.719884,0.279157,-0.328718,0.238096,0.0493526,0.318217,-3.92468,0.0493526,0.290065,-3.92468,-0.422235,-0.445611,-0.703121,-0.662409,-0.249471,0.489222,-0.327439,1
0.976246,-0.955307,-1.94169,-1.39607,2.66027,1.69889,-2.01656,0.976246,-0.955307,-1.94169,-1.39607,2.66027,1.69889,-2.01656,1.02648,-0.917402,-1.87472,-1.33367,2.69415,1.65726,-2.00395,-0.158656,-0.379903,-1.17571,-0.935827,-0.799013,0.397412,-0.614118,-0.158656,-0.379903,-1.17571,-0.935827,-0.799013,0.397412,-0.614118,0.0217867,-0.629651,0.705729,0.974436,0.107278,-0.17598,0.0894218,-0.0282084,-0.098685,-0.726099,0.0261284,-0.118187,-0.711999,0.279973,-0.325593,0.198179,0.0816017,0.31251,-3.9917,0.0816017,0.287456,-3.9917,-0.502299,-0.379047,-0.669648,-0.624073,-0.33882,0.416302,-0.126054,1
0.990101,-0.942795,-1.953,-1.40871,2.63726,1.70393,-2.00044,0.990101,-0.942795,-1.953,-1.40871,2.63726,1.70393,-2.00044,1.02547,-0.921242,-1.88643,-1.34296,2.6895,1.66075,-2.01175,-0.0730781,-0.380395,-1.15728,-0.922285,-0.347496,0.36291,-0.811242,-0.0730781,-0.380395,-1.15728,-0.922285,-0.347496,0.36291,-0.811242,0.0219849,-0.631163,0.698368,0.975375,0.112098,-0.170674,0.0833551,-0.0211016,-0.119276,-0.743053,0.0185824,-0.152396,-0.738377,0.280872,-0.322133,0.15784,0.0899285,0.345981,-4.03385,0.0899285,0.291492,-4.03385,-0.353669,-0.215535,-0.665716,-0.657487,-0.522494,0.431877,0.113112,1
0.996655,-0.955749,-1.97648,-1.4254,2.62093,1.71706,-2.02761,0.996655,-0.955749,-1.97648,-1.4254,2.62093,1.71706,-2.02761,1.02505,-0.92654,-1.90384,-1.35693,2.68707,1.66918,-2.02383,-0.0234297,-0.335662,-1.17167,-0.971477,-0.172635,0.702101,-0.742765,-0.0234297,-0.335662,-1.17167,-0.971477,-0.172635,0.702101,-0.742765,0.0220878,-0.633046,0.687254,0.976241,0.119044,-0.165181,0.0741489,-0.0304394,-0.100875,-0.746667,-0.00259982,-0.132579,-0.746295,0.281597,-0.319146,0.117093,0.072521,0.298679,-4.07476,0.072521,0.297998,-4.07476,-0.283994,-0.29209,-0.72644,-0.684663,-0.661418,0.47884,-0.0377501,1
